P2
640 427
255
79 113 122 118 132 146 178 150 178 252 227 186 136 127 130 127 166 154 161 159 147 119 123 133 133 153 129 90 168 254 248 251 233 253 254 241 184 240 239 103 196 203 183 182 154 210 200 218 231 246 193 48 74 121 119 117 122 143 130 111 150 225 223 221 250 218 180 179 169 186 208 212 176 176 210 210 204 184 209 214 241 168 161 195 200 207 218 212 224 223 222 213 215 239 211 232 229 62 70 113 194 229 251 136 30 79 150 228 254 149 11 89 155 228 216 132 242 206 177 205 189 1 25 51 45 61 43 81 73 118 80 83 66 73 68 58 60 86 43 62 37 70 99 67 83 88 99 92 46 75 61 69 37 53 66 55 107 90 105 83 83 98 94 69 83 67 74 69 45 61 101 71 77 87 64 44 44 65 57 66 92 80 68 98 90 65 70 71 111 99 61 73 81 80 77 84 94 89 89 102 95 100 114 123 120 115 111 106 112 108 118 131 129 124 115 100 102 120 188 112 98 133 158 150 163 161 186 174 145 165 153 162 168 136 99 150 176 74 66 154 142 139 156 152 138 132 126 138 91 184 173 150 180 180 173 177 178 183 173 172 187 173 167 142 149 108 105 163 169 176 140 149 145 124 133 130 125 126 85 97 103 69 64 99 77 78 87 65 97 86 65 105 108 97 87 112 94 100 118 106 90 99 121 110 48 67 110 93 116 102 36 91 86 128 98 74 95 55 54 36 87 89 105 96 96 111 122 63 78 116 83 89 71 56 90 93 104 88 70 72 77 90 75 56 131 160 77 72 95 104 77 65 83 74 99 124 76 77 41 94 87 70 115 98 82 37 112 86 75 122 84 62 46 126 126 121 110 99 93 85 97 106 78 36 72 47 94 85 84 115 116 117 34 76 95 67 49 81 67 45 88 55 51 50 100 123 111 111 99 60 71 104 105 77 85 96 91 89 137 119 132 137 97 101 88 88 121 112 145 147 156 133 179 205 156 157 182 164 169 168 165 165 158 170 161 154 176 167 146 155 150 162 166 105 105 133 65 69 108 86 15 44 84 62 100 79 97 95 93 94 83 109 95 103 110 93 108 27 15 82 93 50 66 93 74 78 69 76 79 39 55 94 92 92 109 113 110 89 109 84 117 117 89 81 102 92 52 6 4 82 92 102 74 65 100 73 113 24 105 121 87 55 89 113 80 41 77 68 37 49 70 68 77 78 58 154 55 24 86 67 60 63 69 60 69 81 62 59 52 69 90 94 47 62 74 38 69 71 63 84 54 60 63 65 77 56 61 83 93 61 108 114 55 55 45 31 90 52 44 33 42 45 68 54 67 75 72 68 
61 61 56 57 47 37 76 41 60 67 39 51 91 62 21 51 59 50 67 76 47 25 47 57 63 65 66 66 48 52 55 55 71 81 65 69 77 17 9 9 31 31 25 41 47 54 26 35 51 42 142 145 
88 81 87 106 128 140 126 152 175 199 204 242 243 201 145 93 124 149 148 153 159 126 133 103 129 122 135 243 248 251 249 254 245 253 254 254 232 228 246 187 169 170 172 199 180 182 197 209 225 247 169 42 76 121 106 77 123 141 139 125 121 213 232 216 245 222 161 147 148 151 160 179 193 202 212 182 167 176 207 203 152 243 224 178 201 213 207 217 220 224 229 224 224 243 208 224 226 62 82 112 186 235 254 131 28 82 146 217 247 165 10 55 156 225 232 45 69 251 210 194 184 8 14 44 59 66 53 78 105 87 68 56 42 50 26 52 123 77 67 125 117 112 69 78 109 101 120 67 56 72 75 65 71 84 114 76 77 101 107 74 80 103 86 93 91 59 68 51 45 66 72 91 92 86 67 51 85 74 86 73 55 69 93 86 93 79 58 77 84 91 103 88 71 81 82 82 91 93 92 93 96 97 104 113 117 123 117 102 113 117 147 151 137 130 124 128 92 101 250 55 85 132 140 171 168 163 160 173 141 165 163 146 139 139 125 125 120 117 28 113 153 164 137 157 137 178 156 141 33 137 149 161 177 172 172 187 185 176 173 179 178 173 134 138 127 121 124 161 178 186 151 154 148 139 136 141 140 113 75 126 94 69 84 74 77 85 79 92 85 94 107 126 117 100 91 102 130 75 131 93 95 103 110 98 88 75 96 74 89 130 75 88 100 100 117 96 102 112 69 52 94 115 118 91 72 115 109 67 91 105 74 71 60 70 89 39 44 53 58 44 76 90 82 63 81 87 57 71 87 96 80 95 86 77 79 81 79 89 84 81 52 81 138 85 111 61 41 69 118 119 77 121 94 19 70 64 61 79 113 68 55 117 99 62 103 91 82 111 124 106 115 70 61 95 100 111 81 93 102 77 72 66 48 117 107 99 105 93 103 119 110 95 100 82 90 108 120 112 97 108 145 122 83 116 92 116 150 138 146 147 151 132 199 245 191 174 181 169 186 160 172 176 170 170 173 170 164 154 148 147 161 157 163 101 83 95 87 61 84 62 40 100 86 82 91 98 101 87 86 110 93 148 99 100 86 133 117 23 87 117 89 55 94 65 62 80 72 72 66 75 62 130 115 63 93 119 83 116 86 91 100 96 140 86 84 135 68 46 110 115 116 102 95 48 93 75 91 67 90 83 90 86 110 111 55 50 72 71 82 124 118 58 81 43 71 53 20 65 84 59 84 64 71 62 78 86 68 70 74 62 48 70 89 54 60 73 66 78 94 58 95 56 44 81 65 93 90 61 60 65 73 123 51 59 43 23 67 39 43 65 110 70 58 69 
102 83 35 50 50 57 47 60 62 45 40 62 78 54 46 80 61 65 59 53 49 51 57 43 61 57 44 71 71 72 98 71 73 18 75 90 75 58 14 58 39 24 6 23 37 62 56 17 47 77 63 39 34 149 147 162 
94 85 82 88 136 131 128 120 167 173 171 172 213 249 247 214 167 123 93 110 159 133 127 139 81 152 246 83 183 233 238 248 254 255 253 245 243 234 254 100 118 193 168 148 166 203 225 201 198 217 224 45 15 118 142 131 124 107 93 121 115 213 231 219 250 221 167 178 199 196 177 168 180 181 189 183 173 185 211 222 134 144 198 208 190 205 215 219 220 223 226 221 222 245 213 232 253 50 68 105 187 227 249 138 24 92 142 215 254 145 1 119 152 224 245 99 2 91 202 201 191 9 11 48 66 67 70 70 100 69 62 77 51 48 42 45 39 66 152 101 115 95 47 109 68 62 84 91 92 97 112 97 119 104 114 105 88 91 90 100 98 93 89 84 61 51 53 65 61 72 82 67 75 78 119 91 63 97 91 50 76 95 94 88 114 69 50 96 86 93 89 103 77 84 86 87 93 96 94 93 97 96 97 97 102 114 115 103 106 115 140 156 144 133 141 146 105 65 190 69 55 149 145 154 163 142 141 168 189 137 123 164 168 145 166 167 144 122 80 131 137 134 126 155 153 147 150 148 38 107 164 137 174 172 155 148 158 180 183 169 165 174 139 132 145 118 124 126 145 144 140 127 114 119 129 138 125 110 95 119 78 57 97 82 103 93 81 97 98 92 72 104 126 74 83 129 85 89 138 99 102 95 125 69 83 86 75 92 75 109 122 105 76 81 92 119 107 97 68 61 90 97 133 109 54 119 119 38 71 94 72 75 61 69 60 51 60 51 23 73 49 101 55 61 42 68 119 108 151 100 78 107 66 77 75 102 74 76 95 74 80 93 79 68 96 120 63 83 107 114 14 86 45 51 58 81 43 72 128 106 82 81 87 126 123 73 96 111 98 55 100 118 138 89 99 105 96 105 87 88 94 73 71 125 91 105 89 96 114 128 97 102 126 85 81 91 104 54 108 102 117 126 124 141 126 148 150 136 132 145 156 146 122 144 172 169 178 182 160 166 175 171 164 156 165 166 151 155 154 151 147 163 159 96 99 69 72 94 73 93 95 83 83 76 100 106 65 101 88 67 96 110 109 79 97 111 117 87 81 102 59 47 49 57 58 70 72 72 100 76 39 78 74 94 107 53 112 104 77 92 84 116 131 114 54 122 96 89 96 76 121 100 82 38 112 79 36 24 44 102 67 94 101 85 98 87 79 90 124 139 145 77 71 50 50 38 41 41 55 61 66 41 59 74 73 57 70 75 64 77 75 81 78 108 84 67 60 70 77 59 89 70 52 67 68 61 69 86 82 84 73 94 58 46 51 41 80 86 60 95 100 34 72 42 32 31 
51 104 56 53 71 58 46 69 25 63 57 69 40 52 38 16 64 50 57 71 43 51 73 66 31 56 40 36 72 46 67 63 24 34 61 41 30 39 19 20 29 28 34 59 22 27 29 43 65 22 74 228 148 154 
79 85 93 112 158 140 115 83 144 190 204 173 147 176 228 247 225 213 181 111 108 133 130 142 166 244 141 6 84 232 76 152 239 226 201 218 244 243 232 81 85 207 231 228 214 225 232 225 232 197 212 186 29 16 97 92 123 137 118 128 104 216 229 221 245 212 175 192 186 181 188 176 176 170 179 205 198 197 202 220 137 142 153 199 214 200 214 215 222 223 223 215 217 243 215 237 222 67 115 80 189 221 254 137 10 98 152 203 254 154 1 74 182 216 254 93 8 48 135 217 184 4 7 49 81 78 86 90 86 77 62 45 71 42 74 76 103 105 100 79 50 57 81 106 72 71 57 104 96 96 113 90 70 102 80 83 106 102 89 92 101 87 104 88 56 59 64 93 109 82 96 109 76 76 76 49 58 100 67 22 62 68 66 45 69 70 51 64 65 99 90 101 90 85 86 94 99 96 98 108 96 100 105 102 97 100 104 101 104 107 108 140 142 129 145 135 96 56 122 91 70 121 138 146 155 115 147 143 150 131 123 142 164 163 161 181 139 134 144 135 139 116 142 155 162 99 124 146 107 141 155 125 170 171 187 159 162 180 169 155 157 131 136 136 130 124 128 144 69 100 108 103 79 106 130 143 129 126 107 81 92 53 86 98 112 87 92 91 98 86 75 111 95 72 112 79 65 139 82 69 130 107 116 96 67 104 67 94 96 68 77 95 118 114 45 65 71 60 69 70 56 31 54 75 62 54 74 88 91 84 55 74 80 102 39 47 56 50 89 102 78 97 88 56 56 84 117 96 144 157 127 122 124 118 53 69 70 70 67 52 77 96 112 48 79 52 56 83 148 142 49 37 57 116 89 82 118 107 124 106 65 71 47 132 98 92 120 87 110 125 90 119 100 40 33 53 116 98 63 103 91 60 98 108 93 120 84 105 91 110 139 93 109 122 86 114 121 83 87 105 127 100 95 122 134 147 143 140 138 142 148 143 164 154 164 175 172 162 164 184 174 166 162 162 162 161 164 174 189 170 150 160 93 61 102 86 116 80 96 121 87 90 106 96 84 111 105 82 116 57 102 102 118 92 134 100 42 72 101 55 26 57 43 54 54 64 59 34 24 16 76 95 63 93 103 100 97 88 64 97 110 90 105 81 62 114 105 84 42 61 82 94 104 79 126 82 91 90 77 80 118 76 84 103 87 76 83 48 74 118 77 79 71 64 90 65 34 51 44 53 67 63 64 81 68 77 68 39 82 142 107 85 71 99 93 54 36 63 71 56 68 83 73 57 86 67 69 69 65 74 86 89 130 82 61 76 75 72 57 60 43 41 84 44 42 44 23 
83 61 69 69 70 53 62 42 77 80 72 29 42 56 37 43 69 68 41 45 44 66 41 42 61 48 47 75 78 47 29 4 5 7 12 35 49 27 50 68 48 25 47 86 73 32 46 73 15 102 214 148 169 
90 81 103 151 159 169 74 66 144 166 174 157 177 111 9 170 254 228 219 220 188 151 114 122 231 166 145 32 98 213 210 245 250 245 223 159 129 169 205 124 109 139 194 214 200 224 236 218 241 225 193 191 214 134 156 148 162 149 128 135 101 213 225 223 243 217 178 193 184 187 218 223 197 190 180 196 203 219 208 199 149 156 190 190 192 213 211 217 222 224 228 224 223 244 208 225 248 9 62 163 184 225 250 146 8 72 158 209 251 160 1 8 159 226 254 106 2 59 162 225 183 9 11 49 90 83 82 106 95 62 70 101 107 102 121 117 132 106 91 112 78 78 73 104 100 65 59 110 75 18 39 81 63 113 83 62 106 114 98 92 93 91 89 84 63 60 95 97 108 90 91 97 69 73 75 67 96 90 31 45 119 77 47 13 34 57 41 67 68 65 82 79 94 87 89 98 101 100 104 111 99 102 114 118 109 97 97 96 111 103 111 132 134 127 127 120 118 72 115 124 68 123 146 148 166 137 141 132 106 146 131 125 150 160 152 152 140 155 149 142 152 141 157 156 155 146 147 155 129 125 149 152 153 175 142 162 185 185 159 137 136 116 128 130 141 122 131 118 81 101 130 98 119 149 136 130 137 144 130 118 96 61 86 101 107 92 89 86 90 92 85 85 59 89 142 117 81 108 73 91 135 105 85 108 104 82 88 104 100 92 80 69 110 117 87 64 67 66 49 38 64 99 90 74 69 72 98 103 104 101 116 94 70 100 53 52 51 65 95 130 88 100 63 40 74 54 68 29 55 105 126 70 71 117 91 70 97 67 53 69 89 79 82 70 76 118 68 52 140 88 64 71 131 90 94 64 100 63 29 89 55 101 59 84 72 87 99 111 97 110 41 45 47 72 96 49 105 129 33 38 97 94 119 98 67 87 89 66 82 65 122 130 85 96 131 99 102 115 87 137 125 126 85 132 137 141 141 142 143 131 132 142 145 141 164 175 174 177 169 170 164 163 165 177 164 164 182 163 117 114 182 210 90 79 65 65 105 86 96 103 62 85 77 102 87 125 53 42 114 55 55 89 104 92 58 97 137 101 105 105 80 71 58 27 57 79 78 69 65 59 78 82 120 113 82 109 73 137 85 136 104 97 101 96 133 122 93 64 32 98 74 59 79 56 52 50 95 105 111 78 107 92 34 69 74 83 79 104 88 107 41 68 100 74 119 99 64 87 51 81 65 62 83 72 66 50 57 51 70 96 79 73 78 58 86 56 38 53 52 68 80 59 59 76 68 73 90 51 87 77 80 66 58 92 89 26 72 79 70 67 46 58 67 48 62 38 
32 40 89 37 62 54 54 45 61 66 89 34 31 40 44 57 50 65 52 42 50 36 41 22 56 69 69 52 60 57 33 20 37 37 26 25 21 40 36 41 17 21 50 64 57 32 40 66 64 22 110 218 152 171 
115 125 123 149 134 100 34 121 188 201 101 114 185 155 39 1 40 254 239 207 222 211 207 150 98 143 208 9 83 251 252 249 254 254 250 251 111 75 183 236 206 145 206 214 225 220 220 222 235 221 215 215 227 248 123 200 202 106 85 114 96 212 230 223 239 228 168 173 177 165 177 183 181 206 213 206 189 202 214 228 141 168 171 188 203 199 215 222 221 224 228 227 228 248 209 222 254 2 8 94 212 226 250 150 16 57 151 225 254 148 2 32 154 240 242 112 14 62 154 233 192 0 12 60 74 78 93 97 115 65 46 132 123 106 111 90 72 110 89 95 99 84 81 93 90 43 86 110 36 73 118 112 83 91 96 75 95 99 88 97 94 85 80 71 64 69 89 80 96 123 112 99 114 98 98 76 75 97 76 73 81 78 116 75 48 44 47 67 74 85 98 80 99 98 102 100 97 102 103 97 109 102 106 113 108 100 100 101 109 99 137 138 127 130 113 128 133 82 78 145 46 126 145 138 161 149 142 152 136 125 114 115 131 121 133 146 140 129 135 151 148 152 163 153 157 187 171 154 151 148 133 147 137 144 146 156 148 143 131 113 110 133 112 107 141 136 125 125 105 110 130 139 139 159 152 142 129 126 97 63 75 67 97 90 98 111 85 98 76 82 92 82 82 86 65 97 119 115 125 113 116 109 105 106 117 85 111 118 91 116 139 89 98 105 123 99 83 75 66 61 63 86 61 99 90 82 79 81 89 93 112 68 77 83 59 56 102 92 65 82 101 91 82 123 91 46 69 42 60 37 62 29 85 104 101 88 71 68 62 84 51 64 65 87 136 95 76 149 70 32 53 113 72 100 133 55 97 31 74 129 39 64 89 92 79 72 47 54 125 132 69 64 65 72 62 84 63 64 68 50 102 77 79 85 58 77 106 83 101 99 110 99 108 118 115 97 81 99 95 109 77 125 104 145 157 145 135 130 137 136 129 144 148 134 166 163 163 182 165 171 159 166 166 172 156 166 186 139 59 64 136 193 113 115 76 49 40 82 75 121 65 77 91 72 71 66 48 130 121 75 99 91 141 139 96 88 111 82 87 85 125 122 100 77 72 56 43 47 68 133 105 85 113 70 82 100 106 110 101 66 119 103 102 80 89 91 88 75 81 136 110 68 69 39 22 64 74 86 98 81 120 95 39 37 49 70 85 91 77 62 67 79 106 91 63 79 93 77 52 83 62 34 38 76 75 65 74 63 37 21 44 72 46 36 58 48 78 85 63 120 54 62 64 63 60 53 81 62 71 98 63 59 78 114 99 45 70 77 79 94 78 90 80 45 44 48 34 61 
59 62 69 66 66 74 79 66 52 25 50 39 32 44 66 53 54 87 51 46 78 65 67 52 58 46 80 67 77 84 44 29 31 33 52 42 38 22 32 55 22 29 17 31 50 52 48 17 125 230 150 165 
96 115 157 153 115 141 115 50 96 113 59 94 136 127 104 64 5 45 163 213 228 222 202 210 142 133 146 99 214 252 247 252 243 253 247 254 254 117 175 203 29 67 208 191 200 207 202 212 232 225 218 213 216 250 63 68 154 91 115 109 92 217 236 218 234 233 180 184 183 169 185 192 194 198 196 200 207 216 212 213 150 159 177 182 199 215 210 214 221 221 225 222 227 250 212 225 254 8 1 48 187 216 255 161 14 73 150 225 254 169 0 11 165 243 253 113 1 53 167 226 187 9 3 60 76 89 112 103 106 76 11 47 118 89 114 114 83 92 117 106 54 79 75 75 79 94 96 102 117 107 60 65 32 48 86 81 78 86 78 66 87 80 85 86 77 87 75 69 92 97 72 99 104 110 74 60 92 93 44 28 39 30 75 127 124 55 52 73 82 80 68 98 104 100 102 100 92 96 99 91 109 100 98 101 101 103 107 107 106 105 137 142 132 134 129 139 132 125 101 139 107 124 152 172 129 119 155 146 131 108 117 81 120 137 133 157 133 143 151 154 150 149 161 153 159 155 151 135 129 121 132 125 130 141 132 132 141 117 121 139 136 143 127 135 137 128 121 117 145 129 138 129 149 129 130 143 131 137 122 93 67 63 83 71 75 101 100 108 84 74 108 101 104 116 98 81 133 133 105 54 79 93 102 100 98 120 105 104 90 95 115 106 91 81 71 85 94 62 55 45 91 101 51 104 131 87 39 75 87 102 86 72 106 82 79 90 71 106 83 92 111 65 58 117 117 92 72 104 87 84 49 68 98 85 85 99 47 89 90 93 63 82 102 90 111 93 129 123 70 75 85 125 91 78 76 91 110 77 100 35 47 86 61 120 131 46 46 62 129 100 86 91 49 45 73 106 68 74 108 78 71 95 92 55 63 122 114 66 112 104 73 95 116 73 90 118 132 91 79 105 72 98 168 146 139 143 142 138 144 167 130 134 147 152 147 175 172 155 178 169 164 168 170 167 155 168 180 150 118 104 83 78 57 63 81 61 83 100 110 100 96 94 65 77 104 81 97 83 135 120 109 92 101 102 106 110 96 62 97 72 92 95 41 48 79 114 99 63 111 91 27 49 104 107 136 104 88 104 94 65 105 73 102 78 91 138 97 50 85 101 95 109 103 120 130 128 88 119 82 74 117 86 81 23 51 65 74 33 62 82 79 64 58 90 96 93 77 32 69 73 47 46 47 63 59 62 65 54 37 58 110 78 74 54 45 58 78 93 81 84 40 85 69 49 83 73 75 53 77 65 55 84 107 77 69 87 88 57 80 60 68 95 46 29 
54 65 32 56 93 95 63 68 84 59 66 75 33 32 41 40 61 65 64 66 79 74 43 33 52 70 76 76 87 72 107 97 80 58 73 61 13 17 45 31 19 58 30 43 14 22 53 71 66 52 63 15 122 209 154 184 
104 124 146 136 129 171 124 166 187 113 48 26 12 22 65 80 82 7 1 42 135 184 234 215 204 229 254 235 246 249 253 228 216 254 250 254 251 248 200 205 166 145 245 236 225 239 225 230 228 206 207 206 192 248 125 49 76 66 140 134 128 221 222 224 239 217 173 197 196 190 194 158 168 187 198 196 200 207 211 214 139 154 176 192 192 199 216 219 221 221 225 223 229 250 207 216 251 19 1 52 200 221 252 150 15 75 156 240 245 182 10 5 145 238 249 101 6 102 160 223 191 68 5 46 105 100 93 109 102 67 25 65 57 115 92 68 123 95 107 73 73 89 120 75 76 116 105 70 117 37 55 97 46 68 82 92 80 72 81 68 76 89 60 84 69 71 89 82 93 91 127 106 79 96 80 58 64 80 61 32 32 46 35 19 54 57 48 69 92 91 83 111 101 86 86 93 87 88 96 100 97 97 104 106 104 107 109 106 114 123 116 141 141 133 155 138 137 124 135 132 133 140 164 163 124 122 136 108 121 126 98 99 136 143 145 118 168 153 145 148 149 148 142 157 152 139 147 144 121 123 115 139 125 130 125 136 144 136 134 134 130 122 146 132 115 141 126 116 110 152 165 135 178 121 98 135 149 128 102 124 58 47 64 79 71 78 107 75 81 81 88 79 96 99 112 75 117 71 112 119 88 84 89 85 114 86 91 111 78 91 92 94 107 108 71 73 96 63 32 39 84 94 87 111 124 97 62 66 92 107 65 89 89 66 85 78 62 80 51 100 103 44 46 136 108 117 92 96 33 77 42 59 97 105 93 70 57 103 92 69 86 48 80 85 34 76 100 98 23 60 131 145 82 38 78 52 81 110 74 75 80 94 93 85 83 62 55 68 80 74 88 82 23 74 94 67 87 72 107 99 64 96 78 62 114 107 90 103 76 79 94 109 127 98 86 112 112 142 117 94 97 101 85 97 108 141 154 148 140 183 135 141 135 141 148 162 158 151 166 168 156 156 168 168 160 162 163 167 171 192 198 127 106 75 83 86 83 42 131 73 85 73 73 131 86 92 90 90 114 119 90 69 105 97 127 112 116 84 85 91 113 93 80 54 81 106 98 99 117 90 87 90 89 107 116 97 92 105 67 60 81 84 118 80 104 127 90 56 76 92 87 81 135 120 105 51 36 99 35 69 78 103 108 25 89 104 60 46 63 83 74 67 56 61 101 70 84 70 76 47 75 60 66 83 37 62 24 41 90 45 41 57 63 65 40 74 58 66 93 85 101 61 24 80 62 62 71 67 56 68 92 88 79 73 48 82 61 77 77 40 57 31 19 68 69 34 36 59 56 25 51 
103 92 26 77 70 61 71 65 52 54 44 59 51 69 52 18 37 52 74 86 88 85 70 99 119 73 80 104 72 21 28 49 52 16 24 35 51 38 45 63 77 48 49 55 21 128 228 174 180 
127 152 155 98 175 95 4 64 198 232 240 249 237 144 37 8 66 89 49 7 40 49 111 183 217 169 209 200 225 251 247 250 235 247 254 250 254 236 247 76 7 21 236 224 193 217 214 230 218 216 210 206 226 249 145 38 137 149 112 122 144 207 232 220 247 246 189 194 197 192 205 197 201 178 186 194 200 204 211 227 220 167 160 196 207 202 210 216 229 227 244 216 232 250 206 219 241 10 1 49 200 230 241 164 13 72 155 220 254 172 0 99 151 226 251 112 1 110 167 214 195 156 93 41 81 72 112 120 89 68 23 29 43 61 70 33 107 95 55 55 147 94 91 85 105 37 65 87 94 95 104 74 57 85 83 77 101 83 69 69 83 70 56 58 57 77 66 81 92 93 121 129 88 83 91 43 56 64 107 67 82 123 64 54 41 40 68 76 91 87 84 97 87 92 84 79 91 77 88 94 104 105 101 110 102 107 110 109 129 112 102 138 158 125 135 133 130 124 129 126 130 142 130 116 119 110 126 119 99 117 126 106 124 126 153 91 113 154 143 146 149 151 151 165 158 149 159 134 138 130 124 126 134 141 124 136 130 111 140 130 120 125 141 153 144 121 118 152 132 143 165 132 160 170 151 139 115 109 124 89 43 70 62 72 65 75 92 75 100 91 78 99 125 126 50 106 108 109 118 112 112 90 83 96 116 84 90 106 104 114 122 110 109 109 92 82 77 68 60 66 106 97 81 115 117 91 121 106 81 57 65 78 60 73 68 109 102 36 69 109 95 67 55 101 64 39 31 84 71 87 81 58 97 105 86 76 57 56 84 80 104 86 91 66 105 76 111 93 57 100 85 70 87 106 124 77 58 49 82 110 114 78 44 85 47 65 81 69 81 87 110 86 67 91 97 13 79 89 76 78 154 141 107 118 125 101 117 114 74 90 103 130 81 114 129 102 111 88 119 117 90 105 81 71 112 145 121 172 226 164 149 142 142 135 153 162 156 166 156 171 162 171 162 154 169 148 155 118 97 81 103 76 37 63 84 72 96 108 96 55 58 24 27 132 77 69 122 87 102 117 83 139 104 101 102 105 141 64 77 100 73 84 100 104 122 95 75 106 61 91 132 107 96 91 71 115 104 43 94 106 83 94 105 84 87 73 71 113 86 58 90 60 56 79 164 104 70 115 88 71 75 96 59 76 83 56 92 101 96 76 78 74 71 53 95 87 72 91 54 26 64 70 65 57 73 70 44 53 52 44 67 45 24 87 58 62 59 56 77 100 79 46 54 75 80 77 90 59 48 75 75 53 61 96 103 84 85 82 76 88 74 44 74 130 31 11 
34 59 51 41 60 66 62 56 79 66 37 39 28 63 83 74 79 68 91 36 56 65 70 73 86 89 72 83 87 110 88 88 97 92 35 46 82 42 38 46 28 57 66 53 74 61 51 49 62 17 137 227 167 185 
139 216 196 187 203 75 22 51 94 73 71 79 81 122 224 156 41 26 57 1 1 21 60 82 98 179 224 201 211 249 255 248 254 254 245 254 254 217 238 186 63 58 169 198 218 208 216 215 229 213 206 227 221 249 155 18 131 133 85 126 137 213 227 222 231 239 190 194 232 205 209 214 212 201 195 204 203 194 200 211 201 238 213 174 193 214 216 229 227 169 203 234 224 253 221 213 254 93 2 31 183 228 255 148 7 105 162 225 255 173 0 65 166 219 253 103 8 65 172 222 176 114 188 52 28 51 105 104 74 70 36 23 18 48 107 75 86 106 74 51 47 74 85 86 98 82 80 74 80 69 98 57 61 54 84 107 83 72 91 79 70 70 65 83 58 109 94 64 103 101 121 126 110 98 115 85 61 58 83 68 59 125 83 60 62 81 84 96 84 88 90 96 91 97 95 86 99 99 94 95 102 101 104 114 109 109 116 120 122 121 133 122 123 118 143 113 117 120 125 136 132 127 110 104 111 122 107 115 124 95 102 94 119 110 103 109 107 144 133 139 155 162 148 144 162 166 147 133 122 133 127 118 117 130 119 119 129 113 120 121 148 144 120 123 132 121 124 122 176 153 155 119 143 157 142 148 132 113 131 105 112 81 66 70 68 96 96 108 93 82 85 101 90 102 77 99 127 90 90 99 106 108 119 110 93 105 98 120 96 86 109 111 86 57 70 70 65 70 80 72 100 93 106 84 109 91 84 129 113 85 89 83 80 83 23 63 88 54 66 118 68 55 101 113 11 19 81 132 72 99 145 79 71 84 123 98 63 51 28 86 80 115 70 131 120 82 71 86 67 108 70 55 89 76 90 98 106 96 120 95 111 125 107 67 58 102 47 76 65 64 65 59 73 113 98 58 107 70 58 47 96 54 49 104 118 90 111 81 111 74 122 115 98 139 103 101 62 59 138 130 125 89 93 83 102 118 144 165 131 129 173 132 150 133 150 162 143 158 164 161 166 168 168 159 167 155 153 133 118 127 97 127 128 67 65 86 72 61 70 87 45 25 77 115 98 30 122 115 81 132 95 79 84 120 89 87 65 51 59 87 62 100 90 90 71 66 77 68 110 113 104 93 97 109 144 90 130 103 94 94 55 95 133 113 90 123 78 63 79 44 90 83 47 54 69 127 151 72 79 71 69 77 66 85 80 142 87 84 74 67 71 96 62 55 80 89 41 62 75 33 46 48 73 16 81 112 100 91 57 47 59 37 73 47 46 69 73 69 62 81 84 82 116 69 41 73 57 81 70 66 58 84 63 70 65 68 84 94 77 78 81 107 123 85 39 29 41 60 54 
74 52 33 39 57 104 87 29 37 39 43 41 55 53 34 43 32 57 57 12 89 103 80 78 85 81 110 119 99 89 87 38 45 34 12 77 71 49 57 77 77 67 72 55 53 64 18 141 229 170 188 
176 131 67 53 29 14 54 90 120 75 96 59 93 26 56 231 243 167 16 0 5 21 2 3 134 213 190 203 184 234 250 252 250 254 251 254 251 230 229 224 159 82 182 170 194 192 197 216 206 239 215 206 219 243 150 22 91 109 176 134 136 211 226 230 233 202 193 190 111 188 174 188 207 223 211 228 230 215 220 228 118 166 195 197 199 200 208 225 149 81 159 200 224 249 210 225 253 73 72 76 190 214 250 184 1 49 182 214 251 177 12 6 138 229 248 120 2 73 195 236 176 6 106 67 54 100 73 55 89 80 49 30 1 7 108 105 79 102 76 90 26 97 119 89 111 102 101 78 97 64 46 54 81 68 51 73 89 82 70 69 68 87 63 84 82 108 78 72 76 110 95 85 102 106 127 49 65 103 90 101 84 106 94 88 66 73 95 100 109 96 105 99 100 99 92 83 91 102 89 96 103 101 109 113 113 112 120 124 124 127 131 109 111 118 141 130 105 109 101 112 108 95 87 99 107 122 117 109 117 110 98 115 95 120 107 121 127 128 136 136 125 149 132 128 131 137 147 124 116 130 122 124 118 125 111 94 122 118 131 119 125 148 147 136 107 131 130 115 140 125 109 107 125 150 134 131 120 113 133 109 81 86 66 62 88 128 95 103 109 89 105 101 95 99 69 110 134 119 127 122 122 132 129 79 106 104 65 89 92 97 91 84 120 76 75 80 64 86 101 59 100 110 105 90 76 86 147 81 72 93 87 76 71 76 56 77 77 83 53 80 85 52 66 55 47 49 64 107 68 63 103 104 94 117 84 119 66 15 20 92 91 82 81 117 74 88 64 29 62 73 75 93 82 100 115 78 67 96 70 133 86 75 61 71 89 107 84 67 108 69 58 71 90 75 84 110 74 89 78 52 35 57 42 102 99 98 122 92 90 86 135 125 106 114 127 121 97 94 102 87 109 100 104 119 129 154 156 139 124 132 145 153 145 154 147 157 157 155 148 150 158 154 160 152 147 144 133 133 139 135 129 170 147 37 70 55 54 50 74 88 60 89 115 95 106 63 116 113 121 64 35 60 115 143 82 67 72 107 65 65 45 40 108 70 41 62 64 47 87 91 65 58 142 87 100 83 87 73 67 111 67 90 100 80 71 141 52 8 59 83 61 101 121 87 75 62 163 74 68 90 51 68 62 21 29 83 33 120 81 72 82 77 84 78 82 43 57 67 55 94 125 98 74 68 64 45 55 63 63 82 59 68 58 55 77 71 87 65 90 108 98 101 94 58 56 58 42 73 66 80 44 69 89 102 66 56 59 102 87 40 54 80 94 84 65 34 49 68 75 32 32 
41 35 18 32 49 32 42 37 29 75 80 44 28 50 76 73 36 17 94 94 71 76 92 91 83 86 94 19 37 40 37 46 76 102 85 86 60 100 106 65 69 59 57 64 21 147 229 173 190 
37 15 27 38 46 59 35 82 58 76 58 111 95 44 45 43 132 217 233 160 22 1 2 43 249 235 193 197 225 120 198 254 255 248 255 244 216 242 248 207 99 184 182 167 215 191 200 203 225 230 201 184 215 250 162 25 123 136 99 115 108 197 233 221 231 212 235 217 4 196 124 5 68 128 117 149 169 175 197 207 135 108 133 179 185 187 209 221 142 58 99 120 105 255 217 212 248 67 6 103 206 216 254 167 3 14 139 219 255 191 1 31 160 235 253 115 4 80 169 235 189 8 1 91 96 88 69 53 68 63 42 53 47 17 111 107 92 124 81 88 92 66 95 76 79 106 80 74 85 65 83 90 116 104 10 6 70 97 69 89 114 90 63 85 83 67 72 91 105 112 92 88 85 76 106 79 78 88 90 88 92 94 73 104 99 64 80 76 103 89 95 95 93 93 86 89 84 88 77 88 95 95 103 99 100 106 112 111 111 111 116 119 92 88 101 91 104 111 107 113 119 95 89 97 101 110 120 110 89 109 94 116 117 104 97 101 91 102 146 106 112 126 105 118 130 119 101 90 106 115 105 119 98 94 100 104 106 106 118 101 78 102 115 105 105 125 129 132 103 115 102 112 102 119 114 106 100 107 124 115 86 55 64 119 96 100 103 93 91 81 82 127 109 94 130 92 105 98 105 112 115 105 115 110 53 73 72 70 70 85 76 110 84 100 68 75 75 77 94 105 86 86 76 81 83 83 114 73 63 93 102 113 92 89 94 85 85 90 76 92 88 83 71 50 64 57 25 53 56 59 63 100 63 65 94 105 107 72 78 63 90 78 89 57 65 67 74 89 67 80 100 53 81 89 116 108 119 44 59 83 120 112 97 74 123 147 140 58 53 88 81 84 72 91 94 63 106 128 91 65 72 141 134 101 83 97 84 97 108 105 106 96 130 112 119 158 75 54 85 93 98 72 112 125 132 80 134 176 126 130 133 117 139 159 133 149 164 148 136 145 160 158 157 155 140 138 128 137 161 107 126 214 74 69 50 58 120 113 54 55 67 82 104 45 60 117 67 91 99 101 46 117 101 135 91 88 123 69 48 88 98 54 41 51 70 115 64 73 104 71 88 90 63 56 128 79 125 102 106 98 108 89 88 72 85 67 32 40 20 62 54 30 67 109 142 61 55 90 57 51 64 55 57 32 38 60 59 120 55 73 77 64 75 93 73 42 139 81 62 82 90 59 79 69 69 45 17 54 73 61 73 71 77 19 51 33 50 72 60 76 78 97 81 61 84 63 82 72 71 87 54 53 79 77 57 47 47 56 85 69 27 74 87 82 27 46 58 40 65 38 64 34 29 51 52 53 44 43 36 36 90 
81 26 32 67 67 62 79 31 97 104 93 76 69 89 88 107 99 61 89 42 30 71 86 107 89 93 7 54 100 89 70 59 59 65 23 155 230 171 187 
42 53 53 44 48 44 26 79 80 101 96 107 79 42 103 89 122 19 69 192 246 189 40 184 207 202 199 193 174 133 94 195 239 253 254 246 254 248 211 191 50 119 154 200 193 216 210 213 218 219 193 203 237 251 132 44 110 155 220 132 121 200 222 233 228 231 243 238 5 216 176 2 52 137 94 90 93 106 129 138 144 164 182 190 195 197 207 222 202 149 168 185 147 251 212 222 252 71 26 41 179 220 248 180 1 31 138 241 252 174 1 23 165 241 248 131 1 69 181 228 209 23 1 54 101 98 66 47 66 64 24 35 57 19 92 76 80 101 75 105 85 53 96 97 91 61 44 82 70 83 118 88 46 49 19 21 43 67 57 47 91 86 48 57 80 73 82 116 136 103 108 130 107 96 92 106 125 118 102 114 97 73 63 54 80 55 33 53 69 78 82 85 86 89 85 85 70 79 84 86 87 89 95 81 80 98 98 92 102 125 82 73 103 83 80 109 109 108 96 77 97 87 97 103 86 92 93 104 96 89 99 109 99 107 80 94 124 128 107 101 106 100 109 114 92 105 107 106 114 107 96 128 112 112 112 107 122 111 105 122 118 115 95 100 103 86 97 103 105 115 114 97 97 83 94 99 90 88 91 105 85 66 79 118 74 70 79 60 99 108 83 80 74 116 183 124 102 98 103 101 96 95 122 116 18 48 66 58 79 96 85 109 84 65 72 86 83 82 108 112 81 78 80 66 105 102 112 119 89 61 76 96 92 92 75 81 67 85 73 66 73 104 94 88 76 51 41 50 40 49 62 91 93 65 87 105 88 115 87 75 87 111 58 65 97 82 96 84 29 60 79 68 59 73 54 108 108 93 79 59 101 114 100 112 122 130 136 80 15 73 91 87 78 70 95 108 106 71 86 85 51 128 102 105 66 91 87 95 89 116 118 107 105 69 76 74 51 69 82 93 94 90 97 96 114 58 136 194 138 134 144 163 171 165 141 168 173 164 172 171 162 167 156 161 145 144 143 149 162 76 65 130 107 69 94 95 56 64 82 61 66 89 120 97 36 71 101 77 68 93 108 131 92 26 90 97 68 76 107 127 74 14 34 81 79 97 99 120 121 134 83 126 109 114 117 76 94 141 115 89 90 90 87 95 135 148 83 31 20 47 119 61 66 123 59 66 59 33 23 37 42 93 95 76 30 65 89 112 77 62 57 51 100 94 68 65 85 45 58 75 45 11 35 38 60 65 49 56 68 62 87 79 68 11 19 9 89 61 70 80 92 43 49 60 79 61 60 55 57 70 79 76 79 95 92 39 22 101 85 99 75 103 43 73 81 64 48 43 64 51 51 44 70 66 37 38 43 44 37 37 32 29 49 56 30 54 80 
17 23 111 123 91 35 1 48 112 92 74 106 102 38 36 54 89 127 73 99 91 107 101 90 93 59 61 66 27 165 230 170 185 
40 37 37 28 30 38 36 74 115 74 106 85 67 33 76 75 49 96 35 55 18 126 217 202 204 217 196 186 162 166 195 189 195 166 190 219 222 214 216 176 136 165 174 209 210 177 183 205 205 238 192 196 210 234 104 79 117 58 134 217 151 202 227 228 223 217 241 248 5 206 167 8 51 188 172 180 188 199 196 193 210 225 216 212 239 249 241 243 254 224 211 225 248 235 212 219 252 80 19 61 161 229 246 181 8 14 132 225 253 200 14 8 101 218 253 131 1 91 197 212 200 4 26 38 64 82 51 66 106 95 40 41 56 11 83 90 82 119 94 109 89 82 68 73 117 70 45 71 90 96 70 78 80 40 29 42 35 58 64 17 42 101 62 57 102 129 94 108 125 108 76 100 88 100 114 96 86 75 71 79 98 129 87 92 90 95 48 55 62 58 75 63 67 69 85 80 62 80 81 58 76 77 76 60 48 75 68 65 82 169 145 69 98 90 69 68 65 70 80 58 79 83 82 76 81 79 87 58 84 85 92 95 80 101 42 66 250 253 118 94 119 90 57 104 99 89 109 105 105 95 86 109 88 107 102 85 108 92 93 121 97 109 110 109 125 113 107 102 112 114 121 116 107 86 102 106 97 106 111 118 111 103 101 111 109 110 110 133 163 133 133 120 114 103 87 124 137 133 147 134 110 125 139 62 33 70 71 60 76 86 89 86 115 55 105 86 99 119 128 74 98 106 223 122 93 116 104 103 63 72 94 111 112 100 76 70 86 123 83 94 52 115 98 76 68 77 64 38 51 44 56 107 86 36 44 91 66 61 105 102 95 99 62 107 80 75 98 26 79 62 65 67 65 76 59 89 87 81 62 64 87 69 127 135 38 100 119 14 42 106 74 68 88 47 14 40 44 85 89 76 49 78 94 124 82 115 133 101 102 131 118 112 100 60 80 71 90 97 91 111 71 128 142 125 171 110 135 160 146 167 174 175 179 174 146 170 182 172 169 172 154 161 149 153 146 152 155 153 146 118 162 133 145 140 89 129 110 55 108 56 79 104 62 97 99 129 86 78 101 102 92 134 125 39 96 110 72 125 108 101 78 12 38 59 99 77 103 112 109 69 32 75 104 113 109 107 79 136 118 159 108 90 123 129 98 116 64 118 13 50 65 53 97 75 49 76 107 83 74 83 58 70 68 104 74 61 56 92 75 95 111 31 89 109 105 65 68 102 78 44 40 54 31 49 53 66 86 51 38 55 57 81 67 26 10 56 139 27 72 76 53 87 65 45 79 91 58 107 57 73 79 66 70 104 87 33 20 75 64 90 95 89 81 98 77 53 66 35 53 55 48 58 51 38 45 74 57 
41 40 47 50 38 35 40 44 34 43 16 46 116 135 105 53 23 83 124 102 108 109 75 41 38 54 116 125 82 102 124 99 105 98 88 61 65 69 32 175 232 172 185 
46 46 49 44 60 64 23 66 103 57 114 111 17 55 55 71 64 77 111 101 30 102 216 197 216 198 229 222 217 194 245 230 216 180 156 162 149 145 185 179 173 218 214 191 216 167 176 175 196 222 205 222 210 237 120 31 101 138 75 140 89 197 221 215 233 226 249 238 3 234 165 3 39 193 173 173 179 197 193 201 211 207 213 224 229 224 225 230 230 239 240 253 230 239 231 210 245 69 21 81 174 202 254 170 1 23 127 228 249 202 1 101 116 34 218 148 1 37 164 234 213 30 1 58 58 47 75 77 60 56 29 53 63 17 77 80 114 104 82 55 69 80 102 83 87 72 62 69 57 77 116 76 85 66 55 48 39 42 55 39 31 63 62 63 74 107 78 57 91 100 73 98 91 76 92 88 79 122 104 84 84 80 89 125 106 109 76 56 71 79 102 116 170 105 108 73 59 106 120 114 102 101 98 90 68 101 92 104 114 68 74 89 94 132 129 124 160 161 169 143 143 174 172 179 179 164 181 124 127 168 163 157 112 101 86 76 166 168 102 81 108 184 164 174 191 204 200 188 184 186 186 181 128 161 184 198 205 195 205 213 145 185 223 209 209 226 205 197 170 176 192 206 203 191 187 178 154 159 168 138 147 157 182 172 140 147 153 92 119 135 142 134 116 114 118 126 149 125 133 145 127 132 143 66 56 79 65 53 66 99 96 70 90 102 122 81 119 128 113 86 102 89 150 92 64 83 92 80 73 116 127 104 80 87 99 66 67 98 85 32 68 39 40 22 55 123 83 59 81 61 36 64 75 99 59 67 79 91 75 129 115 63 59 78 85 83 75 53 126 70 53 86 37 70 76 42 115 85 66 44 70 84 78 90 63 52 98 67 70 116 79 86 93 54 16 43 107 113 96 79 72 42 125 70 91 115 105 103 102 71 51 83 172 112 56 106 92 71 80 109 160 164 162 161 168 164 177 166 159 169 180 187 185 193 162 175 198 189 169 172 152 154 151 142 145 165 158 151 155 132 135 85 108 132 61 61 74 99 108 52 98 108 53 50 52 91 76 97 80 74 84 71 145 104 89 116 71 72 117 125 130 80 42 73 62 65 105 92 56 36 125 128 88 87 103 58 156 108 73 107 143 96 138 65 79 78 112 137 46 52 60 43 120 66 11 66 99 83 62 60 79 64 74 75 58 76 113 98 94 74 83 69 96 118 90 67 95 75 83 56 74 71 56 67 70 70 22 44 62 82 77 55 51 23 46 123 81 35 56 125 107 91 64 85 65 75 77 80 75 70 70 54 78 82 82 105 77 43 55 62 78 67 98 85 85 75 114 85 
92 51 49 53 39 43 51 52 35 45 45 42 41 50 45 45 50 39 42 25 36 92 122 121 118 115 132 108 110 111 94 88 36 39 82 106 130 78 94 125 96 92 92 88 64 69 71 34 181 232 174 186 
113 53 26 45 38 63 44 39 102 79 109 85 61 98 86 86 81 92 124 78 99 229 192 202 200 209 232 182 218 229 216 232 229 241 222 235 206 169 205 230 240 229 233 240 210 190 187 178 213 238 218 214 219 216 132 52 105 114 96 133 123 208 213 203 211 226 243 248 11 204 147 5 1 164 155 161 168 187 176 192 194 204 210 211 216 223 226 224 227 224 234 225 235 234 210 225 251 109 22 60 161 220 254 173 3 43 142 223 254 198 9 46 205 183 250 146 6 30 140 224 200 29 9 65 75 65 86 75 37 36 17 40 53 28 62 17 30 87 56 87 94 105 88 88 47 48 47 31 87 105 94 96 63 62 47 46 87 90 76 51 38 39 43 47 74 80 72 95 113 91 97 80 91 95 65 95 103 108 112 98 116 92 94 84 94 88 77 66 63 106 79 134 223 109 121 87 77 120 114 118 114 114 112 118 94 131 126 153 150 129 122 114 73 150 125 164 194 197 205 182 157 198 184 200 199 186 192 187 141 190 214 193 141 139 169 160 77 83 134 213 208 161 232 251 194 214 185 194 195 187 194 199 154 192 203 211 211 207 201 209 156 191 215 208 203 221 212 209 177 185 212 205 199 191 185 202 178 168 186 142 185 173 163 176 149 130 189 147 90 140 145 133 143 133 105 149 149 143 138 134 130 136 142 76 34 46 54 46 59 130 109 87 144 152 134 142 131 115 117 81 110 83 165 150 68 93 84 104 89 89 129 91 62 117 123 72 92 55 32 42 56 77 52 31 49 72 50 134 105 80 61 68 102 82 100 110 100 93 87 61 58 61 104 74 73 84 69 84 94 107 69 65 86 49 74 94 97 80 77 92 79 126 82 62 44 43 67 109 115 66 45 106 136 132 16 40 94 82 98 85 94 102 68 50 67 73 35 77 82 63 54 98 143 74 86 95 70 103 138 133 151 153 150 148 139 141 148 148 166 176 192 186 194 185 168 178 183 195 189 171 152 145 153 130 139 168 149 141 115 80 100 102 148 103 69 73 97 67 56 82 135 75 26 86 102 98 127 90 96 84 130 116 117 120 129 74 86 94 82 81 38 43 72 76 77 89 63 103 19 85 113 95 71 86 113 105 91 137 112 101 125 115 129 85 83 104 105 94 47 38 80 111 117 28 88 83 56 73 43 50 52 67 67 74 73 63 87 91 93 66 113 97 96 89 74 51 54 35 76 76 43 55 33 33 56 91 49 76 55 70 70 69 37 93 67 11 45 68 46 80 78 76 66 74 61 63 75 86 85 62 84 48 85 75 68 57 66 40 65 57 62 78 54 67 106 
92 76 100 93 46 54 47 50 54 43 48 57 57 34 48 46 51 36 44 51 45 44 33 40 120 132 114 143 136 127 121 102 105 93 92 47 62 74 107 129 77 104 109 102 89 98 84 66 70 71 34 183 230 173 186 
95 59 25 23 24 30 53 32 63 97 88 39 68 103 78 79 66 39 53 38 155 193 205 204 205 225 173 109 165 232 218 226 226 221 218 227 222 214 223 226 234 230 237 216 228 211 215 227 227 231 218 200 228 230 100 122 106 61 136 57 116 214 219 206 208 212 214 202 219 253 203 155 178 224 218 228 236 229 243 227 231 241 235 246 229 239 244 232 241 243 232 229 235 228 223 214 244 93 51 86 160 221 249 193 1 26 165 220 254 203 1 7 137 249 253 136 5 37 146 227 194 28 10 52 75 87 65 83 70 43 32 47 47 18 42 9 21 36 37 108 98 103 102 94 66 121 37 79 132 74 53 72 80 48 42 94 74 61 50 39 62 40 47 63 78 79 74 96 121 101 115 94 88 82 87 121 98 66 77 66 77 90 89 96 92 73 77 63 70 93 83 94 119 96 107 96 85 121 107 100 94 102 117 97 84 129 118 133 136 116 146 137 82 166 154 168 168 165 174 155 148 193 183 190 188 193 185 180 143 193 195 193 189 174 195 194 122 198 229 202 165 141 151 131 153 151 194 203 191 187 178 191 151 179 202 201 194 198 192 206 161 174 230 184 192 184 195 209 168 176 206 187 199 193 188 192 158 141 174 170 175 180 167 178 154 132 201 248 110 104 138 147 152 144 102 157 163 142 151 143 138 152 139 128 161 104 85 87 111 141 118 80 130 145 132 124 128 112 113 74 121 77 186 191 52 94 94 94 116 126 117 85 99 103 64 94 56 67 73 98 86 68 58 44 48 55 56 93 74 73 81 67 116 57 104 107 61 44 61 83 58 96 89 74 101 88 96 85 71 108 102 58 69 87 90 126 94 91 58 117 128 84 45 82 90 103 75 54 101 100 117 114 90 45 67 103 93 86 113 96 99 86 101 86 70 84 78 110 92 70 60 70 74 54 78 109 109 103 108 119 146 140 146 170 164 164 139 160 171 181 188 178 191 184 176 183 190 192 192 178 181 148 155 132 135 145 131 121 136 143 146 135 144 152 91 72 78 64 29 80 90 53 94 116 100 75 80 123 76 92 96 126 87 136 90 78 105 74 37 22 33 43 75 116 124 122 92 127 51 93 122 114 117 106 115 97 105 102 131 95 108 119 88 114 135 79 133 125 71 59 71 90 64 44 94 86 87 135 83 56 85 53 63 81 94 90 88 84 52 108 139 100 96 107 69 61 53 51 79 98 97 52 27 43 70 67 61 61 56 50 62 63 64 79 55 28 89 74 24 50 49 100 59 35 80 78 67 74 63 83 83 71 85 54 42 71 37 33 46 70 
60 85 75 95 59 87 89 56 30 51 48 60 51 45 44 50 52 49 46 46 45 50 46 43 43 49 48 29 39 121 116 105 129 146 137 120 108 103 107 93 42 65 78 109 142 65 99 114 109 104 103 91 73 63 68 41 189 226 181 192 
53 80 123 96 61 24 27 19 71 85 82 23 87 123 129 88 115 54 57 174 214 187 198 225 213 169 129 148 153 231 224 232 218 213 213 231 229 233 216 208 227 215 214 201 218 220 221 220 220 220 201 213 219 236 111 88 119 105 132 87 116 213 215 211 210 195 207 176 108 200 222 236 251 244 243 239 240 245 243 244 247 241 253 231 248 253 228 245 240 254 232 204 226 241 228 212 252 88 6 80 187 203 249 179 3 0 113 203 254 218 5 15 144 229 239 140 5 24 135 236 213 31 8 41 26 42 66 58 42 57 45 41 54 16 41 13 22 38 45 114 120 108 94 96 112 112 69 55 119 59 91 30 44 95 95 87 89 52 20 37 73 62 33 46 93 65 90 116 112 76 51 89 87 109 102 87 124 107 100 72 73 92 108 102 75 82 78 64 65 81 91 92 114 118 97 105 84 116 108 104 101 105 141 118 98 147 128 125 132 146 152 151 98 178 181 182 188 174 185 170 128 181 174 181 172 182 183 184 132 187 185 178 179 190 203 196 131 155 222 177 47 56 95 113 93 162 168 159 203 186 193 185 158 191 195 196 188 178 192 196 151 185 249 209 187 196 194 200 174 177 197 198 192 190 194 203 181 168 187 185 177 174 166 191 159 144 168 147 108 118 158 158 153 176 118 159 163 146 159 155 153 161 141 123 198 140 104 121 140 142 130 103 145 135 118 136 114 111 116 86 77 62 78 64 64 77 78 70 92 102 103 88 84 55 39 106 91 85 89 86 84 78 41 48 65 123 104 63 22 75 102 52 104 90 86 45 53 48 98 94 78 77 52 34 94 102 85 93 133 134 77 81 86 69 61 37 42 39 126 97 102 41 60 145 118 115 100 88 115 116 70 76 65 41 54 115 100 110 98 100 79 71 95 103 100 104 110 96 103 118 106 46 97 131 82 130 173 84 102 123 134 141 147 190 183 179 163 188 189 185 193 196 195 186 183 174 186 169 184 183 175 168 132 143 126 132 145 140 145 128 131 136 140 119 55 69 49 69 54 55 105 63 56 65 108 56 80 90 77 97 66 51 131 89 70 67 65 97 57 45 57 110 73 80 135 63 82 115 53 83 86 74 101 108 80 95 121 120 107 69 145 99 86 114 109 83 122 92 45 67 70 50 48 73 70 75 82 98 84 49 77 58 89 69 84 65 74 80 54 129 105 79 75 65 82 76 51 73 127 90 95 34 55 67 75 50 54 71 57 60 74 43 60 100 25 57 118 53 58 122 69 87 73 33 89 127 92 38 70 54 52 81 115 73 79 75 48 
53 41 73 52 77 67 51 129 99 92 45 35 53 51 52 54 50 49 52 51 49 51 57 51 51 46 47 46 46 46 31 40 134 99 106 130 141 115 123 126 105 97 105 36 46 22 134 124 79 107 108 118 62 30 100 84 66 78 35 193 225 175 197 
48 39 46 90 121 127 78 18 51 141 33 60 84 118 99 101 79 131 101 235 238 147 151 218 212 102 130 153 161 225 235 227 232 228 218 220 198 209 205 214 198 206 219 212 211 222 225 223 227 232 193 210 228 230 105 70 133 154 144 132 136 215 220 206 216 202 200 198 70 176 119 2 48 84 50 70 152 170 181 221 244 248 224 156 228 238 209 182 233 220 228 153 215 227 221 211 246 100 29 28 122 220 254 186 1 4 129 217 249 208 1 14 139 231 253 150 2 25 134 223 209 42 15 38 37 51 60 36 75 67 33 39 42 30 77 40 30 28 28 65 87 74 68 81 55 94 75 14 88 81 106 69 20 72 99 72 85 59 32 35 48 77 36 35 112 106 106 104 86 88 84 78 86 109 95 80 108 109 111 107 95 81 83 65 71 68 85 62 68 102 91 95 102 118 115 94 93 117 127 119 123 111 132 120 94 134 130 127 134 152 138 135 108 179 199 186 196 190 204 175 139 202 193 181 200 191 214 187 132 191 203 214 207 211 198 149 73 55 148 203 149 78 116 107 110 162 92 86 152 205 192 213 158 182 213 206 200 215 208 210 145 165 176 180 202 207 208 212 176 179 211 210 212 205 196 214 166 153 221 199 200 197 202 203 162 162 198 174 177 186 161 167 212 184 108 186 199 174 174 170 171 172 136 104 172 165 168 157 156 159 135 118 148 167 156 162 144 124 108 102 64 50 126 74 58 72 71 73 70 101 86 74 75 96 126 80 87 64 56 65 48 66 88 82 70 64 94 113 85 99 69 73 59 98 40 87 92 134 77 72 74 35 21 26 74 63 45 41 70 75 71 108 122 108 63 79 51 43 115 83 38 82 71 61 70 34 82 116 94 36 27 56 50 64 55 125 130 87 85 99 84 131 102 82 95 102 104 95 77 88 90 61 121 126 84 83 147 117 144 131 146 167 155 173 198 182 164 188 195 186 190 194 195 196 184 168 188 183 189 178 175 148 138 121 118 113 103 111 104 116 114 131 133 146 133 74 63 64 48 61 78 80 41 50 95 132 56 75 71 43 84 84 112 87 86 74 98 75 60 65 34 90 97 58 76 72 86 71 103 110 55 105 81 83 124 94 141 156 106 112 99 118 74 112 101 115 118 72 62 77 64 89 110 79 26 60 124 112 62 67 69 71 74 67 84 59 104 75 53 61 63 58 64 60 50 63 58 55 107 55 46 49 52 46 51 68 77 52 50 49 70 68 64 64 45 87 50 24 63 87 102 55 80 109 72 46 72 58 95 76 72 72 83 88 100 69 45 84 84 39 63 40 
25 63 70 62 104 50 41 61 68 55 52 52 54 55 50 46 50 58 55 51 46 51 50 46 45 33 62 135 114 138 130 117 110 126 131 129 137 92 18 70 77 123 123 86 126 110 101 62 37 102 74 66 82 27 199 234 177 196 
69 47 50 32 49 56 101 107 119 115 17 100 67 78 85 64 82 105 38 44 183 252 188 88 76 101 154 170 167 227 234 198 197 211 215 227 205 196 207 217 228 236 237 218 195 217 225 226 229 237 210 198 233 232 128 77 111 130 116 129 126 202 219 210 224 185 155 189 176 181 204 187 152 110 61 83 124 168 187 127 135 201 226 204 239 236 208 206 202 129 173 173 182 239 218 215 251 62 3 62 144 213 249 188 1 3 123 222 252 222 3 17 136 231 254 150 1 44 149 220 228 22 5 43 46 71 78 38 38 38 15 55 31 12 64 43 50 33 30 33 58 57 63 58 74 82 80 14 16 62 90 103 53 34 47 32 36 34 36 29 32 78 61 27 62 102 84 111 119 131 101 87 98 113 117 71 44 42 54 73 76 73 89 93 101 88 99 77 77 99 87 98 97 98 144 82 80 121 112 112 125 133 125 129 91 164 146 152 157 146 160 148 98 182 186 182 176 187 183 185 132 183 200 194 182 183 170 180 156 192 193 194 161 111 97 157 166 86 71 119 101 131 200 133 79 93 152 181 117 175 196 174 197 185 176 163 153 150 153 160 192 193 216 221 167 173 130 146 192 194 158 141 152 131 131 137 167 174 132 126 130 141 133 116 158 170 153 146 144 144 136 124 136 156 173 120 111 123 143 130 109 117 136 157 114 128 103 114 111 96 137 156 141 166 170 162 171 136 120 124 75 74 191 114 62 97 81 141 97 70 88 90 78 90 116 111 82 70 74 89 52 69 104 72 72 48 63 114 84 85 71 70 49 46 79 96 41 70 97 123 84 112 65 21 93 83 77 57 74 23 82 101 32 40 49 75 79 76 63 81 66 92 82 42 77 86 70 88 106 87 100 89 44 51 63 91 98 111 132 67 69 125 103 113 88 97 104 114 98 107 77 74 151 91 81 94 139 150 138 147 192 192 179 165 171 166 159 179 190 190 195 194 195 204 182 185 197 202 186 176 158 121 150 140 77 65 118 95 132 120 120 137 148 135 95 72 61 67 82 97 61 121 107 80 105 108 126 67 70 67 121 121 80 122 107 93 77 45 143 32 15 35 54 113 98 110 93 113 94 106 95 168 111 66 139 143 97 114 105 110 115 84 110 105 150 79 80 87 102 92 64 92 90 121 61 59 79 62 59 68 79 101 63 91 125 100 118 110 66 41 48 57 49 43 41 42 36 46 36 49 45 48 57 44 74 62 68 40 40 68 46 56 55 65 71 68 35 83 75 68 54 41 67 84 80 81 64 62 92 63 89 42 47 39 80 121 58 59 67 81 50 
46 69 64 81 53 78 52 56 53 60 62 51 55 60 61 55 48 48 52 54 53 49 53 53 50 48 32 91 128 109 132 138 119 130 127 133 135 133 108 53 68 105 152 146 100 154 144 126 120 108 101 81 80 63 4 180 226 175 190 
55 52 46 41 73 52 8 106 172 39 36 89 58 66 101 84 69 54 73 20 22 73 242 226 90 83 112 139 137 207 217 189 203 213 214 234 229 191 202 187 164 194 217 209 179 195 199 202 181 188 213 207 225 239 140 39 89 128 135 139 113 210 226 207 235 169 130 208 205 188 212 221 168 210 246 239 235 235 218 223 34 14 50 101 136 142 65 79 96 130 155 155 143 244 212 213 247 50 2 1 144 226 250 205 2 1 117 224 251 215 1 37 162 227 243 149 1 40 140 220 207 47 3 47 76 68 57 42 36 47 13 46 44 9 55 57 46 38 56 45 67 75 79 26 28 70 125 90 48 16 33 73 67 48 54 59 62 47 29 39 48 41 43 39 54 66 38 91 138 99 109 85 30 82 94 107 73 70 82 81 68 70 68 67 63 71 76 112 100 51 57 65 63 63 65 166 136 57 79 83 91 108 93 143 181 107 163 141 104 99 97 151 238 135 124 117 124 138 125 155 228 131 126 125 134 134 125 151 220 132 145 95 34 122 95 107 230 172 140 161 100 162 166 112 136 164 145 175 183 177 160 146 189 159 142 145 143 135 142 155 176 175 213 192 170 188 168 179 190 189 184 186 182 178 184 170 173 178 168 194 163 172 159 154 179 133 70 151 176 176 164 160 164 148 163 140 152 151 156 152 150 156 153 149 155 150 149 146 147 140 137 162 183 165 170 168 173 162 155 145 104 78 139 100 60 90 82 91 93 109 101 92 88 69 102 132 91 87 103 89 64 77 58 40 53 113 114 96 84 94 13 71 76 52 133 67 65 34 100 104 92 106 78 37 87 61 72 54 53 56 46 84 107 61 45 79 81 89 61 100 64 34 93 67 63 112 93 155 113 117 119 73 55 56 70 39 49 90 47 38 71 131 120 126 106 112 104 123 131 123 116 100 132 101 89 114 101 124 111 140 189 188 194 164 148 170 182 180 180 186 193 187 193 199 180 192 194 187 171 175 148 124 134 131 88 103 96 87 127 148 143 156 142 148 162 63 63 69 56 55 127 105 54 55 75 24 56 65 127 119 96 100 41 95 103 66 77 100 131 110 14 12 27 74 40 104 74 81 113 109 107 139 96 67 120 109 128 109 105 113 128 82 47 111 115 76 100 75 86 106 84 71 84 95 73 76 69 53 57 83 87 60 50 62 61 74 75 88 7 3 6 1 2 8 6 2 2 1 2 3 40 37 56 92 50 68 36 39 134 66 102 71 43 81 71 70 44 59 55 87 49 71 58 79 99 68 100 87 45 55 67 54 56 68 55 96 57 52 73 62 55 68 48 88 78 88 88 57 
60 66 74 63 58 61 66 67 62 56 54 55 54 58 55 55 54 55 50 27 44 134 131 128 133 122 132 143 138 142 137 122 9 43 87 125 128 71 79 68 60 49 52 42 29 42 9 2 188 229 175 180 
78 46 65 76 69 54 117 130 103 27 61 94 103 67 45 44 78 117 89 91 48 32 69 221 248 194 122 147 203 226 210 219 208 204 194 203 213 185 213 201 184 203 214 209 195 213 213 214 200 190 202 214 219 228 130 47 104 132 140 150 110 203 211 222 223 199 190 193 198 184 201 219 191 209 199 192 213 214 214 250 87 33 64 64 80 51 30 9 59 55 142 100 58 253 218 205 239 206 6 1 126 216 253 199 38 32 125 215 254 232 0 2 152 224 252 159 1 26 125 223 209 139 33 31 71 57 56 75 58 48 23 31 45 11 55 25 31 33 58 41 63 78 89 9 10 106 99 83 127 71 48 71 70 65 58 64 68 65 52 70 66 62 38 10 44 84 85 71 80 64 70 63 46 60 68 53 50 50 71 88 83 87 83 88 82 105 98 82 77 93 109 96 100 94 84 134 117 88 118 119 124 137 129 115 131 156 154 163 145 143 142 141 139 189 184 201 196 183 209 177 139 199 180 200 200 192 199 195 137 192 234 156 83 161 138 130 154 211 166 145 85 104 130 197 147 123 148 112 123 156 195 222 147 178 223 196 202 229 206 204 163 173 192 188 211 197 210 221 166 177 220 201 216 214 208 225 176 162 228 202 213 210 217 211 119 96 96 189 190 187 181 181 175 178 150 170 168 171 175 180 185 177 157 136 162 176 154 155 161 153 162 155 180 184 185 176 172 190 161 144 102 86 100 82 108 116 100 87 107 88 111 94 108 96 78 114 99 90 88 83 68 88 82 59 54 105 149 94 112 68 92 89 73 55 80 71 52 45 100 76 54 69 122 90 83 84 95 46 51 128 82 55 99 92 78 61 93 127 59 81 98 83 77 66 90 61 64 129 61 84 103 45 70 51 80 64 67 59 52 86 108 134 101 87 111 94 80 119 79 104 115 119 122 123 86 112 80 130 134 121 160 172 161 145 154 178 188 171 173 187 198 186 197 204 192 185 196 192 187 175 155 120 165 138 110 143 122 134 132 140 136 130 145 159 138 70 71 65 83 53 86 87 103 76 93 119 89 91 80 103 97 93 106 130 91 77 130 97 80 114 88 57 90 104 82 122 83 74 126 100 63 92 44 71 94 129 79 129 108 103 103 93 59 70 71 58 92 111 123 100 75 81 77 24 53 92 66 71 75 81 81 81 79 48 68 104 111 82 105 128 130 117 124 129 129 154 141 144 147 155 176 148 135 41 32 48 52 78 60 61 78 57 59 63 55 58 47 71 68 52 83 81 88 54 70 56 105 78 14 77 61 55 55 91 53 20 61 75 77 76 
114 90 68 60 104 79 42 44 62 60 59 61 62 64 67 67 65 63 62 62 58 63 59 56 55 57 51 25 64 156 148 133 116 155 156 140 135 185 167 93 2 86 101 139 127 94 117 124 122 102 105 92 91 72 0 8 189 220 179 200 
57 35 96 64 60 134 111 96 73 35 61 70 114 72 81 63 40 48 67 66 44 65 98 53 131 248 223 232 244 203 174 224 251 251 254 252 253 245 255 254 254 252 242 240 248 251 217 193 205 206 214 241 246 223 138 69 93 147 133 77 75 207 225 207 233 131 99 191 199 215 195 190 172 197 199 220 220 187 199 228 65 34 63 56 65 44 81 38 69 61 53 81 52 250 232 215 226 243 255 27 59 223 255 203 36 55 145 204 252 234 0 1 113 215 254 166 1 31 130 234 214 119 77 93 61 68 76 55 85 61 34 35 23 18 71 40 32 40 50 29 55 69 92 22 6 88 76 47 78 70 69 48 63 72 67 76 82 87 76 62 39 35 17 32 50 49 67 70 79 72 72 24 62 64 55 59 71 66 63 76 65 71 92 106 117 80 89 78 86 104 90 117 109 101 91 72 88 110 116 115 135 133 145 116 119 153 130 140 151 151 155 132 105 207 195 191 194 194 190 215 159 187 203 196 191 194 206 193 144 196 185 187 114 150 183 75 123 209 182 117 91 133 100 90 80 73 99 200 180 93 170 203 149 173 203 186 219 220 209 179 185 184 205 201 200 207 209 216 186 184 203 196 198 197 198 196 173 170 199 200 192 193 197 192 114 163 203 187 194 180 180 178 166 177 134 171 171 174 167 167 173 175 168 160 173 155 162 163 157 143 133 162 132 156 171 164 168 182 143 136 125 81 107 90 88 106 119 83 101 94 110 100 102 83 80 68 83 76 63 85 72 81 97 68 61 45 83 133 114 88 99 121 98 113 62 67 71 56 79 73 119 123 105 66 52 48 59 94 87 79 57 63 97 126 101 78 60 78 92 90 106 68 60 103 101 39 26 74 69 47 58 77 88 106 96 91 124 77 93 94 93 64 51 82 100 64 69 106 94 101 112 138 109 122 134 119 124 130 121 102 132 126 106 129 132 141 148 133 146 162 171 163 189 193 190 191 197 191 184 166 149 126 104 71 85 73 71 72 85 73 61 77 79 74 87 18 29 28 64 80 81 105 106 89 101 108 98 36 61 85 58 110 66 67 94 97 66 66 137 116 76 81 36 25 46 65 64 85 107 109 83 48 62 141 74 107 72 75 116 160 115 93 63 84 79 84 96 117 61 54 109 120 188 228 106 61 81 79 98 94 121 190 124 56 178 223 236 238 244 224 174 204 231 219 231 212 216 198 216 193 186 221 159 38 44 62 49 60 54 64 73 71 90 58 55 70 70 39 17 47 39 75 56 42 91 38 61 70 73 76 84 60 71 60 99 70 67 72 72 73 67 65 74 93 
41 40 44 46 57 66 67 60 60 64 68 68 66 64 63 64 63 63 57 56 56 56 52 31 78 142 144 117 79 132 149 135 86 72 99 131 20 91 126 170 151 114 147 141 124 111 112 92 96 62 1 3 191 219 176 196 
45 67 64 55 120 90 52 133 41 40 63 39 46 26 30 52 62 81 90 90 93 118 91 132 56 36 210 214 235 245 188 156 195 202 233 232 236 251 246 246 248 254 254 248 249 250 244 252 248 244 249 248 247 246 241 162 151 156 137 104 151 205 212 217 236 176 126 188 198 206 215 200 180 176 203 219 223 213 205 237 238 99 25 67 67 110 87 69 89 124 151 72 47 254 220 215 233 69 197 254 154 183 254 195 45 42 114 176 248 235 1 1 125 216 254 161 1 32 121 224 216 45 68 129 67 72 52 47 63 59 19 57 60 67 62 36 33 49 47 31 61 61 86 30 12 37 78 25 41 51 86 56 42 65 52 53 77 81 74 62 60 70 38 45 44 65 72 82 79 91 72 59 79 60 58 67 56 82 74 79 58 59 74 53 58 48 58 40 49 82 73 79 71 74 78 49 75 160 100 121 127 117 121 104 101 128 129 131 138 118 132 125 105 194 193 187 182 187 189 179 152 195 196 191 196 207 198 188 151 192 168 64 140 188 190 97 105 204 215 209 199 181 92 89 74 109 115 197 205 188 201 193 167 185 197 206 177 154 192 200 191 186 191 171 174 174 165 174 160 174 201 200 199 200 199 205 175 165 194 182 193 198 184 199 176 143 178 184 169 173 176 170 162 148 122 161 161 163 153 153 162 163 156 145 148 146 152 147 144 147 151 167 165 125 158 172 173 160 144 145 119 99 92 90 106 126 132 92 116 118 124 98 113 98 90 98 95 88 79 82 90 93 77 96 71 66 82 92 76 91 133 63 76 111 81 63 69 59 107 103 101 140 96 93 84 82 71 81 70 89 90 78 74 123 106 92 79 81 99 86 115 73 29 98 69 79 59 69 64 82 77 59 82 89 82 112 76 37 45 31 53 91 64 71 89 74 65 78 75 84 65 40 51 49 57 62 62 45 66 74 64 54 80 108 154 159 172 160 160 154 154 150 153 148 152 199 172 140 121 139 122 100 113 112 87 94 79 84 94 91 96 99 93 84 102 81 118 133 113 72 63 112 98 116 55 83 84 110 97 81 124 101 76 132 68 107 105 100 134 82 106 87 69 52 34 102 85 120 99 55 92 100 147 93 109 131 79 53 97 133 102 62 103 108 101 145 94 113 65 61 104 92 174 198 128 136 104 46 83 95 131 156 111 49 125 123 90 87 100 65 102 112 83 90 89 80 77 87 97 52 64 97 80 71 97 67 38 54 87 62 78 85 69 84 83 63 70 68 73 60 68 75 46 56 103 60 25 48 127 44 37 80 65 81 98 85 84 79 85 95 102 43 88 72 93 51 54 
51 56 65 66 58 57 65 73 74 69 64 62 61 66 60 52 57 58 56 54 39 77 131 148 140 151 169 146 131 1 5 52 190 20 95 127 151 147 104 135 129 126 111 94 90 94 57 7 0 192 229 185 195 
39 36 55 85 50 36 76 74 56 40 52 95 84 103 114 119 99 87 67 89 61 87 64 72 105 64 214 190 121 175 172 165 189 133 125 143 148 158 179 199 182 189 203 222 214 223 234 239 224 204 197 170 146 148 158 108 123 149 135 142 143 205 223 224 216 181 183 200 193 188 197 198 199 200 228 190 188 215 202 235 139 235 177 64 96 89 70 63 80 168 141 131 85 253 219 205 254 86 5 147 254 229 244 203 40 50 112 182 252 228 3 1 121 215 254 179 1 36 119 228 217 38 3 93 90 55 67 64 80 51 13 54 57 56 45 40 54 55 36 16 47 93 106 29 21 41 93 65 83 81 86 53 39 57 85 84 62 71 86 83 76 72 118 76 43 70 79 51 47 59 66 79 80 77 74 67 69 72 101 79 67 71 77 55 47 40 61 62 55 78 53 50 66 57 51 49 50 58 39 60 46 65 84 73 71 72 85 95 84 76 93 104 82 148 137 135 136 138 136 149 104 139 152 139 134 157 147 152 97 128 138 113 128 143 142 154 84 95 148 138 142 92 34 76 75 30 79 130 155 161 165 172 130 142 177 164 155 144 125 157 154 139 108 114 128 124 134 120 104 125 171 157 164 187 160 172 158 129 165 156 153 150 152 162 139 89 117 138 141 136 137 124 118 122 123 122 141 138 140 147 114 139 136 117 120 124 127 131 134 148 152 158 198 162 155 174 159 141 151 153 141 102 88 109 114 123 126 79 85 75 67 59 56 44 37 64 69 92 68 41 56 88 83 79 84 73 83 60 56 58 78 59 68 85 62 71 58 74 121 90 42 105 112 55 93 103 95 73 83 66 92 80 87 96 94 91 91 55 105 114 105 33 65 136 105 109 78 61 46 101 113 78 55 77 114 102 74 75 81 98 89 54 87 71 79 89 76 85 129 124 132 130 128 135 134 147 125 130 135 139 149 131 172 174 166 181 154 166 172 146 155 168 156 116 152 175 163 171 173 178 153 107 211 241 228 222 233 235 240 248 237 225 245 234 231 254 191 147 115 55 60 48 55 101 86 89 80 94 144 148 67 103 117 53 116 81 57 123 96 58 102 51 104 143 13 61 90 76 25 15 92 99 60 78 150 51 62 58 100 77 95 93 115 84 94 97 82 92 119 82 115 143 133 141 141 123 117 71 72 137 162 143 147 95 123 165 142 147 140 135 133 143 142 130 117 100 112 115 115 111 139 126 140 138 120 48 48 61 125 108 80 60 52 64 71 40 39 43 71 67 88 78 70 70 94 84 23 60 107 33 30 84 100 94 55 100 119 93 84 107 
128 108 73 111 86 57 60 57 68 70 66 63 65 68 70 71 71 70 67 63 68 56 64 51 54 56 57 38 76 166 142 138 166 170 170 152 147 140 161 178 28 90 124 157 156 110 140 133 130 120 105 95 96 53 6 0 194 224 190 196 
48 97 101 65 89 71 144 124 40 84 97 159 100 57 67 33 41 100 58 42 37 48 57 73 34 46 214 196 91 81 76 94 109 114 124 131 128 131 114 66 93 130 117 120 130 153 135 134 141 113 110 124 116 95 122 133 125 131 73 133 119 196 222 217 219 165 174 197 194 194 205 205 194 197 219 181 166 186 191 239 89 59 181 137 156 89 66 49 117 203 179 169 89 252 236 210 252 130 26 1 99 207 244 188 22 39 96 177 253 244 8 3 98 233 248 180 11 35 132 224 209 49 6 36 71 58 63 79 79 52 35 25 18 4 46 58 45 12 22 11 47 98 90 32 32 110 78 77 85 38 77 55 58 30 90 106 70 52 76 74 85 56 66 74 48 36 65 104 117 117 58 88 73 79 82 79 86 89 71 75 109 138 177 193 171 170 183 212 220 227 217 221 216 222 238 233 217 224 214 200 191 229 229 244 251 230 254 250 218 224 241 238 233 232 232 226 230 239 227 232 220 215 213 219 225 215 210 219 227 211 219 235 220 200 211 222 137 117 208 182 193 173 229 86 101 197 160 187 182 186 191 196 190 180 173 194 207 172 3 174 214 205 211 228 232 236 236 223 232 242 226 207 212 215 215 240 237 244 233 226 225 234 223 215 233 237 201 220 214 213 217 229 232 236 226 238 248 242 232 202 212 249 219 221 228 237 220 235 199 122 177 211 214 205 196 194 197 188 164 147 121 123 120 117 125 143 124 65 103 113 98 93 89 90 86 87 103 99 87 108 74 47 99 88 80 118 74 101 86 87 89 61 73 88 72 73 94 134 122 117 90 63 87 64 104 65 112 114 127 78 50 121 108 117 122 124 117 87 107 69 69 61 117 72 116 124 74 80 107 101 106 147 145 67 165 233 223 230 214 240 189 197 231 136 163 195 190 227 233 228 228 247 254 243 248 239 253 245 243 251 245 223 233 160 133 160 143 112 133 88 103 108 110 73 46 52 61 72 134 121 139 116 158 137 139 162 144 140 145 145 142 141 125 96 129 188 108 39 45 89 125 89 68 87 83 84 76 110 101 84 81 58 91 74 53 96 86 98 115 134 113 79 69 97 36 31 17 17 64 117 130 118 91 75 100 78 110 136 143 204 160 99 86 129 103 98 104 109 117 116 120 139 124 107 108 85 76 103 132 99 74 57 47 34 56 40 26 77 71 50 41 45 48 46 43 40 39 50 36 33 40 33 46 64 72 89 87 93 113 107 81 45 54 61 99 62 59 65 81 77 67 32 72 69 105 86 41 60 50 36 
89 116 69 69 61 64 115 93 104 103 118 95 14 82 38 62 52 55 69 64 72 64 68 71 73 72 70 69 67 64 61 75 57 45 47 38 51 20 73 142 161 174 163 163 170 159 160 164 117 139 13 116 120 163 155 107 142 130 121 108 101 91 97 47 1 5 204 221 184 197 
70 41 54 68 94 51 114 134 106 79 35 55 53 56 46 58 88 101 90 100 82 58 81 60 48 65 225 196 83 150 190 140 110 127 141 165 161 138 110 57 101 143 122 116 106 137 122 113 150 167 145 127 127 126 142 131 133 137 142 152 134 214 226 211 219 119 90 181 197 186 191 195 187 202 226 208 187 185 187 230 126 102 118 143 156 182 141 129 164 185 217 207 105 249 227 206 246 126 30 63 118 195 254 250 154 17 82 178 254 243 5 1 135 221 253 190 8 47 146 229 184 41 32 34 54 70 64 60 68 33 84 154 122 159 94 19 22 4 51 40 78 80 101 67 18 85 86 82 74 56 60 93 84 43 69 58 98 65 68 39 105 95 67 58 47 61 124 176 144 140 107 86 97 77 97 103 84 63 93 87 74 101 155 160 155 168 175 181 183 197 195 195 205 197 198 200 204 220 236 216 229 223 218 206 203 227 197 208 237 225 243 223 232 222 224 241 238 222 220 237 251 233 244 240 243 244 212 253 234 216 232 237 229 231 240 242 241 215 241 186 192 246 199 144 145 253 228 223 220 213 229 224 245 223 232 215 224 236 201 236 245 241 251 227 228 226 241 238 224 217 209 227 232 222 229 220 212 232 221 217 222 226 217 226 226 220 224 206 236 229 224 204 187 197 195 184 222 203 218 192 174 182 202 222 186 195 152 182 145 105 130 143 132 156 156 146 166 174 134 97 123 132 135 120 120 133 125 111 200 241 233 240 241 229 223 218 229 222 200 216 228 171 80 193 221 189 78 80 95 77 96 67 100 106 107 121 87 127 110 118 108 85 64 112 120 78 167 127 177 143 23 145 131 145 132 99 100 79 113 108 113 58 53 71 96 70 79 95 108 98 111 141 115 158 214 209 200 205 188 193 214 200 214 230 222 235 202 219 201 191 210 189 180 181 182 172 144 163 142 155 149 79 108 131 179 175 191 203 225 156 181 204 195 215 107 119 140 66 97 94 85 181 86 120 113 135 105 132 135 138 140 160 151 128 132 140 117 56 61 101 54 123 108 78 88 118 108 76 97 112 127 100 70 121 98 116 71 71 106 119 131 89 86 126 72 42 35 73 100 129 116 23 99 113 103 127 98 86 98 102 108 64 99 99 89 70 91 116 123 86 62 67 82 64 87 93 102 108 113 119 89 116 126 109 99 103 122 118 119 100 118 145 165 163 134 121 131 138 119 149 173 176 142 134 124 134 93 40 43 63 
47 92 74 68 97 89 59 28 59 112 58 44 76 112 72 34 65 65 35 54 71 50 80 63 85 137 119 75 106 121 104 92 2 9 18 67 64 62 72 70 67 79 67 71 73 72 70 70 69 68 62 68 46 47 51 52 65 22 103 182 158 163 152 177 142 140 182 160 34 140 35 86 122 163 152 99 144 137 134 120 114 91 104 57 4 3 203 218 186 199 
61 30 59 69 51 59 16 29 47 62 113 73 47 59 50 83 87 56 56 63 61 80 103 67 78 58 213 213 97 109 147 168 183 142 122 150 168 158 151 153 150 196 157 145 145 150 124 137 127 170 145 125 134 132 136 124 141 132 92 136 129 210 224 212 237 160 87 186 206 216 213 190 200 190 186 196 209 219 212 233 145 114 160 155 163 182 199 208 191 206 196 169 134 255 229 201 254 125 35 59 119 210 242 201 253 229 73 147 246 240 4 1 129 197 254 196 1 57 153 231 197 30 12 37 36 68 69 72 78 49 11 104 166 114 61 91 21 5 22 35 37 66 83 80 126 127 94 95 92 88 90 76 51 21 81 78 87 77 65 66 95 81 55 60 78 84 73 42 61 123 155 13 69 96 95 78 52 118 215 97 72 122 134 132 124 88 78 85 105 138 134 125 144 170 151 144 164 132 132 150 163 143 137 140 148 152 146 99 124 185 160 146 162 147 130 98 89 116 134 117 118 128 161 145 148 119 132 137 137 162 152 173 186 173 196 157 135 187 221 122 76 140 97 122 212 164 156 152 154 145 146 170 148 95 160 179 156 129 151 142 142 160 170 186 187 169 149 154 179 151 138 177 187 179 183 146 144 152 180 168 195 183 220 218 184 212 206 181 193 185 208 183 158 166 174 135 148 177 197 202 186 149 201 197 183 146 126 106 114 194 155 163 170 136 148 158 104 91 119 97 76 76 91 88 83 89 89 100 124 120 143 181 184 183 211 195 194 190 231 210 218 204 163 114 126 112 64 70 171 141 117 98 141 131 99 143 115 71 110 144 129 79 135 124 140 153 118 115 148 159 85 90 107 121 129 109 97 81 117 127 69 65 89 104 122 71 114 79 92 145 149 129 99 112 177 177 158 154 124 133 182 131 121 163 109 153 86 95 147 107 107 79 86 102 118 105 89 95 120 77 105 109 73 146 132 135 161 171 135 122 174 179 169 195 165 187 213 222 179 159 136 100 131 80 114 133 143 119 105 123 123 143 143 125 115 104 111 120 87 68 124 101 90 83 109 87 109 119 112 68 117 122 83 92 80 87 92 95 103 83 124 54 94 107 73 43 40 59 117 128 63 121 128 129 58 106 89 132 180 172 152 176 178 154 174 163 114 83 158 160 173 165 153 150 139 131 122 95 108 128 78 95 105 94 72 85 102 61 65 56 77 73 60 53 38 48 30 52 34 35 32 41 37 61 57 35 22 22 78 94 38 72 71 49 57 85 40 48 100 67 
40 44 69 99 77 85 81 48 65 82 44 64 76 95 66 88 153 135 100 120 119 103 9 12 23 75 62 74 75 64 70 76 68 72 74 73 72 72 72 71 68 54 44 41 27 37 36 5 42 95 158 182 176 150 131 172 174 179 203 176 5 115 115 165 173 108 145 130 120 106 110 91 105 53 0 3 212 217 183 194 
56 56 62 72 103 122 28 97 133 35 48 73 76 59 86 65 58 37 65 80 41 54 75 38 84 43 202 214 112 130 132 131 159 136 138 131 126 129 145 192 146 148 135 146 134 142 147 123 103 151 143 137 139 128 132 139 144 127 77 99 124 206 224 218 231 174 127 181 187 180 174 186 185 188 187 197 198 205 208 240 141 100 136 165 147 102 95 89 188 190 210 101 25 254 238 214 253 130 19 62 119 195 254 198 8 244 252 172 254 227 90 5 78 193 253 197 10 49 151 231 220 46 4 53 65 62 53 65 65 61 31 52 65 76 112 226 232 20 31 32 91 118 97 106 126 99 65 63 82 78 99 66 110 81 29 71 61 61 70 106 69 36 50 64 51 34 29 37 41 7 100 60 56 86 94 96 67 120 218 105 106 162 139 136 122 106 102 117 129 150 174 156 172 172 171 174 168 161 192 171 163 194 192 142 226 158 178 199 202 187 199 210 199 213 214 200 201 212 213 206 212 192 190 208 201 208 195 208 176 190 150 219 207 180 212 198 102 124 204 189 193 204 206 221 215 207 201 189 186 205 173 214 208 199 211 202 193 183 201 183 193 226 158 166 190 168 176 207 227 212 224 188 204 195 213 203 216 209 212 194 208 187 167 171 158 187 168 199 194 180 188 194 185 210 220 214 211 208 214 227 167 113 214 211 183 173 139 132 150 176 200 188 194 176 146 152 130 117 148 138 105 93 98 87 86 116 123 111 69 64 69 77 80 46 70 90 97 104 103 123 151 123 139 128 104 142 178 198 224 236 234 210 106 77 160 115 92 88 144 209 135 71 146 227 163 168 107 138 129 124 142 74 96 139 115 126 156 182 76 64 84 83 94 108 111 109 130 80 131 192 183 167 156 124 151 177 166 172 170 149 152 189 150 154 113 88 77 97 126 98 71 83 81 56 129 140 123 119 168 128 106 123 100 107 130 125 129 139 109 127 133 83 105 134 120 139 135 132 95 69 28 66 83 43 53 100 156 134 124 123 102 105 106 75 85 129 126 105 87 166 97 81 123 70 100 82 113 94 91 105 86 73 71 98 118 118 113 77 73 82 113 105 103 119 55 64 31 60 93 109 61 89 75 111 106 121 84 80 99 67 114 85 78 60 35 10 22 15 10 1 56 57 79 87 43 76 120 72 83 97 63 56 55 67 83 95 92 82 71 66 89 94 102 116 100 96 126 135 115 94 102 119 125 141 91 62 51 77 76 85 81 77 63 62 45 55 61 56 58 13 17 56 85 
107 110 61 46 52 43 98 87 110 58 85 78 105 147 147 97 129 114 77 2 7 45 57 69 68 65 83 73 81 73 77 79 79 77 75 74 72 56 79 48 20 0 3 1 3 4 9 6 164 132 143 178 173 174 160 196 156 1 115 141 185 170 113 165 166 153 134 129 112 106 51 0 6 218 210 179 200 
83 92 58 32 103 91 28 64 153 75 32 50 55 51 105 85 55 75 32 44 77 78 69 76 93 53 219 219 87 123 143 129 128 119 134 125 132 138 118 147 140 154 132 132 130 133 145 134 112 144 147 140 131 135 132 128 134 142 154 120 143 212 223 222 215 194 205 170 177 205 198 199 205 205 204 222 227 234 217 232 133 129 148 160 150 28 40 24 125 214 231 143 28 246 238 210 231 165 117 38 115 198 254 228 5 1 159 244 239 219 75 83 117 194 254 208 10 42 145 239 205 55 23 45 52 45 66 52 43 46 35 50 52 58 144 154 210 63 88 128 101 76 70 70 118 51 50 12 88 99 61 55 75 113 50 64 84 72 87 97 58 58 88 45 7 62 110 140 104 29 31 31 64 102 92 97 49 119 210 161 122 65 52 111 100 74 27 53 74 70 116 107 92 118 102 98 124 133 133 105 114 149 91 143 124 120 100 121 155 220 183 129 161 152 156 136 155 158 170 162 177 217 202 171 162 180 154 153 142 105 156 187 205 187 156 183 174 152 170 192 142 194 184 164 183 171 178 179 164 151 152 147 125 98 133 172 170 175 123 92 99 123 171 175 162 197 187 168 165 167 207 187 186 160 153 153 153 162 150 169 145 164 152 156 166 142 144 157 157 196 196 192 135 143 135 176 174 183 177 193 200 167 168 149 132 131 119 145 131 138 133 150 150 164 113 110 139 126 115 101 57 58 79 81 74 86 75 45 44 67 69 91 113 62 70 84 71 72 52 73 65 89 71 128 143 152 161 175 151 150 170 119 100 147 151 104 115 132 124 158 175 118 136 157 143 123 100 100 117 85 131 95 88 91 102 104 91 102 69 85 90 74 98 93 126 114 85 81 106 113 113 63 61 53 11 28 32 6 28 31 18 35 10 15 48 53 41 90 142 107 83 98 105 88 131 134 110 128 158 110 122 140 133 247 245 233 232 238 223 208 218 220 220 202 203 192 206 200 190 221 206 201 193 237 91 88 92 95 84 85 86 92 111 78 87 143 102 117 126 110 95 99 111 109 74 138 65 76 137 153 89 67 103 79 84 80 67 100 84 96 146 114 78 65 77 42 72 87 66 81 92 107 76 109 113 143 147 142 125 140 162 140 150 148 175 114 73 68 98 129 129 161 145 135 174 160 107 105 132 111 101 81 91 98 77 74 64 63 56 56 71 63 60 72 69 69 55 72 84 66 68 69 70 74 83 97 73 98 88 91 51 64 116 75 80 67 66 29 40 62 61 75 68 91 74 26 46 69 79 80 
52 83 94 85 103 193 172 139 99 131 103 69 9 38 67 59 70 67 60 79 75 69 72 76 81 84 84 83 79 74 55 127 38 1 3 2 4 22 22 1 6 127 153 179 126 153 161 158 188 169 19 82 72 130 146 62 73 69 55 43 34 26 30 25 0 4 213 210 190 205 
62 55 47 56 93 55 48 34 90 112 43 51 47 61 54 60 82 116 108 76 47 49 54 49 61 65 209 204 93 117 123 121 130 125 135 131 135 123 107 144 125 136 129 148 126 141 173 165 117 102 120 143 132 135 130 136 128 146 120 144 130 197 220 220 217 155 172 175 189 211 205 207 187 196 202 205 198 219 212 242 99 61 153 170 155 43 120 41 143 189 210 165 62 253 235 207 252 115 53 164 138 203 251 232 1 8 39 159 242 243 38 19 134 193 254 219 7 35 149 242 156 38 30 47 50 49 66 43 41 50 17 52 68 38 39 165 84 43 75 42 36 78 75 88 117 68 62 11 91 74 56 79 82 73 105 63 77 101 87 53 64 86 85 34 23 149 143 90 76 33 37 48 65 91 99 95 60 108 203 157 107 63 139 136 136 129 106 133 158 112 125 161 156 156 165 176 154 154 179 171 192 144 115 103 130 182 125 130 173 212 203 125 162 160 161 160 177 139 182 178 158 197 207 192 163 164 165 189 174 182 176 164 160 168 166 129 148 175 178 166 171 198 186 179 203 178 179 207 167 172 203 159 168 145 182 194 183 175 149 139 140 178 171 151 163 184 186 196 170 182 203 179 197 209 194 199 191 190 176 186 163 188 223 181 174 204 209 179 199 212 210 213 174 193 180 187 184 199 194 154 135 190 195 145 141 149 90 189 166 184 172 182 181 158 163 182 165 147 160 169 164 167 172 177 168 162 166 166 198 140 62 95 93 76 126 92 72 60 70 77 55 69 56 49 37 62 43 30 37 1 48 65 62 74 35 113 135 138 32 2 96 98 43 90 76 17 58 134 106 52 64 64 85 53 99 48 84 118 86 52 83 82 25 11 70 112 100 126 76 27 42 2 9 1 4 1 0 7 2 0 1 28 11 30 29 59 65 91 123 104 115 98 98 117 122 137 113 132 158 156 165 195 212 225 210 210 214 214 217 205 209 207 217 203 206 210 215 217 226 158 191 206 242 233 58 97 101 92 114 133 172 158 160 113 95 117 74 66 130 82 119 138 91 109 101 124 62 66 99 107 89 116 138 101 108 129 65 81 73 101 89 82 64 92 93 29 52 62 69 85 87 102 79 81 115 141 114 130 111 128 113 129 132 107 85 36 19 32 30 42 46 111 102 58 119 139 129 120 100 113 117 88 111 137 99 93 105 113 84 79 82 92 106 118 110 94 126 120 126 105 99 101 106 112 115 93 106 116 46 69 59 38 43 52 81 72 79 58 41 61 31 56 96 73 64 81 70 78 108 66 42 128 
94 73 71 179 146 143 101 126 140 88 2 36 31 21 1 27 37 27 79 80 70 75 82 86 87 85 77 70 72 133 23 1 6 6 1 19 23 18 3 131 170 166 86 146 162 157 173 169 26 41 20 98 133 42 39 46 38 27 6 5 1 12 1 5 221 218 194 198 
73 69 77 108 73 38 60 53 63 177 63 35 13 107 89 47 58 35 98 97 50 50 47 41 72 47 194 233 128 128 138 120 136 137 138 142 144 121 109 141 124 143 118 150 129 124 122 121 131 106 139 161 131 136 134 138 145 145 143 124 106 199 223 217 228 148 130 194 196 217 217 197 201 213 216 204 187 212 208 246 98 79 159 154 155 47 248 39 129 202 200 181 134 248 233 214 253 123 9 69 149 195 252 228 34 1 72 193 242 233 254 75 40 198 249 216 13 24 162 231 208 77 16 39 63 56 40 78 77 48 56 52 84 73 57 11 170 175 6 47 70 79 74 74 122 72 75 33 110 74 58 81 97 74 43 64 84 88 97 81 86 90 59 33 13 137 141 137 160 71 30 61 63 96 89 94 46 106 207 141 163 96 136 57 129 157 142 81 127 153 124 145 170 125 170 232 160 115 123 112 138 146 139 97 108 151 141 132 127 150 170 144 183 217 254 248 199 142 177 160 146 170 184 209 181 195 166 176 155 151 142 151 123 108 186 135 168 195 169 164 179 196 171 189 190 162 153 199 194 202 152 153 220 199 151 129 186 170 130 148 186 168 163 181 189 172 145 188 183 184 159 167 175 223 183 174 178 166 183 155 193 190 150 184 142 183 176 138 203 187 241 255 198 166 161 137 162 165 172 165 124 169 174 137 151 155 90 224 225 228 222 218 206 221 232 216 224 225 200 212 224 232 215 215 222 218 230 242 248 226 76 109 119 75 110 116 64 87 75 66 77 101 46 71 36 9 2 3 1 4 68 52 40 74 7 45 22 7 2 5 7 4 5 124 51 14 138 58 75 81 76 118 75 99 70 38 121 110 71 84 80 78 60 80 62 131 41 22 25 5 0 1 8 9 8 10 5 5 10 1 22 16 19 32 32 77 63 96 143 125 119 113 121 142 141 152 148 168 191 148 136 169 160 165 169 163 169 174 160 174 194 189 181 186 184 169 170 193 192 168 182 166 196 74 67 91 125 133 139 130 170 145 148 109 82 79 99 69 133 137 92 117 89 78 89 70 76 116 129 60 71 95 56 70 35 114 119 120 131 125 102 103 51 72 72 63 55 78 93 62 79 75 100 130 103 82 151 171 162 151 169 192 168 158 95 92 83 85 117 182 216 200 184 158 136 155 169 132 134 147 120 112 88 81 68 75 73 65 46 44 42 45 39 30 24 10 26 6 10 9 6 11 4 3 6 29 7 23 45 77 82 25 60 71 77 71 22 54 72 56 62 90 91 23 81 61 83 127 70 63 72 131 91 83 88 167 130 138 103 
129 131 82 3 12 106 76 168 205 203 144 55 75 76 80 84 87 87 81 67 55 77 95 18 4 0 8 1 28 19 7 13 144 161 146 177 153 156 161 171 163 39 49 50 100 135 60 59 68 44 29 11 31 135 76 1 2 225 210 186 203 
88 85 79 97 39 69 58 62 35 104 109 65 111 170 161 158 122 43 65 75 57 63 107 90 52 16 182 214 113 120 130 133 144 128 136 101 107 149 123 142 128 141 125 100 122 152 99 88 85 145 169 153 131 137 131 144 146 134 129 142 122 205 225 220 217 195 211 200 187 188 185 192 229 222 216 200 188 203 204 244 104 90 150 159 136 90 246 40 135 191 206 211 193 253 235 196 253 137 21 56 132 220 251 226 27 23 78 181 255 203 120 252 176 162 255 213 20 27 118 212 241 78 2 45 41 46 63 61 62 66 30 46 83 39 55 11 3 115 144 45 30 69 66 75 131 76 72 32 67 51 97 81 84 35 17 51 97 95 82 58 76 59 41 35 12 137 151 147 172 92 42 56 63 91 104 98 42 95 215 154 149 116 124 110 120 153 200 175 185 220 218 235 194 131 134 178 175 149 138 166 137 130 153 121 113 124 149 149 136 146 150 153 148 151 223 182 176 153 167 178 156 187 186 201 151 176 140 154 164 151 125 140 146 182 188 127 149 180 149 150 195 178 159 192 198 171 193 175 117 175 162 154 174 167 143 140 181 190 172 161 168 161 140 178 154 161 144 152 173 160 145 161 163 176 175 140 138 171 154 136 113 136 135 135 84 145 176 133 157 158 164 172 144 167 106 132 167 166 138 138 152 154 168 180 187 161 102 229 215 212 202 213 218 213 190 203 207 223 203 189 215 209 194 186 202 194 174 194 181 162 125 160 170 104 122 136 96 89 80 78 67 94 50 76 48 30 16 17 6 75 139 47 7 78 34 10 4 7 7 16 13 1 8 3 3 10 82 98 69 74 36 47 125 76 97 98 127 22 79 118 72 113 67 91 125 153 86 85 7 8 124 10 3 2 13 0 8 7 10 2 32 20 30 32 59 97 81 119 159 123 160 123 132 158 143 160 132 164 164 124 121 126 163 151 161 184 157 174 182 185 159 103 107 118 152 191 186 139 136 186 172 153 112 73 114 123 111 157 137 162 196 165 160 160 96 83 61 88 120 141 125 84 101 79 113 93 117 96 129 107 151 142 113 63 96 105 129 159 117 141 57 66 58 69 144 109 120 124 84 99 101 126 104 91 70 140 134 122 93 84 101 99 77 72 45 51 37 34 57 57 36 32 20 2 9 2 2 2 1 1 4 1 3 1 1 4 1 1 2 1 1 4 1 3 1 0 1 1 1 1 0 1 2 2 4 4 5 2 2 30 104 64 137 105 56 88 93 112 110 62 72 28 6 4 9 27 102 79 47 111 93 117 36 129 128 170 159 148 106 130 131 52 3 23 
133 76 252 235 248 195 56 74 81 83 93 96 84 77 78 80 80 58 31 3 9 1 10 25 17 14 1 130 141 161 148 175 160 166 195 187 34 48 23 83 145 55 49 54 18 45 91 93 36 10 2 1 225 203 195 192 
103 80 51 66 41 48 70 60 29 74 147 57 61 120 166 166 151 65 54 53 71 53 44 100 104 20 193 230 111 120 144 111 126 129 132 124 114 128 133 130 126 141 120 129 124 131 126 133 127 143 142 142 141 140 124 131 115 152 180 133 123 201 229 216 222 194 198 206 195 209 201 161 175 204 216 205 204 230 227 237 83 51 142 170 125 66 102 1 146 198 193 209 161 254 241 210 252 136 37 70 136 220 244 233 62 7 85 184 241 250 5 31 252 232 235 225 36 31 110 222 237 104 5 7 39 53 60 51 37 52 44 57 68 14 44 30 28 8 80 165 71 16 66 70 104 61 68 25 36 47 49 69 65 55 56 54 64 67 81 85 49 62 40 42 25 149 161 145 213 84 40 50 78 94 76 90 38 108 215 154 152 127 126 128 90 59 143 169 160 176 187 187 130 108 103 90 144 115 95 130 115 138 92 114 120 128 164 139 162 147 137 154 141 122 167 183 129 155 158 134 158 144 156 164 161 180 157 115 120 171 134 107 132 158 155 130 101 106 131 147 150 161 148 145 156 164 163 158 147 168 149 168 162 144 154 162 131 47 153 187 157 166 179 180 174 191 164 193 181 183 171 189 199 176 165 183 177 184 193 186 191 177 169 157 190 167 163 148 148 189 191 195 184 175 179 176 190 185 179 196 181 162 188 169 160 165 193 217 186 166 176 164 176 181 190 182 192 193 171 171 186 175 173 157 151 148 172 153 147 137 166 170 178 208 187 163 154 139 130 125 125 125 82 91 51 25 17 20 2 28 77 63 25 103 92 35 7 25 4 8 14 7 15 11 9 4 23 123 78 84 23 10 55 98 128 44 156 10 60 112 121 88 33 34 24 49 92 115 60 4 251 232 110 2 1 15 3 6 7 8 40 40 32 56 48 97 86 93 69 78 58 62 87 97 94 91 90 82 60 83 76 76 57 108 110 82 101 79 72 83 74 56 54 49 69 107 110 73 76 120 89 54 65 85 94 75 91 85 87 74 71 92 79 69 66 95 113 106 67 74 63 72 117 126 77 78 125 72 74 161 63 65 116 117 150 103 98 83 23 25 57 47 58 74 26 5 81 20 87 138 142 84 106 11 10 29 2 4 7 1 1 1 1 0 1 5 2 1 2 2 0 1 6 1 1 1 1 9 8 5 1 1 1 2 1 0 11 1 4 1 1 1 1 2 1 3 1 2 4 4 2 1 2 1 5 4 2 0 1 4 14 30 67 80 87 116 50 48 13 10 62 21 5 6 5 19 101 77 59 127 81 71 33 122 98 167 175 149 106 133 135 57 1 55 110 7 248 209 233 215 47 72 78 82 92 96 85 78 78 79 67 87 22 1 7 3 13 25 24 
5 5 158 149 147 158 151 182 165 176 182 30 25 13 91 143 33 30 34 105 126 64 9 3 22 0 1 234 201 186 206 
65 101 90 62 47 65 33 54 42 123 145 99 62 32 60 103 122 71 47 74 75 48 62 68 61 37 200 219 130 116 125 136 135 133 153 107 147 130 128 139 129 141 131 150 118 112 150 125 181 158 131 135 140 133 126 144 144 156 180 141 107 195 218 223 222 182 92 198 219 209 203 219 218 211 208 228 229 213 207 233 171 35 107 162 156 68 59 69 132 199 211 204 169 251 232 195 240 116 3 52 143 222 245 225 79 78 97 161 252 248 43 5 49 195 242 232 3 8 127 226 232 57 3 32 41 24 37 38 50 53 51 54 62 21 51 37 9 55 20 65 185 114 39 53 120 92 65 21 41 51 36 48 95 62 65 70 76 59 58 78 58 49 58 30 24 225 202 184 233 85 30 52 99 97 82 98 65 102 217 163 149 135 140 104 57 79 126 69 98 150 155 153 184 196 210 203 205 226 242 204 237 228 253 240 223 166 201 233 219 203 229 232 241 240 228 247 235 248 243 226 244 238 221 208 230 225 241 251 247 249 216 242 220 217 221 246 254 215 219 206 192 223 237 232 227 223 193 212 224 230 225 229 245 234 228 208 221 188 227 249 227 205 194 209 231 237 236 220 228 245 201 190 216 182 217 244 230 219 240 224 223 190 156 190 235 228 229 241 234 183 207 184 236 232 214 227 210 225 208 158 170 187 186 159 178 131 130 164 191 175 167 158 176 195 157 185 164 136 157 166 179 184 177 170 158 172 179 172 188 167 169 202 174 161 174 185 174 159 161 156 169 148 124 122 83 57 41 31 14 3 4 13 56 90 28 9 4 14 26 13 12 16 14 3 18 16 10 83 83 84 110 18 9 30 30 78 171 8 34 113 127 70 79 9 8 15 140 95 108 250 251 222 247 248 84 2 3 1 11 1 11 16 2 3 1 1 2 2 3 3 70 23 1 4 2 1 7 3 5 1 4 2 3 7 66 5 0 2 1 1 3 4 0 4 4 4 2 1 2 3 5 1 2 10 0 1 9 2 2 1 3 4 9 9 11 136 85 94 46 69 117 81 111 67 91 142 86 92 109 38 12 4 9 50 25 5 3 3 10 4 29 73 50 65 8 3 0 2 4 9 37 25 76 40 4 5 9 5 9 6 2 11 19 12 14 8 6 5 3 7 9 4 10 8 1 3 10 2 4 3 1 146 206 161 125 113 104 93 69 63 50 32 37 40 35 34 38 35 33 33 35 33 29 24 16 28 18 14 17 5 2 31 6 9 24 29 5 12 5 26 61 25 1 5 13 34 119 95 101 119 124 87 30 106 68 169 190 158 111 137 141 68 1 81 63 13 250 235 224 216 53 72 76 82 93 97 88 81 81 81 70 102 29 2 11 1 21 17 13 2 29 177 158 154 165 137 174 114 66 
185 88 80 84 74 119 67 82 127 84 14 15 11 21 4 8 11 224 188 195 197 
106 82 100 32 34 50 80 121 103 96 136 123 125 103 73 23 58 64 64 57 58 60 57 73 62 31 190 214 132 129 136 120 145 134 125 108 147 169 136 145 119 135 121 138 120 113 137 132 150 140 132 142 141 125 129 152 143 95 128 140 111 204 223 218 220 178 186 189 190 211 221 212 225 223 208 212 208 196 206 231 191 217 170 138 183 181 181 198 193 194 195 199 189 246 234 202 255 161 3 3 113 219 247 237 11 41 185 190 236 245 61 17 81 164 247 238 175 10 91 221 221 23 30 49 35 49 50 49 64 51 45 38 62 52 76 45 43 21 35 6 40 184 135 36 97 98 83 10 49 42 41 53 93 79 88 70 69 63 47 56 62 58 57 43 24 234 250 220 250 135 27 50 86 94 122 87 79 89 214 159 148 143 164 102 66 40 90 19 2 5 7 15 6 11 13 18 3 3 11 36 46 42 57 52 111 171 117 15 55 111 108 55 31 26 62 79 98 98 85 102 93 82 88 85 84 105 104 109 113 116 98 101 104 119 131 105 109 98 46 117 147 81 94 85 87 108 130 138 39 97 69 72 89 99 98 87 66 63 57 21 7 94 108 106 63 61 69 77 63 53 100 128 64 127 20 17 6 34 35 50 52 53 80 56 7 17 13 31 41 136 94 112 35 68 56 43 36 38 39 62 104 38 13 104 76 63 63 14 1 21 30 24 17 21 18 2 25 99 16 2 26 26 24 19 20 31 14 29 27 37 30 19 9 16 11 9 7 7 10 6 19 3 4 5 20 24 13 10 21 21 9 8 11 12 3 9 11 10 2 8 9 7 9 11 7 5 52 78 127 83 120 125 99 31 7 37 20 9 53 57 27 111 92 75 6 3 2 6 247 254 98 46 130 218 254 254 24 2 1 5 3 5 1 4 13 1 1 6 2 9 177 202 56 10 9 6 4 2 6 4 4 8 9 3 12 73 11 8 9 8 4 3 7 4 4 6 5 3 3 2 1 8 7 9 5 11 1 1 1 14 17 5 4 4 83 180 81 144 110 85 65 67 102 39 72 130 107 95 27 79 43 23 20 2 9 131 12 1 12 4 29 57 95 50 5 5 3 4 1 3 5 4 2 2 10 3 3 2 5 6 8 16 22 20 18 10 2 2 5 7 4 3 4 4 1 3 1 24 123 112 47 194 254 217 237 254 229 254 245 239 249 198 239 254 253 253 250 247 242 242 247 247 242 236 232 251 247 238 244 229 254 231 7 14 19 10 18 1 25 35 8 32 3 1 11 17 102 118 117 151 109 63 37 117 126 156 160 149 100 128 138 73 3 98 54 10 249 225 236 208 69 75 79 85 96 99 91 86 85 83 76 88 35 5 6 10 55 4 46 2 37 171 158 150 151 165 161 154 174 174 60 25 35 108 127 135 109 78 26 10 26 19 24 15 4 0 227 203 193 199 
86 79 44 49 114 159 127 93 82 63 73 55 46 87 136 127 65 57 54 60 66 84 88 72 94 33 188 221 125 129 150 117 109 117 130 141 144 160 146 77 72 150 123 137 118 143 63 58 126 137 141 144 137 122 134 145 153 108 139 130 127 210 238 207 231 169 210 210 197 201 208 204 196 221 223 214 210 212 234 251 124 71 188 133 161 174 189 177 200 193 200 217 183 254 238 195 251 126 66 94 124 211 242 235 2 1 80 192 248 238 64 5 101 194 255 201 228 253 94 183 248 94 1 46 51 24 55 46 61 50 51 41 58 46 66 40 26 23 36 44 30 13 100 143 72 80 100 3 56 66 49 68 83 73 80 58 61 59 49 60 56 64 54 54 27 12 139 140 148 174 45 37 100 92 90 77 72 95 205 145 134 132 151 110 79 45 127 45 2 1 6 1 8 0 1 2 75 57 2 6 2 2 5 1 1 46 19 65 236 240 235 199 150 119 2 1 6 6 9 57 77 25 24 11 9 1 1 9 3 2 1 1 2 5 2 1 4 4 60 72 46 8 11 68 127 129 148 138 115 129 8 2 1 1 1 2 4 12 37 49 41 57 66 8 2 5 5 1 1 2 8 101 26 73 11 46 105 115 127 170 192 60 30 2 19 114 92 3 3 21 24 17 8 1 1 2 1 1 7 117 2 2 3 86 81 39 1 3 141 2 10 2 3 1 2 10 169 251 230 1 5 2 6 3 1 1 3 1 3 1 1 1 9 2 1 5 1 9 5 1 3 1 9 6 0 15 5 4 12 16 20 10 2 6 7 5 1 5 4 14 5 9 8 8 5 36 135 113 98 40 80 75 148 6 23 5 5 26 103 105 45 114 120 153 69 12 1 224 254 71 77 82 100 71 69 203 251 166 5 1 9 7 3 14 7 13 4 4 46 229 186 171 236 207 93 11 11 10 1 6 15 5 5 12 2 8 96 33 6 12 6 8 8 5 8 15 14 12 14 16 3 8 78 61 10 1 1 7 7 2 2 5 15 1 34 121 66 81 60 64 125 111 115 111 100 144 92 6 5 19 68 41 88 34 60 51 1 1 4 10 73 4 66 92 7 7 30 1 9 11 1 9 10 4 10 2 14 22 8 1 8 18 11 7 10 17 6 2 12 6 1 14 27 5 8 6 2 152 223 150 107 200 228 182 193 207 184 201 186 178 211 119 193 221 214 215 203 205 207 203 199 199 205 210 205 206 206 207 214 206 232 183 9 3 6 2 6 9 9 3 6 1 1 4 1 23 139 119 112 124 124 97 64 150 178 158 152 152 104 136 136 59 5 108 40 27 253 253 250 253 72 72 83 88 98 100 92 87 87 85 82 98 39 1 3 70 97 18 30 1 60 169 155 156 159 168 163 179 131 175 63 39 96 125 125 37 69 49 59 51 8 11 10 13 0 4 226 199 177 220 
60 156 154 60 73 65 59 89 64 95 66 125 107 38 23 78 130 123 73 65 63 57 92 60 72 41 189 225 124 104 122 138 154 104 137 124 122 87 132 159 130 135 103 63 99 143 127 108 134 146 143 138 139 134 147 138 144 157 150 132 122 205 227 215 219 169 132 198 202 205 209 208 190 191 203 217 226 211 220 248 159 71 77 43 150 191 183 199 189 208 210 199 188 254 235 205 255 137 2 68 167 214 248 233 22 1 83 188 248 254 26 11 90 178 255 226 4 163 254 204 213 75 7 12 35 55 54 56 52 48 56 57 67 31 48 37 26 35 36 58 39 24 36 90 112 126 119 29 70 84 68 72 83 61 57 56 75 66 51 62 61 64 63 44 40 34 98 123 102 175 91 51 76 100 103 72 83 98 207 164 131 135 148 98 101 75 141 45 7 10 3 12 0 12 12 89 225 240 234 163 29 3 2 10 5 1 7 206 239 209 254 210 161 169 229 210 46 19 62 106 82 74 81 113 40 20 43 45 26 49 56 39 34 45 27 25 204 254 151 156 37 132 123 124 123 120 127 189 204 119 54 10 59 56 17 1 131 254 235 248 252 226 222 159 45 34 62 70 30 4 50 12 20 129 187 177 191 108 194 148 150 120 4 84 247 203 253 97 44 42 37 20 56 63 84 71 49 66 246 251 126 6 49 5 8 15 18 139 253 53 1 29 14 21 1 13 254 164 240 115 2 20 11 39 15 18 24 21 23 14 16 14 17 14 37 30 11 18 11 6 7 15 17 6 25 24 13 23 23 12 20 19 15 21 2 10 13 9 18 3 7 18 9 4 5 87 116 66 111 108 113 16 26 10 4 10 14 75 109 128 115 154 119 19 5 1 188 244 87 75 135 100 85 133 100 50 90 238 235 2 3 4 20 9 2 4 14 121 238 179 150 167 147 151 229 210 126 19 10 3 1 5 2 2 7 7 7 88 42 2 23 5 7 16 17 8 6 12 13 11 13 3 67 31 14 15 15 4 1 12 7 7 1 1 4 5 9 12 18 152 126 115 116 63 24 137 9 1 9 14 2 32 74 5 3 19 0 0 27 118 117 124 6 17 4 10 28 8 4 0 14 9 1 1 6 1 1 22 17 3 16 22 10 7 12 16 4 2 20 12 2 16 34 5 0 1 2 197 90 12 15 197 247 214 216 214 210 205 209 204 238 120 207 230 216 214 210 209 207 202 198 198 202 206 199 187 191 203 203 207 214 220 1 6 11 6 24 1 2 29 82 139 126 4 1 50 161 120 116 119 150 75 48 102 80 169 163 156 116 150 139 48 5 108 46 72 238 232 176 116 94 81 83 88 99 100 93 90 89 85 93 125 35 4 7 82 71 46 32 33 157 213 171 165 179 162 172 166 80 106 91 131 89 72 96 61 86 66 43 56 
55 5 20 29 0 2 248 211 230 195 
79 94 107 87 45 57 39 58 62 75 74 72 147 177 127 47 77 67 108 104 58 54 89 50 64 27 179 229 110 106 125 119 132 118 133 89 77 112 115 171 215 177 82 90 68 101 101 110 111 126 130 139 151 144 152 128 92 134 100 131 119 200 216 222 236 160 164 197 193 192 204 211 200 192 207 214 230 224 221 242 147 78 154 101 158 189 193 185 200 198 202 205 202 254 227 196 253 136 8 6 115 227 227 242 7 11 74 188 237 253 93 1 55 170 247 254 5 2 134 230 227 35 6 39 50 43 45 50 40 41 45 56 77 39 61 55 27 33 51 39 22 15 32 21 78 114 95 25 36 27 42 45 58 75 77 61 73 70 62 54 61 73 65 52 53 254 224 212 221 243 104 11 57 113 124 89 98 93 223 180 151 146 174 105 88 59 143 54 2 10 5 4 14 14 1 108 195 69 158 252 177 117 2 1 12 8 0 65 248 253 228 192 160 162 179 248 87 52 107 123 75 107 92 92 105 83 69 68 73 84 85 72 93 38 75 248 233 155 164 219 226 156 131 140 202 99 214 108 166 80 113 6 65 20 3 35 130 249 228 242 233 252 247 219 163 79 108 100 94 52 106 56 141 227 140 135 173 70 178 160 204 126 119 223 185 218 233 34 82 106 97 97 97 94 95 84 52 201 253 144 247 48 58 45 51 68 103 120 70 126 1 1 5 7 1 57 188 56 167 235 8 6 7 34 8 19 8 18 19 10 26 13 19 38 26 29 16 19 22 16 16 21 21 14 33 22 14 22 26 15 8 16 23 7 17 8 7 15 6 27 16 13 12 14 7 35 10 7 99 29 15 6 3 2 12 5 17 2 23 103 15 28 6 4 6 100 245 72 121 95 89 76 78 100 67 79 80 101 249 242 3 0 3 7 5 6 142 227 160 99 105 120 115 118 103 146 191 185 28 44 70 43 45 44 52 25 24 27 77 44 1 9 9 4 2 11 15 2 4 23 38 38 48 11 14 9 11 3 14 1 7 3 2 2 4 5 17 4 4 105 81 23 57 22 4 20 2 1 20 1 1 26 27 75 22 2 8 52 107 157 170 123 84 53 9 12 9 9 6 5 4 4 10 25 90 30 3 4 5 8 13 7 7 17 21 13 3 5 21 16 5 12 11 12 3 2 3 193 33 32 68 228 239 216 235 208 192 188 192 201 224 120 213 234 227 226 220 213 205 200 202 203 201 198 201 200 205 210 207 213 226 238 229 27 0 12 12 2 45 179 113 125 122 3 1 46 148 104 78 94 132 69 54 113 94 159 165 134 111 143 144 66 9 90 25 204 170 55 5 4 82 95 81 88 101 103 97 94 90 85 88 119 18 3 25 45 10 33 10 0 180 153 146 171 181 187 188 94 111 109 80 48 12 60 166 89 1 6 8 1 43 
106 94 0 7 1 223 198 166 185 
118 62 19 58 75 109 114 69 49 66 52 52 56 90 128 75 76 69 50 67 79 50 83 54 51 25 177 225 106 130 159 139 188 142 135 144 150 155 125 127 189 247 213 200 233 206 217 198 119 129 132 138 144 131 146 128 136 144 91 124 126 192 231 215 223 212 170 173 184 207 215 230 205 195 220 219 224 202 200 239 149 61 128 126 159 189 178 203 197 202 211 190 81 235 254 191 254 153 1 20 136 216 240 252 56 1 78 190 240 251 30 40 176 167 254 237 31 5 81 201 250 35 5 30 49 45 51 26 45 54 46 45 68 37 65 57 9 41 45 35 33 15 5 35 42 60 78 20 48 46 46 51 64 72 69 68 83 65 58 60 73 57 74 56 36 134 211 195 209 229 86 1 61 101 119 82 99 102 237 152 153 114 159 111 79 51 150 72 3 9 2 13 3 15 6 1 199 185 213 161 130 172 177 21 1 10 11 1 68 240 249 206 211 169 220 183 14 53 81 80 87 84 112 62 103 137 86 78 93 58 62 75 41 53 238 138 61 104 185 142 96 158 120 120 182 190 45 47 195 151 130 7 43 2 96 246 145 245 233 251 240 247 252 137 94 73 81 72 71 69 198 219 59 75 56 104 218 137 113 152 14 80 204 97 199 199 131 9 91 70 55 64 65 56 58 93 53 230 220 183 241 45 226 193 96 49 101 55 107 103 19 13 32 31 6 98 145 160 140 178 104 1 59 34 21 18 27 26 13 90 50 26 12 3 22 19 22 19 34 19 15 10 15 17 22 21 22 6 13 19 6 22 15 18 14 15 17 14 18 21 13 11 12 4 6 7 3 10 4 5 6 7 9 22 50 18 11 33 6 4 6 6 3 1 8 247 93 85 44 79 68 87 72 53 115 156 120 138 91 248 193 1 10 3 4 164 188 150 132 112 86 73 135 106 105 90 119 206 179 61 51 74 94 80 90 88 82 96 6 64 44 1 2 12 5 3 9 6 4 8 66 60 3 11 8 3 17 18 9 12 31 19 10 36 178 1 2 7 6 4 10 11 14 7 9 2 2 4 1 16 16 6 10 8 2 58 62 79 68 53 47 74 28 75 47 5 5 2 2 0 15 147 225 251 236 251 197 86 2 1 11 7 8 13 15 6 5 9 5 1 2 7 6 1 2 2 10 221 125 131 128 223 228 204 210 208 207 208 199 218 219 131 213 224 218 216 209 209 205 202 200 199 202 202 201 209 208 201 204 199 224 168 199 235 13 1 21 1 33 56 12 54 107 1 4 68 162 74 107 87 127 60 57 118 71 160 189 139 123 141 154 95 11 55 95 163 163 36 1 47 99 86 79 88 103 107 101 98 93 86 83 102 9 1 57 40 2 3 1 11 212 48 103 214 166 134 78 101 138 146 40 36 26 93 109 47 132 134 133 
103 70 165 143 120 118 104 112 125 201 153 
47 48 38 54 65 53 82 120 118 119 60 54 65 49 94 79 67 70 79 55 85 116 88 110 62 30 166 224 117 105 153 133 160 137 145 148 152 129 139 129 162 250 174 63 109 248 249 239 131 128 136 139 139 142 137 132 142 139 154 142 127 189 226 216 221 208 198 201 196 204 207 216 206 197 203 224 222 213 209 241 159 88 138 149 171 180 185 193 198 203 207 216 87 215 254 197 252 155 4 14 122 222 237 245 43 37 92 180 238 252 42 2 91 198 234 242 41 2 107 225 255 37 2 26 42 43 53 48 49 47 42 49 56 40 55 55 43 49 38 52 36 32 26 56 63 59 78 30 46 35 30 53 53 71 76 68 82 72 63 59 71 77 74 70 64 41 82 143 145 91 65 18 49 118 112 106 76 62 217 151 165 110 78 84 88 72 129 73 2 7 14 26 23 7 19 1 5 165 251 159 106 98 250 50 1 13 8 6 5 1 19 153 226 221 250 177 7 78 58 37 56 81 98 68 121 159 128 108 49 56 83 60 42 243 205 153 175 96 240 251 173 181 137 130 61 39 2 124 203 250 244 57 37 62 246 249 186 94 177 214 187 150 123 181 117 49 60 93 85 48 72 23 150 209 110 7 126 104 9 29 38 153 123 96 78 174 154 51 64 63 162 71 110 238 75 36 59 245 225 214 209 132 250 236 247 196 21 60 160 59 65 158 113 82 74 136 172 171 196 252 214 54 93 98 88 62 88 33 9 42 36 32 30 16 20 17 22 19 21 17 11 15 23 25 20 16 16 20 21 18 17 18 10 18 17 10 12 16 12 8 16 14 11 9 9 10 12 12 13 9 12 10 7 16 26 22 39 10 13 21 12 8 3 1 214 171 56 135 119 130 188 188 178 206 222 206 196 164 134 120 252 59 2 4 72 200 129 129 116 101 107 107 137 150 172 180 203 185 185 145 50 55 77 71 75 57 39 5 4 196 254 56 1 2 1 1 2 1 38 61 44 3 1 19 2 15 50 5 110 99 28 49 45 2 20 2 9 4 3 10 14 1 3 0 5 3 5 2 4 18 10 10 11 4 63 78 40 57 16 24 64 73 86 30 45 47 6 1 4 164 230 172 115 72 57 110 175 232 245 65 2 4 6 16 11 8 4 4 6 7 4 2 2 13 2 2 14 188 131 122 109 237 230 205 217 220 223 220 214 228 212 76 223 228 221 232 228 220 222 222 219 222 223 224 218 217 217 223 214 219 223 202 16 146 209 2 12 6 14 125 48 85 126 10 1 95 142 84 150 103 117 85 51 116 98 168 168 145 131 149 153 80 1 54 246 131 90 54 117 169 79 98 80 99 108 103 104 90 92 87 91 139 34 1 162 36 5 2 3 123 199 185 186 115 70 120 136 
148 205 205 52 27 1 75 155 197 249 252 225 170 190 232 237 235 234 220 219 199 127 74 
48 64 40 74 106 65 104 58 46 99 110 101 69 52 60 73 67 67 73 51 83 94 73 126 139 78 193 214 113 118 137 104 99 122 145 117 121 129 135 104 184 242 249 232 119 151 198 248 133 132 138 139 139 140 137 132 130 143 129 154 125 183 229 218 229 207 172 217 211 183 189 205 215 226 228 226 223 233 225 232 160 85 136 149 168 176 185 200 196 201 207 218 176 246 249 194 243 175 2 8 124 216 242 252 43 32 117 183 233 255 52 6 65 200 253 253 42 5 101 197 211 105 7 34 35 40 54 55 50 43 29 29 46 32 49 52 41 42 33 46 40 36 31 56 87 58 73 44 28 8 10 52 82 83 78 75 84 58 52 61 70 68 72 60 59 60 53 19 28 24 64 55 80 113 104 116 81 101 209 191 185 152 106 96 93 63 129 88 2 7 12 21 18 9 15 15 1 2 92 199 77 235 193 1 13 5 26 9 11 8 4 1 3 36 76 47 34 76 72 70 60 36 49 62 87 121 128 106 19 84 68 48 132 254 96 190 203 201 232 215 194 90 207 246 191 3 5 154 176 225 220 118 1 226 249 250 238 156 197 204 145 10 10 247 231 24 118 248 254 110 24 120 234 202 244 90 6 19 153 252 224 129 166 147 83 94 90 126 27 213 248 233 164 162 219 65 38 254 203 185 168 220 251 142 255 171 148 200 188 183 113 171 179 51 69 74 254 253 252 250 222 61 78 77 88 77 87 59 42 70 22 5 46 41 23 23 19 15 16 17 15 16 17 16 22 19 16 17 17 15 15 17 19 20 13 9 15 18 15 10 12 13 12 10 9 10 11 11 13 9 12 9 3 6 13 7 24 24 8 10 21 31 1 40 250 108 155 197 164 187 229 245 244 229 237 227 239 242 105 108 224 241 2 1 134 141 85 112 98 186 200 213 214 235 239 232 209 179 190 182 75 74 47 69 82 71 24 44 247 251 251 255 244 134 5 0 9 6 36 78 44 6 10 2 2 50 68 59 249 215 44 36 3 5 1 2 4 14 0 3 0 13 4 4 7 18 1 1 8 1 5 5 5 75 130 24 15 6 68 161 224 215 208 204 116 84 19 4 180 219 65 104 111 80 98 65 76 25 127 249 37 2 14 4 9 7 7 6 5 6 5 5 5 0 10 6 7 241 108 106 114 247 234 231 239 234 214 209 223 211 220 122 242 240 237 230 231 233 230 230 226 221 227 226 232 222 239 225 224 221 254 202 10 127 188 87 28 2 4 166 131 51 144 68 2 67 137 66 121 126 77 80 61 121 116 172 161 141 128 153 144 54 11 20 252 252 249 251 253 151 69 97 88 105 111 105 107 94 97 93 94 144 60 7 91 17 6 7 49 202 122 
111 74 68 113 158 167 180 202 170 18 34 79 206 248 208 156 127 108 153 183 195 199 224 235 204 157 101 58 65 
66 40 68 31 125 133 23 87 86 52 52 78 61 77 59 72 45 66 54 57 61 65 105 56 94 70 160 236 126 123 140 130 154 116 118 121 140 127 119 127 176 245 250 252 239 254 251 245 133 136 139 139 138 139 138 135 135 136 96 117 92 170 227 215 235 197 109 192 214 175 208 224 225 223 219 218 216 227 224 238 170 88 138 153 169 175 186 197 200 206 204 202 202 246 246 207 245 184 77 48 104 223 234 254 11 12 95 206 230 251 58 2 70 207 240 238 50 7 98 220 222 64 13 27 17 53 49 39 46 48 34 27 53 37 59 70 44 46 44 52 52 44 47 68 77 52 72 51 29 27 31 60 96 102 91 78 84 61 56 56 62 64 70 62 71 61 53 54 50 49 67 55 110 136 131 177 92 98 231 162 124 146 171 130 92 44 121 107 2 5 8 17 11 15 13 13 17 8 1 1 113 224 22 6 10 23 9 20 25 7 18 11 8 9 23 47 73 67 53 66 79 65 50 37 21 17 58 20 42 76 73 73 38 115 205 203 248 64 180 119 107 100 228 212 248 100 1 217 191 163 196 137 51 254 252 245 249 197 141 53 191 43 145 242 248 66 202 254 246 250 10 137 254 186 249 254 95 21 147 146 194 76 141 110 108 125 82 106 110 253 176 219 216 234 216 242 129 240 206 189 196 204 247 173 251 136 18 81 70 30 187 253 254 84 52 72 213 194 125 174 213 79 64 93 92 45 50 25 91 92 42 11 34 20 19 24 20 16 21 26 22 20 22 21 23 20 18 17 16 15 14 16 13 18 16 12 12 12 18 28 12 13 12 12 10 10 11 11 11 10 12 12 6 7 9 4 5 16 13 8 4 12 1 193 230 113 161 154 231 240 209 214 219 208 217 222 214 233 168 133 139 251 14 57 156 135 195 232 140 182 223 189 189 166 188 208 204 178 163 207 140 58 91 61 49 44 119 254 252 157 145 176 210 254 249 62 1 1 59 51 0 1 1 1 4 68 90 115 181 151 121 94 38 13 2 4 4 9 2 11 13 6 19 69 111 14 13 2 60 69 1 9 10 111 22 16 44 151 221 179 182 180 177 200 217 196 117 43 230 37 94 109 122 91 116 73 68 37 11 93 237 0 6 11 4 5 6 6 4 4 4 5 3 1 1 1 42 225 89 131 139 249 228 235 200 212 224 219 222 222 212 127 240 228 227 230 227 232 219 221 226 221 221 214 225 219 212 226 214 204 254 177 34 151 159 145 25 27 12 129 157 81 196 106 1 97 117 20 38 77 73 79 38 107 83 168 190 158 119 145 154 48 1 53 246 253 253 252 241 106 78 90 92 104 108 101 103 91 96 93 108 
169 50 30 3 26 68 1 190 192 81 86 103 145 163 166 168 163 184 141 15 153 241 254 250 157 0 129 243 232 239 239 243 204 134 77 75 83 72 76 
45 44 58 53 48 146 64 40 93 105 69 46 69 116 78 65 85 81 58 50 67 57 68 53 44 22 184 221 116 116 144 121 112 131 155 123 127 141 134 130 140 196 166 168 184 161 148 188 128 138 138 140 141 139 140 138 143 136 128 121 110 190 229 213 228 206 156 141 163 203 207 219 226 212 206 216 214 216 218 246 179 89 140 152 166 176 188 190 190 204 208 209 186 243 243 194 250 175 28 134 180 190 247 253 29 2 84 197 226 255 66 2 59 195 255 253 44 36 153 235 201 15 39 29 23 41 62 63 34 55 50 37 64 42 63 83 36 43 52 51 55 40 48 67 79 61 78 48 46 59 54 62 91 105 93 83 88 66 62 54 81 67 59 54 77 63 48 65 48 43 46 40 115 108 112 210 143 73 221 180 191 146 132 154 118 53 132 138 3 4 6 14 15 2 6 12 5 8 12 5 3 8 4 6 18 13 3 19 11 25 20 21 46 66 79 69 57 65 72 67 63 69 71 67 74 54 47 38 75 76 65 77 77 15 164 244 33 33 232 191 181 244 225 184 234 191 87 154 210 231 185 136 172 247 242 250 247 158 98 107 128 37 220 154 159 146 226 250 187 246 102 71 253 248 232 244 251 14 121 89 209 175 1 56 237 151 29 118 216 232 128 198 235 135 98 195 199 252 253 229 217 235 144 157 169 85 26 147 183 2 173 219 209 143 43 69 179 178 157 169 212 111 71 84 91 50 39 98 88 111 75 21 29 19 20 15 19 16 19 23 16 13 16 20 21 20 19 18 18 18 18 19 10 14 15 13 10 9 17 35 23 18 14 13 11 11 11 12 9 9 12 13 12 13 12 11 11 2 18 14 4 1 2 253 150 135 166 163 246 220 204 218 223 223 223 224 227 241 181 137 129 244 66 126 170 143 222 208 83 82 199 171 207 220 230 168 200 228 166 155 190 59 75 75 26 125 251 239 107 100 107 109 66 173 253 254 146 2 21 35 1 9 3 4 12 83 111 153 171 161 141 131 110 78 18 8 7 7 3 1 5 17 44 167 166 58 13 11 44 6 13 2 31 72 44 1 150 216 176 187 180 212 203 202 142 171 174 199 113 153 173 174 66 70 88 129 164 158 137 77 227 0 6 11 3 4 5 6 5 5 4 4 5 7 8 2 50 207 161 169 147 248 229 240 201 215 235 224 214 246 204 132 241 220 224 225 221 224 218 214 219 220 216 215 226 212 225 225 212 226 249 174 20 104 173 16 25 42 3 61 124 59 204 43 11 100 51 19 7 36 139 117 81 105 84 176 174 128 126 130 139 82 0 147 253 182 188 166 104 52 104 109 99 110 114 107 
109 97 102 98 104 109 57 61 56 37 54 50 163 152 73 131 196 153 161 160 154 170 194 126 122 232 255 246 188 52 50 162 176 175 167 157 99 65 53 73 82 67 58 71 
42 50 46 64 38 59 190 55 43 60 70 90 77 50 53 60 92 100 111 85 65 68 77 53 20 129 240 221 129 111 134 132 133 164 192 163 142 138 132 142 117 131 89 109 85 111 106 96 121 140 139 141 143 137 139 136 135 133 148 143 128 196 226 215 222 206 157 158 176 181 206 225 221 226 225 226 220 228 226 242 180 89 142 148 151 168 190 192 196 205 208 213 185 251 248 187 244 178 10 63 134 208 240 251 15 6 71 200 233 247 106 7 40 186 247 250 40 11 131 250 134 1 94 68 14 40 51 55 29 56 48 35 59 37 52 72 37 43 53 50 61 43 46 57 78 64 75 35 61 68 63 76 89 95 85 90 97 62 59 61 76 75 80 59 50 57 66 51 57 55 56 27 107 123 109 131 138 74 209 150 167 184 114 135 160 93 159 175 7 5 6 11 14 20 16 8 12 15 12 10 5 14 4 18 7 13 29 7 12 18 13 56 81 61 64 69 71 62 68 67 64 72 70 71 71 75 64 82 61 79 73 70 67 63 58 38 16 97 238 136 76 86 227 212 252 243 181 138 214 219 203 169 240 252 139 183 253 196 147 176 170 104 171 120 137 162 241 229 122 254 179 11 239 244 240 229 243 129 127 200 172 206 71 116 158 115 43 167 236 113 75 168 213 117 102 120 223 126 142 186 250 172 144 190 173 73 53 111 120 61 205 252 233 160 62 66 164 162 135 164 222 154 48 84 86 77 96 82 49 47 61 48 22 14 43 40 27 19 17 17 13 12 16 19 20 22 23 22 21 20 20 21 22 17 10 11 17 16 16 22 36 24 14 11 13 13 13 12 11 12 12 10 12 11 9 10 9 3 14 10 6 2 57 244 103 156 173 135 225 234 218 179 215 222 231 240 240 249 211 155 127 251 124 137 158 135 221 185 108 61 159 249 244 251 250 229 201 253 162 99 189 94 66 54 109 255 203 92 111 120 94 96 83 82 78 187 251 139 1 35 37 5 7 26 104 141 237 143 59 157 229 249 243 107 95 13 3 2 2 13 15 84 192 171 191 211 115 20 4 0 3 8 67 51 49 8 133 161 162 188 189 187 164 181 166 170 144 199 109 54 133 134 50 94 121 125 198 138 133 164 254 0 1 19 7 6 6 8 11 11 8 5 5 2 2 3 72 254 206 210 173 254 214 208 229 233 224 210 219 251 201 168 254 233 246 225 228 230 238 228 225 229 224 235 226 227 225 226 242 219 254 131 11 178 143 28 60 68 45 1 39 91 146 1 12 117 85 1 19 49 83 90 59 101 88 166 185 154 125 150 138 80 60 100 51 80 110 73 78 107 102 88 102 112 
117 112 113 99 102 99 111 95 50 30 12 51 49 33 206 179 101 166 169 136 175 152 148 163 178 112 214 248 153 99 117 86 73 132 120 127 142 118 91 97 120 120 83 66 76 74 
63 58 49 54 46 41 111 188 63 88 91 94 103 59 60 67 56 52 58 87 99 93 67 20 150 240 198 235 163 121 116 115 124 128 137 117 112 125 126 128 124 144 134 149 118 117 121 134 118 144 140 141 143 133 136 133 136 129 125 140 124 191 224 216 211 210 203 216 210 189 176 190 214 223 224 223 217 228 227 241 185 93 147 150 139 155 188 197 205 207 205 198 193 245 250 208 247 186 44 81 124 214 235 254 44 5 60 199 217 255 80 17 151 197 226 254 54 7 109 205 98 68 2 35 49 57 60 54 36 58 38 30 52 43 54 70 46 47 52 52 68 56 50 52 53 58 79 30 65 76 73 80 91 106 92 90 96 67 67 59 69 73 76 70 59 30 32 28 55 42 54 15 55 115 138 99 49 76 217 158 112 122 112 118 158 109 163 190 5 4 9 12 10 7 4 12 20 9 4 20 19 9 22 16 13 14 17 15 18 18 20 44 59 65 65 73 71 66 72 70 65 67 68 70 63 70 85 73 69 73 71 76 71 78 64 66 78 65 203 8 79 167 233 217 210 217 206 151 156 152 115 153 235 186 150 85 244 195 57 71 45 175 208 238 181 133 251 232 228 253 229 10 126 250 246 216 240 224 103 124 86 101 117 136 49 77 32 181 248 248 203 205 141 161 203 250 239 129 21 11 194 199 170 233 119 61 38 112 75 70 195 207 187 165 80 52 140 253 238 251 253 171 38 95 91 87 88 93 82 57 47 41 20 18 28 29 29 20 16 16 18 24 28 25 22 25 26 24 21 20 19 18 22 19 13 14 19 18 18 24 38 25 13 11 14 13 12 13 10 12 9 8 12 10 8 13 4 10 2 5 10 1 122 246 111 178 164 127 240 224 216 186 249 220 233 173 137 78 146 176 111 233 172 138 186 193 221 183 194 98 214 249 236 242 253 250 163 208 188 94 161 105 52 49 253 229 106 105 105 97 121 143 143 127 133 107 188 241 39 3 15 6 13 120 165 245 124 49 135 71 96 194 253 249 65 107 6 5 1 8 96 169 141 142 134 114 184 143 16 13 5 10 68 28 42 6 160 182 176 171 176 161 166 196 137 169 141 127 104 59 144 68 62 102 82 82 102 88 49 97 255 16 0 5 8 6 6 7 11 12 9 5 1 5 1 4 112 219 48 17 145 246 247 244 248 234 239 238 233 254 190 174 251 236 241 238 246 236 242 242 238 242 239 239 241 251 242 241 229 241 253 64 159 218 33 62 53 72 74 41 0 33 5 8 17 114 149 54 153 120 61 114 92 104 56 185 183 127 138 145 151 109 104 88 71 61 76 103 113 125 120 113 98 111 
117 113 113 96 99 97 89 105 100 83 151 118 95 71 180 180 157 176 169 162 148 166 163 147 178 171 94 47 5 93 145 109 79 165 157 152 142 146 168 128 121 134 107 83 97 101 
64 56 72 41 53 48 24 154 92 37 59 71 77 81 92 75 97 63 76 51 26 80 93 126 236 136 171 230 132 114 143 140 140 122 123 131 123 119 125 132 126 145 103 82 131 141 122 134 116 146 139 139 141 131 136 134 138 135 155 151 140 207 231 216 236 187 103 172 196 194 198 193 209 204 203 214 212 215 216 243 191 84 140 155 147 157 188 195 193 201 211 203 199 239 248 209 251 172 24 81 118 209 238 253 94 46 62 190 216 254 74 1 79 196 235 250 59 13 111 232 228 157 9 19 31 53 54 44 51 69 40 35 49 55 66 83 38 44 47 49 60 53 46 50 51 56 81 42 60 78 71 71 92 120 104 91 96 75 76 54 74 88 70 63 49 11 56 115 106 42 47 23 92 129 151 113 124 97 221 124 146 174 96 100 129 107 152 190 2 3 12 13 15 14 18 16 10 13 18 13 16 12 16 13 14 14 22 7 16 15 28 56 61 75 72 67 66 70 67 66 69 73 73 67 68 71 68 67 74 77 60 82 74 76 75 82 63 48 224 155 194 246 211 155 176 175 227 74 196 225 132 167 253 246 255 206 253 155 75 139 86 172 195 249 188 130 254 225 199 213 236 51 34 220 244 234 228 250 198 107 142 112 133 118 68 82 58 215 174 195 245 246 70 174 251 173 111 176 97 68 173 254 250 189 56 86 67 130 69 81 252 219 239 251 86 49 99 240 213 148 150 234 52 74 93 87 82 85 85 111 41 3 54 88 38 29 15 20 25 20 13 18 24 23 21 25 26 21 18 19 18 18 17 20 19 16 16 16 20 30 26 18 11 12 14 11 10 13 9 12 8 8 14 11 10 18 19 12 4 9 35 0 121 231 109 176 150 112 211 235 241 177 206 228 247 44 42 55 125 227 106 193 222 106 170 218 190 194 236 246 118 232 251 250 245 253 154 187 244 140 171 130 15 174 246 81 31 108 124 156 175 168 166 156 159 132 108 251 230 1 10 10 82 177 248 79 58 146 208 123 40 81 191 202 243 113 66 11 13 61 166 135 165 170 193 116 106 198 138 17 7 23 83 46 54 17 146 158 163 205 182 189 195 153 157 167 149 71 96 113 95 42 64 89 91 84 90 123 74 72 250 1 1 11 6 6 6 6 8 8 8 7 13 7 11 2 146 214 72 31 138 171 171 179 188 200 215 205 220 240 199 175 233 220 213 234 230 225 222 239 229 218 236 222 234 227 215 227 237 227 199 202 231 24 56 71 53 63 75 78 71 2 3 2 24 105 165 95 134 128 117 90 115 142 97 180 158 126 143 149 157 84 105 117 109 111 99 119 115 
103 109 112 102 116 123 120 118 99 103 104 94 126 207 204 202 166 105 94 196 181 173 192 175 162 159 147 151 163 171 189 81 55 48 156 183 105 83 129 123 153 125 126 132 131 125 122 103 87 96 93 
64 60 42 56 64 73 35 64 176 32 41 60 66 76 64 71 89 97 57 72 86 43 21 145 209 84 172 236 123 137 144 119 143 115 111 135 133 128 140 142 127 144 100 80 94 146 127 128 113 144 136 136 140 129 137 136 128 134 199 144 128 203 225 220 225 212 152 179 167 222 230 237 205 200 203 217 217 220 214 234 186 65 122 157 161 169 190 191 200 202 209 208 186 245 254 200 249 190 21 74 129 211 229 254 33 40 155 189 226 250 83 4 59 196 243 254 56 4 101 232 249 200 115 63 27 20 52 54 61 80 48 43 43 54 68 90 30 44 49 51 53 47 47 58 67 38 59 53 59 73 70 86 94 115 100 99 104 71 69 55 71 87 74 68 56 36 62 40 19 7 37 16 93 123 143 120 180 147 187 176 185 157 161 94 121 118 155 196 2 2 11 9 8 13 13 11 12 15 15 13 11 15 19 17 13 17 10 17 13 9 21 73 68 62 71 67 68 68 63 71 72 62 67 73 70 65 68 77 70 73 81 67 74 72 69 74 81 44 124 240 181 129 127 196 192 236 248 93 239 230 168 202 253 252 251 255 249 123 179 215 187 181 222 252 185 108 247 234 138 176 249 48 61 61 250 252 245 251 121 121 150 92 161 65 101 144 70 241 146 113 94 178 41 86 178 166 161 184 119 71 70 188 158 43 77 88 73 221 105 24 253 250 246 228 63 68 71 249 138 97 212 253 51 82 83 86 89 80 84 87 69 61 45 63 38 23 14 34 52 38 13 7 16 21 19 22 22 18 15 18 20 21 24 23 16 12 17 20 19 23 13 10 10 15 14 9 9 13 12 15 11 10 15 10 8 17 20 7 26 2 32 4 98 239 122 183 160 111 191 242 226 194 165 241 245 120 71 75 123 235 131 164 241 95 142 237 194 113 202 186 50 244 242 228 221 214 157 144 166 162 157 140 21 247 180 112 19 152 194 172 169 156 151 150 167 145 133 134 242 33 4 53 110 240 174 70 155 59 63 59 51 56 16 165 252 177 132 80 14 231 76 105 168 155 179 178 117 102 194 81 10 36 69 40 51 10 153 173 175 168 153 172 154 160 167 177 135 57 93 104 45 57 247 250 249 249 237 116 56 67 254 157 19 1 6 7 9 9 8 8 8 10 15 4 0 1 171 186 40 113 57 70 51 47 47 47 47 50 52 71 91 68 77 82 71 71 44 63 62 91 59 29 76 65 53 70 81 99 62 51 189 220 27 51 76 67 67 55 53 75 38 7 2 2 29 103 182 70 115 116 103 96 80 136 103 187 178 142 147 159 164 94 100 112 100 108 101 116 116 109 114 102 99 113 121 117 
115 95 100 103 93 165 228 205 183 136 106 64 190 195 173 196 170 167 156 154 150 152 160 145 105 75 103 138 133 77 84 40 24 107 121 125 120 127 114 117 115 92 91 101 
49 90 66 60 63 74 105 72 104 155 26 62 69 88 85 65 71 84 56 86 101 51 29 131 214 102 185 228 108 97 141 116 138 141 145 126 139 129 136 141 118 122 127 139 131 143 130 134 119 149 138 141 141 169 152 129 137 136 129 133 119 180 225 217 223 198 153 217 226 205 217 218 222 221 218 215 225 230 223 227 240 227 139 124 164 172 181 192 196 201 207 203 190 241 254 199 243 187 49 93 115 204 233 252 50 6 67 183 221 254 66 1 61 191 249 250 83 12 91 229 244 207 97 149 63 35 50 40 57 57 75 64 49 60 75 69 36 59 51 73 54 47 48 57 68 51 50 54 67 74 69 76 98 117 95 95 110 75 63 65 76 81 70 73 41 32 41 38 38 28 20 26 27 84 139 82 120 103 194 198 201 144 165 112 124 179 153 197 2 6 14 9 14 3 19 20 10 11 10 21 14 19 11 20 17 16 9 11 7 8 47 61 61 71 62 69 72 60 70 68 68 68 78 67 69 75 70 69 74 69 82 67 75 74 73 75 76 72 58 42 23 1 32 242 254 199 176 146 216 221 148 218 253 229 218 237 253 65 122 114 71 116 146 166 146 107 170 248 180 224 253 45 76 46 118 253 158 36 36 104 128 76 150 72 166 247 68 245 207 152 192 164 36 53 166 207 228 253 167 77 111 33 40 86 100 91 77 69 13 49 221 254 255 203 53 73 155 205 195 53 55 63 73 83 86 86 84 82 98 61 40 89 42 41 26 45 31 17 42 44 22 19 12 18 23 22 17 14 30 36 18 13 17 18 17 15 16 18 16 12 27 20 11 22 17 16 7 11 12 21 10 12 14 11 29 38 18 22 15 18 20 1 80 244 107 179 162 135 169 241 232 216 192 229 248 157 58 74 85 214 161 169 247 116 166 213 156 97 192 241 236 179 120 91 113 106 86 91 97 169 123 131 43 248 115 79 39 189 161 164 156 158 153 159 152 153 148 109 250 121 7 107 196 176 188 72 61 53 86 117 101 116 137 44 187 183 91 185 142 102 76 96 115 135 145 122 153 76 75 169 9 40 67 33 54 26 185 155 172 155 150 169 141 146 159 183 128 47 79 94 30 56 252 222 235 242 250 94 43 74 235 176 103 3 7 7 6 7 7 8 7 5 2 3 7 1 156 253 168 178 139 124 123 129 116 108 102 92 105 118 76 93 77 75 63 75 54 41 107 41 80 182 66 58 65 69 75 42 126 254 182 26 55 66 69 67 64 68 59 81 34 9 3 2 31 98 198 157 157 131 98 120 90 109 152 193 175 135 141 155 159 91 114 127 118 112 110 116 110 113 121 107 97 113 116 113 
111 97 112 104 90 169 202 204 183 142 165 181 166 177 161 159 165 172 158 162 164 158 164 140 78 75 78 118 108 85 107 109 103 161 151 160 156 152 142 153 150 101 104 101 
59 86 48 55 53 61 124 65 18 173 104 18 103 84 89 95 50 71 59 79 60 75 37 83 229 102 198 229 99 108 152 129 137 131 131 117 139 134 136 136 130 133 123 126 145 133 104 118 112 145 145 144 133 145 145 144 140 136 122 127 121 187 225 208 222 200 154 179 161 224 208 220 203 206 222 221 214 212 217 243 185 132 246 200 143 188 185 191 201 206 211 206 189 237 252 196 242 192 32 75 148 206 242 254 53 1 63 186 221 251 94 4 53 200 234 242 69 44 161 211 240 204 56 164 60 17 50 52 56 52 42 37 57 63 54 66 52 59 56 43 35 44 49 54 55 41 35 57 66 82 72 94 99 124 108 79 95 65 68 63 70 77 81 71 41 75 102 82 108 66 20 28 98 118 135 117 130 100 122 192 192 181 213 121 116 155 150 189 1 2 29 50 18 8 11 11 12 23 20 8 9 18 17 14 14 15 19 19 24 26 72 55 74 61 68 64 73 64 62 75 72 66 63 72 69 63 78 76 74 71 72 75 73 73 73 75 78 80 74 66 68 87 59 76 48 11 86 206 221 205 151 241 252 222 168 223 252 41 9 27 10 102 203 83 195 18 117 251 236 251 251 38 81 80 66 66 41 64 87 59 50 13 125 91 42 79 124 200 255 245 249 76 57 63 69 250 249 155 48 99 84 105 97 97 87 98 100 47 64 60 212 251 226 229 62 80 160 134 21 61 72 78 83 87 87 85 83 82 84 69 74 94 81 42 19 25 23 25 33 14 18 33 14 15 18 17 19 21 37 41 24 20 16 17 16 15 16 17 16 12 18 16 17 27 24 18 11 14 8 14 20 12 5 5 12 28 11 18 13 33 34 1 44 247 126 187 179 157 152 237 223 236 228 216 250 193 44 94 65 186 202 127 249 107 182 213 163 114 152 111 69 84 105 110 116 108 110 87 113 152 84 112 102 251 104 37 120 187 159 152 157 162 162 156 163 158 140 135 224 186 10 140 195 147 163 131 150 186 221 224 226 221 254 155 77 246 114 98 69 14 97 97 89 109 109 127 155 127 116 190 135 37 47 44 65 18 158 138 149 177 161 163 117 161 175 180 117 60 87 80 40 122 254 249 237 242 251 64 11 72 219 169 100 5 5 7 7 9 9 8 7 6 6 7 1 2 16 66 104 97 138 127 137 148 160 162 159 169 145 178 174 180 195 209 215 221 201 235 228 151 243 239 217 193 198 197 189 237 234 56 6 63 78 71 64 69 67 71 64 50 67 2 1 1 25 102 203 147 161 125 97 81 65 131 166 158 208 133 149 172 153 70 109 76 80 105 113 116 122 124 121 105 100 115 
120 116 115 98 108 98 90 169 231 202 173 148 151 254 220 160 179 174 165 146 158 159 165 156 152 140 71 68 96 169 168 122 99 177 194 161 155 171 158 153 154 158 125 97 109 99 
71 52 48 49 47 72 107 64 41 56 193 28 62 82 70 107 66 94 80 61 35 76 45 91 220 89 181 232 137 136 120 131 149 127 129 123 140 121 122 135 129 129 129 137 122 123 129 170 120 137 135 134 130 131 134 137 119 136 140 139 118 178 227 221 235 209 126 200 202 183 219 223 233 219 228 223 221 228 223 238 188 57 99 142 187 176 176 194 201 208 214 209 192 239 254 199 244 195 31 46 130 197 232 254 63 2 58 190 230 251 117 16 37 178 242 254 56 5 111 221 241 198 90 124 32 33 47 62 58 51 54 48 31 44 60 75 40 56 70 49 42 32 42 35 45 57 65 60 66 83 68 76 91 121 116 89 101 74 73 59 77 81 87 74 35 50 72 61 69 36 20 24 100 128 162 141 166 101 171 215 179 189 212 166 161 154 144 187 3 1 34 77 52 23 8 18 18 5 9 16 16 14 15 7 21 15 14 7 15 35 72 60 63 60 64 76 66 76 70 62 68 72 69 71 72 68 61 79 67 71 72 74 75 75 75 74 75 79 80 80 74 80 76 61 67 55 95 191 170 237 154 251 253 251 247 250 246 31 83 93 79 70 221 143 204 4 70 219 180 176 87 62 80 81 79 84 94 80 84 69 101 145 105 170 137 160 133 19 87 143 136 54 80 68 69 44 38 63 73 86 90 83 86 91 90 91 93 88 103 57 148 238 195 174 82 98 89 74 99 88 85 87 88 87 84 81 80 80 85 82 86 76 92 53 48 63 38 84 54 22 47 28 12 53 32 23 18 16 26 29 18 20 17 18 17 15 15 16 14 12 18 18 26 28 27 14 12 14 16 11 21 11 10 15 8 15 15 17 6 19 19 1 7 252 146 171 183 168 137 240 227 232 221 221 244 223 28 70 85 189 206 138 242 159 104 193 175 121 103 119 128 123 105 113 115 97 105 106 102 132 72 150 244 215 94 63 164 170 167 163 156 144 156 166 162 163 163 152 159 222 107 139 212 131 167 241 214 224 252 248 246 244 252 201 51 235 155 96 77 25 183 217 205 227 237 252 250 248 231 247 250 56 38 52 61 10 159 153 137 174 179 148 103 168 156 204 91 50 69 77 36 176 250 178 196 222 220 39 31 79 242 162 94 4 9 10 10 9 9 7 4 4 6 6 9 6 2 7 3 6 3 1 2 3 4 6 8 40 27 54 48 65 46 59 11 4 15 29 30 56 24 22 57 77 61 64 109 61 16 44 67 75 83 84 72 70 66 63 72 67 79 41 32 53 61 100 232 112 121 161 58 93 93 131 168 159 244 127 146 140 137 98 137 92 28 86 110 114 124 126 120 110 99 114 119 117 118 102 112 101 118 134 202 117 132 
125 73 238 233 140 203 160 143 160 148 159 155 157 149 144 80 73 108 176 194 80 30 120 158 157 183 168 162 146 148 163 132 106 109 101 
87 68 54 59 56 68 64 41 61 38 122 142 22 93 56 58 85 95 100 73 58 54 41 82 238 76 104 234 122 89 112 123 134 124 134 115 131 132 135 136 130 125 114 152 119 138 116 139 135 140 132 130 138 136 134 128 112 130 134 135 118 180 224 211 229 190 99 150 177 222 202 207 196 202 234 228 219 232 226 229 203 102 129 136 170 175 190 189 200 206 213 212 196 241 254 198 232 211 50 61 108 190 243 254 71 23 56 185 228 254 103 8 165 200 227 255 68 5 84 220 250 212 129 130 102 31 51 28 69 54 30 45 59 62 57 106 37 56 54 54 56 37 49 33 74 71 77 39 66 81 85 89 106 121 113 96 99 78 74 69 78 85 76 77 60 61 95 100 105 58 21 23 85 103 134 139 134 114 195 220 159 150 167 94 151 164 150 190 1 1 38 59 50 44 23 21 18 13 20 8 13 10 17 14 17 7 7 20 40 63 67 63 65 84 63 56 61 56 60 57 75 65 61 56 55 57 68 69 84 73 82 77 76 76 76 73 72 73 77 80 87 65 86 81 73 69 70 157 161 201 158 253 242 207 217 251 230 22 68 65 73 44 159 250 14 32 75 27 11 160 42 61 84 89 85 76 91 83 90 77 90 167 34 137 193 81 50 84 60 33 47 75 91 86 83 76 77 87 96 81 90 88 90 88 90 103 89 98 90 90 51 18 36 12 111 102 93 93 80 93 89 88 87 85 82 81 80 79 76 85 82 78 89 77 74 88 80 85 70 37 43 37 24 36 36 22 15 11 15 17 12 18 21 20 17 15 14 14 15 15 21 18 26 22 24 10 12 13 16 9 12 9 10 18 11 11 14 16 15 19 21 5 1 232 175 177 177 176 110 235 234 239 230 238 244 234 200 216 253 221 182 136 214 150 123 195 199 106 118 115 116 92 99 116 114 96 108 114 95 142 53 93 250 146 70 93 186 162 163 146 144 149 128 145 145 149 155 153 152 198 110 126 144 69 122 224 189 196 179 225 233 215 254 221 17 232 178 97 41 22 176 253 231 235 241 233 218 221 226 208 236 50 30 38 54 43 189 144 125 181 176 189 133 171 164 206 102 65 63 92 54 54 165 219 212 229 238 192 10 142 194 143 92 4 10 9 9 9 8 7 5 3 4 8 10 5 5 10 22 0 0 11 107 163 187 187 201 143 133 150 198 180 173 192 190 156 95 1 19 5 15 5 7 2 11 8 13 34 56 85 73 75 76 78 64 62 75 66 61 63 75 12 12 5 34 109 210 76 176 131 39 86 107 111 141 134 181 136 154 156 144 73 124 102 70 107 120 120 122 122 118 107 102 115 117 117 118 104 114 104 110 109 
98 110 129 89 219 227 156 154 171 167 157 172 168 152 158 158 145 136 78 61 108 179 189 82 47 123 184 191 190 179 170 152 147 149 135 107 107 107 
46 50 61 56 75 107 49 64 54 40 29 156 109 54 95 60 59 52 87 94 78 54 55 51 249 206 143 241 86 33 128 135 153 124 138 130 142 132 132 145 131 143 111 141 128 143 87 105 120 136 135 131 134 131 133 128 125 135 131 132 121 187 226 208 235 200 69 138 177 171 198 221 211 195 202 193 195 225 234 240 200 91 145 173 183 192 189 195 202 205 211 211 197 239 249 190 248 195 7 65 137 192 244 254 89 34 83 188 223 254 98 1 57 200 230 253 89 2 51 212 245 205 108 169 136 54 34 54 82 74 31 33 51 71 44 65 23 67 79 72 44 33 42 58 120 78 71 44 76 85 85 97 108 114 124 102 105 74 74 64 76 95 78 73 57 67 114 85 111 39 20 29 58 101 145 130 127 98 162 208 159 175 179 147 168 173 129 195 3 1 38 49 61 77 66 49 26 9 16 13 20 14 13 12 13 21 13 27 58 68 73 54 43 23 19 33 27 32 40 33 23 19 29 32 53 93 77 44 43 76 71 68 71 74 77 76 74 73 77 80 82 74 71 80 82 86 50 168 216 215 222 250 234 211 227 251 192 11 73 84 80 61 96 76 5 78 101 100 81 247 98 69 89 83 85 91 94 85 89 82 79 68 78 198 198 58 70 80 85 99 82 91 87 81 77 87 91 74 84 93 84 94 93 93 94 85 91 106 96 100 96 97 109 84 91 96 94 100 93 88 88 88 87 87 84 84 82 81 78 82 81 81 79 81 77 77 74 77 86 20 30 51 14 24 22 12 14 16 18 20 16 20 22 19 16 15 14 16 19 22 16 13 20 17 23 13 14 13 9 13 13 15 9 11 26 24 15 10 20 20 23 8 1 186 204 159 184 188 163 204 248 246 230 225 182 173 207 194 197 145 185 84 169 177 108 208 186 128 114 109 130 94 112 106 104 108 103 107 117 128 58 81 247 166 76 86 174 129 139 135 164 206 204 243 215 137 164 164 150 176 66 155 124 40 115 230 163 199 163 182 217 222 251 217 27 181 198 74 13 19 148 235 205 218 227 219 218 216 224 210 241 110 12 35 51 45 192 154 146 159 156 155 147 121 167 214 75 92 88 68 46 17 198 252 238 244 252 253 6 148 177 139 122 5 6 7 9 10 9 8 8 8 8 10 1 16 0 1 1 44 202 214 143 120 142 113 99 124 120 138 128 38 56 9 6 64 70 100 223 204 193 133 59 3 1 1 15 78 76 55 76 72 74 68 68 70 70 61 56 67 63 2 5 0 49 137 208 91 167 132 72 114 79 127 116 154 195 133 157 147 143 94 111 135 127 120 115 123 123 123 123 106 105 119 122 121 120 103 111 98 107 115 
107 90 78 56 189 142 158 175 152 162 144 140 135 131 158 155 151 142 95 59 112 191 184 101 94 174 116 51 133 159 133 125 125 114 99 75 97 92 
70 105 43 39 52 57 60 57 48 47 43 43 196 55 50 104 68 77 77 73 59 63 71 75 135 162 150 237 123 82 116 143 155 126 148 138 133 111 114 142 129 141 129 131 117 130 114 138 106 129 129 130 128 132 134 130 132 133 123 125 119 190 232 216 222 228 160 191 227 211 230 227 221 212 218 221 215 215 225 242 204 116 128 169 192 187 181 188 201 203 208 209 195 238 249 192 251 196 8 2 101 200 232 253 100 19 108 190 220 254 121 2 31 183 241 255 87 4 48 189 248 231 90 132 126 97 101 65 54 54 33 35 23 60 51 61 80 98 82 63 51 64 32 44 134 100 90 73 69 89 75 92 89 97 131 102 117 77 83 57 70 90 90 84 54 69 139 113 108 85 26 24 85 128 132 130 145 116 172 220 190 178 187 151 167 182 128 201 7 2 44 57 60 63 64 72 63 31 12 10 5 7 12 16 21 45 32 39 75 60 28 24 61 130 185 215 242 241 233 239 233 238 226 226 196 214 112 104 113 48 69 80 70 72 74 77 74 72 73 75 74 91 77 81 71 80 43 147 253 170 233 253 252 245 238 251 137 32 84 58 82 75 74 38 74 77 86 73 55 73 78 75 77 86 92 87 76 86 94 84 86 76 71 84 71 81 91 83 87 80 91 88 86 94 91 86 80 84 91 72 87 84 86 84 93 90 86 86 80 83 83 95 80 125 95 89 89 91 94 91 87 86 86 85 85 83 81 79 86 76 81 74 72 74 83 71 75 70 84 50 27 32 47 17 24 15 20 19 16 19 16 17 19 17 15 15 16 18 22 27 13 12 17 19 24 18 14 11 13 16 11 16 11 13 35 23 18 16 25 30 36 10 1 127 223 133 199 206 170 180 203 40 103 164 117 103 174 223 226 105 83 97 186 151 88 163 200 141 105 105 145 94 114 109 109 114 123 102 105 113 94 61 203 183 40 125 203 202 229 231 224 250 251 244 247 140 145 158 165 179 71 125 133 32 109 245 191 138 75 136 213 245 253 215 36 147 203 57 30 25 160 246 222 241 227 229 229 223 211 211 247 94 13 41 44 34 185 164 164 149 177 150 140 142 138 181 52 92 73 69 52 2 154 255 254 230 254 218 14 130 143 147 89 3 10 11 11 11 9 7 5 5 6 11 9 1 0 72 212 210 126 58 11 87 178 170 163 164 157 182 151 28 31 59 62 50 32 46 175 130 118 155 227 253 220 130 68 30 25 32 39 40 42 45 55 84 71 67 67 68 71 8 1 0 56 122 191 108 151 96 92 121 100 119 97 189 172 134 145 154 145 100 136 123 111 103 111 130 127 123 127 113 102 120 125 
126 124 105 110 96 97 115 119 98 82 60 139 236 171 154 156 146 133 148 142 157 146 151 152 133 92 68 103 167 117 48 151 194 27 1 114 179 139 128 129 140 120 78 88 69 
65 72 52 63 66 45 51 39 47 85 65 55 97 134 30 55 100 114 84 63 56 74 58 93 114 13 118 243 153 125 108 111 119 115 144 110 108 121 126 125 129 126 124 136 119 137 128 131 119 136 128 136 132 140 137 136 137 122 103 114 123 195 230 204 232 211 143 153 149 224 220 226 232 219 203 217 227 221 228 237 211 105 140 175 183 191 184 198 202 205 212 210 192 237 253 203 222 231 65 2 58 199 244 254 94 1 84 171 213 251 126 1 56 181 230 252 119 40 71 202 241 233 182 140 124 95 133 93 88 74 27 45 44 48 29 94 132 139 78 68 61 59 50 84 137 109 99 73 54 99 96 111 105 90 107 96 107 82 76 52 77 90 91 77 57 47 93 120 125 88 30 23 81 117 126 124 162 115 200 179 158 202 191 153 103 180 162 195 0 3 54 61 67 66 62 63 71 60 26 11 17 19 31 29 28 32 27 49 62 33 66 185 254 254 252 252 247 254 251 245 254 248 242 253 250 253 200 180 252 38 70 63 71 71 72 74 73 70 69 71 75 80 74 83 74 84 58 77 231 98 228 209 201 252 228 253 104 35 77 83 67 87 73 80 81 84 73 82 83 72 85 79 90 81 81 82 89 90 87 88 86 78 86 77 81 77 75 88 90 87 92 82 85 87 91 86 90 82 81 94 81 85 90 91 87 89 81 88 82 89 80 84 85 93 87 89 94 84 92 92 84 83 82 81 81 80 77 75 75 70 81 77 82 76 82 72 79 86 58 40 59 37 42 20 31 23 28 22 13 17 16 12 18 16 17 18 18 17 20 24 14 16 16 22 21 22 17 17 17 13 14 13 8 14 22 10 13 50 51 64 66 29 2 57 244 163 112 164 187 190 140 90 143 17 16 121 250 202 217 138 63 32 209 181 95 152 172 157 136 97 147 112 116 103 97 104 82 107 115 113 113 101 202 229 93 203 250 246 249 234 192 230 241 233 242 137 153 155 149 185 136 140 124 56 104 229 249 126 30 124 179 87 65 124 44 97 178 59 25 29 168 253 223 216 221 221 221 224 209 212 255 68 31 35 36 57 194 148 141 181 214 174 208 184 116 180 30 133 85 59 94 69 195 89 167 168 224 217 119 214 220 180 81 2 15 14 12 11 8 6 5 5 13 7 5 60 219 186 172 128 38 120 138 34 189 151 154 161 156 164 147 35 63 62 62 25 45 82 250 248 220 187 134 48 155 225 236 224 194 206 209 208 197 176 70 62 66 69 72 68 75 3 5 2 63 137 152 87 61 36 120 147 64 158 108 166 199 130 155 146 151 116 126 111 102 113 121 130 129 124 124 114 
104 122 126 125 123 105 114 102 106 110 109 88 75 89 87 69 172 176 155 165 160 151 171 151 143 148 142 122 58 40 67 157 181 137 124 183 134 122 189 173 162 160 72 46 35 20 35 46 
50 15 30 71 78 44 86 80 61 85 59 66 32 170 72 49 69 61 76 93 96 102 56 67 128 17 143 233 89 90 141 130 151 104 121 118 138 137 128 130 122 135 114 135 129 148 114 135 123 140 129 137 123 129 126 135 136 137 130 138 129 190 229 215 229 197 167 155 113 172 178 187 208 227 220 225 220 202 216 229 206 142 166 178 192 197 206 215 211 216 219 214 191 234 254 208 238 212 14 93 131 181 245 251 97 4 53 157 216 254 115 1 37 190 231 255 89 4 107 190 248 215 95 216 136 101 127 115 110 102 65 61 28 66 74 115 127 148 59 96 102 56 85 124 151 97 95 76 76 109 102 104 129 94 84 111 102 84 38 15 67 94 93 69 82 31 13 31 58 90 72 24 58 101 131 126 147 115 170 207 137 158 180 171 149 174 146 181 1 1 44 73 59 59 70 60 46 52 104 191 188 126 101 91 104 86 59 65 31 120 245 253 240 186 229 245 234 250 187 76 191 254 254 189 169 249 187 19 88 31 77 74 72 69 69 72 75 74 75 77 73 80 78 75 77 75 74 58 85 48 228 242 198 252 254 251 81 43 75 80 74 69 92 90 72 81 81 73 79 84 75 83 81 87 90 78 91 82 79 89 87 81 81 83 85 81 91 87 87 83 84 93 89 88 90 82 79 91 81 79 83 85 86 81 90 82 92 90 82 82 94 79 85 82 80 81 77 84 76 82 83 81 80 79 80 80 77 76 78 78 75 75 76 74 74 80 71 75 87 24 47 59 26 35 20 20 34 33 24 28 23 14 19 18 19 21 19 15 15 18 14 16 13 22 18 27 26 32 26 22 40 29 10 17 18 17 12 82 60 60 59 30 2 11 173 137 117 127 204 209 191 173 90 3 125 223 226 226 213 176 93 98 196 201 97 136 186 141 145 90 144 108 95 109 123 133 149 144 150 144 119 108 107 203 170 167 251 225 246 233 187 241 234 242 243 148 149 164 158 162 177 168 92 49 90 228 178 131 167 190 204 240 250 238 254 221 105 56 6 58 164 252 226 233 231 224 228 235 217 203 248 67 39 42 30 50 197 174 134 170 161 149 180 117 132 190 38 156 60 118 250 253 247 121 137 255 242 251 252 254 244 169 19 1 12 10 10 10 9 11 11 12 11 8 5 249 83 0 126 192 115 60 89 70 196 172 167 158 156 175 159 90 62 38 32 47 91 121 253 236 232 251 249 51 55 84 64 197 252 252 183 209 251 253 82 52 80 73 64 74 75 9 0 2 50 127 192 134 181 108 88 140 81 117 103 155 183 123 154 152 144 49 88 132 113 125 107 100 119 
132 126 113 114 128 128 122 117 101 114 105 116 115 101 111 108 91 103 61 175 171 132 147 151 147 155 161 146 148 162 175 68 12 34 183 167 99 132 178 170 184 153 183 103 192 69 8 18 31 18 31 
230 169 55 17 14 44 81 91 51 29 37 32 38 81 161 62 59 60 36 47 74 59 108 86 112 40 135 244 101 89 119 114 145 92 119 128 116 182 185 120 129 125 130 130 131 134 114 119 119 129 129 132 130 141 127 130 143 147 127 134 116 173 231 213 227 203 182 191 166 201 197 222 200 206 216 218 223 226 221 233 216 137 175 168 164 176 185 197 209 205 215 212 188 238 248 206 222 232 3 2 99 171 236 254 99 4 31 163 224 254 126 3 47 167 237 255 97 1 53 198 251 229 4 49 114 104 106 113 117 109 65 99 54 95 131 118 131 137 102 126 140 82 98 145 160 150 113 89 73 69 71 76 127 105 89 122 109 79 55 34 79 87 97 83 83 71 37 36 34 51 68 23 104 152 138 138 144 140 162 193 184 152 193 182 203 208 149 209 1 3 55 61 60 69 52 46 112 161 97 242 252 252 242 208 166 127 96 73 55 26 102 250 248 236 240 225 207 254 117 10 120 248 211 107 143 249 222 23 7 9 8 46 70 72 73 70 80 72 68 94 81 78 76 76 77 78 76 73 55 28 55 87 79 110 187 230 47 69 74 73 77 76 83 104 75 77 79 79 79 79 80 82 85 84 83 83 83 84 85 86 84 83 83 81 82 82 82 84 85 88 88 87 87 88 85 79 86 85 83 82 81 81 82 83 85 85 84 83 85 86 84 83 82 82 82 82 81 83 84 84 82 82 82 81 81 80 78 77 77 77 77 77 77 77 77 76 77 73 76 80 66 40 32 40 38 47 57 26 16 53 58 24 17 18 25 15 16 19 9 16 14 19 22 9 22 26 27 31 25 27 66 21 10 33 32 33 20 62 92 97 47 29 6 3 174 161 158 127 225 205 214 227 194 181 251 232 226 225 226 193 143 167 180 212 70 124 165 126 112 96 153 138 129 134 178 143 133 108 103 98 106 112 100 108 9 160 248 237 245 221 188 243 239 238 246 156 140 152 155 156 164 182 98 52 79 220 200 241 252 211 192 224 244 226 213 246 234 65 8 40 147 252 224 220 230 231 216 213 220 215 252 79 25 43 7 19 195 136 124 193 162 165 163 145 142 175 16 84 40 78 254 225 247 108 126 254 232 218 225 226 251 58 28 4 5 13 13 5 9 10 15 7 7 4 7 219 59 145 169 144 51 115 121 80 184 161 146 154 150 175 158 75 79 50 47 81 99 85 232 203 234 245 215 37 109 79 113 226 249 236 195 174 140 103 67 61 71 69 65 69 73 3 2 4 42 129 215 157 154 74 108 134 110 132 133 130 174 134 161 151 165 93 119 131 109 93 69 110 123 122 124 
115 106 127 122 122 122 102 117 93 117 109 101 94 102 109 102 55 177 154 120 134 160 139 130 152 148 159 158 167 81 10 47 178 147 102 128 175 148 152 152 198 14 58 90 38 48 51 40 56 
62 117 224 200 99 19 13 33 48 86 77 82 53 53 83 74 44 93 103 103 43 69 96 91 128 47 127 243 125 117 124 132 111 119 140 116 130 154 169 193 138 81 108 151 127 125 126 123 109 165 159 127 130 146 129 133 135 128 136 135 112 185 228 209 219 228 108 153 229 198 217 228 241 234 215 226 217 223 221 227 204 148 161 158 165 174 196 203 205 202 214 205 195 239 254 195 245 229 1 2 31 174 239 250 120 11 39 149 216 253 137 6 102 181 224 252 122 3 50 201 246 253 18 5 89 126 137 130 140 125 42 52 27 83 122 112 119 139 104 131 55 103 153 164 170 153 89 106 100 71 78 81 119 103 94 109 108 91 89 66 85 98 94 90 83 104 72 67 121 73 29 36 113 132 133 128 121 133 169 196 198 155 177 170 118 151 157 195 1 11 58 70 58 51 43 135 157 85 49 247 242 249 252 251 250 252 248 247 219 163 79 39 104 158 212 251 251 241 251 161 207 244 122 130 242 252 116 168 247 1 29 72 70 64 68 71 63 74 81 68 77 75 73 74 76 77 76 75 84 78 71 53 33 34 29 7 47 66 73 75 80 74 69 80 76 78 80 79 79 79 80 81 81 81 81 81 80 81 82 82 84 82 81 82 80 80 81 81 83 85 85 84 85 86 84 80 81 81 80 79 80 81 82 83 82 82 81 81 82 82 82 80 81 82 82 82 81 81 83 83 81 81 81 80 80 79 77 77 75 74 75 75 75 76 75 75 77 72 74 76 62 40 32 39 40 53 25 32 26 29 59 41 20 18 18 20 30 36 19 24 31 23 21 10 16 14 28 30 20 33 20 17 24 32 33 32 26 40 48 64 53 74 21 1 141 175 164 115 211 229 212 236 238 231 233 230 238 236 241 205 139 30 158 231 87 133 160 122 106 94 135 146 103 87 155 128 92 110 100 109 108 100 108 115 31 196 251 229 244 237 199 243 238 236 249 170 141 163 161 163 165 177 90 23 11 208 234 214 219 220 185 198 219 203 206 229 245 254 251 43 111 255 235 240 234 211 221 213 213 223 253 76 33 28 47 70 173 114 107 160 126 146 154 166 135 150 108 168 99 86 252 232 253 130 137 250 225 224 234 252 252 54 24 4 10 11 5 11 10 3 4 6 5 0 3 239 66 138 166 71 58 123 99 91 208 204 190 201 192 201 158 55 38 36 50 54 98 98 245 229 176 137 62 61 151 219 189 47 33 36 29 27 35 44 57 71 77 69 64 70 74 3 0 1 70 130 164 139 174 95 143 125 71 202 184 141 189 136 152 135 144 100 104 127 111 101 106 122 
122 130 119 121 107 128 126 129 128 105 110 84 116 136 157 159 162 156 149 114 170 139 156 161 142 145 142 131 131 188 87 59 91 62 152 190 202 135 120 149 145 158 153 185 57 1 1 1 5 34 45 50 
55 24 49 108 212 226 151 29 12 44 43 55 56 33 36 54 24 61 81 39 49 78 70 60 119 63 101 238 126 94 102 106 145 124 142 122 134 116 126 163 150 144 128 121 122 138 117 135 111 156 146 122 132 141 129 138 129 141 127 133 149 197 211 217 222 209 160 171 248 177 147 215 193 203 224 219 243 238 235 243 244 198 163 156 180 173 190 196 206 232 238 249 208 176 253 197 232 241 5 8 43 173 253 253 145 20 58 149 219 254 146 1 37 173 224 246 109 1 57 188 248 249 28 23 123 132 126 144 149 142 25 14 9 89 134 120 146 150 120 160 119 147 169 162 174 165 88 104 99 84 78 79 128 108 101 101 102 82 92 69 89 102 92 94 99 135 105 76 61 59 88 86 106 142 136 151 151 150 180 205 205 137 165 196 134 126 127 228 1 1 58 65 51 49 138 149 84 117 148 247 246 247 243 239 242 248 250 249 253 249 245 164 47 14 22 25 48 121 189 250 250 251 160 215 249 228 213 251 215 2 51 79 66 67 66 76 73 69 71 72 73 72 71 72 75 76 76 75 69 79 75 69 81 90 85 79 70 79 77 76 82 79 74 79 77 77 78 79 79 79 80 81 79 79 79 79 79 79 79 80 80 81 81 79 79 79 78 79 79 80 80 80 81 83 82 79 79 79 78 78 79 80 81 82 81 81 80 80 81 82 81 80 81 82 82 82 82 81 81 81 79 79 80 80 79 79 78 78 75 74 73 73 74 75 74 75 74 73 75 77 70 59 55 58 62 75 22 38 31 16 44 54 34 49 32 15 25 55 38 29 23 16 22 13 11 9 43 31 24 27 18 21 34 32 14 28 36 36 43 78 80 93 20 2 95 194 126 159 177 231 213 165 246 232 220 229 224 212 216 154 158 79 147 214 48 119 161 141 126 109 109 125 98 97 150 160 86 114 105 115 108 106 117 104 120 209 225 222 242 224 182 229 237 234 250 187 135 166 160 160 163 190 56 59 195 239 246 206 213 225 190 196 225 228 225 219 218 214 242 82 93 252 224 238 226 224 244 239 243 234 245 85 19 12 223 251 223 232 241 228 236 249 225 225 217 239 243 246 23 67 255 230 252 137 119 253 225 227 224 253 235 29 21 14 3 14 7 3 4 3 38 131 60 32 1 225 54 30 147 123 95 95 106 94 84 71 63 74 52 52 48 34 48 49 42 5 3 121 117 67 212 173 216 233 130 38 3 3 16 88 84 75 79 81 74 67 64 65 71 80 68 4 2 1 76 133 149 152 193 167 169 154 95 143 175 163 214 125 156 164 153 98 115 100 102 108 121 127 122 
130 120 115 109 125 121 124 122 104 110 89 121 126 123 110 114 112 113 93 105 139 175 133 127 132 148 140 153 148 136 135 105 50 39 213 220 67 126 155 141 157 152 178 38 8 27 37 24 30 25 33 
73 115 78 18 41 95 178 243 171 51 4 29 46 39 62 65 60 71 49 25 39 82 55 82 137 72 120 243 127 111 103 126 142 112 146 131 126 123 124 107 115 132 123 118 110 131 110 132 110 124 125 128 128 127 125 124 157 159 127 143 131 176 233 214 215 202 139 102 235 251 204 146 61 19 50 64 121 154 167 182 196 239 185 119 154 175 188 197 211 210 90 123 77 168 248 194 228 241 7 1 48 169 240 249 140 24 86 175 222 253 150 5 35 158 244 255 122 39 66 194 250 250 48 26 127 142 135 146 154 159 60 66 45 97 148 144 129 146 120 133 162 163 176 178 194 159 90 117 112 99 62 90 131 102 97 107 107 82 94 75 94 100 91 79 99 132 134 102 96 93 89 107 114 116 130 139 148 142 163 196 199 128 173 196 166 108 127 214 8 1 59 70 107 152 174 172 164 162 150 253 241 241 239 237 240 245 246 245 249 254 244 188 244 251 249 225 160 55 40 19 11 91 150 139 110 98 62 37 36 10 24 55 65 77 74 65 74 76 74 71 71 71 71 72 74 75 76 75 72 78 75 76 78 67 63 77 82 81 73 69 76 77 77 82 77 78 79 79 79 79 79 80 78 78 78 77 77 78 78 79 80 79 80 79 78 78 76 77 76 78 78 78 78 79 80 79 81 80 79 79 79 79 79 80 81 80 80 82 83 82 81 81 81 82 82 82 82 81 79 80 79 79 79 79 79 79 78 78 77 76 75 75 75 76 76 75 71 72 75 77 77 76 78 78 79 68 17 19 30 35 14 30 39 44 31 36 40 39 15 22 24 17 26 24 33 40 83 50 42 19 28 34 27 31 27 17 37 78 82 72 65 91 46 4 49 203 99 151 161 226 251 92 210 217 219 214 222 228 244 209 114 164 155 239 78 109 142 112 105 117 117 106 99 106 125 175 110 111 113 108 98 109 109 98 96 172 211 229 243 235 201 230 236 232 249 204 129 166 157 159 156 179 56 250 254 238 223 210 208 221 219 228 223 225 228 231 241 228 248 86 49 243 252 249 239 229 234 235 222 230 247 79 6 3 150 207 204 220 211 202 231 226 200 189 212 208 197 227 1 60 255 219 252 145 103 252 238 233 225 254 235 35 65 71 63 2 3 16 1 2 132 252 238 216 183 185 227 174 179 57 60 211 216 119 34 1 11 12 17 14 15 26 33 26 29 5 19 254 144 221 232 135 46 4 3 4 15 27 50 66 69 71 68 70 68 70 77 75 69 67 69 2 6 2 58 138 172 154 117 84 171 202 111 152 122 177 186 129 161 145 135 72 110 17 95 112 108 124 126 124 
130 107 109 123 118 122 117 104 111 101 125 122 103 88 99 97 96 78 123 179 163 130 155 164 145 142 135 45 107 124 65 39 13 189 219 18 132 160 147 145 149 163 32 22 32 10 1 34 85 136 
113 127 90 17 30 24 4 33 151 216 203 107 15 18 48 74 82 42 19 18 24 41 46 64 125 75 103 238 104 81 111 114 149 103 104 101 126 141 130 118 109 121 116 121 102 125 102 123 110 140 143 133 132 132 134 121 125 137 118 130 101 160 236 207 220 200 119 115 230 249 238 175 68 14 32 106 112 139 137 141 134 175 199 142 95 135 202 205 217 199 89 34 16 194 246 178 212 241 99 12 1 180 247 254 141 8 59 164 216 254 154 1 38 162 232 255 126 32 108 198 244 250 57 16 115 153 157 150 155 154 90 139 80 79 133 144 154 154 117 130 141 157 171 175 190 187 113 109 98 113 64 53 136 110 102 119 115 100 107 82 100 115 109 102 105 117 130 110 106 97 92 123 149 130 123 128 169 170 170 191 186 139 192 165 142 187 121 214 3 10 60 56 65 139 179 158 170 146 171 247 243 245 247 245 245 246 245 245 240 243 241 212 252 245 245 250 246 242 243 250 233 117 154 142 185 198 155 175 174 150 156 127 49 46 63 76 72 63 72 71 73 72 72 72 73 75 76 76 72 74 77 77 77 81 79 74 75 76 75 76 78 77 76 77 77 77 78 78 78 79 78 79 78 77 76 74 75 76 78 78 79 79 80 79 78 78 77 77 78 78 77 78 77 77 78 79 79 79 79 78 78 78 78 78 79 77 78 81 81 79 79 79 81 81 80 81 81 81 80 78 79 79 80 80 80 79 78 77 78 77 76 76 76 76 75 74 72 73 72 72 73 75 75 74 79 79 59 53 57 63 24 54 52 68 49 36 42 56 39 24 63 35 26 30 40 45 77 38 57 91 27 38 69 68 52 51 34 75 78 75 78 73 58 6 2 206 123 177 153 198 243 147 171 254 239 229 246 243 227 227 187 175 157 238 113 64 135 105 104 119 119 95 102 101 108 165 89 93 105 113 135 137 142 168 74 177 246 248 240 217 189 238 236 232 246 221 134 169 164 166 177 173 72 231 232 229 225 225 214 229 196 229 219 210 224 238 203 183 250 120 4 191 187 113 171 179 133 99 187 190 65 9 23 1 165 219 195 246 225 206 209 223 216 194 223 218 200 233 23 51 255 235 247 151 100 254 238 226 224 254 227 24 74 77 73 33 14 27 34 3 188 239 203 142 122 173 134 166 203 176 133 159 93 8 21 18 3 19 28 71 78 46 27 48 115 144 179 155 83 58 11 14 48 90 107 103 77 69 58 71 71 75 74 76 73 72 71 67 67 73 72 2 1 3 55 143 181 130 133 119 160 130 122 150 155 162 199 140 146 140 162 
94 138 109 104 113 107 123 130 123 132 110 107 123 124 129 117 104 108 105 121 129 122 105 106 97 97 84 112 152 142 144 111 121 57 58 73 69 56 78 59 63 32 217 199 63 113 145 168 137 116 124 22 1 7 23 89 143 132 71 
80 115 129 88 79 37 24 12 2 19 94 194 218 131 44 15 53 38 33 62 43 17 30 58 103 49 129 241 91 75 89 112 132 126 148 125 119 120 122 137 124 97 105 140 97 135 130 129 103 139 119 101 125 123 126 129 121 121 107 119 111 168 218 215 220 220 221 228 246 253 234 139 41 56 50 106 134 148 164 171 178 164 161 159 177 194 198 211 199 217 252 242 51 154 251 204 217 226 254 203 55 126 247 253 161 10 36 144 212 254 167 1 23 158 241 253 138 12 125 207 244 243 48 21 121 154 159 154 153 144 79 136 76 78 139 126 151 144 117 138 144 158 166 166 182 189 113 128 109 105 101 106 143 124 114 120 112 114 118 77 101 126 113 135 127 130 119 98 98 100 118 107 124 151 136 149 151 161 171 204 191 159 217 193 154 181 133 179 1 2 57 73 48 98 166 162 122 131 209 254 242 244 247 247 247 248 250 251 245 251 233 223 248 253 131 51 233 155 183 157 252 161 181 166 152 151 138 143 151 154 179 142 119 120 57 63 75 72 72 71 74 74 73 73 74 74 74 75 80 74 74 71 67 76 81 72 76 78 79 81 80 79 78 76 78 77 76 76 77 77 79 77 76 76 75 74 74 75 76 77 79 79 79 79 79 78 77 77 79 78 78 79 78 76 77 79 75 76 76 76 77 77 78 78 79 77 78 82 84 80 79 80 80 80 79 80 80 80 80 79 79 80 80 80 79 79 77 77 77 76 76 75 75 74 73 72 74 74 72 70 70 71 70 69 64 82 76 82 73 51 30 57 81 57 28 29 41 39 38 34 64 35 22 24 19 16 44 43 64 77 35 57 39 74 58 40 17 76 83 68 81 85 87 3 7 182 95 171 157 202 240 200 137 255 216 226 221 225 220 217 216 157 150 227 151 41 150 123 111 105 100 105 117 107 140 172 157 162 147 157 170 145 118 117 68 164 242 236 246 230 195 249 238 236 243 235 141 163 164 166 148 171 84 227 243 239 244 227 185 220 157 232 245 239 228 201 76 74 234 166 4 22 196 183 155 205 250 177 208 238 87 7 22 17 159 232 196 222 192 110 136 209 237 202 181 189 219 240 2 44 254 238 248 164 89 255 252 233 235 254 218 19 75 71 70 80 82 92 52 19 252 248 208 161 203 218 216 226 72 1 105 164 193 185 132 83 105 112 145 180 198 184 204 216 220 194 157 19 79 101 160 182 195 209 234 225 236 252 126 23 55 62 64 69 71 72 71 65 67 76 71 6 1 4 63 146 179 143 121 141 143 93 117 170 142 168 
187 130 155 151 142 110 120 105 118 112 123 123 128 127 123 117 106 120 121 126 111 103 109 116 123 125 110 82 72 67 76 65 83 132 166 94 40 53 35 66 67 99 60 92 48 73 49 190 166 78 125 167 164 107 13 35 15 36 95 113 113 60 36 37 
133 133 106 114 124 99 97 15 2 1 7 6 54 161 227 168 42 65 153 168 157 21 47 67 77 38 120 248 119 83 101 116 133 132 144 69 66 109 131 103 119 111 94 136 121 121 71 112 118 137 114 108 134 118 128 146 171 147 124 127 98 165 235 219 220 218 215 208 179 210 246 137 26 56 50 60 137 160 166 160 167 164 166 169 184 203 203 200 202 206 233 247 172 144 249 218 218 212 215 254 254 185 212 254 153 25 59 151 215 248 184 21 56 136 241 253 154 21 65 198 248 253 39 9 118 163 164 158 156 150 72 124 75 94 161 136 157 158 139 140 154 160 167 163 180 194 120 111 76 79 88 88 136 116 115 116 117 116 128 82 88 119 98 129 134 138 133 120 102 91 81 106 119 155 165 162 123 134 163 209 193 150 173 175 99 139 115 213 29 5 59 57 59 44 130 124 166 128 254 248 249 248 249 249 248 246 245 243 254 245 234 226 253 251 111 95 249 193 239 170 170 131 137 135 134 129 135 147 145 136 165 90 50 154 58 71 70 71 71 74 75 75 74 74 73 73 74 75 72 71 76 82 80 76 76 77 77 74 75 74 72 74 77 75 78 77 76 76 76 76 76 76 75 74 76 77 77 77 76 76 77 78 78 78 79 77 76 75 77 77 78 80 78 76 77 80 75 76 76 77 77 77 77 77 79 76 79 84 84 80 79 81 81 80 78 79 80 81 80 80 79 79 79 79 77 77 76 75 75 74 73 73 73 74 72 72 74 73 73 73 73 73 73 73 77 75 62 77 82 64 49 48 74 70 61 51 64 66 66 25 30 31 30 33 23 29 54 82 68 58 48 51 39 76 57 60 60 75 72 75 78 74 92 38 0 138 133 101 160 167 226 224 122 236 228 246 228 223 224 197 196 177 167 214 180 12 108 115 117 126 141 151 147 129 156 191 170 137 99 93 94 158 159 111 65 141 243 222 237 249 209 226 239 241 238 245 150 154 160 160 166 188 73 200 254 224 250 237 194 233 176 202 156 213 246 234 116 85 252 172 5 80 179 244 250 192 238 12 2 192 103 10 39 1 124 183 148 168 136 111 188 200 204 196 167 166 177 193 7 48 252 223 250 189 83 245 247 227 226 250 198 24 80 80 71 81 76 92 55 9 146 209 233 158 235 255 205 221 199 113 116 143 187 213 219 229 227 219 212 206 212 179 184 180 187 173 186 207 243 232 240 241 228 227 229 229 219 217 150 201 92 32 69 77 75 70 68 68 70 75 69 5 2 2 59 153 181 160 125 105 168 127 132 144 147 192 220 
118 147 162 124 101 133 143 120 113 125 121 129 128 123 113 110 119 118 123 108 105 111 123 129 123 106 79 74 79 90 67 49 127 156 64 72 71 63 62 52 121 94 61 60 68 104 195 103 16 131 180 141 98 6 50 62 103 104 49 41 36 28 23 
76 96 98 87 17 13 83 128 77 108 20 2 11 8 17 119 135 54 70 113 109 36 74 75 102 32 107 236 136 108 93 108 136 118 135 84 110 115 114 86 100 131 108 114 98 136 95 112 108 129 133 131 124 96 114 118 114 177 135 112 96 160 236 213 215 219 219 184 165 201 229 170 56 34 68 82 114 168 165 170 180 183 183 191 188 195 205 201 206 194 220 235 171 152 251 211 216 242 225 224 239 240 226 251 129 6 44 136 224 250 186 1 63 193 221 254 155 23 85 196 247 254 27 16 142 170 157 163 153 155 83 147 89 80 152 156 148 86 61 137 166 166 155 161 190 166 112 113 96 101 86 93 143 113 121 121 128 108 125 81 71 118 118 134 139 118 128 120 111 97 119 117 74 133 147 183 133 133 151 187 187 167 159 169 140 185 161 169 7 2 60 71 59 47 104 113 136 185 193 253 250 249 251 254 254 252 246 244 245 253 236 244 249 251 69 134 239 120 167 176 247 126 133 134 135 136 133 146 142 144 173 75 76 143 15 80 77 66 71 72 74 74 74 73 73 73 74 74 74 79 72 68 77 79 72 72 78 75 77 78 77 78 80 75 78 76 75 75 75 76 75 74 74 75 78 81 81 79 77 76 78 77 78 78 77 76 75 76 77 76 77 80 79 76 77 80 79 79 79 78 78 77 76 76 77 73 76 82 82 78 77 79 81 79 79 77 79 80 80 80 79 79 79 78 77 76 75 74 74 73 73 73 74 75 74 74 72 71 72 74 73 71 72 73 70 70 76 70 71 74 74 81 75 74 82 75 86 79 85 42 27 48 49 44 42 62 62 77 76 52 28 27 60 70 94 90 86 79 73 81 76 82 92 48 1 101 186 99 202 135 99 211 125 220 242 221 235 224 226 224 181 161 183 201 216 7 76 144 133 134 141 127 124 109 97 154 139 89 116 116 83 221 217 106 86 107 244 240 212 214 211 239 235 242 235 250 160 152 163 163 163 179 91 174 254 223 247 239 225 253 245 204 69 187 252 252 110 74 230 208 2 93 186 222 99 188 245 194 247 251 168 16 11 3 148 220 194 219 201 170 211 197 192 190 190 223 209 234 8 20 248 248 250 190 85 242 253 233 229 251 186 25 74 74 80 60 72 84 73 55 3 11 44 88 94 128 117 217 202 222 220 212 183 183 165 165 166 160 178 159 185 160 168 171 185 166 244 231 235 228 224 209 201 201 214 214 199 227 85 134 245 133 27 53 69 68 67 69 71 71 77 3 6 0 50 162 175 136 120 116 159 140 134 124 120 191 205 137 160 
163 140 101 139 126 114 118 111 118 134 127 136 103 116 125 126 134 117 111 108 117 126 119 106 80 72 81 96 69 61 125 79 47 68 68 64 42 92 73 84 85 100 73 54 176 115 33 141 156 114 86 65 99 25 2 2 3 2 2 5 1 
58 112 96 105 43 4 11 4 54 125 153 76 59 2 2 4 13 39 59 52 66 54 73 130 141 50 97 235 131 96 125 118 119 111 131 115 129 119 128 121 118 118 117 131 120 129 109 104 112 137 118 129 132 137 176 158 88 139 115 154 215 186 219 218 212 213 223 212 198 219 221 194 161 80 87 113 152 172 173 170 178 191 186 192 192 193 203 199 206 188 177 235 169 136 247 200 216 251 142 104 235 216 235 232 222 86 7 86 219 255 184 3 4 148 226 246 158 17 82 196 245 251 92 2 89 179 144 145 147 166 148 143 91 85 167 152 182 81 29 132 163 169 165 180 199 185 155 125 104 117 92 105 144 120 120 128 122 104 113 105 120 124 116 127 136 130 133 121 80 87 110 98 79 128 150 186 146 140 164 190 183 174 169 167 131 154 150 144 9 2 53 64 55 54 49 155 73 166 145 100 140 138 183 213 240 254 251 254 254 254 185 247 248 253 76 168 157 131 199 210 246 113 137 137 143 140 141 143 142 143 175 83 95 132 15 82 71 67 71 73 72 73 73 73 74 74 74 74 74 74 74 74 75 75 75 74 75 75 76 77 77 78 76 76 75 76 77 78 77 77 77 77 72 74 76 77 78 78 77 76 79 78 77 77 77 77 77 76 77 76 75 76 78 79 78 77 77 77 77 77 78 78 78 78 78 77 79 79 77 77 77 77 78 78 79 80 80 80 79 79 79 78 78 78 78 78 77 76 74 74 73 73 73 73 74 74 74 74 74 73 73 73 73 72 71 71 71 71 72 72 72 72 73 75 71 68 74 77 61 38 31 39 33 72 80 79 81 76 78 79 63 69 76 73 80 79 82 69 79 78 84 87 88 77 2 39 216 87 196 146 120 212 170 187 247 227 225 232 229 223 222 181 179 192 232 18 83 128 120 100 105 111 116 113 114 136 165 107 140 115 112 168 140 114 89 79 236 249 245 214 199 246 242 241 240 250 161 122 166 160 159 173 116 141 254 240 249 226 233 244 239 232 254 241 224 224 194 178 203 188 2 74 164 114 40 169 215 239 248 248 84 6 9 5 133 245 221 229 230 228 239 236 207 210 205 226 224 238 38 15 252 240 250 201 50 227 255 236 225 254 165 27 70 74 71 76 71 74 72 80 95 75 38 27 138 72 89 239 206 201 195 202 193 213 225 220 201 220 203 220 237 203 163 183 157 134 210 184 216 221 201 197 196 223 201 208 211 239 110 76 124 237 192 29 54 70 73 68 58 79 72 8 3 1 62 150 168 129 135 164 154 106 132 135 130 198 185 104 
132 126 136 100 133 103 112 112 114 133 131 122 131 108 112 132 127 126 123 114 119 113 121 123 97 76 73 72 72 69 74 79 96 84 49 62 86 70 74 48 99 34 39 86 61 175 125 39 131 167 134 124 115 94 2 1 1 1 1 2 5 0 
67 102 111 149 133 25 23 6 8 2 46 95 123 54 3 1 3 4 20 62 62 63 60 100 99 59 136 241 113 54 118 99 104 114 122 103 136 116 113 115 118 155 104 98 99 106 84 129 119 129 129 127 124 117 117 116 119 145 114 169 166 148 227 216 219 216 221 195 175 225 238 170 220 198 145 130 180 173 166 192 203 185 174 201 185 210 217 207 218 186 204 254 107 148 248 195 214 249 146 7 147 216 225 235 252 249 183 108 200 247 207 9 8 123 226 254 168 26 70 186 238 235 238 158 94 141 161 133 147 189 158 81 58 104 144 136 146 181 158 136 114 173 206 192 185 215 221 123 96 115 97 81 150 117 109 120 125 111 113 94 114 141 123 114 139 141 108 68 118 96 81 34 73 133 143 170 127 138 166 187 171 151 153 152 145 183 159 156 4 2 47 72 56 69 37 81 163 70 142 147 163 124 108 121 110 121 153 180 224 248 202 250 252 245 253 247 93 167 245 253 196 116 129 132 129 139 138 138 141 143 164 54 86 115 12 58 65 70 60 71 72 73 73 73 74 74 74 74 74 74 74 74 75 75 75 75 76 77 77 78 78 78 77 77 76 77 78 78 78 77 77 77 73 74 75 76 77 77 77 77 78 78 78 77 77 77 77 76 77 76 75 76 78 79 78 77 77 77 77 77 77 77 78 78 78 78 78 78 78 78 77 77 77 78 78 79 79 79 79 79 77 77 77 77 78 77 76 76 74 74 74 74 74 74 74 74 73 73 73 73 73 73 73 73 71 71 71 71 72 72 72 72 72 73 70 69 74 76 66 52 45 65 74 53 54 70 82 75 76 80 72 78 84 78 82 80 81 85 82 74 82 76 89 94 2 2 214 81 162 165 140 148 122 179 246 231 232 234 239 230 201 161 177 150 222 73 84 117 127 113 119 115 111 109 105 118 141 104 117 116 99 113 136 142 127 52 197 196 243 250 208 235 230 233 228 235 186 183 143 159 149 184 105 108 254 222 199 137 209 210 201 199 213 180 170 197 204 201 204 153 4 67 137 103 69 175 147 119 148 118 128 158 122 6 113 247 210 216 217 211 215 222 220 223 212 232 229 219 53 17 255 240 251 225 64 209 254 230 224 254 130 29 92 63 76 72 71 81 77 71 69 90 82 117 135 36 183 244 251 217 226 213 219 208 184 187 206 197 192 193 175 146 166 164 144 124 226 201 228 201 207 212 209 200 180 202 222 244 178 64 143 128 245 179 52 67 66 81 78 64 79 2 1 9 76 145 173 161 167 94 122 71 141 138 131 195 189 
129 152 154 151 100 133 85 99 118 111 130 129 117 132 106 111 133 130 129 124 113 116 110 119 124 101 81 75 71 66 58 68 74 96 34 79 65 41 115 83 68 108 74 68 70 70 179 127 71 147 155 126 112 122 119 3 4 13 11 10 1 2 3 
83 97 118 124 140 79 68 24 94 148 66 26 98 127 98 79 52 24 3 5 30 36 52 50 71 57 128 246 133 52 124 92 123 117 126 105 129 104 104 119 115 103 115 89 75 133 100 112 109 124 122 125 129 114 147 185 195 208 195 215 218 200 211 214 204 218 229 191 170 239 234 91 73 133 176 129 179 186 189 195 187 199 197 191 215 194 182 217 201 214 165 83 2 154 254 201 207 254 158 1 159 241 234 232 220 238 253 232 214 254 181 60 68 122 225 252 179 29 114 191 248 243 214 252 213 157 167 144 136 187 156 37 15 77 137 142 167 171 145 148 145 158 178 188 212 218 215 115 99 115 90 71 144 110 102 115 123 111 110 87 105 109 116 141 126 118 81 166 197 174 119 29 45 206 201 187 142 151 165 180 178 161 168 190 161 199 173 188 11 8 70 62 66 58 48 17 65 162 87 96 112 164 161 176 180 152 115 91 64 77 92 127 163 210 239 252 235 232 255 248 171 125 148 136 145 141 141 144 139 146 169 27 35 33 6 65 73 72 78 70 71 72 73 73 74 74 74 75 74 74 74 74 74 75 75 75 75 75 76 76 76 76 76 76 76 77 78 78 77 76 76 76 74 75 75 75 76 76 77 77 77 77 77 77 76 76 76 76 76 76 76 76 77 78 78 77 77 77 77 77 77 77 77 77 78 78 78 78 78 78 77 77 77 77 78 78 78 78 78 78 76 76 77 77 77 76 75 75 74 75 75 75 75 75 75 74 72 72 72 72 72 73 73 73 72 72 72 72 72 72 73 73 72 73 72 72 75 76 74 69 82 58 54 100 131 67 77 66 73 79 75 80 84 78 80 80 80 83 77 74 85 86 95 75 4 5 193 92 171 182 146 154 86 159 227 226 223 211 218 209 214 160 158 154 236 73 27 123 127 122 124 117 109 112 109 107 148 115 106 133 144 138 163 168 126 46 204 187 215 224 190 226 243 208 188 236 252 249 154 157 167 176 161 55 209 209 101 107 217 183 191 210 199 175 183 192 176 171 163 150 118 169 154 119 143 134 152 112 137 142 159 207 142 4 99 242 205 226 228 220 233 223 230 230 210 217 235 235 45 4 254 254 250 227 87 203 255 233 232 254 172 35 71 73 70 76 82 72 75 95 57 26 51 8 139 29 143 219 175 169 156 173 188 170 181 180 182 166 150 154 165 176 184 208 163 115 209 186 222 219 200 228 206 200 205 210 210 221 196 101 145 201 116 249 166 43 79 70 64 76 79 5 2 9 74 151 181 155 148 134 164 45 141 131 124 186 
187 133 161 156 145 100 127 97 88 119 129 132 121 119 126 109 113 134 129 127 121 110 114 108 131 125 91 68 68 68 58 37 86 89 27 37 134 82 60 99 65 91 87 87 89 45 55 139 154 84 141 144 127 122 137 123 5 1 3 1 9 8 10 6 
93 95 115 100 112 99 72 101 196 202 195 163 192 153 9 55 180 216 103 17 2 16 32 44 46 37 121 241 120 52 104 108 118 101 135 105 107 102 104 104 117 113 117 127 147 193 81 60 102 135 126 124 136 112 160 241 135 143 237 138 131 230 212 205 213 200 212 215 203 222 199 62 5 75 228 126 166 181 180 190 191 179 166 186 230 113 8 45 128 172 58 1 70 154 253 202 203 255 163 2 173 241 226 234 224 168 240 247 216 247 201 2 21 114 217 254 177 22 75 198 232 233 87 194 238 173 163 141 157 174 170 90 36 50 182 165 161 165 143 156 185 189 190 186 204 188 157 125 104 119 99 118 137 115 116 128 130 116 120 103 107 114 114 131 138 103 203 249 249 254 246 181 47 174 205 173 57 53 143 200 184 164 172 180 163 193 167 205 0 0 65 57 43 46 68 116 51 50 111 111 83 98 82 86 93 100 117 116 134 82 44 58 54 73 25 60 124 162 198 228 166 135 128 131 132 129 131 140 144 158 163 21 50 4 2 62 68 60 62 73 70 72 72 73 73 74 75 75 74 74 74 74 74 74 75 75 74 74 74 74 75 75 75 75 76 77 77 77 76 75 75 76 76 75 75 75 75 76 77 78 76 76 76 76 76 76 76 76 76 76 76 76 77 77 77 77 77 77 77 77 77 77 77 77 77 77 78 78 78 77 77 76 76 76 77 77 77 77 77 76 74 75 76 76 76 75 74 74 74 74 75 75 75 75 74 74 72 72 72 72 72 73 73 73 72 72 72 72 72 72 73 73 74 72 72 74 76 76 76 78 77 62 58 95 120 60 81 73 74 77 74 75 78 75 78 83 83 72 79 76 82 96 99 58 24 2 144 127 143 178 156 164 111 144 209 226 223 220 241 249 225 188 177 143 221 162 35 95 145 132 124 116 117 137 155 158 136 110 110 112 125 111 109 113 113 46 160 216 241 239 245 235 241 244 223 218 228 248 192 135 162 171 155 49 230 202 124 204 208 178 191 207 183 172 182 172 171 164 171 153 136 175 167 166 140 148 118 117 135 135 142 184 123 7 103 241 211 220 211 212 218 202 206 205 202 199 208 198 59 14 214 250 251 238 83 207 244 223 227 253 117 43 68 77 81 71 80 80 80 66 36 13 1 9 143 60 128 221 203 179 187 186 165 138 162 162 145 122 94 132 125 90 178 252 131 50 193 243 224 218 184 186 193 217 189 199 218 245 139 122 166 182 160 231 67 55 74 72 68 82 68 5 0 0 61 149 175 122 145 128 122 102 111 137 168 186 202 130 
163 149 145 104 108 110 99 59 71 106 130 148 119 105 117 134 126 125 121 113 117 109 104 117 105 85 72 68 66 52 50 61 25 45 53 85 63 36 54 73 68 43 56 58 30 160 132 59 142 152 113 121 134 105 4 10 16 6 7 2 2 1 
50 100 103 42 41 80 91 179 172 174 161 172 179 174 101 4 5 2 108 174 138 1 3 3 40 7 87 237 105 72 105 103 112 85 117 75 97 130 126 107 104 126 56 87 67 94 67 86 107 112 110 103 54 61 157 248 40 52 211 41 31 240 223 215 209 212 212 205 202 218 211 92 6 13 246 180 164 188 198 183 200 173 95 147 207 101 48 255 205 144 74 23 22 120 247 211 208 254 184 1 155 243 213 241 253 2 108 220 231 233 251 236 90 79 204 254 197 24 67 159 250 253 29 7 127 185 155 150 136 183 157 86 107 41 142 159 138 150 133 145 176 171 176 183 200 188 124 125 98 112 87 91 128 115 122 133 131 114 120 106 111 123 130 124 118 103 225 177 136 138 244 195 14 104 120 106 72 1 131 215 184 187 203 184 153 193 150 211 38 1 63 42 74 113 95 118 142 101 66 66 96 101 106 98 100 87 81 91 85 91 118 94 48 79 55 32 22 5 2 16 136 151 160 158 158 166 151 140 150 164 128 21 118 100 117 61 39 65 84 65 70 70 71 72 72 73 73 74 72 72 73 73 73 73 73 73 75 75 75 75 76 76 76 76 76 77 77 76 75 75 75 76 76 76 75 74 75 75 77 78 76 76 76 76 76 76 76 76 76 76 76 76 76 76 77 77 78 77 77 77 77 77 76 76 77 77 77 77 77 77 76 76 76 76 76 77 76 76 76 75 74 75 75 75 75 74 74 74 73 73 74 74 74 74 73 73 72 72 72 72 73 73 73 73 72 72 72 72 72 72 72 72 72 69 68 72 74 73 73 74 69 69 87 55 58 74 74 78 77 78 77 75 77 77 77 86 85 75 88 75 76 83 86 85 53 10 106 157 102 199 160 166 105 107 206 252 237 236 241 236 242 165 182 151 183 216 14 82 135 129 126 122 119 123 126 118 121 117 123 111 123 121 115 129 138 53 175 250 236 249 232 235 240 239 221 198 225 237 224 130 176 175 167 46 124 128 184 206 190 201 201 199 196 187 189 210 186 194 235 191 105 136 156 160 112 160 105 154 136 115 146 162 123 7 74 232 201 177 166 177 169 206 227 196 185 182 203 207 74 93 225 254 253 252 98 224 253 252 253 252 109 36 71 80 85 70 81 86 67 1 1 1 1 11 144 70 135 219 206 171 187 197 141 117 184 190 168 198 200 194 213 170 249 251 165 134 180 178 207 217 206 186 182 203 204 202 203 217 168 111 112 168 240 63 57 75 68 67 62 83 66 1 0 6 67 147 179 131 158 160 147 233 114 127 159 186 203 135 160 153 150 76 72 73 
32 40 60 76 69 104 125 115 114 131 125 126 125 117 118 108 119 112 86 72 74 81 74 47 57 35 61 92 43 83 77 70 52 70 53 75 73 60 33 154 154 70 148 156 106 107 102 95 7 4 4 4 4 3 32 74 
118 90 54 38 62 124 170 191 170 158 153 159 152 154 178 223 145 14 4 9 70 109 70 2 4 4 29 233 90 12 84 51 73 67 95 60 73 71 79 105 82 77 172 171 179 199 81 60 39 191 190 124 219 72 121 242 35 68 191 55 31 225 208 186 209 206 204 216 215 201 213 140 2 36 226 196 168 195 191 195 205 206 171 165 173 80 10 68 233 247 255 65 5 107 253 200 213 255 181 4 162 253 225 235 251 18 38 232 223 230 225 239 251 201 178 253 188 22 57 167 236 253 93 3 80 166 159 138 137 173 165 84 121 48 133 145 150 171 141 129 159 176 181 175 192 184 113 117 105 116 101 87 125 109 114 126 127 111 113 95 99 137 123 119 124 74 45 65 1 1 9 83 39 111 124 23 68 11 136 212 199 192 183 162 130 180 106 223 75 2 21 109 110 83 90 77 168 200 150 140 152 60 58 67 68 97 82 35 71 237 233 224 221 193 173 139 126 112 75 46 28 32 40 58 83 96 130 143 146 177 113 35 152 228 224 228 115 29 66 65 70 71 71 71 72 72 73 73 72 72 72 73 73 73 73 73 74 74 74 74 74 74 75 75 76 77 77 76 75 75 76 77 76 76 75 75 75 75 77 77 76 76 76 76 76 76 76 76 76 76 77 77 76 76 76 77 78 77 77 77 77 76 76 76 76 77 77 77 77 76 76 75 76 76 76 76 76 76 75 75 74 74 74 75 75 74 74 73 73 73 73 74 74 73 73 73 73 73 73 73 73 73 73 73 72 72 72 72 72 72 72 72 72 70 69 71 74 73 72 72 79 66 75 69 73 81 68 74 75 75 79 77 80 80 75 83 81 81 82 72 84 75 77 103 63 1 67 181 66 197 145 163 141 112 201 251 229 238 245 237 245 211 190 166 173 242 12 87 126 125 113 108 112 114 121 122 124 129 112 115 122 111 102 104 125 81 109 251 249 231 244 203 238 241 234 200 239 248 233 146 160 171 185 53 158 209 201 170 186 189 182 187 192 197 203 223 215 209 210 176 115 152 152 163 142 140 122 159 132 127 145 156 130 7 72 251 215 196 203 201 201 217 216 197 209 218 229 230 28 38 192 247 224 213 99 225 216 204 183 209 69 63 74 65 72 82 45 34 74 30 4 8 4 11 143 115 141 205 212 163 195 185 172 170 182 187 189 193 197 191 186 160 198 191 149 110 185 165 192 211 204 200 191 206 216 197 202 244 233 65 65 235 129 31 60 79 67 71 82 75 63 0 1 11 67 147 192 147 182 162 119 143 123 129 142 198 177 141 158 165 138 26 71 41 121 249 
254 253 152 99 137 102 107 126 125 128 126 114 113 101 118 112 91 70 57 60 67 54 108 81 47 30 33 44 80 67 102 57 51 93 74 69 31 154 186 80 127 146 104 35 8 52 56 67 68 49 57 67 70 52 
195 168 129 84 47 104 172 155 156 182 181 166 174 156 136 249 247 214 232 99 68 110 150 108 145 113 64 194 125 63 145 120 106 91 104 129 168 136 150 154 161 141 247 250 251 251 243 179 165 247 248 233 238 170 201 254 147 127 226 253 207 208 198 203 192 206 207 212 213 209 227 129 10 47 214 204 139 167 155 124 167 154 136 111 152 46 3 8 14 226 225 185 169 210 250 210 212 252 169 1 141 239 227 230 250 23 48 252 228 229 231 226 244 254 230 254 179 9 55 161 238 253 89 10 111 163 148 137 135 179 162 78 124 52 122 157 160 174 147 149 169 173 180 192 202 199 142 137 109 107 103 113 136 117 119 130 134 122 122 101 121 125 115 131 130 42 33 16 1 7 1 65 75 120 126 75 3 20 149 200 179 159 166 158 98 188 123 184 9 24 199 95 76 106 145 185 212 232 230 228 229 164 111 94 67 61 42 94 222 227 211 224 223 230 233 244 235 228 236 214 203 202 183 121 101 67 55 42 36 81 36 75 109 193 209 125 203 130 19 84 71 71 71 71 72 72 72 72 72 72 73 73 74 74 74 74 73 73 72 72 72 73 73 74 76 77 77 76 75 75 77 78 76 76 75 75 75 75 77 77 77 77 77 76 76 76 76 76 75 76 77 77 75 75 76 77 78 78 77 77 76 76 76 75 76 76 77 77 77 76 75 75 76 76 76 77 76 76 75 75 73 74 74 74 75 74 74 74 74 74 74 74 74 74 74 74 74 74 74 74 74 74 73 73 71 71 71 71 71 71 71 71 71 72 73 72 72 74 75 75 70 77 70 75 74 65 78 76 73 72 79 77 80 81 72 80 77 82 73 75 85 84 104 84 93 1 40 229 66 183 174 158 153 102 169 243 239 239 240 230 235 239 159 157 162 250 36 67 110 131 122 116 121 115 113 113 115 134 115 127 119 100 93 101 122 105 81 246 252 230 243 208 233 238 244 223 167 113 138 167 163 158 184 88 165 191 188 195 196 175 171 184 177 191 191 175 186 183 169 172 128 161 137 152 139 165 147 155 157 128 132 154 133 9 75 252 218 218 225 213 209 200 203 211 220 213 211 207 5 64 57 66 63 75 161 132 46 66 138 44 39 72 71 65 45 46 105 185 218 245 250 217 10 9 130 86 103 214 217 198 206 208 218 210 226 223 231 224 222 218 238 228 125 118 142 138 130 237 208 223 241 225 232 230 224 220 235 253 139 69 191 202 30 75 63 80 103 69 77 68 54 3 1 1 57 152 196 130 176 107 114 85 150 129 141 
192 174 140 161 168 126 23 116 35 126 248 211 246 183 88 130 110 107 131 132 132 124 110 111 104 108 101 84 71 56 57 68 60 55 39 32 20 55 43 34 56 49 69 88 108 63 39 48 191 179 92 136 152 119 13 15 73 70 42 39 48 50 18 7 10 
100 139 175 199 163 154 149 180 213 254 220 232 252 251 237 246 215 181 221 249 250 220 237 250 243 251 251 251 252 249 235 245 250 250 248 253 241 198 248 233 233 249 247 230 242 202 166 213 206 181 249 215 241 254 224 232 243 249 230 230 253 219 218 222 207 193 186 207 213 208 230 129 114 96 209 171 105 124 109 88 112 120 118 99 140 92 88 76 91 121 154 207 233 227 253 212 211 254 214 6 113 244 216 239 252 28 45 254 221 226 249 115 138 221 232 232 236 140 34 130 241 250 94 18 85 160 156 144 147 185 155 100 141 58 124 161 141 156 138 158 180 181 179 189 191 183 130 135 110 126 103 114 139 121 123 133 136 126 129 110 116 138 114 118 130 69 54 112 85 75 68 15 74 145 157 119 4 24 159 212 169 160 189 123 143 221 135 182 2 245 248 113 125 174 220 243 249 250 253 217 195 238 222 214 195 191 147 220 225 214 216 210 217 211 219 210 213 216 219 222 233 225 223 241 233 243 232 223 232 171 11 124 61 129 229 243 149 212 85 40 71 71 71 71 72 72 72 72 72 72 73 73 74 74 74 74 74 74 73 73 73 74 75 75 76 77 77 76 75 76 77 79 76 76 76 76 75 75 76 76 78 78 77 77 76 76 76 75 75 76 77 77 75 75 76 77 78 78 77 77 76 76 75 75 76 76 76 77 76 76 75 75 76 77 77 77 76 76 75 75 73 74 74 75 75 74 74 74 75 75 74 74 74 74 75 75 75 75 75 74 74 74 74 73 71 71 71 71 71 71 71 71 68 71 73 70 69 72 76 76 76 76 80 68 72 73 77 76 76 73 79 76 79 82 73 82 78 83 78 84 67 91 148 66 97 36 4 217 96 172 174 139 182 107 136 232 247 233 234 231 234 238 188 163 109 249 71 38 99 137 127 118 126 123 123 127 117 131 115 123 117 118 101 112 125 118 70 215 246 235 245 239 227 249 246 245 142 99 147 172 160 160 194 59 81 110 118 165 173 179 174 180 177 189 170 146 164 167 190 210 112 164 161 141 152 159 155 141 130 130 145 155 157 10 62 244 219 226 212 205 221 201 202 212 208 207 196 167 143 191 145 57 74 56 133 109 7 8 246 79 62 76 65 72 138 218 250 244 224 224 208 253 100 9 123 69 101 217 227 221 210 204 224 204 219 211 214 176 191 183 188 174 167 195 166 151 148 138 154 156 181 167 158 144 170 216 186 76 48 169 214 32 62 68 67 52 70 64 74 80 64 6 1 5 70 166 201 
121 123 97 146 102 155 150 153 205 192 125 150 153 121 53 146 9 111 253 220 237 189 95 124 113 118 142 141 136 123 109 117 115 114 109 86 49 9 9 50 73 45 71 66 51 49 71 32 43 86 85 71 34 70 109 67 182 175 96 117 104 107 64 135 148 17 42 68 50 25 4 9 20 
58 55 66 235 246 254 250 253 254 249 203 155 95 88 178 251 216 205 212 83 125 142 236 253 253 253 251 246 254 234 221 232 226 222 196 193 225 195 175 116 212 251 240 248 253 212 123 123 148 135 254 213 226 225 240 237 241 217 223 207 233 225 210 216 231 225 216 203 205 208 158 46 1 27 178 150 84 85 80 78 77 90 47 57 63 90 55 22 50 27 53 74 13 106 253 213 224 216 247 238 180 200 225 234 252 33 48 254 227 214 255 123 5 171 239 230 237 252 234 156 223 250 102 16 97 166 148 151 141 178 176 78 128 66 114 143 154 178 135 138 185 190 193 202 193 177 133 125 96 130 113 88 120 112 115 122 127 124 107 101 111 126 121 115 119 83 205 253 254 250 190 6 59 121 164 50 29 34 152 206 184 172 171 102 137 220 157 142 126 216 235 154 179 245 252 253 237 229 236 188 162 217 214 224 217 229 230 216 219 218 217 217 220 221 221 219 213 217 217 215 214 216 214 213 213 223 217 226 230 233 57 127 12 16 221 247 241 166 212 33 60 76 73 66 74 74 69 75 71 72 73 74 75 75 74 74 74 74 74 74 74 74 74 75 76 76 76 76 76 76 76 76 77 76 75 75 76 76 77 77 76 76 77 77 78 78 77 77 77 77 76 76 76 76 77 77 74 76 77 75 74 75 76 76 76 76 76 76 75 75 75 75 76 75 75 75 75 75 74 74 74 74 73 73 73 74 74 75 73 74 74 75 75 75 74 74 74 74 74 74 73 73 73 73 72 71 71 71 72 72 72 71 70 70 71 72 72 72 72 72 74 73 73 73 73 73 74 74 78 78 78 78 79 79 78 78 76 77 74 69 79 37 48 51 84 96 3 164 125 112 201 125 170 137 121 201 255 229 229 241 234 249 184 66 89 231 158 65 86 140 112 123 116 112 122 127 124 142 123 115 126 127 124 123 125 108 44 182 244 244 244 236 235 243 248 251 210 126 131 157 170 169 188 95 101 122 80 109 171 178 171 181 195 179 157 149 155 152 161 205 124 157 160 148 158 163 145 147 131 131 144 151 159 8 82 248 253 241 250 252 252 226 237 252 240 247 253 225 134 161 81 16 75 66 114 43 9 81 218 37 76 74 32 180 254 247 221 218 209 205 239 230 2 7 106 89 91 195 188 170 184 171 196 163 210 195 196 169 193 194 205 195 209 210 208 207 230 104 57 96 115 128 144 142 157 115 74 78 170 127 9 27 60 63 79 59 58 52 38 75 73 1 5 4 70 166 153 105 142 124 168 108 157 
142 179 183 179 133 165 145 134 1 124 3 148 252 221 232 203 86 119 124 115 93 91 104 139 105 118 117 117 120 105 71 45 47 80 68 66 73 43 49 69 101 94 56 70 82 56 41 56 62 82 178 167 81 111 139 114 67 174 168 33 92 79 19 15 57 134 169 
96 40 24 218 252 163 62 63 91 84 81 90 24 3 162 250 213 214 219 59 37 227 161 10 145 197 197 202 192 226 204 210 250 232 231 251 245 250 165 57 238 250 242 246 254 234 159 175 142 155 253 216 239 214 172 173 176 194 234 213 231 230 216 227 210 219 219 224 211 235 217 191 200 174 231 227 197 168 184 215 211 194 191 200 206 218 212 205 195 222 225 232 70 23 250 219 222 241 226 231 244 213 228 236 253 36 35 252 230 224 250 112 39 213 249 223 220 220 232 232 224 247 104 4 109 178 147 146 143 190 147 6 49 73 113 121 146 153 133 147 168 168 183 180 188 181 124 132 113 120 88 105 136 117 113 121 129 118 86 69 77 103 89 92 98 79 210 241 214 254 157 1 92 125 147 81 22 26 133 219 192 141 174 128 99 205 98 137 239 248 239 183 122 167 176 223 254 254 251 220 217 221 210 218 216 211 212 227 217 216 216 217 218 218 218 216 212 215 218 217 216 216 215 215 216 217 221 226 230 222 36 94 48 9 167 221 237 131 203 143 49 68 72 69 76 74 68 74 71 72 73 74 74 74 74 74 74 73 74 74 74 74 74 74 76 76 76 76 76 76 76 76 75 74 74 73 74 75 76 76 77 77 77 77 77 77 77 77 77 77 76 76 76 76 77 77 78 79 79 76 75 75 75 73 76 76 76 76 75 75 75 75 76 75 75 75 75 75 75 74 74 74 74 74 74 74 75 75 74 74 75 75 76 75 75 74 74 74 74 74 73 73 73 73 72 71 71 71 72 72 72 71 72 72 73 73 73 73 73 73 73 73 73 73 73 74 74 75 78 78 78 79 79 79 78 78 77 78 79 80 104 48 116 135 97 207 2 115 167 69 194 145 182 153 128 165 250 239 223 223 218 204 167 182 135 212 173 37 91 149 127 125 127 127 138 140 130 147 135 115 122 120 116 114 111 131 71 137 243 251 238 242 229 232 245 243 153 114 120 141 173 180 180 108 67 176 132 156 137 161 151 149 151 147 161 169 178 182 188 229 129 150 167 145 141 162 140 124 130 145 148 138 153 37 66 167 156 165 143 168 153 161 153 149 143 97 131 59 43 185 147 148 164 189 156 161 195 182 114 54 67 82 10 104 254 224 210 229 233 232 194 1 1 17 87 87 107 221 231 197 222 201 231 216 219 228 241 166 184 196 195 179 156 143 131 131 149 61 72 91 80 105 78 85 66 60 111 165 126 100 156 166 161 169 166 188 171 176 163 72 42 1 3 1 45 156 205 156 136 
152 173 137 171 139 144 186 186 134 152 180 123 4 121 1 171 247 230 248 192 92 131 118 89 66 68 83 134 111 130 121 133 125 109 84 74 77 88 56 68 84 60 76 82 85 91 38 46 29 50 75 66 63 71 148 167 79 118 150 146 107 187 168 30 52 42 91 150 158 122 70 
71 87 81 228 238 85 21 11 48 52 17 34 120 2 93 252 213 204 190 212 184 194 28 10 9 4 102 152 135 170 157 105 148 254 236 225 192 227 184 78 44 207 254 232 222 199 189 144 134 115 254 205 239 209 125 94 78 135 223 215 232 235 214 220 223 229 150 121 229 239 237 232 192 221 253 201 197 209 226 235 246 253 239 251 251 217 198 221 254 240 225 252 245 206 255 219 222 215 221 223 229 223 234 220 249 28 15 251 216 234 249 125 28 208 236 224 229 223 220 210 211 252 109 4 114 177 180 150 130 200 163 18 103 60 95 133 143 142 125 145 159 156 176 174 199 191 121 141 119 114 71 97 123 112 120 130 128 110 87 84 86 99 99 92 103 58 173 253 229 243 154 13 75 146 124 187 100 39 142 211 196 193 168 151 97 155 149 251 228 247 195 247 154 8 7 231 250 252 244 211 217 227 229 212 213 214 213 210 215 216 217 218 217 215 214 213 210 213 217 219 218 214 216 218 215 212 220 220 226 210 19 52 50 2 32 191 162 145 185 159 48 66 72 71 75 72 69 74 71 71 72 72 73 73 74 72 74 73 73 74 74 74 74 74 76 76 76 76 76 76 76 76 77 77 76 76 77 77 78 78 78 78 77 76 76 76 77 78 77 77 76 76 76 76 77 77 76 77 77 76 77 79 79 77 75 75 75 75 76 76 76 76 76 75 75 75 76 76 75 74 75 75 75 75 75 75 76 76 75 75 76 76 76 75 75 75 74 74 74 74 73 73 73 73 72 72 71 72 72 73 72 71 72 73 73 74 74 74 73 73 73 73 73 73 73 74 75 76 78 78 79 79 78 78 78 78 78 79 87 138 25 32 4 56 86 220 16 20 203 92 196 153 154 178 208 133 223 225 228 234 232 225 203 151 131 167 240 25 68 118 140 136 132 125 132 110 116 136 138 108 119 120 118 116 118 126 119 118 241 252 236 244 241 240 225 167 83 107 124 119 177 163 187 142 50 245 172 175 178 177 161 175 178 150 152 161 165 171 163 198 142 169 160 157 158 159 151 147 155 158 155 134 141 54 41 12 50 22 20 17 46 29 48 37 25 1 75 17 1 2 2 6 4 2 3 6 56 69 40 84 70 77 44 38 253 253 254 176 172 76 4 3 6 8 72 96 92 165 112 96 114 75 78 51 65 38 21 40 44 48 38 39 48 63 76 81 74 91 132 142 153 148 57 76 103 120 117 117 144 117 34 23 20 4 19 13 60 123 179 199 122 2 2 7 43 127 199 156 129 149 135 55 141 114 145 202 196 148 172 153 112 4 136 4 211 251 
240 248 212 86 138 123 105 63 56 85 140 108 117 112 133 119 107 86 84 93 98 68 58 96 75 55 61 17 92 76 48 84 136 111 47 68 82 142 165 75 108 135 143 126 195 190 25 30 121 132 66 47 36 12 
101 92 43 212 244 90 81 5 23 86 27 56 252 239 185 228 203 213 179 143 165 38 29 37 25 22 38 136 161 136 108 74 51 90 124 163 125 109 143 182 49 2 40 138 165 133 192 125 106 103 254 219 230 208 170 157 143 165 241 225 223 226 218 228 230 199 107 54 151 235 129 121 104 89 134 162 127 155 178 144 140 228 242 218 247 254 242 239 254 253 248 237 171 237 238 225 209 220 230 226 222 230 212 231 253 213 109 209 248 213 252 131 33 203 239 232 222 231 248 224 215 246 94 6 117 156 158 165 172 192 152 95 148 66 118 162 148 160 131 143 171 166 173 177 190 187 124 143 106 125 94 100 138 116 114 129 134 118 89 82 75 95 103 78 108 71 176 249 222 254 188 1 87 126 157 165 144 188 147 191 181 144 172 190 147 189 112 211 224 248 125 99 38 52 30 249 253 251 236 209 220 220 220 217 221 217 218 220 215 216 218 218 216 214 213 213 212 213 215 218 217 214 214 216 212 212 215 216 226 206 30 31 74 100 136 57 197 207 126 27 60 71 72 70 72 71 70 75 71 71 71 72 72 72 73 72 74 73 73 73 74 74 74 74 76 76 76 76 76 76 76 76 77 77 77 78 78 79 79 79 79 78 77 76 76 76 77 78 77 77 77 76 76 76 76 77 74 75 75 75 78 81 81 78 75 75 75 75 76 76 76 76 76 75 75 75 76 76 75 75 76 76 76 76 76 76 77 77 76 76 76 76 76 75 75 75 74 74 74 74 73 73 73 73 73 72 72 72 73 73 72 72 72 72 73 73 73 73 72 72 73 73 73 73 74 75 76 76 78 78 79 80 79 79 78 78 78 89 34 126 68 47 47 76 124 231 144 10 237 65 188 155 143 171 250 176 182 235 190 233 241 254 210 182 129 162 244 39 83 104 130 107 107 109 119 121 114 132 144 109 117 117 115 112 117 115 112 119 217 140 183 211 183 113 85 100 136 128 129 129 163 179 176 138 31 227 150 179 188 172 170 196 202 172 159 174 161 167 179 204 149 169 148 167 144 170 172 149 151 151 142 114 147 78 37 77 70 61 68 95 88 79 80 81 40 62 100 55 14 23 27 25 35 47 49 54 77 67 75 70 68 73 71 5 136 182 62 39 50 8 3 4 3 5 86 127 58 127 154 142 150 131 135 169 157 165 148 162 206 223 228 228 230 225 240 245 235 247 245 241 238 236 215 216 213 225 234 221 239 176 5 34 37 51 29 39 15 108 39 82 199 203 11 2 32 143 176 146 150 188 164 95 171 150 149 193 
175 141 159 160 118 23 112 7 251 251 240 252 215 105 120 117 112 89 82 108 139 112 118 122 139 138 152 144 139 128 104 56 129 138 115 80 68 91 87 143 138 140 134 108 45 21 34 144 172 74 100 137 145 150 194 205 95 97 87 4 40 82 60 51 
108 95 50 217 252 91 108 24 25 38 73 108 156 177 247 254 163 170 144 128 6 20 75 75 58 51 49 40 140 157 140 171 141 23 128 162 163 193 184 201 239 145 88 3 76 166 208 247 187 173 244 219 239 216 171 130 93 101 200 229 234 224 214 217 228 194 188 86 24 110 109 107 129 19 8 2 56 4 81 69 26 55 102 121 178 190 186 173 169 178 164 175 96 88 189 224 227 224 214 229 227 231 230 229 230 246 236 229 222 216 254 136 29 194 246 237 215 223 245 221 204 253 165 10 73 182 160 141 126 182 168 99 135 53 108 153 151 174 148 150 172 169 174 173 185 197 130 136 97 129 109 108 142 117 115 129 134 114 86 78 80 104 98 90 112 94 184 253 254 248 215 30 60 88 205 174 165 196 154 196 195 145 168 161 141 180 75 155 200 245 187 91 25 46 66 244 251 252 231 215 219 224 218 227 221 214 215 211 219 220 220 218 216 216 217 216 216 215 216 217 217 216 216 215 208 217 211 215 227 210 60 32 87 144 113 5 88 105 18 69 70 73 71 69 71 72 71 72 71 71 71 71 72 72 73 72 74 73 73 73 74 74 74 74 76 76 76 76 76 76 76 76 75 75 76 76 77 77 77 77 79 78 77 76 76 76 77 78 78 77 77 76 76 76 76 76 77 77 76 75 76 78 77 74 75 75 75 75 76 76 76 76 76 75 75 75 76 76 76 75 77 77 76 76 77 77 78 78 77 77 76 76 75 75 75 74 74 74 74 74 73 73 73 73 73 73 72 72 73 73 73 72 73 73 73 74 74 73 73 73 73 73 73 73 74 75 76 76 77 78 79 80 79 79 78 77 75 94 22 104 251 223 220 212 152 117 137 4 155 76 158 153 127 188 238 196 122 152 187 188 244 233 208 187 166 110 240 73 60 93 132 116 125 120 103 125 116 128 142 113 121 119 117 112 113 124 150 80 189 163 165 163 103 118 140 137 150 120 131 109 144 180 165 171 28 190 149 134 143 142 166 175 176 178 185 215 190 167 179 213 126 143 159 156 154 150 147 153 177 155 137 148 179 66 18 33 60 60 66 67 54 38 61 54 92 1 85 110 36 94 92 89 90 98 80 86 73 75 81 67 73 79 75 57 40 32 33 64 93 28 1 1 3 1 85 78 36 171 249 204 239 216 219 247 204 137 234 232 226 235 230 229 221 221 224 232 225 225 207 205 215 216 245 245 252 242 245 250 250 241 189 229 236 250 254 201 117 68 56 35 41 169 251 67 2 151 203 150 127 163 176 108 152 119 143 200 185 140 
164 151 96 23 72 58 131 23 47 52 68 98 139 126 126 153 148 140 126 119 124 118 136 121 113 99 97 96 86 45 137 149 118 124 109 131 111 131 134 155 121 85 46 42 77 174 184 83 97 150 141 137 117 111 133 131 119 102 132 93 88 67 
88 111 95 212 247 100 85 37 11 54 187 210 184 119 254 243 227 242 150 62 135 20 13 57 94 133 91 62 62 199 216 207 241 79 7 147 164 216 151 210 194 202 235 6 93 111 122 175 151 131 254 212 240 212 170 140 101 113 198 236 244 226 225 230 215 213 205 221 165 94 33 50 163 179 96 31 141 102 13 15 98 122 78 117 115 114 135 133 138 141 129 161 156 36 104 216 177 213 233 220 234 226 222 227 234 223 220 180 240 222 249 118 11 181 246 224 215 229 247 222 216 237 242 192 151 160 169 151 116 190 168 61 131 78 108 133 142 163 146 140 143 156 184 175 201 211 123 122 108 132 102 102 129 114 120 133 132 110 86 84 81 104 95 86 108 98 48 148 152 122 196 80 35 122 163 155 163 189 143 180 207 103 144 164 122 172 95 123 203 249 187 151 91 34 52 246 253 254 231 219 227 232 234 231 212 214 220 224 220 219 219 217 217 217 217 216 213 216 219 217 217 218 219 215 207 220 210 217 223 215 76 36 125 121 86 6 60 39 63 65 71 69 69 71 72 73 71 67 71 71 71 70 71 72 72 72 74 73 73 73 73 74 74 74 76 76 76 76 76 76 76 76 75 76 76 77 77 77 77 77 78 78 77 76 76 76 77 78 78 77 77 76 76 76 76 76 75 76 75 74 75 77 76 74 75 75 75 75 76 76 76 76 76 75 75 75 76 77 76 76 77 77 77 77 77 77 78 78 78 77 76 75 74 74 74 74 74 74 74 74 73 73 73 73 74 73 72 73 73 74 73 73 75 75 75 76 75 75 74 74 73 73 73 74 74 75 76 76 77 78 80 81 80 79 78 77 83 85 55 53 185 248 126 77 10 108 134 63 195 136 103 158 109 161 216 140 121 117 103 153 203 211 173 139 145 91 229 149 40 84 119 123 114 119 118 122 114 119 127 113 121 119 120 117 119 112 146 102 196 188 180 133 122 121 122 132 122 118 156 148 156 175 171 176 16 179 171 161 196 184 193 192 187 181 170 182 181 177 162 208 135 137 168 145 154 146 162 160 154 158 159 152 148 134 98 88 110 111 34 80 92 83 94 97 151 112 112 71 90 70 68 77 79 63 80 72 80 75 63 76 74 77 72 72 75 78 70 74 84 41 14 157 134 146 4 8 4 144 227 205 232 218 140 180 106 135 185 205 217 219 205 217 202 216 184 185 211 219 220 206 222 213 237 250 242 243 240 234 238 246 237 242 244 234 253 182 200 151 8 28 33 47 175 245 44 110 171 129 130 129 160 95 163 
160 185 187 184 142 174 162 95 69 143 105 165 176 184 167 118 102 135 111 103 135 131 126 117 121 126 117 126 121 110 100 94 89 98 61 133 129 149 130 111 120 124 126 149 136 104 95 73 57 83 135 172 78 100 164 149 150 119 107 104 113 108 112 104 74 54 29 
123 131 104 214 253 113 65 53 23 104 211 220 190 120 241 249 240 212 251 184 248 254 149 45 51 103 79 66 70 223 216 176 215 176 86 105 121 108 147 204 93 7 42 56 66 142 187 183 131 120 255 212 239 222 194 189 145 177 221 226 240 221 217 220 226 204 220 137 93 61 37 55 78 152 174 163 150 163 146 69 68 113 94 226 251 252 254 254 252 252 251 254 187 112 129 254 132 167 225 235 226 213 224 224 232 221 251 123 237 225 246 210 42 155 237 233 228 224 238 213 211 228 206 252 247 148 171 150 139 167 116 84 39 34 124 144 128 152 131 124 139 158 186 184 201 202 119 121 111 129 109 104 146 120 115 127 137 121 87 71 73 110 110 85 120 132 14 66 97 72 151 118 82 129 130 164 160 168 150 190 204 98 120 144 109 171 117 128 177 244 185 117 68 25 18 250 254 246 242 181 196 160 191 207 225 229 208 214 212 213 214 216 218 217 214 212 203 212 220 218 215 218 219 216 212 217 217 220 214 212 67 31 85 104 80 9 61 71 69 69 69 67 69 72 72 72 71 68 71 71 71 71 71 71 72 71 74 73 73 73 73 73 74 74 76 76 76 76 76 76 76 76 76 77 77 78 78 78 77 77 77 77 77 77 77 77 77 77 78 78 77 76 76 76 76 76 72 75 76 74 74 76 77 76 74 75 75 75 76 76 76 77 76 75 75 75 76 77 77 76 77 77 77 76 77 77 78 78 78 77 76 74 73 73 73 73 74 74 74 74 73 73 73 73 74 73 73 73 74 74 74 73 76 76 76 76 76 75 75 74 74 74 74 74 74 75 75 76 77 78 80 81 80 79 78 77 79 79 79 31 106 191 193 100 23 113 149 3 127 172 70 209 110 143 244 210 41 39 116 227 211 204 226 190 192 119 184 197 26 123 112 125 106 113 124 109 121 118 113 114 120 116 119 116 118 112 172 120 166 199 181 135 107 110 116 159 164 170 171 165 163 169 149 164 89 193 175 158 190 175 168 190 202 193 185 169 169 208 202 217 149 139 147 147 160 127 127 141 140 135 104 80 11 118 124 138 115 108 14 73 139 107 113 105 113 102 112 79 72 76 67 71 76 77 71 76 74 73 73 84 71 69 80 67 72 66 77 75 71 8 1 165 123 134 58 54 130 169 213 208 236 181 172 210 102 144 132 154 142 134 137 127 121 135 119 138 171 186 229 231 215 217 244 231 237 211 233 238 242 248 241 252 248 253 253 242 210 184 117 108 236 184 167 173 221 121 185 138 132 
146 170 118 119 173 180 183 202 138 170 157 78 14 31 184 201 188 216 188 67 141 132 126 131 136 128 126 136 121 126 114 122 131 118 112 101 83 99 59 146 170 128 135 109 122 136 130 136 132 141 129 87 57 88 134 176 86 106 152 134 140 131 116 122 104 96 87 72 59 39 53 
126 128 77 200 250 119 75 50 21 70 225 208 165 126 255 236 234 226 247 252 239 218 254 252 211 183 6 15 5 142 200 180 211 88 127 208 214 207 171 180 248 247 244 249 230 237 240 233 228 247 238 213 224 218 186 195 174 231 245 223 253 244 236 234 230 199 111 93 141 191 79 78 46 142 31 85 121 138 198 119 20 90 218 248 232 228 239 231 229 233 239 252 181 66 144 236 173 167 87 165 246 220 219 234 230 232 216 188 226 239 231 249 251 203 219 233 232 217 244 226 210 254 86 64 218 177 168 142 140 145 86 128 56 2 134 132 118 157 126 124 168 175 177 182 199 199 143 139 91 104 113 98 138 119 119 126 129 116 92 86 77 103 105 107 106 111 141 178 137 129 207 196 19 122 175 176 146 170 157 174 213 161 121 192 112 145 101 169 35 177 146 117 203 196 215 254 231 245 226 169 174 84 79 55 138 227 219 208 209 210 213 215 217 216 213 208 189 208 220 217 213 215 217 215 217 210 221 222 208 209 49 24 56 123 79 7 86 63 61 67 72 68 71 73 69 69 72 71 72 71 70 71 70 71 71 72 72 74 73 73 73 73 73 73 75 76 75 75 75 75 75 75 75 75 75 75 75 75 74 74 76 76 77 77 78 78 76 76 77 77 77 76 76 75 75 76 76 79 79 76 72 72 74 73 74 74 75 75 76 76 77 77 76 75 75 75 77 77 77 76 77 77 76 76 77 77 78 78 78 77 75 74 73 73 73 73 74 74 74 74 73 73 73 73 74 73 73 73 74 74 74 73 75 75 75 75 75 74 74 73 75 74 74 74 74 75 75 75 77 78 80 81 82 80 78 77 83 75 83 21 79 62 198 97 117 154 159 3 68 215 6 173 146 169 242 214 116 156 180 173 139 79 221 199 196 147 174 238 26 210 122 113 131 121 114 120 118 111 97 116 129 129 139 139 117 123 109 91 160 190 187 154 136 174 178 169 165 165 145 159 157 168 182 228 98 105 230 177 205 223 204 212 216 220 243 216 212 210 203 171 98 132 133 146 72 144 148 126 132 107 54 85 22 72 8 7 11 142 111 11 32 63 31 45 15 13 82 99 69 75 84 66 76 78 71 76 74 81 68 71 77 81 69 76 73 66 70 86 18 1 2 160 96 100 102 109 135 170 203 144 191 158 191 187 91 152 142 120 123 102 142 129 174 176 166 165 174 223 231 222 214 218 243 242 226 227 245 237 242 241 244 251 253 246 245 254 230 162 102 111 244 237 244 139 235 226 174 115 131 126 167 135 150 
203 192 184 180 155 158 153 87 1 141 94 47 71 58 39 106 126 141 116 127 135 137 117 133 112 129 114 129 136 114 121 120 102 117 65 127 175 145 131 151 159 146 164 140 143 161 123 92 67 85 130 181 85 101 133 123 127 125 89 107 109 94 78 73 57 61 48 
87 86 84 204 254 108 82 49 17 74 211 205 176 134 244 249 237 230 244 249 231 193 189 198 237 222 108 91 82 78 166 173 100 7 3 39 42 47 91 169 204 224 230 237 221 246 242 252 245 246 238 205 223 216 192 184 227 232 214 254 247 171 178 231 217 188 157 205 243 213 105 136 44 139 252 94 81 32 166 113 40 138 218 254 229 228 233 245 234 249 239 247 188 51 138 249 165 196 22 1 84 187 195 211 230 219 224 229 227 240 227 236 252 254 220 228 231 220 244 227 207 254 117 2 32 146 160 151 143 152 90 124 86 63 128 117 122 172 127 135 174 179 183 189 193 188 131 145 89 101 107 111 126 133 124 129 143 118 82 82 86 106 110 96 105 106 167 250 253 247 250 198 10 106 153 173 163 151 138 191 210 135 104 178 130 145 96 200 2 13 100 104 203 244 248 253 245 245 247 236 242 227 211 201 202 224 211 217 215 219 216 216 218 215 218 212 218 216 219 213 218 213 216 211 215 220 213 215 226 197 31 19 65 122 66 13 81 64 56 68 70 70 70 70 70 69 69 69 70 70 70 70 71 71 71 71 70 73 74 73 72 71 73 75 75 74 75 71 73 73 74 77 66 80 81 72 77 82 73 77 74 79 74 74 79 76 73 79 74 75 75 73 73 76 77 77 74 79 78 75 75 78 77 74 75 75 75 75 75 75 75 75 76 76 77 77 77 77 76 76 77 78 78 78 78 78 77 77 77 77 76 75 75 75 75 75 73 74 74 74 74 73 72 72 74 74 75 75 75 76 76 76 76 75 75 75 74 75 75 75 74 75 75 75 73 74 76 78 76 78 80 82 82 81 79 77 81 78 93 35 68 120 227 151 110 144 171 51 43 238 102 141 191 173 235 158 119 143 117 83 17 99 208 211 151 190 129 184 134 121 112 158 137 108 117 119 124 125 125 122 116 98 60 48 100 170 68 144 136 220 137 164 152 152 152 153 163 181 200 214 219 224 209 246 124 48 212 171 200 183 179 163 157 151 87 89 152 158 155 64 89 94 101 140 70 119 175 164 152 174 176 177 28 115 61 49 63 211 206 62 61 59 58 63 64 67 105 93 76 76 76 77 77 77 76 76 77 78 79 77 77 77 73 70 71 71 78 72 2 0 3 152 109 111 119 71 79 141 246 170 171 138 199 194 160 205 168 189 132 145 194 230 218 181 228 224 208 230 225 225 219 216 237 239 236 244 250 246 250 238 248 252 252 249 250 251 213 174 149 135 231 207 232 220 173 185 161 106 154 123 186 131 172 195 
170 179 183 142 163 159 125 42 245 240 111 90 95 192 155 108 133 123 120 129 145 129 132 121 130 116 131 133 126 121 128 126 124 83 109 177 152 165 166 153 147 144 148 146 153 140 92 70 104 95 170 159 163 175 124 137 155 122 129 146 99 86 92 73 76 59 
94 100 82 205 253 113 75 59 25 50 206 208 171 129 254 246 241 229 234 238 211 211 166 173 158 176 212 228 231 221 197 200 198 225 221 210 193 165 154 148 144 147 180 217 196 183 183 217 252 231 221 231 230 244 253 254 225 200 255 242 181 97 100 219 250 162 177 213 197 188 22 72 171 33 63 73 4 43 167 111 64 125 211 244 248 239 241 228 221 219 243 254 191 82 153 239 175 193 70 11 29 211 220 120 188 246 220 221 236 221 237 232 255 251 219 226 207 227 237 216 215 243 136 5 70 158 165 154 141 149 83 128 89 59 130 141 159 173 145 159 182 176 194 188 202 206 131 141 94 103 102 109 132 136 124 127 140 116 85 87 75 106 112 83 115 140 84 106 172 196 159 38 2 79 135 162 166 140 149 183 208 159 153 165 109 163 119 202 27 3 102 100 87 163 249 251 247 247 250 250 253 235 237 250 242 220 215 217 217 212 215 219 219 216 223 218 218 210 212 215 222 215 218 219 218 216 214 218 227 180 33 25 52 107 51 35 76 63 75 64 70 70 69 69 69 69 69 69 70 70 70 70 71 71 71 71 70 72 75 73 72 71 73 75 78 72 77 82 81 68 76 77 86 78 73 74 70 77 86 73 78 81 78 73 72 75 80 84 72 76 78 75 71 70 70 70 80 76 72 71 73 75 74 74 76 76 76 76 76 76 76 76 76 76 77 77 77 77 76 76 76 77 77 78 78 78 78 78 77 76 76 75 75 75 75 75 74 74 74 74 74 74 73 73 73 74 74 74 75 75 75 75 75 75 74 74 75 75 76 76 74 76 76 76 74 75 77 79 76 77 80 81 82 81 80 79 69 86 69 63 51 188 171 120 135 150 185 79 10 205 174 104 175 171 204 126 95 137 155 136 63 106 181 232 156 214 128 205 196 47 102 148 133 145 133 113 100 98 92 89 112 98 7 18 132 76 13 191 133 196 167 172 186 198 211 222 225 222 214 210 211 210 223 213 211 122 155 97 37 99 137 121 148 100 62 105 149 107 12 190 183 154 174 172 167 154 144 105 84 75 38 19 18 103 123 127 119 95 93 119 138 137 127 118 129 99 101 78 76 77 78 79 78 78 78 77 78 79 80 79 78 79 75 70 72 68 71 78 9 1 1 137 73 121 138 56 50 143 245 188 173 183 168 210 205 198 224 216 207 223 216 210 151 197 230 203 216 231 224 232 228 218 231 229 249 249 248 245 252 241 242 248 246 250 248 253 197 179 255 202 211 201 235 207 186 228 151 122 163 134 176 116 154 
183 185 185 195 134 175 169 82 25 231 253 252 250 253 246 116 127 143 109 123 125 141 132 135 119 130 122 134 134 132 137 144 133 124 82 119 182 153 154 152 148 144 145 145 138 132 140 103 38 82 51 148 96 107 186 152 135 156 159 170 145 107 93 93 83 79 56 
144 145 88 187 252 128 90 55 26 70 214 205 197 144 252 239 238 236 253 248 169 173 171 166 139 141 153 148 147 145 143 158 156 161 213 215 204 222 217 224 210 202 186 187 203 197 204 254 247 216 235 248 220 211 132 146 244 254 247 162 111 141 218 194 198 128 135 206 211 186 109 7 39 69 2 10 3 79 167 120 50 122 210 254 227 249 223 199 233 229 255 253 169 83 155 254 178 202 62 23 40 203 223 156 140 157 241 238 225 224 224 240 243 241 220 233 239 235 189 174 205 246 123 14 79 177 148 102 138 150 75 127 86 53 129 156 170 164 136 147 178 171 196 188 194 211 118 134 99 109 104 113 131 133 123 128 140 115 83 81 74 100 105 101 119 154 116 82 42 43 39 62 39 140 161 177 169 141 120 141 208 186 173 150 121 180 134 171 36 8 3 121 104 75 112 227 249 249 253 255 254 254 242 255 246 251 240 204 216 211 218 221 218 209 221 217 219 227 220 217 213 202 219 215 221 212 222 215 215 153 52 137 151 109 46 19 76 68 62 69 69 68 69 69 69 69 69 69 70 70 70 71 71 71 71 71 71 73 75 74 72 73 74 76 77 81 70 69 75 82 81 71 72 79 77 84 81 75 83 77 75 75 77 78 76 80 76 64 78 75 72 70 74 81 83 81 74 75 77 78 74 71 73 77 76 76 76 76 76 76 76 76 76 76 77 77 77 77 76 76 76 76 76 77 78 78 79 79 77 76 76 75 74 74 74 75 74 74 74 74 74 74 74 75 73 73 73 74 74 75 75 75 74 74 74 74 75 75 76 77 75 76 77 77 76 76 78 80 77 77 79 80 81 81 81 80 83 74 88 68 26 95 165 162 116 101 213 119 9 175 193 96 87 177 210 191 93 139 168 226 110 70 165 248 230 181 165 239 104 4 119 119 77 29 74 98 129 138 149 124 114 64 99 134 49 9 3 166 148 191 189 228 215 214 216 216 212 211 211 212 207 214 203 222 212 73 97 69 70 136 144 91 98 79 93 130 152 126 1 3 22 18 9 10 16 14 15 10 15 18 7 10 12 5 12 6 5 6 14 5 14 13 8 12 75 68 77 71 75 76 78 79 78 78 78 78 79 80 80 79 79 79 75 71 70 70 69 87 23 1 2 133 71 77 125 77 76 130 224 194 188 186 182 164 168 200 212 227 228 222 241 248 238 232 235 217 225 230 219 222 222 221 238 238 238 244 248 246 249 235 236 251 252 253 254 246 213 154 246 214 187 221 220 124 229 142 152 144 161 149 176 115 147 172 203 193 159 137 154 173 93 63 237 
190 245 253 220 149 111 124 126 131 127 125 135 136 138 116 130 129 139 130 124 129 135 126 123 90 125 193 172 165 161 161 154 153 143 150 158 100 88 66 169 176 94 95 140 209 173 151 130 148 172 145 112 90 89 84 69 58 
126 136 119 187 250 113 66 43 4 40 194 197 168 145 255 240 250 241 254 212 210 209 152 169 144 158 142 157 165 141 161 148 139 187 197 185 189 189 187 191 193 195 206 192 188 180 195 220 198 226 238 237 253 228 112 175 248 252 143 55 146 251 243 180 95 111 185 170 238 225 225 238 158 47 1 138 162 141 178 150 45 109 225 252 240 250 230 188 227 217 246 255 167 39 95 244 167 186 87 29 33 218 210 168 155 2 66 175 213 203 238 220 214 222 227 221 235 222 215 228 202 254 124 4 68 123 128 70 88 147 83 106 69 67 124 106 127 153 137 143 167 150 165 180 186 209 114 135 98 110 109 110 130 130 122 129 139 118 90 88 75 94 112 91 116 164 127 119 94 87 122 120 33 125 165 168 174 155 128 172 215 158 151 181 116 141 82 221 48 1 19 38 74 127 143 181 156 181 223 237 200 219 232 231 241 240 246 231 226 227 221 215 218 212 219 212 219 202 222 211 220 232 211 215 209 208 203 223 210 179 46 169 226 146 2 66 63 75 70 77 69 68 68 68 68 69 69 69 70 70 71 71 71 71 71 71 71 74 74 74 72 73 74 75 73 71 75 91 73 76 70 76 75 79 74 78 65 73 76 81 83 81 77 76 78 81 81 81 73 75 75 76 78 79 74 70 73 75 77 76 74 75 76 77 76 77 77 77 77 77 77 77 76 76 76 77 77 77 77 76 76 76 76 77 77 78 78 79 77 76 76 75 74 74 74 75 75 74 74 74 74 75 76 76 74 74 74 74 75 75 75 75 74 74 74 74 74 75 76 76 75 77 78 78 76 76 78 79 78 79 79 80 81 81 81 81 72 77 70 99 22 89 158 157 138 99 154 155 14 140 159 52 156 165 179 210 121 137 168 214 228 114 169 192 119 177 161 238 221 1 161 163 83 12 75 130 81 55 64 63 50 29 115 127 49 21 1 110 174 197 191 218 212 210 208 208 205 205 208 209 207 205 210 204 219 61 85 91 118 148 154 147 127 161 177 175 193 143 1 13 4 4 2 4 15 29 52 72 85 60 13 3 3 1 7 3 1 2 1 2 3 7 6 23 82 78 81 81 77 76 77 77 77 77 77 78 77 78 79 78 78 77 74 69 65 75 71 91 29 1 8 127 82 99 162 81 92 133 248 211 215 226 222 182 177 216 211 155 162 183 183 179 216 240 210 192 209 230 235 231 220 221 240 244 219 228 233 236 253 252 245 253 249 248 249 254 233 157 238 240 235 252 137 192 129 111 211 144 163 153 163 117 166 178 212 183 164 156 162 157 144 105 140 139 
189 148 108 101 138 138 143 121 128 128 133 138 136 116 131 130 135 135 134 137 138 122 115 77 115 191 177 166 160 162 150 149 155 146 174 91 147 251 227 224 84 127 194 99 51 91 160 190 172 181 142 91 78 69 36 15 
80 91 44 161 227 53 57 30 26 67 191 209 167 153 248 234 182 219 248 176 176 169 174 193 158 162 159 163 174 153 153 142 135 215 240 229 227 221 215 207 208 219 210 189 213 192 196 253 251 255 248 254 248 248 248 254 248 176 69 85 241 247 138 104 77 151 149 104 164 232 220 162 160 251 214 190 181 174 222 153 57 103 217 248 226 217 230 244 221 224 241 255 194 74 133 252 179 210 71 22 36 202 215 181 164 37 8 133 246 118 157 242 230 214 227 230 230 234 249 218 196 254 121 7 44 85 115 110 90 136 73 93 64 63 113 94 136 157 137 156 173 160 161 182 193 212 126 143 96 107 111 97 132 129 121 126 136 119 98 98 81 103 101 100 104 142 121 78 55 61 59 56 32 164 160 166 150 162 153 175 208 171 177 154 128 151 103 207 52 5 29 60 26 37 169 254 251 241 249 226 74 83 76 73 104 104 91 125 206 228 228 233 241 243 239 233 244 240 236 236 230 224 222 227 224 219 219 218 201 129 42 98 179 136 2 108 59 72 78 68 69 68 68 68 68 69 69 69 71 71 71 71 71 71 72 72 72 74 74 73 73 74 73 74 75 75 73 53 37 32 31 42 48 37 41 47 32 51 36 28 38 40 64 81 69 67 76 74 72 78 79 76 72 74 78 81 81 78 71 65 70 81 80 73 76 77 77 77 77 77 77 77 75 76 76 77 77 77 77 77 78 77 77 76 76 77 77 78 77 77 76 75 75 75 75 75 75 75 75 74 75 75 76 77 75 75 75 75 76 76 76 76 75 75 74 74 74 74 75 75 75 76 78 78 76 76 77 79 81 81 81 81 81 81 81 81 76 74 86 74 47 54 138 199 137 120 208 218 10 86 197 62 110 157 169 223 142 132 139 240 146 69 121 78 74 218 246 248 217 2 104 76 44 117 111 36 75 80 89 94 70 10 78 54 83 57 7 83 195 177 194 214 208 209 210 213 213 213 210 206 209 210 207 212 222 143 159 154 162 204 159 143 154 129 55 112 97 75 71 86 79 85 95 93 100 99 92 90 98 84 55 52 49 53 33 45 49 36 24 63 57 65 71 85 88 79 77 80 78 78 79 78 78 78 78 79 77 78 79 78 79 79 74 71 62 77 71 88 32 1 2 102 55 51 97 37 80 129 250 214 210 225 221 227 191 187 220 138 136 121 114 153 218 228 185 196 220 221 221 221 218 224 236 233 232 247 248 238 244 248 234 245 244 252 244 254 201 184 252 165 188 48 188 225 4 146 195 144 139 147 173 143 184 149 187 189 177 141 164 149 153 123 93 72 46 
47 93 150 135 138 148 129 126 134 134 138 133 117 133 124 135 142 141 135 131 116 109 67 107 185 169 163 159 163 161 164 148 150 161 123 190 236 244 226 57 84 128 60 24 92 139 105 105 123 90 53 47 34 87 160 
204 228 236 241 249 248 245 246 240 244 252 253 221 190 222 224 123 75 166 194 214 209 173 175 170 177 179 181 194 176 188 184 150 178 223 225 217 228 231 239 236 231 244 246 251 223 208 222 212 221 214 224 245 250 243 231 238 253 215 193 196 83 60 32 54 56 60 107 193 188 248 237 74 2 119 188 205 192 224 167 32 40 121 228 253 252 234 247 251 251 252 252 194 88 169 249 167 186 101 43 37 222 223 170 168 47 50 147 254 139 146 159 221 221 228 236 221 218 217 208 201 250 120 12 47 120 93 87 118 123 66 90 66 53 101 106 135 134 120 155 166 162 166 177 191 205 131 137 96 107 114 98 128 126 122 128 130 111 91 88 69 104 108 83 106 151 100 165 209 210 183 65 2 129 169 135 168 163 154 165 208 124 142 127 110 169 117 239 73 1 29 74 67 36 1 11 69 115 168 217 18 26 107 95 50 41 61 31 31 50 54 73 57 67 85 109 123 160 172 186 194 215 227 216 224 223 236 240 187 36 27 12 51 77 9 58 63 68 70 74 69 68 69 69 69 69 69 69 71 71 71 71 71 72 72 72 74 74 73 74 73 73 73 73 71 85 57 90 191 209 204 217 219 226 234 234 233 228 211 210 176 126 60 37 61 77 75 77 80 77 72 70 74 79 80 76 72 79 81 76 74 77 78 74 76 76 76 76 76 76 76 76 75 76 76 77 77 77 77 77 78 78 77 76 76 76 77 77 78 77 77 76 76 76 76 76 76 76 76 75 76 76 76 77 77 76 76 76 76 76 76 75 75 75 74 74 74 74 74 74 74 76 78 78 77 77 78 79 82 82 81 82 82 81 81 81 88 69 76 80 85 20 114 178 214 138 122 248 71 21 231 23 96 170 181 146 122 108 162 236 119 115 158 171 108 175 180 109 11 2 82 72 35 134 103 93 112 115 118 108 76 109 159 187 22 2 1 3 208 186 207 212 216 211 206 202 203 207 211 213 207 209 221 200 228 63 32 12 10 6 4 4 4 9 10 32 61 75 75 74 85 84 70 80 69 77 75 73 78 81 85 97 90 93 95 100 91 89 100 88 97 90 85 89 75 77 75 77 80 81 80 79 78 78 80 81 77 80 81 80 80 79 76 71 68 76 69 84 38 3 1 79 124 84 128 72 29 91 247 203 202 223 208 186 142 171 221 155 170 184 203 196 175 179 188 219 237 225 226 229 220 217 224 226 234 245 240 228 240 253 241 253 251 251 254 195 143 245 117 10 38 176 216 2 10 144 165 145 155 182 165 78 155 172 201 177 182 136 165 159 154 143 130 72 134 123 
140 142 142 149 128 130 125 140 136 140 131 119 134 119 129 137 135 127 126 121 125 88 133 205 177 179 175 167 169 166 166 144 147 121 200 234 117 43 87 66 45 78 71 75 110 106 74 77 14 94 55 180 210 243 
253 204 205 208 193 201 185 199 194 189 216 253 246 246 254 227 252 254 254 189 182 182 177 182 134 153 144 156 169 135 159 142 144 201 181 175 184 174 181 173 170 184 179 165 181 181 191 236 205 179 179 172 178 208 205 201 212 205 204 211 215 103 134 219 246 165 86 160 159 129 240 241 254 146 61 54 168 223 218 152 66 62 104 146 209 198 204 207 206 179 190 217 186 54 141 254 178 198 66 31 57 182 195 189 169 45 19 118 252 150 159 13 165 193 202 194 229 243 205 204 221 254 142 1 78 139 99 49 95 100 71 80 61 58 105 100 123 146 145 159 171 169 177 188 184 200 128 117 95 108 109 104 125 123 122 127 128 112 97 97 65 102 104 100 106 119 194 254 254 248 253 234 28 115 167 145 174 154 128 140 209 146 173 134 98 155 86 232 90 3 28 64 46 73 35 12 10 16 43 31 28 75 219 234 214 18 8 11 10 14 81 189 152 121 93 84 73 51 65 27 39 110 75 82 115 112 64 124 57 9 14 10 42 97 9 69 73 67 68 69 71 70 69 69 69 69 69 69 71 71 71 71 72 72 72 72 74 73 73 73 74 74 73 73 78 71 37 188 254 255 252 210 146 134 168 183 194 183 252 247 249 254 255 198 70 27 62 74 73 74 74 74 74 70 61 52 65 69 74 79 78 73 73 76 76 75 75 75 76 76 75 75 74 74 76 77 77 77 77 77 77 77 76 75 75 76 77 78 79 78 78 77 76 76 76 77 76 76 77 77 77 76 76 76 77 77 76 76 75 75 74 74 74 74 74 74 74 74 75 75 75 77 79 80 78 78 78 79 83 83 82 84 84 83 83 82 82 85 82 72 82 12 105 137 240 154 87 240 127 3 180 178 204 220 157 134 83 116 155 137 119 63 44 37 2 2 23 184 8 2 90 147 86 133 94 127 134 136 126 126 143 245 169 194 231 21 2 7 172 142 233 205 220 217 214 211 210 212 215 214 206 205 204 196 239 123 20 38 39 46 68 66 70 75 92 85 82 74 78 76 75 75 73 81 77 76 72 73 76 76 76 74 71 78 74 69 74 71 76 77 81 75 73 77 80 87 81 78 79 79 79 78 78 77 78 80 77 79 81 80 80 80 76 72 73 74 72 83 39 5 1 87 91 19 109 116 72 114 248 204 175 169 123 179 190 176 214 210 212 235 232 244 197 232 219 229 226 223 230 223 208 223 250 255 251 254 251 252 253 235 159 144 145 108 158 187 228 113 22 36 222 200 5 1 35 160 185 152 144 165 167 105 187 153 159 192 186 137 167 148 145 120 83 114 117 110 139 
136 146 146 140 126 126 143 136 145 133 119 132 118 122 128 132 136 139 130 127 90 154 215 165 175 172 153 157 150 160 123 158 197 49 84 45 83 135 46 48 123 145 98 123 108 91 146 74 34 64 216 226 205 
253 179 175 198 197 196 216 208 228 253 254 250 252 251 254 246 240 241 254 187 196 190 176 178 139 147 146 151 170 143 159 146 145 175 200 206 200 202 208 205 206 201 199 199 203 193 185 208 212 218 218 219 187 179 194 197 179 123 104 121 168 183 221 239 211 245 192 69 156 102 253 226 222 253 250 194 47 155 229 168 50 94 102 97 129 154 155 141 170 166 169 169 172 54 128 252 182 195 68 8 40 203 215 165 162 32 4 123 255 150 183 10 174 211 217 121 158 229 231 223 209 254 135 3 75 142 142 121 109 69 49 79 67 47 112 153 155 174 126 95 154 174 170 169 192 209 131 103 96 103 96 101 133 125 119 121 125 123 126 138 87 128 133 114 130 113 253 254 254 253 253 253 48 88 164 162 187 154 151 180 187 135 190 143 109 169 126 206 98 2 31 70 51 24 101 141 151 137 167 148 189 199 174 166 157 162 138 89 70 19 68 211 200 210 216 216 210 209 203 209 200 197 191 195 184 181 117 120 114 105 118 87 35 7 4 69 66 63 71 67 70 70 70 70 70 69 69 69 71 71 71 71 72 72 72 72 74 74 73 73 73 73 73 73 73 71 71 254 145 219 252 105 145 60 128 163 123 104 247 171 39 168 221 233 254 177 71 64 68 77 79 66 54 61 83 105 78 53 40 55 75 78 75 75 75 74 74 74 75 75 74 74 74 74 76 77 77 77 77 77 77 76 75 75 75 77 78 79 79 79 78 77 77 77 77 77 76 77 77 78 77 77 76 75 77 77 76 75 75 74 73 73 73 73 73 73 74 75 75 76 76 78 80 81 79 79 79 79 82 82 83 84 85 84 84 83 78 84 77 75 92 38 54 144 190 223 166 141 187 5 146 250 248 248 114 143 147 152 150 164 108 2 12 31 113 195 205 122 49 19 39 171 90 3 6 3 1 165 165 145 252 187 204 200 187 248 82 1 175 163 220 210 210 209 210 209 208 207 207 205 215 210 208 228 219 174 161 45 55 97 97 90 97 63 68 78 76 82 74 80 71 80 77 72 75 76 77 81 76 71 76 74 72 80 78 79 76 83 70 75 75 81 84 70 76 72 73 81 78 77 77 76 74 75 76 77 77 79 78 79 79 79 75 71 70 68 73 81 33 1 1 108 88 82 157 77 72 138 246 202 171 216 193 221 234 223 216 236 225 238 241 238 240 240 234 236 239 235 239 238 241 237 177 98 128 131 128 124 127 131 116 159 178 177 189 180 78 23 82 196 144 0 3 3 40 171 177 174 125 171 183 95 174 146 153 207 199 148 168 189 154 
128 114 73 86 133 130 145 130 141 145 130 127 143 136 149 137 119 132 119 136 130 121 120 121 107 104 70 132 184 122 143 159 152 175 175 135 178 202 157 58 80 28 106 152 46 94 207 102 129 122 79 90 87 74 71 20 201 249 215 
252 242 240 242 239 234 217 210 206 201 227 220 204 186 231 242 226 238 248 224 207 190 174 182 166 167 165 170 167 155 148 154 148 191 203 182 193 191 189 192 196 194 195 194 203 186 188 204 195 197 207 217 207 210 203 208 215 77 45 40 83 220 183 209 137 220 219 72 140 79 253 220 218 241 246 222 246 205 220 160 40 78 119 88 132 159 149 154 171 165 161 171 135 80 147 251 180 196 55 1 37 220 206 175 175 77 43 142 249 169 188 4 192 230 239 122 116 184 225 214 210 249 142 3 54 88 66 129 123 129 74 67 37 22 121 129 156 185 98 18 67 171 139 171 182 209 131 105 102 119 110 111 146 114 118 134 125 127 126 124 81 127 128 127 128 128 186 85 96 33 82 250 108 111 174 159 195 165 152 186 158 90 147 142 107 151 120 216 104 2 41 49 43 113 134 173 166 187 180 130 101 77 50 95 152 154 152 118 120 88 91 184 187 190 186 191 190 190 193 193 190 190 192 191 193 202 213 217 218 214 211 225 193 68 61 66 64 71 77 61 69 70 71 71 71 72 70 67 70 71 71 71 71 71 73 74 71 72 77 77 72 71 75 74 72 66 54 168 121 234 168 89 193 128 138 166 94 145 242 251 94 116 214 170 252 254 76 65 75 73 77 51 98 240 214 197 195 195 133 71 39 61 71 75 73 73 73 74 75 75 75 75 75 75 76 76 77 77 77 77 82 78 76 76 76 76 77 79 80 80 79 78 77 76 76 76 76 76 77 77 78 77 77 77 78 78 77 77 76 75 74 74 74 74 75 75 75 74 74 73 76 77 79 80 80 80 81 81 83 83 84 85 85 85 85 84 80 81 80 82 71 78 18 124 193 176 33 105 181 46 55 175 172 175 104 141 183 176 224 183 159 7 8 15 75 195 143 47 100 48 8 9 25 40 64 86 69 4 112 252 177 40 209 204 207 253 233 64 156 176 183 207 214 214 206 217 211 219 252 247 227 183 239 180 10 23 18 43 143 83 100 94 57 65 70 67 59 86 77 70 77 77 77 72 77 77 77 77 76 76 76 76 74 75 75 75 76 79 80 78 80 81 79 78 78 75 75 75 75 76 77 77 78 77 76 77 78 79 79 79 78 76 73 73 67 73 76 85 36 1 14 100 117 135 170 107 71 140 247 220 197 214 207 202 202 204 195 211 185 187 178 169 155 142 144 143 122 135 118 116 106 122 80 80 103 110 118 122 118 140 150 117 101 65 41 12 70 159 179 102 19 0 7 2 55 171 172 158 129 155 178 100 176 151 173 206 189 124 172 176 145 
138 135 79 100 123 132 147 142 137 146 120 124 142 135 143 136 123 134 126 134 135 129 167 166 148 157 133 146 82 115 145 177 176 167 150 166 169 211 117 25 57 49 139 130 40 133 161 46 53 56 45 73 36 3 16 4 192 248 210 
250 190 161 168 177 175 176 193 187 186 173 161 178 179 216 249 251 251 245 208 181 188 199 189 163 175 186 188 198 172 179 183 169 145 202 208 195 202 197 194 194 193 194 191 201 188 192 208 202 203 204 204 199 218 217 220 227 178 184 208 213 235 215 222 199 217 251 172 130 74 248 233 221 242 253 95 54 182 242 148 85 106 96 117 102 90 98 96 90 77 87 97 63 149 248 254 170 209 37 1 28 206 212 183 175 47 47 154 255 156 192 8 45 175 249 133 117 113 134 194 224 178 243 43 11 35 39 51 37 57 107 89 107 85 70 119 137 150 86 49 112 140 159 139 179 189 134 101 114 118 109 110 151 138 97 121 137 121 117 118 81 140 133 118 123 140 29 69 86 2 4 168 56 86 181 159 187 179 154 188 187 145 166 145 105 148 131 192 51 6 16 56 121 125 187 209 155 160 128 131 236 215 192 173 156 165 175 176 185 184 175 185 192 193 195 189 191 188 188 189 187 188 188 185 192 194 196 189 187 181 178 198 170 168 138 52 70 67 63 73 65 66 67 68 71 75 77 76 70 71 72 71 71 71 73 75 75 73 75 75 73 75 74 67 57 49 17 125 247 196 163 79 90 59 199 226 92 30 143 140 65 104 239 231 153 1 31 71 63 70 82 35 208 242 63 119 121 197 208 208 178 86 64 78 73 73 73 74 75 76 75 76 76 77 78 78 78 78 78 79 80 78 77 77 77 77 78 81 80 80 79 78 78 77 78 78 77 77 77 78 78 77 77 77 79 79 78 78 77 77 76 76 76 76 76 76 76 75 74 74 77 78 80 80 80 81 81 81 84 84 85 85 85 85 85 84 89 79 81 74 82 87 5 91 182 66 9 22 90 134 11 79 250 254 171 149 138 105 83 24 45 63 66 28 16 35 57 90 87 80 85 100 104 96 85 83 86 77 9 103 125 60 126 229 251 121 203 39 143 245 224 238 209 204 246 238 122 131 104 50 20 20 196 173 62 28 99 128 12 93 99 113 125 93 69 28 36 69 73 70 74 70 74 76 76 76 77 76 76 76 76 77 76 76 76 74 75 79 80 78 80 80 79 79 79 79 79 79 76 76 76 78 77 77 76 77 77 78 78 79 78 75 74 73 76 66 80 81 29 3 2 93 126 98 151 113 67 81 71 55 45 53 36 21 21 26 17 15 10 12 5 6 6 4 12 14 36 49 64 91 90 97 124 133 138 127 136 128 128 131 119 140 140 156 158 176 179 113 46 37 174 55 1 2 57 172 173 169 135 169 185 109 167 157 209 195 191 128 176 176 135 126 137 99 112 122 128 141 142 143 146 
123 130 145 136 141 134 122 137 132 142 131 154 176 190 214 235 226 221 111 134 145 160 172 167 147 177 160 152 74 21 57 58 166 109 36 88 22 15 14 33 29 27 18 17 10 3 205 249 206 
209 186 186 194 199 196 187 189 191 199 199 196 182 175 200 222 222 236 254 230 196 215 197 178 138 142 141 140 174 140 154 143 136 182 199 180 197 195 190 197 195 195 194 188 197 188 194 210 205 205 198 189 186 217 220 219 222 228 238 242 240 218 226 212 211 211 250 182 108 117 254 220 211 247 250 206 165 110 137 219 242 242 127 94 100 136 161 150 152 151 149 166 122 160 197 247 175 177 48 4 14 201 215 177 173 55 13 147 248 172 177 39 2 119 252 136 108 101 138 232 241 79 113 51 14 33 15 42 88 15 21 34 77 148 189 131 148 169 84 92 148 130 158 114 105 192 129 73 77 109 80 115 151 129 126 119 126 119 123 133 83 132 139 116 120 172 49 107 133 48 45 202 118 38 168 172 174 179 146 195 211 166 171 167 126 154 148 200 79 1 5 114 120 183 217 120 107 124 136 221 251 248 249 214 165 176 170 171 165 177 168 165 191 189 193 196 194 187 184 186 187 191 191 184 191 191 192 186 187 188 191 208 162 69 64 48 72 65 85 65 82 81 76 71 69 70 70 68 71 72 72 72 71 72 73 75 77 74 73 73 75 80 74 57 153 239 210 206 224 210 223 207 194 212 222 234 192 211 222 211 179 166 148 52 6 63 76 77 92 76 74 48 96 188 21 19 48 121 204 188 221 72 58 84 74 73 74 75 76 76 77 77 74 76 78 78 77 77 77 79 78 78 78 80 79 78 80 84 81 80 80 79 79 79 79 79 78 78 78 78 78 77 76 76 79 79 79 79 78 78 78 78 78 78 78 78 77 77 76 75 78 79 81 81 81 81 82 82 85 85 85 85 86 85 85 84 84 87 81 80 73 85 55 52 185 128 39 53 75 186 40 46 134 187 13 5 9 36 46 64 77 102 90 88 98 92 94 94 84 84 84 83 83 84 84 84 76 81 92 23 39 134 138 252 178 79 91 3 4 251 182 54 5 130 91 28 5 13 14 108 199 175 121 160 14 88 190 72 7 82 117 110 85 51 36 33 71 85 79 76 79 74 74 74 76 76 77 77 77 79 79 79 81 80 76 74 74 77 79 79 80 80 80 80 81 81 81 81 77 77 77 77 77 76 76 76 76 77 78 78 78 77 74 73 75 63 70 89 54 0 10 94 177 113 126 184 208 154 59 47 69 58 58 72 96 108 127 145 168 175 181 196 208 218 228 227 226 139 23 65 65 65 79 91 110 113 121 123 117 107 76 28 28 69 68 39 37 39 60 73 61 6 1 4 41 180 182 149 138 174 159 146 174 163 204 199 174 129 170 170 140 122 123 112 129 126 132 139 138 
141 140 127 132 146 137 142 134 121 137 135 143 143 100 72 143 191 168 96 96 159 145 137 173 170 143 131 160 161 144 82 36 50 57 193 151 125 139 33 41 28 30 62 45 50 54 23 6 212 247 207 
186 192 198 185 180 194 200 199 197 194 189 207 202 199 190 177 183 237 246 227 181 186 199 190 140 151 145 146 180 143 157 144 134 186 207 203 201 186 196 190 187 189 190 185 196 190 200 216 207 209 204 197 194 224 225 222 229 234 240 226 241 236 237 223 206 219 250 185 130 133 250 227 218 246 254 85 51 215 213 235 211 239 173 85 83 111 133 138 130 141 152 155 119 187 208 226 181 203 115 18 18 196 218 156 159 66 36 151 255 177 188 65 58 147 252 138 91 84 162 225 244 85 50 2 31 59 52 38 71 77 24 49 41 15 102 77 135 182 135 142 152 124 139 100 64 181 133 60 7 67 51 50 87 129 102 115 124 108 113 136 48 87 133 123 125 87 223 253 249 252 247 79 85 84 150 159 166 175 134 189 200 129 144 137 81 130 132 206 69 3 50 121 138 215 146 80 158 151 149 243 255 249 246 175 148 170 169 175 177 180 168 177 194 189 181 191 190 183 180 183 185 190 191 188 186 187 188 182 184 183 186 202 162 66 33 10 75 77 60 69 78 77 74 71 71 73 74 72 72 72 73 72 72 72 73 74 76 75 74 72 75 80 72 52 207 244 230 233 211 219 213 228 231 224 205 222 226 216 220 243 197 42 70 111 147 135 154 95 92 94 119 135 96 130 105 54 23 72 9 222 194 31 73 65 75 74 75 76 76 76 77 77 75 77 79 79 77 77 78 79 77 78 81 82 81 79 81 85 82 82 81 80 80 79 79 79 79 79 79 79 78 77 76 76 78 78 78 78 79 79 79 79 79 79 79 79 79 79 78 78 79 80 82 82 82 82 83 84 85 85 85 85 86 86 85 85 84 85 73 86 78 82 76 6 120 179 99 134 113 176 57 58 2 70 3 29 107 97 95 91 83 76 88 90 83 89 89 80 83 84 84 86 89 91 86 80 90 79 76 93 48 15 151 251 176 144 1 45 81 44 189 94 2 51 25 25 40 7 31 132 193 132 28 46 18 180 232 81 1 74 118 75 61 48 22 81 82 81 73 74 80 78 75 77 75 75 76 76 77 79 78 79 80 80 79 75 77 78 80 78 81 81 81 81 80 80 80 80 78 78 78 78 76 76 75 76 76 75 77 78 78 77 75 73 69 80 71 81 44 2 7 13 18 11 137 209 208 217 209 229 187 179 202 219 223 208 215 220 221 225 223 228 228 222 221 212 225 198 84 108 104 116 112 128 112 132 135 132 155 168 177 173 139 61 33 69 62 63 51 73 40 1 8 10 55 184 178 138 158 189 138 124 180 169 192 188 176 145 169 171 162 141 129 138 135 127 136 140 
135 136 134 131 129 145 138 145 136 121 135 132 130 143 138 90 184 218 129 94 106 213 176 192 177 155 153 165 165 168 161 119 87 98 83 191 117 118 146 101 107 86 48 81 55 65 61 47 23 215 238 202 
199 190 194 194 194 197 195 195 194 208 182 186 195 196 186 201 175 237 255 206 174 212 179 176 140 160 146 150 158 129 144 140 126 143 192 187 181 199 209 202 204 204 204 197 203 192 199 215 208 209 209 209 206 227 228 229 233 228 233 231 241 237 230 236 206 225 250 196 141 135 251 228 216 242 254 125 14 58 62 193 230 214 228 215 225 220 218 212 228 200 206 210 176 212 221 235 191 198 60 17 80 205 213 173 182 61 41 147 253 166 194 37 8 166 248 141 109 80 172 226 251 94 116 42 15 18 45 57 30 90 32 27 90 59 88 61 99 130 139 110 119 112 118 99 59 127 114 118 135 182 194 194 136 95 128 113 131 112 123 135 65 78 129 138 118 108 205 252 236 252 225 80 129 25 156 170 181 195 150 202 213 133 171 134 83 163 115 212 73 6 51 107 180 208 80 134 138 120 151 251 252 254 241 162 169 167 165 170 173 174 173 168 176 184 185 182 180 177 178 180 180 184 187 186 190 192 191 187 187 185 188 204 159 60 50 3 23 83 68 72 67 68 68 68 70 74 75 74 73 73 74 73 73 73 74 75 74 74 75 73 74 79 72 52 174 239 202 211 221 215 218 206 210 207 220 207 215 208 222 190 199 250 253 255 249 251 247 156 176 154 118 112 137 147 199 146 119 64 56 247 171 16 75 75 75 75 76 76 76 76 76 76 77 79 81 82 81 80 81 82 79 80 82 84 82 80 81 85 84 84 82 81 80 79 79 79 80 80 79 79 78 77 76 76 77 77 77 78 78 78 79 79 79 79 80 80 80 80 80 80 80 81 83 83 83 83 83 84 85 85 86 87 87 87 86 86 84 83 87 82 75 76 88 67 115 146 152 152 138 104 200 177 69 79 103 95 89 76 76 84 88 80 86 79 82 86 80 93 91 86 80 81 83 86 87 88 73 84 73 81 99 66 7 41 164 27 2 128 153 75 124 87 49 45 49 22 97 94 30 119 7 97 144 6 6 40 84 58 2 88 102 43 36 71 87 81 66 69 75 77 77 73 71 79 74 74 74 75 76 76 77 78 77 79 78 78 78 80 78 76 79 80 79 79 80 80 79 80 78 79 78 78 76 77 76 75 75 76 75 77 78 78 76 73 67 74 65 59 11 5 15 44 96 79 190 225 217 200 223 216 162 175 204 207 206 204 211 197 210 212 208 211 210 208 214 211 208 224 194 209 227 223 216 221 147 61 88 96 91 99 106 127 178 188 107 26 65 71 66 74 54 6 2 1 72 199 189 142 186 184 169 117 177 95 168 223 183 137 158 159 141 136 139 147 132 
121 132 139 138 141 138 133 128 143 136 144 136 120 134 131 144 142 131 123 163 126 99 121 142 197 178 189 161 153 151 161 164 161 167 122 94 125 124 200 106 113 149 87 92 63 49 88 61 68 38 42 15 210 238 203 
197 177 175 178 179 184 183 188 177 184 168 178 183 192 191 193 183 215 204 248 254 249 191 174 196 200 187 217 233 222 203 173 192 229 233 204 202 185 181 183 179 179 183 183 194 184 194 214 214 210 210 213 209 226 224 227 238 243 231 233 235 234 239 239 205 223 245 178 102 133 254 221 226 234 251 150 58 78 34 188 246 225 225 237 239 235 236 242 235 251 250 240 239 236 211 248 171 212 74 4 37 203 203 164 160 37 2 131 250 164 198 47 0 151 253 135 114 118 152 222 245 76 135 163 76 32 34 80 55 47 74 78 88 47 94 59 111 139 117 63 71 91 73 101 57 43 108 244 251 252 254 254 170 18 153 144 138 151 145 150 106 129 144 125 119 90 204 246 237 252 229 74 106 41 205 194 179 183 142 194 198 113 172 147 84 143 120 190 52 24 81 87 195 184 76 192 145 123 177 248 248 248 223 138 174 165 169 172 180 176 190 170 172 171 181 169 180 179 182 183 179 181 183 184 184 184 183 177 179 180 185 204 174 43 50 5 23 88 62 70 71 72 71 70 70 71 70 67 74 74 74 74 73 73 74 75 74 74 76 75 74 77 70 57 204 246 205 222 221 205 216 219 211 217 205 213 203 217 216 205 211 252 253 253 253 251 254 244 254 252 253 252 194 128 152 182 144 166 166 109 83 61 77 71 76 76 77 77 77 76 76 76 78 78 80 81 81 81 81 81 81 81 82 84 83 81 82 84 85 84 83 81 80 79 78 78 80 80 80 79 79 78 77 76 76 76 76 77 77 78 78 78 79 79 80 80 81 81 80 80 80 82 83 83 83 83 83 84 85 85 87 87 87 87 87 87 90 82 77 87 89 80 79 26 117 161 186 241 255 254 202 207 73 65 80 93 68 97 83 85 72 80 77 85 88 79 83 86 85 87 92 96 92 84 82 85 83 96 75 79 70 86 85 51 63 63 4 5 4 21 76 51 80 34 18 8 84 88 28 180 36 115 189 140 136 150 188 75 44 44 15 41 79 70 69 75 79 72 77 77 75 76 71 77 73 73 74 75 75 76 77 78 76 78 79 79 80 81 79 76 76 77 77 79 78 79 81 81 79 79 78 77 77 76 77 77 76 76 75 77 78 79 75 72 78 74 62 96 216 215 231 172 138 31 199 224 210 215 216 211 221 220 223 214 207 211 219 210 210 214 212 215 215 213 218 216 211 210 204 223 213 209 215 232 209 192 217 222 211 157 122 115 115 159 187 178 21 56 74 81 61 1 5 23 105 177 164 155 180 181 186 111 172 111 178 193 185 118 155 162 113 125 
147 126 130 121 127 139 143 145 140 124 133 143 134 142 135 120 136 134 130 74 128 143 126 138 143 114 94 209 197 168 180 171 164 152 152 160 180 124 77 109 158 217 120 129 149 89 123 110 72 73 76 75 32 30 2 206 249 208 
197 193 200 198 196 202 199 197 220 230 245 244 202 191 200 189 192 246 254 237 192 210 175 193 190 186 190 232 253 252 222 178 237 253 249 254 239 186 198 192 205 199 197 194 197 178 184 206 217 211 211 214 213 231 229 230 227 237 234 231 236 240 243 226 215 228 244 199 144 133 229 240 216 240 251 129 51 91 34 187 223 219 212 217 222 236 231 232 235 233 233 240 235 227 209 236 172 190 76 5 21 215 209 164 175 75 33 159 255 147 183 42 7 128 254 138 109 159 151 226 250 104 106 87 77 68 81 73 58 55 80 88 67 54 113 56 172 192 146 134 141 163 108 58 103 126 126 125 52 32 63 225 195 90 111 152 125 150 140 179 143 142 151 165 128 86 176 251 230 251 242 65 118 81 177 178 180 178 140 190 188 109 150 149 116 138 127 194 91 7 38 109 185 181 75 172 148 106 168 250 249 245 222 145 177 176 173 169 177 169 187 179 183 178 180 178 181 181 184 186 181 181 182 180 191 190 188 179 179 178 181 201 147 20 45 5 25 83 67 69 68 69 70 70 73 76 76 74 74 75 75 74 73 73 74 75 76 73 74 75 74 74 70 61 181 199 220 216 220 207 214 203 207 204 213 221 207 205 211 187 206 252 251 250 252 241 254 234 211 252 248 246 226 163 158 166 183 105 127 40 51 62 75 66 75 75 75 76 77 78 78 78 77 76 77 78 80 81 80 78 82 81 81 83 83 82 83 85 84 84 83 81 80 79 79 79 80 80 80 80 79 78 77 77 76 76 77 77 77 78 78 78 80 80 80 80 80 80 79 79 81 82 83 83 83 83 83 84 85 86 87 88 88 88 88 88 84 91 81 90 81 79 106 55 2 201 252 253 244 163 56 139 76 80 80 71 86 75 84 84 91 87 79 91 79 74 93 77 87 88 87 86 83 80 81 85 77 81 86 81 86 78 75 87 87 84 69 79 66 92 56 62 81 89 94 119 156 172 164 207 208 199 190 157 143 100 72 37 17 15 59 83 63 66 76 68 77 65 69 66 69 78 74 78 74 73 74 74 76 76 76 76 75 76 76 76 77 78 78 75 77 77 78 78 78 79 80 80 80 79 78 77 77 77 78 78 76 75 74 77 79 78 74 71 62 90 26 26 254 251 247 123 79 28 200 221 209 206 215 213 214 209 209 220 217 215 213 215 206 211 211 216 219 216 218 212 205 216 200 216 215 233 212 192 217 248 249 251 252 211 213 137 112 146 148 240 160 9 68 81 61 3 4 1 72 184 184 153 163 170 162 128 184 120 163 194 199 135 173 183 
133 146 151 109 125 128 130 144 144 139 143 123 136 145 133 144 139 123 137 134 137 160 137 123 136 139 140 108 120 235 213 186 170 154 169 167 170 175 180 144 115 124 185 201 122 133 155 113 114 108 83 100 65 62 54 47 21 210 249 204 
203 190 191 191 191 194 190 190 190 196 193 192 192 191 197 192 198 186 161 192 180 202 183 200 204 196 196 194 176 178 192 190 181 187 186 167 174 183 193 187 188 182 184 188 198 184 196 224 199 197 198 204 209 234 230 226 234 221 239 233 237 236 233 242 202 232 241 218 253 196 202 231 214 245 252 143 56 82 46 196 254 201 221 234 221 231 231 233 237 237 236 243 221 216 212 244 161 205 74 1 35 197 206 146 221 108 15 193 238 189 204 44 0 148 254 174 129 154 156 224 250 116 105 48 74 82 86 76 61 73 61 101 83 76 94 64 180 175 153 110 49 98 218 153 91 143 109 11 23 29 6 134 132 56 86 124 150 143 140 147 115 129 129 153 131 89 190 251 251 243 243 102 97 30 181 194 164 177 146 193 208 161 163 149 105 139 131 217 89 6 28 122 157 216 83 146 132 119 174 249 247 242 232 155 164 177 175 176 181 180 179 178 180 193 179 181 179 178 181 184 180 180 180 176 183 184 186 181 181 180 183 202 154 41 48 3 35 78 65 70 71 72 71 69 70 73 73 71 75 75 75 75 74 74 74 75 79 73 73 76 75 74 70 62 189 207 214 216 211 217 216 214 206 222 215 206 214 209 203 194 214 250 254 254 249 253 252 254 132 244 213 247 244 166 185 189 185 141 150 37 80 75 62 82 74 74 75 76 78 78 79 80 80 77 76 78 82 83 81 78 82 80 80 82 83 83 84 85 83 83 82 81 80 80 79 79 80 80 80 80 79 79 78 77 77 77 77 77 78 78 78 78 81 81 81 80 79 78 77 77 81 82 83 83 83 82 83 83 85 86 87 88 88 89 89 89 81 88 90 80 84 82 79 97 4 67 230 152 149 166 178 201 93 72 86 84 89 88 78 88 85 82 84 90 84 84 90 85 84 85 82 80 82 86 83 77 85 75 78 95 78 79 81 81 80 87 79 87 78 58 65 107 95 170 177 159 137 104 86 45 23 3 4 4 2 15 17 46 74 84 82 69 67 69 68 73 71 68 82 76 67 70 67 73 74 74 74 74 75 76 75 77 77 76 75 73 74 76 77 74 79 80 79 79 79 78 78 78 79 79 78 77 76 77 77 78 76 75 75 76 79 79 74 71 71 89 2 11 254 249 229 129 67 28 200 224 210 199 210 214 208 218 217 219 208 215 211 212 219 220 212 214 216 213 215 211 212 222 202 206 241 233 209 185 184 249 252 252 254 191 217 205 96 156 151 135 247 107 29 86 62 1 1 4 65 193 197 156 168 178 135 88 186 121 165 201 197 148 166 169 145 154 130 87 
111 129 136 150 141 132 148 133 136 145 136 150 145 127 137 132 151 133 126 146 130 127 138 95 115 217 205 184 166 182 141 165 175 183 172 160 150 129 191 174 113 94 150 138 126 100 106 135 86 68 86 67 40 206 243 206 
200 189 201 201 199 205 198 200 202 202 179 167 190 193 188 200 186 205 219 212 189 193 192 205 211 209 208 208 209 210 209 208 201 205 205 204 206 205 202 203 203 203 195 193 202 191 189 230 227 223 211 202 196 241 235 234 235 231 239 232 241 235 234 238 216 227 238 210 236 177 182 236 219 240 252 113 2 27 24 56 112 233 224 220 233 222 227 236 235 237 239 243 211 77 154 241 173 202 72 3 23 210 205 149 212 150 4 156 240 173 211 74 1 116 252 144 90 147 155 234 246 106 116 70 76 38 54 84 51 77 60 79 87 74 94 55 161 157 158 128 74 30 34 137 169 84 99 147 113 106 155 145 182 71 88 117 151 150 139 144 126 119 150 153 119 115 173 217 232 213 238 188 114 10 167 190 174 159 153 183 207 162 165 146 86 147 105 173 69 3 6 121 137 207 153 89 148 125 172 237 250 240 237 168 162 182 179 174 183 176 170 184 177 185 173 186 183 182 184 183 180 181 185 184 190 189 183 181 182 185 193 203 176 51 6 4 20 84 64 69 70 73 74 72 71 73 73 71 73 73 75 77 80 81 80 77 80 74 84 66 82 76 63 63 205 240 212 214 217 215 220 218 218 209 216 215 209 206 223 189 203 250 253 252 254 253 254 243 134 212 184 250 243 174 148 250 251 207 93 40 75 81 67 76 75 75 74 74 75 76 77 77 80 81 81 81 80 80 80 80 79 80 81 82 81 82 83 84 83 82 82 82 80 77 76 78 83 83 83 81 79 78 78 79 75 75 75 76 76 76 77 77 76 78 80 82 82 81 78 77 81 83 84 84 84 84 84 85 85 85 86 87 88 88 89 89 87 86 86 85 84 85 87 89 45 41 205 164 201 214 191 168 86 86 86 86 86 85 85 84 87 86 83 81 82 82 84 84 85 83 82 81 83 84 83 81 82 81 80 79 80 82 83 84 85 74 81 64 108 126 55 57 42 38 39 24 11 18 27 35 56 63 73 80 84 83 81 78 72 71 71 70 69 70 71 70 70 74 68 75 67 71 71 78 73 72 72 75 78 79 75 71 76 75 75 76 77 77 76 78 74 74 76 87 73 77 82 82 77 77 78 79 79 77 78 76 77 76 75 75 76 76 74 73 67 87 6 24 252 247 232 121 72 43 220 225 203 214 195 208 210 208 212 216 211 210 213 214 215 210 214 214 209 217 223 211 216 222 209 154 223 187 207 193 192 248 250 253 254 223 189 222 138 149 154 126 214 242 47 70 60 3 3 13 73 196 174 155 170 164 167 98 194 118 165 204 180 148 170 176 155 140 129 123 
135 144 146 147 142 142 139 133 128 147 132 139 140 113 136 127 149 110 54 150 122 132 130 109 103 203 185 195 175 178 160 171 156 177 163 169 118 114 164 175 118 152 159 116 125 89 120 104 69 92 77 53 34 214 237 206 
204 191 181 183 184 185 194 196 192 187 222 250 227 218 221 210 219 255 253 250 188 225 187 185 188 186 185 184 185 185 184 183 185 203 200 184 184 194 190 179 186 190 191 191 195 179 180 226 209 217 223 224 213 241 228 229 226 232 223 240 239 244 239 235 216 234 240 208 230 176 181 245 219 252 254 93 1 24 14 23 28 243 224 230 231 231 231 232 233 234 240 246 242 212 193 224 168 196 98 10 46 198 202 152 193 170 7 162 237 172 209 76 39 151 252 163 87 118 170 228 248 99 116 87 77 16 33 89 63 69 58 81 140 100 137 90 151 155 157 113 69 69 48 56 66 38 58 171 189 199 201 17 194 106 77 121 152 155 147 155 126 126 139 156 130 129 49 14 47 29 34 228 152 81 173 184 162 190 136 186 210 130 130 154 106 136 118 198 71 1 14 61 122 167 233 128 119 156 158 246 250 249 247 179 155 180 190 184 188 191 167 183 189 190 184 185 184 179 179 184 188 192 194 193 186 189 191 194 194 188 186 194 170 74 5 1 35 76 77 66 69 72 73 71 71 73 73 72 73 73 74 76 78 79 77 75 70 71 71 74 77 82 66 65 202 235 210 220 214 216 220 211 211 210 217 221 213 209 216 189 199 252 253 252 249 253 245 233 231 253 246 247 251 180 133 159 213 60 49 78 61 74 76 74 76 76 76 76 77 78 79 79 79 78 78 79 79 79 79 79 81 82 83 83 83 83 84 85 85 83 82 83 82 80 80 82 81 82 83 82 80 78 77 77 77 77 77 77 77 77 77 77 77 79 82 83 83 82 81 80 81 82 84 84 83 83 83 84 85 85 87 87 88 89 89 89 88 88 86 84 84 84 84 87 84 7 193 197 116 177 112 9 83 84 85 85 87 88 87 89 89 88 84 83 83 84 85 84 87 85 83 84 85 86 84 84 82 81 80 79 80 80 82 83 72 86 81 73 71 62 60 78 64 64 75 76 77 84 81 78 70 72 73 73 72 72 71 70 72 72 71 68 68 68 71 71 73 73 70 73 75 74 75 61 70 69 69 68 70 74 77 79 72 72 73 75 76 75 74 74 84 75 70 73 78 86 77 74 79 78 78 77 76 76 77 76 77 75 75 75 75 75 75 74 80 82 6 31 253 248 236 114 85 68 221 221 202 208 208 220 211 209 213 217 216 215 215 215 212 220 229 229 229 219 214 216 213 220 215 142 189 186 138 174 215 247 252 253 251 206 113 131 104 150 148 156 104 195 161 68 56 2 0 5 68 199 180 154 163 177 166 82 198 120 172 195 171 160 173 156 122 147 144 92 92 105 137 
141 129 142 144 127 133 148 140 145 144 118 136 130 146 148 127 127 127 125 126 100 140 195 185 165 165 172 163 157 163 175 145 155 105 133 183 170 107 126 146 111 106 76 100 103 104 52 46 59 16 202 254 207 
234 217 189 194 199 194 195 175 171 179 205 249 251 254 253 254 252 254 254 235 169 191 178 204 203 203 202 202 203 203 202 201 195 197 196 200 202 197 197 206 198 192 187 190 201 190 184 218 221 220 223 221 211 236 229 236 242 238 217 231 200 172 203 230 220 242 243 216 237 185 175 236 220 238 254 102 1 2 27 40 39 244 228 231 223 233 233 234 243 236 238 234 227 245 200 226 170 187 105 11 66 210 206 161 209 195 8 152 245 178 207 53 1 159 254 143 98 127 145 231 254 110 110 76 94 79 85 97 67 70 74 86 140 125 136 59 98 148 152 83 53 95 106 125 84 29 120 250 224 253 239 6 177 123 62 129 150 137 133 172 135 115 140 155 142 105 190 110 92 103 112 252 107 71 161 176 159 164 141 187 210 112 159 173 118 109 94 212 98 6 23 36 72 137 182 216 142 144 113 206 210 219 232 214 197 200 202 201 191 177 181 201 194 188 188 187 187 181 183 187 186 188 192 193 183 185 186 188 189 185 190 199 133 80 17 1 44 83 61 71 68 70 72 71 71 73 74 73 74 74 74 75 76 76 75 74 79 77 76 69 75 81 58 68 215 245 218 217 228 224 211 220 214 211 202 207 204 209 211 197 226 247 255 253 250 245 254 157 231 254 232 245 227 170 175 203 81 1 47 89 65 77 75 77 77 77 77 77 78 79 80 81 80 80 80 80 80 81 81 81 79 80 81 82 82 83 84 85 85 81 79 80 81 81 82 83 81 82 84 84 82 79 76 75 78 78 78 78 78 78 78 78 79 81 82 84 83 83 83 83 82 83 84 84 83 83 83 84 86 86 87 88 88 89 89 90 89 89 87 85 84 83 83 83 95 13 32 79 252 224 113 57 87 87 87 87 86 86 86 86 88 88 86 86 87 86 86 85 86 86 85 85 87 86 84 84 83 83 82 81 80 80 80 81 86 86 73 84 81 68 81 86 76 70 74 71 69 76 73 71 78 77 73 70 69 68 69 70 72 68 64 69 76 77 72 65 76 59 74 63 70 66 64 83 71 73 74 73 71 68 69 71 71 72 73 75 76 77 75 74 71 75 79 73 74 78 78 88 80 79 78 76 75 75 76 77 76 76 74 75 75 75 75 75 74 86 3 49 254 233 227 108 60 81 212 221 223 217 218 211 214 213 214 218 219 218 216 216 222 216 179 156 184 216 218 213 206 227 186 101 219 185 178 115 216 248 252 245 253 201 111 134 116 148 156 133 146 246 60 74 50 1 5 14 77 196 176 149 159 179 147 79 210 130 171 206 189 152 167 180 119 127 138 118 123 40 
84 142 132 138 147 133 137 146 145 147 143 120 134 134 146 149 135 153 90 99 127 117 146 190 211 167 171 168 171 159 157 170 166 152 103 112 189 153 146 176 149 115 118 85 104 112 68 44 49 60 22 205 250 206 
178 185 190 200 199 196 206 203 201 224 198 183 170 172 163 196 247 249 252 252 190 236 187 185 193 193 193 194 195 195 195 195 194 208 206 195 193 198 197 194 198 203 203 196 194 184 186 221 211 206 209 208 209 238 231 230 236 210 191 202 208 159 202 205 201 237 239 218 238 189 174 239 226 254 241 189 125 17 3 67 153 217 229 226 224 231 232 236 233 235 239 234 223 207 190 211 167 179 91 3 50 214 196 163 201 189 25 146 245 168 214 64 2 141 254 148 112 152 149 223 251 113 113 80 97 106 121 133 118 101 102 99 147 110 91 68 94 150 157 77 38 98 127 131 121 112 140 232 210 236 225 7 188 108 71 152 141 143 151 153 132 117 157 149 139 115 196 254 248 247 251 251 81 39 163 192 148 115 141 181 195 117 173 156 104 131 104 222 118 1 13 69 32 77 144 162 188 164 151 113 71 47 27 40 45 59 72 81 84 55 158 214 199 200 203 208 200 200 204 207 199 196 204 212 208 204 199 197 194 193 202 213 106 65 46 0 45 77 63 77 68 69 70 70 71 72 74 75 75 74 75 74 75 75 75 74 72 68 78 70 64 51 55 58 187 221 235 236 243 247 245 242 240 245 242 246 236 234 223 222 228 234 223 236 246 248 247 243 251 248 251 253 170 151 215 118 2 40 78 77 77 80 73 78 77 77 78 78 79 80 80 81 82 83 83 83 82 83 83 83 78 79 80 81 81 83 84 85 84 80 77 78 80 81 82 83 83 84 85 84 82 80 78 77 78 78 78 79 79 80 80 80 81 82 83 83 83 83 83 83 82 84 85 85 84 83 84 84 87 86 87 88 89 89 90 90 89 89 88 88 86 85 83 83 87 68 28 25 71 32 68 90 90 89 89 88 87 86 86 85 86 86 86 86 88 89 87 86 84 83 82 82 84 84 83 83 84 85 83 82 81 81 80 80 81 73 85 85 84 83 77 95 77 75 84 82 75 77 75 77 77 76 74 74 74 73 72 72 70 73 74 70 65 64 69 76 66 70 81 70 71 77 74 57 68 72 75 76 75 75 74 76 75 76 76 76 76 77 77 76 76 77 80 80 83 81 83 78 80 79 77 77 75 75 76 77 76 76 75 75 75 74 74 74 67 100 4 54 253 240 228 106 27 82 216 217 220 208 213 214 213 213 213 214 216 213 211 214 213 218 193 165 178 210 223 216 213 234 182 131 226 189 182 158 123 246 253 254 254 183 150 154 111 159 161 134 241 139 48 83 48 1 9 23 80 186 173 156 170 134 163 151 195 122 184 188 184 150 173 185 114 132 138 138 145 61 
113 145 120 132 145 136 136 139 144 144 138 118 131 134 144 147 120 127 120 120 101 101 129 195 215 173 168 159 169 167 164 160 163 157 116 137 218 164 135 178 166 164 157 101 85 88 53 73 75 65 36 211 240 206 
235 198 187 193 194 188 180 189 179 184 180 194 187 204 197 198 254 238 254 246 194 194 178 206 195 196 197 197 197 197 197 197 192 206 204 192 190 194 193 190 192 188 184 185 204 213 207 217 218 215 216 205 207 238 231 222 226 203 176 163 198 179 223 201 200 236 239 213 226 176 167 242 209 250 254 137 144 238 155 200 223 192 222 226 232 233 231 233 232 238 238 234 237 224 214 209 172 188 102 4 38 207 190 163 198 173 30 154 241 171 211 69 1 145 252 155 93 88 113 235 254 129 127 85 86 106 125 133 123 130 127 101 174 90 79 92 155 160 158 79 9 93 150 116 127 119 119 226 207 241 240 3 192 115 105 147 140 147 147 150 133 117 154 155 150 133 81 163 241 245 231 195 43 23 150 185 129 118 122 191 216 166 178 172 100 156 101 201 129 9 8 69 57 26 63 123 154 162 171 138 182 183 160 154 136 129 91 46 46 27 139 204 193 195 193 193 187 190 196 198 192 191 199 207 208 208 208 208 206 205 214 224 135 72 20 9 44 89 63 69 69 69 70 71 71 72 74 76 75 75 75 75 75 76 77 77 76 88 54 52 114 144 149 193 143 74 95 105 84 79 99 116 126 148 164 184 189 204 215 240 157 19 44 72 56 82 100 116 134 122 105 175 173 190 107 12 28 82 80 72 76 72 79 74 76 77 78 78 79 80 81 81 83 83 83 83 83 83 83 83 82 82 83 83 84 84 85 86 87 82 78 80 81 82 83 83 86 86 86 85 83 81 81 81 79 79 79 79 79 79 79 79 83 83 83 83 82 82 82 82 83 84 85 85 85 84 85 85 87 87 87 88 88 89 89 90 90 89 88 89 89 88 86 85 80 95 105 104 87 97 89 87 87 87 88 89 89 90 90 90 87 87 87 86 87 87 85 85 83 80 79 80 81 82 83 83 85 85 85 84 82 81 80 79 78 78 92 75 79 84 65 95 82 77 83 79 74 77 77 81 76 75 74 75 75 73 70 68 73 70 69 72 71 66 64 61 64 69 54 76 53 32 51 35 35 31 27 27 30 34 37 39 43 45 47 47 51 57 61 61 58 60 63 70 66 66 76 73 77 77 77 77 76 77 76 76 77 76 76 75 75 74 74 73 80 74 15 58 253 195 206 185 57 107 220 202 214 216 216 220 216 220 217 216 219 214 211 218 219 223 230 231 227 220 217 209 225 215 229 235 232 199 212 176 238 253 248 252 250 188 218 210 128 158 139 211 225 19 76 82 52 3 3 9 70 178 178 160 177 137 195 163 177 111 177 195 169 145 170 167 109 148 131 130 114 
67 127 141 126 133 134 135 136 137 142 141 134 119 134 131 120 141 143 108 86 123 97 83 94 183 178 168 164 159 150 148 158 170 159 172 94 157 208 161 138 175 190 203 149 67 63 115 119 88 79 74 26 202 248 209 
250 195 183 191 193 192 207 253 254 250 251 251 203 187 187 196 249 255 254 255 181 231 183 186 195 196 197 196 195 194 193 193 194 196 194 198 199 193 192 201 193 200 203 194 192 190 184 194 215 217 222 205 206 235 234 228 228 230 217 214 208 185 187 191 219 239 239 215 238 182 171 233 223 243 251 137 4 46 73 224 218 206 217 226 230 233 235 234 241 236 240 236 229 238 222 237 181 188 116 10 55 208 201 154 200 174 23 174 241 187 202 68 1 145 247 145 118 114 100 240 254 128 118 85 93 126 132 123 120 140 120 118 156 99 114 109 168 147 137 93 41 102 155 144 149 119 105 223 206 236 230 16 217 100 118 150 155 152 147 169 138 113 143 162 150 125 129 100 70 57 68 59 3 70 149 174 169 161 125 190 213 151 157 153 113 168 122 207 132 1 6 75 64 61 40 47 43 31 81 108 106 130 130 126 112 118 97 62 69 49 36 36 24 24 30 28 27 24 24 24 21 23 26 22 26 29 29 32 34 35 44 56 46 125 14 5 53 75 69 69 71 70 70 72 72 71 73 76 74 75 76 77 76 77 77 78 76 57 112 141 126 229 208 211 132 31 31 48 28 19 23 11 15 12 9 12 21 29 33 51 68 56 84 159 89 110 109 140 147 155 159 148 102 17 10 14 82 73 70 73 73 74 78 78 77 77 78 78 79 80 79 79 84 84 85 84 84 84 84 84 82 83 84 85 85 85 86 87 86 82 79 79 81 81 82 84 88 87 87 85 83 82 83 83 83 83 82 80 79 78 77 76 83 83 83 83 82 81 81 81 82 83 85 85 85 85 85 86 86 86 87 87 88 88 89 89 89 88 89 89 90 90 88 87 92 74 90 72 88 92 82 89 89 89 90 90 90 90 90 91 90 89 88 87 87 84 83 82 83 82 79 80 81 82 84 84 84 84 84 84 83 82 79 79 81 89 80 74 90 88 76 81 97 83 80 75 74 80 78 79 77 75 74 72 73 72 70 68 70 59 51 53 58 63 66 68 75 62 66 43 36 157 226 196 201 190 173 160 150 139 128 119 100 100 93 82 75 72 68 63 70 65 63 61 56 65 59 86 75 76 78 78 77 77 77 76 78 77 76 75 74 75 72 72 79 88 3 2 175 251 212 175 79 117 226 201 213 218 213 210 212 217 213 210 216 210 205 212 215 199 203 213 213 213 198 170 203 221 234 124 211 252 244 211 251 240 254 247 217 188 219 187 93 177 158 241 45 46 64 76 52 5 2 1 66 177 177 142 164 161 186 111 188 134 168 209 171 144 173 174 114 139 121 131 112 22 94 149 140 135 139 130 137 
141 142 143 137 125 142 126 116 147 110 109 88 112 103 80 115 202 172 170 164 168 157 165 169 168 147 163 105 176 166 82 55 169 107 93 116 117 146 115 132 87 72 69 17 200 252 210 
250 203 180 189 193 188 196 215 248 250 251 253 244 214 187 184 221 229 233 233 189 201 182 200 189 191 193 193 192 190 190 190 186 203 200 185 184 193 190 179 185 179 181 185 194 196 191 200 188 191 208 203 214 239 235 227 239 220 197 209 185 171 146 197 223 232 237 217 245 187 182 239 217 249 249 157 54 67 34 192 211 218 219 226 226 227 237 233 235 229 245 247 227 227 210 240 177 175 116 18 71 206 207 145 175 181 26 183 239 178 206 95 1 131 254 162 109 122 116 236 253 102 98 99 101 113 120 142 122 126 116 166 179 134 97 91 166 153 147 154 147 150 138 137 131 126 111 251 241 253 252 103 224 38 90 146 137 148 152 132 134 117 148 159 135 138 146 128 83 53 114 102 35 87 137 188 192 178 149 191 193 154 177 176 177 187 138 203 146 2 13 64 50 67 57 32 42 44 52 161 206 206 203 197 185 192 198 203 203 219 197 203 203 207 198 191 200 197 194 192 189 192 190 180 182 186 182 177 177 176 179 184 134 8 8 8 63 83 64 68 73 72 71 73 72 71 74 78 74 75 77 78 77 76 77 77 80 126 176 218 145 236 246 207 34 66 1 4 62 94 111 152 126 101 95 92 94 80 59 53 56 97 45 30 60 62 65 43 29 23 5 4 4 4 60 74 80 68 73 74 76 80 77 80 78 79 79 79 79 79 78 77 84 84 84 84 83 83 83 83 84 85 85 86 85 85 86 86 84 81 79 79 80 80 81 83 85 86 87 86 85 83 83 83 84 84 83 82 80 79 79 78 83 83 83 84 83 83 81 81 80 82 83 84 84 84 85 85 85 85 86 86 87 88 88 88 89 88 88 88 90 90 90 88 82 87 86 98 89 98 98 83 91 92 92 91 91 90 89 89 90 89 87 88 86 86 84 82 85 84 83 82 82 84 84 83 82 82 83 82 82 80 79 78 70 84 79 85 83 75 80 78 78 71 79 83 83 84 78 76 78 76 74 73 75 73 69 67 47 75 108 125 116 97 90 95 71 86 73 66 175 253 221 243 247 244 241 242 246 247 242 237 246 249 249 244 243 245 245 241 239 232 243 240 245 214 68 68 77 78 77 77 76 76 76 77 77 77 76 76 75 75 73 72 76 73 5 1 193 226 224 137 55 105 226 215 204 199 210 213 209 212 204 203 212 207 195 199 213 218 220 215 217 219 200 172 232 214 134 130 181 159 167 175 127 112 130 141 189 237 186 87 99 171 186 67 45 74 64 75 49 2 4 11 75 170 171 142 168 132 150 124 181 151 182 186 175 160 184 181 107 126 133 117 
116 49 117 146 128 132 149 126 138 145 141 146 141 129 148 117 105 113 89 75 43 35 55 33 62 141 145 151 150 153 142 144 153 153 160 166 117 171 164 110 197 222 66 53 109 115 141 77 103 95 79 62 26 209 246 209 
193 199 199 210 206 198 206 197 195 196 192 190 198 202 204 205 197 193 187 195 186 201 189 198 198 201 203 205 204 204 204 205 197 203 201 201 205 204 201 202 205 196 199 202 201 195 198 222 227 209 207 198 211 236 233 227 234 218 202 207 186 186 155 225 228 238 249 213 221 153 168 240 219 244 254 156 48 68 42 222 220 204 224 228 229 224 235 227 240 234 236 234 230 226 224 230 175 179 129 43 78 204 211 157 180 193 18 166 245 169 203 87 31 175 247 155 109 85 104 232 254 113 104 95 94 120 123 129 138 139 104 79 148 137 59 87 145 138 138 143 133 138 137 138 139 125 67 127 157 146 144 252 182 78 129 144 153 153 139 150 143 106 145 161 152 150 139 131 109 98 127 119 27 74 141 169 169 178 159 190 158 175 163 190 177 191 146 172 130 0 28 72 64 52 45 70 115 138 111 213 241 235 241 243 240 238 236 242 240 246 242 239 221 234 228 241 232 236 240 237 235 240 242 237 235 241 243 242 245 246 244 242 234 57 5 13 38 77 73 70 75 72 72 73 73 71 74 78 74 76 78 78 77 76 75 76 82 198 112 195 157 172 244 96 29 62 108 221 159 99 128 130 129 111 125 129 136 128 124 129 101 142 129 16 10 4 12 7 19 16 36 48 78 85 67 73 74 73 74 80 75 76 82 72 79 79 80 80 80 79 78 77 81 81 81 81 80 80 80 80 87 88 88 88 88 87 88 89 85 84 83 83 82 82 84 87 84 86 87 87 86 84 82 82 82 82 82 82 82 82 82 82 82 83 84 84 85 84 83 82 79 80 82 83 83 83 84 85 85 85 85 86 87 87 88 88 89 87 87 87 89 90 89 88 89 95 78 96 89 88 85 95 88 90 91 92 93 94 94 93 89 87 86 87 88 88 86 85 86 84 82 81 82 82 81 81 80 80 82 81 81 79 79 77 86 78 80 86 76 75 84 77 85 79 84 80 72 73 77 85 79 76 75 75 74 69 60 56 140 150 168 188 193 182 170 165 158 149 131 177 229 201 199 196 185 181 179 184 193 204 209 211 197 203 206 205 206 211 211 206 221 213 228 215 243 231 45 80 80 79 78 76 74 75 76 77 77 76 75 76 75 75 74 73 76 81 1 96 247 224 211 104 72 106 215 212 215 218 232 225 228 230 219 218 229 220 203 201 214 224 222 220 223 203 170 158 207 192 104 132 127 145 140 143 164 178 189 190 165 118 80 124 178 169 61 53 76 67 57 76 50 0 2 22 81 161 173 170 198 130 115 142 152 131 170 194 
189 154 165 184 108 109 134 100 93 84 119 114 134 132 130 136 136 147 139 146 143 129 149 108 90 136 84 30 69 189 138 209 213 232 209 160 142 142 143 148 159 148 139 160 98 172 181 194 238 217 175 135 94 116 146 99 119 109 87 68 35 213 245 208 
179 191 184 190 186 187 184 185 182 185 196 189 184 193 193 190 191 197 186 199 205 223 192 188 189 191 191 189 189 189 188 186 184 207 209 192 185 191 191 186 194 186 187 190 200 191 202 218 216 208 222 215 213 236 233 221 223 218 196 211 205 179 176 209 220 237 246 243 229 94 129 248 220 247 254 159 51 76 42 216 226 212 222 223 231 229 231 233 238 231 237 241 222 235 218 243 186 171 108 39 110 208 196 164 202 166 13 182 243 159 193 62 2 166 250 158 115 106 101 235 251 116 102 99 103 110 124 135 146 116 78 27 135 129 135 148 88 124 146 132 141 147 106 119 131 133 79 4 0 6 1 253 224 114 130 144 161 141 136 153 146 115 146 148 150 136 143 147 91 63 91 83 20 127 161 159 168 208 161 164 186 160 184 196 143 164 145 196 104 1 27 72 54 49 73 110 147 134 147 218 173 198 228 228 221 226 223 222 225 221 229 224 203 217 218 223 221 221 215 226 225 219 226 223 222 222 224 218 219 223 221 228 205 97 3 4 48 84 57 78 71 71 72 72 73 73 72 72 75 76 77 78 79 79 80 80 47 112 200 202 247 168 56 31 20 167 246 246 113 91 82 94 98 96 100 69 79 101 102 105 104 94 216 247 254 243 221 119 33 63 86 72 77 71 61 78 72 75 77 77 77 79 79 77 77 77 77 79 77 75 77 81 82 87 81 73 78 84 86 78 87 84 90 81 91 86 87 90 88 84 81 83 84 83 85 88 86 86 87 87 87 85 82 80 84 84 83 82 82 82 82 82 83 83 84 84 85 85 84 84 82 83 84 84 83 83 85 86 86 86 86 86 87 87 87 87 93 91 89 87 87 88 90 92 87 87 88 91 94 96 96 95 94 95 96 97 97 96 95 93 90 85 95 89 86 91 82 87 85 82 82 83 79 79 86 79 77 77 89 84 80 81 86 79 81 80 83 80 82 81 73 78 83 78 74 76 79 79 80 80 74 74 74 75 72 56 79 182 158 145 148 244 220 223 231 223 234 238 238 221 215 218 218 226 191 165 179 167 186 217 219 220 223 222 220 222 219 227 229 199 218 205 188 197 203 231 59 69 77 77 77 77 78 77 77 75 74 74 75 77 78 76 74 73 73 77 6 106 254 252 247 149 142 100 88 83 133 91 95 92 96 100 107 117 129 141 147 152 159 152 169 176 177 211 199 180 241 170 133 173 157 156 170 164 153 148 135 113 110 141 177 176 125 55 61 65 66 74 69 67 43 0 3 12 76 196 174 116 104 161 145 171 181 126 151 197 197 161 166 
187 109 149 110 90 118 99 138 138 126 133 137 130 140 144 150 133 145 131 136 129 111 114 30 98 205 191 230 195 190 198 150 122 149 152 152 145 156 148 148 155 123 192 152 172 223 212 160 174 101 128 158 108 109 107 70 82 50 198 247 208 
189 198 188 194 194 198 196 197 202 194 200 198 194 196 195 199 201 203 196 189 185 189 183 199 197 199 200 199 200 202 202 201 198 199 195 199 205 203 199 201 201 193 193 192 200 190 197 208 223 208 215 212 213 229 228 228 220 191 176 176 166 188 214 235 228 235 245 240 243 127 134 252 211 237 254 139 20 61 40 226 227 213 223 224 231 230 232 234 235 236 235 233 231 216 235 237 178 183 121 9 50 197 206 157 198 147 5 166 249 178 181 117 18 159 254 154 118 101 125 224 244 127 99 88 101 111 127 142 150 73 15 16 128 88 117 133 153 171 131 162 149 62 31 70 107 112 81 98 184 176 226 200 208 61 104 148 148 146 148 171 160 121 152 150 149 139 161 66 7 59 32 60 59 116 173 167 189 209 181 184 200 146 155 186 126 125 137 162 113 2 21 71 41 66 138 168 143 173 229 227 237 227 229 226 219 221 224 229 221 230 224 215 213 231 225 221 224 226 226 228 221 216 223 224 229 228 227 222 221 223 224 230 200 64 3 32 72 71 74 60 71 71 72 72 73 73 73 73 75 76 77 77 78 79 79 78 63 63 204 217 131 34 44 46 125 252 205 232 96 88 152 125 103 118 127 84 85 109 109 104 115 88 216 239 239 218 237 252 201 32 52 79 60 60 79 78 74 76 77 77 77 79 79 78 84 81 78 77 80 84 82 79 67 84 87 83 82 85 74 93 75 78 80 86 89 85 90 88 90 87 86 87 88 87 87 90 88 88 87 87 86 85 83 82 84 84 83 83 83 83 82 82 82 82 83 84 84 84 84 84 81 82 83 83 82 82 84 85 85 85 85 85 86 86 85 85 89 89 89 88 88 89 89 90 90 89 89 90 91 93 94 94 94 95 95 96 96 94 95 94 91 84 91 98 92 87 88 90 78 85 95 74 87 84 76 82 91 70 85 83 80 91 73 86 85 80 78 78 82 84 82 83 78 78 79 80 80 77 76 75 73 83 78 73 72 68 191 140 149 197 200 222 189 198 202 213 217 214 217 210 207 210 215 227 205 183 189 187 209 225 221 219 215 220 222 215 212 221 220 199 205 203 195 202 223 238 56 68 79 79 78 79 78 78 78 78 75 74 75 77 77 77 74 73 78 68 3 44 161 146 172 100 39 34 33 16 14 11 12 20 15 16 14 15 17 18 18 18 24 25 23 29 21 25 37 65 67 75 88 82 91 94 102 99 111 56 81 134 134 100 66 53 60 67 75 72 70 52 79 76 39 0 9 11 74 118 124 93 29 64 61 192 193 125 157 194 183 165 171 190 108 146 91 116 136 119 146 
136 123 131 140 137 139 143 145 132 142 130 141 125 111 103 3 126 224 11 146 74 85 67 50 109 150 161 142 161 161 154 146 161 131 201 162 183 213 176 190 103 97 135 143 94 95 111 78 82 33 202 245 211 
191 197 181 184 182 185 181 179 185 178 185 184 179 181 181 186 181 178 165 202 205 226 186 185 182 184 185 184 186 189 189 188 182 206 208 189 182 189 191 187 197 193 194 191 201 194 198 204 204 197 207 209 218 233 226 229 243 219 196 200 192 215 239 235 234 232 247 244 254 163 141 246 218 237 254 196 125 69 3 195 227 213 222 223 230 229 231 234 238 231 247 241 219 227 211 241 172 175 131 28 57 214 208 146 185 173 64 182 242 179 163 171 146 131 247 181 119 38 72 204 209 125 101 93 106 110 127 141 81 28 21 7 106 71 77 63 156 127 115 124 113 92 19 27 72 115 72 47 60 79 63 29 38 78 139 147 137 137 146 166 167 109 143 161 149 130 126 3 75 102 103 115 30 61 173 175 195 209 167 191 182 114 118 167 226 169 94 165 120 1 1 55 52 121 171 233 199 228 202 205 235 222 223 225 225 226 224 228 229 228 225 229 215 224 234 232 227 229 232 221 219 232 229 218 221 221 223 223 227 228 224 233 219 111 2 1 58 65 81 77 71 71 72 72 73 73 73 73 76 76 77 77 77 77 78 77 70 66 50 49 39 66 60 73 251 238 251 216 83 97 113 104 108 113 112 75 83 107 110 103 108 103 145 41 25 105 222 227 253 184 13 78 70 64 75 74 76 78 78 77 77 79 80 79 77 79 79 77 76 77 76 74 93 75 82 78 74 88 80 76 100 91 77 84 87 87 93 84 89 87 87 88 88 87 88 90 91 89 88 87 86 85 85 85 84 84 84 84 84 83 82 82 82 82 83 83 84 84 84 84 81 82 82 82 82 82 83 84 83 84 84 85 85 85 83 84 86 87 88 89 89 89 88 88 90 90 89 88 88 90 91 94 96 95 96 95 96 95 95 95 97 95 91 90 92 98 95 74 78 85 75 87 79 77 87 76 79 93 89 83 75 86 90 87 87 87 91 90 84 82 82 80 79 80 81 83 80 76 75 76 77 64 73 72 20 131 188 187 222 150 157 226 216 221 218 217 213 216 229 225 215 218 214 206 221 200 187 189 217 219 219 222 216 214 215 212 217 221 207 195 195 211 213 216 238 238 43 48 81 79 78 78 77 78 79 80 76 75 75 76 77 77 75 75 92 60 13 3 3 6 5 6 15 104 147 191 169 168 164 153 153 150 145 138 131 125 123 121 100 120 111 116 117 121 134 155 167 190 209 224 248 250 248 248 247 248 240 252 247 172 101 26 23 68 59 78 75 73 66 84 47 1 1 16 124 49 44 108 60 12 68 142 171 121 164 202 187 159 178 173 85 145 110 
118 118 113 139 129 122 130 136 132 139 143 138 132 138 128 146 119 126 100 56 91 212 143 189 243 236 245 232 104 130 137 92 122 145 71 84 157 118 204 175 130 157 193 116 51 118 106 99 79 90 113 89 69 21 200 245 204 
185 193 181 187 187 191 189 189 188 190 200 196 191 196 196 196 200 198 202 194 188 184 185 198 196 197 197 196 197 199 200 199 199 200 196 196 200 198 195 198 184 184 187 185 198 196 200 202 197 195 198 192 209 233 230 234 230 239 204 218 218 214 238 243 238 239 242 199 161 92 123 251 218 249 250 204 233 250 188 215 224 211 220 220 228 226 230 231 226 247 211 225 238 238 216 248 187 171 122 32 61 214 203 161 199 151 23 176 254 181 140 160 126 130 254 161 130 78 40 174 235 142 102 91 94 101 126 136 74 15 19 43 166 101 91 73 174 150 122 162 100 133 192 119 22 98 129 58 8 15 32 31 30 91 151 154 159 142 144 168 159 107 136 163 150 143 98 26 107 72 88 109 8 64 178 177 177 202 160 190 192 123 146 191 195 182 129 217 118 3 9 53 81 165 239 209 210 243 206 182 231 224 225 223 222 229 228 226 230 226 231 231 200 228 227 144 226 225 213 171 168 212 226 222 211 213 221 224 227 225 218 228 196 143 13 1 65 84 59 65 70 71 72 73 73 73 73 73 76 76 76 76 76 76 76 75 80 71 72 71 63 71 70 37 160 244 243 235 89 96 113 112 109 102 105 95 109 112 107 108 99 113 119 53 69 98 242 231 228 254 93 45 76 78 76 79 78 79 78 77 77 79 80 79 79 78 79 82 81 81 82 86 78 79 73 61 79 76 74 70 64 65 81 88 88 83 91 91 86 86 87 88 87 87 87 88 89 90 89 88 87 86 85 85 85 85 85 85 85 83 82 81 82 82 83 84 84 84 84 84 82 82 82 82 82 82 83 84 82 83 84 85 85 83 83 82 84 85 86 88 88 88 88 86 87 88 89 89 88 89 92 95 95 96 97 97 98 97 96 95 101 101 95 85 91 93 78 74 87 88 90 73 88 79 78 55 38 48 52 69 86 80 86 74 78 79 83 87 82 82 88 82 84 83 82 83 80 78 80 83 79 77 86 15 38 203 178 220 156 37 120 236 224 232 241 224 215 218 223 202 194 221 229 213 195 192 182 201 236 222 219 222 226 215 214 216 225 224 210 214 199 220 212 195 199 242 108 152 80 79 76 76 75 76 78 78 77 76 76 76 76 77 76 76 77 69 26 29 32 28 146 152 252 224 170 219 209 214 207 217 213 213 212 214 215 217 218 220 227 215 216 228 219 221 190 147 138 103 89 89 75 53 68 60 79 93 127 182 210 246 243 245 151 37 50 71 73 82 78 79 42 1 6 18 110 97 137 194 83 138 192 76 198 161 141 198 195 155 185 175 
114 157 134 104 113 117 141 132 132 140 143 135 139 143 133 134 135 127 149 114 126 131 14 147 193 36 195 238 209 204 213 97 118 66 59 45 68 71 51 79 100 210 137 74 106 145 125 121 107 132 131 91 75 89 83 45 25 203 255 208 
176 189 182 190 188 191 189 190 188 182 189 189 188 192 189 189 186 190 182 207 192 220 191 189 193 194 194 192 193 196 196 195 200 202 197 198 201 199 196 199 207 205 205 196 202 194 193 191 197 190 197 197 215 233 225 229 235 241 219 229 237 236 234 236 229 241 252 227 172 99 152 250 210 241 254 131 8 85 160 227 223 210 219 219 225 224 229 231 231 245 197 169 205 205 207 222 191 188 129 23 53 208 201 174 213 170 17 174 245 166 162 158 151 162 252 161 118 104 62 198 234 125 91 98 98 108 124 112 112 55 2 51 189 58 89 91 177 155 132 152 65 31 89 171 169 102 88 63 65 54 56 83 126 40 135 160 152 148 142 156 164 132 139 146 137 143 91 28 69 84 22 39 12 65 162 184 178 196 182 175 194 135 145 177 113 148 133 163 140 0 3 142 114 224 209 201 209 236 44 178 234 226 224 223 225 232 228 226 228 225 230 229 195 221 223 144 221 225 217 171 153 185 211 223 219 219 225 225 226 222 216 224 206 113 9 1 45 76 63 78 70 71 72 73 73 74 75 75 77 77 76 76 76 76 76 76 72 72 73 72 81 68 69 58 59 240 208 185 89 95 104 102 108 103 108 104 108 97 102 117 102 123 113 96 157 134 251 221 183 253 214 65 66 81 65 72 79 80 79 77 77 79 80 80 80 76 76 82 77 62 55 59 79 75 83 118 91 95 144 133 139 108 104 80 86 84 89 94 86 88 89 88 87 87 88 88 88 89 91 90 88 86 84 84 85 85 85 85 85 84 82 82 83 83 84 84 84 84 84 84 84 83 83 83 83 84 84 84 83 84 85 85 85 83 83 83 84 85 85 85 86 87 87 87 85 87 89 90 89 89 91 92 94 96 99 101 100 99 97 96 93 90 100 101 105 91 81 132 107 62 71 59 77 68 54 214 199 128 106 59 60 39 53 85 89 89 80 84 87 88 94 84 88 84 82 81 81 80 81 82 86 78 14 2 147 199 205 178 146 54 151 231 215 213 203 185 219 218 218 195 187 218 228 214 203 207 195 209 238 214 212 218 213 212 210 208 214 217 212 212 217 213 192 184 185 243 83 79 80 77 76 76 75 77 78 78 77 76 76 76 77 77 75 76 71 89 91 112 12 89 244 179 250 26 76 221 188 192 183 193 192 190 186 183 180 178 176 175 169 187 182 175 192 182 166 252 250 250 250 243 251 252 251 134 72 71 33 23 26 44 73 201 252 247 65 58 76 67 82 74 55 1 0 1 88 191 199 181 152 156 205 168 216 123 146 199 197 
164 167 172 133 144 127 124 123 122 134 121 121 131 140 129 139 144 132 135 134 128 148 114 127 143 45 225 175 10 154 236 210 195 192 80 55 58 47 46 40 105 67 53 109 200 110 107 157 180 152 130 112 122 100 100 69 79 77 48 32 203 253 206 
176 189 181 186 183 183 180 181 191 178 183 188 189 189 187 192 194 189 193 189 189 200 196 189 191 193 193 193 194 196 196 195 184 208 209 191 183 190 193 189 183 184 188 185 197 193 198 200 193 182 191 201 219 235 229 235 230 223 232 218 206 232 227 237 234 227 227 229 199 121 177 247 209 251 252 164 39 42 2 194 225 210 219 219 226 224 229 232 237 228 241 185 111 151 205 210 181 185 132 34 73 216 202 161 182 170 23 179 251 179 167 70 28 183 254 168 112 72 45 201 241 126 93 95 88 111 133 131 85 53 3 41 190 55 81 97 164 153 135 158 97 53 36 24 102 138 48 58 71 56 57 87 83 36 139 151 145 143 147 160 168 135 131 146 139 122 90 3 105 124 42 16 11 74 146 153 163 177 165 164 161 164 129 186 145 170 161 156 132 0 12 42 108 215 220 213 198 233 32 125 241 223 221 225 231 232 226 227 230 227 225 230 210 215 231 236 228 228 231 219 202 204 214 225 226 223 226 224 223 222 221 231 204 79 15 6 50 74 68 73 70 71 72 73 74 74 75 75 77 77 77 76 76 76 76 76 76 83 76 73 63 77 80 70 31 100 236 242 100 84 100 87 91 92 98 95 104 100 112 125 121 96 97 88 116 111 239 231 214 254 34 6 80 73 79 86 78 80 80 79 77 79 79 78 77 74 75 74 71 78 109 144 76 111 123 199 137 111 147 166 162 124 95 73 89 90 87 90 85 88 90 88 86 86 87 88 87 90 92 92 89 86 85 84 86 85 85 85 85 84 83 83 83 84 84 84 84 83 83 82 85 84 83 83 84 84 84 84 83 84 85 85 84 84 84 84 85 85 84 84 84 86 87 88 88 89 90 90 90 89 89 89 93 94 97 101 101 100 99 99 100 97 100 91 84 73 74 115 106 107 144 141 150 124 109 246 249 245 244 211 220 175 159 76 76 96 90 92 91 84 90 87 87 83 82 84 82 79 78 77 87 44 4 71 205 152 220 229 167 76 160 225 217 220 210 208 213 213 227 226 220 224 215 203 230 231 209 204 221 202 204 213 204 213 206 207 220 227 209 169 190 199 207 206 193 235 71 57 80 78 77 76 77 77 79 78 77 76 76 77 76 77 76 75 74 74 73 56 5 59 169 104 180 28 140 227 183 197 191 183 187 187 187 187 188 188 188 187 195 176 190 195 189 175 163 252 248 251 236 250 242 244 255 230 190 217 199 194 144 84 47 47 249 249 214 70 35 70 67 87 46 3 12 17 75 191 162 156 194 166 176 156 184 126 
181 192 190 173 164 174 97 126 131 139 126 123 134 126 125 135 151 137 138 142 134 138 135 132 144 122 128 123 74 203 166 72 217 222 214 191 100 54 54 51 60 58 66 65 53 68 110 169 91 99 98 161 125 133 125 129 123 96 47 66 54 60 26 203 248 214 
183 193 183 189 189 193 193 195 187 198 213 202 186 187 190 195 190 188 183 201 181 205 191 193 192 194 195 193 194 195 194 192 196 198 194 198 203 202 198 200 203 200 202 196 202 193 196 201 205 190 194 187 198 228 231 225 221 238 253 254 239 236 222 233 231 231 237 237 202 86 143 241 214 240 253 161 30 81 38 216 224 210 218 218 225 225 228 231 224 237 246 246 132 157 245 233 186 174 117 23 63 203 208 154 192 155 13 173 248 173 174 83 4 160 242 184 135 89 77 168 224 123 98 92 80 91 76 62 61 14 2 32 200 76 53 57 161 154 115 144 133 88 78 86 83 110 93 63 57 45 44 78 51 59 125 149 167 145 145 165 153 117 123 161 149 123 95 25 84 92 110 43 1 65 143 164 192 200 159 185 157 169 120 191 151 163 147 194 152 0 19 40 57 140 225 228 200 236 177 191 239 227 227 225 223 226 226 230 226 232 227 221 218 231 227 228 234 230 224 227 225 222 227 228 225 222 223 221 221 220 223 232 202 80 12 4 47 78 70 70 70 71 72 73 74 74 76 76 77 77 77 77 77 77 77 77 81 69 79 64 79 62 69 58 78 57 48 143 154 143 153 127 116 119 119 109 108 90 88 86 89 99 115 83 71 109 234 247 252 89 32 72 67 76 72 77 78 79 80 79 78 79 78 76 78 80 77 71 77 112 171 218 103 55 45 131 89 97 130 90 77 87 60 80 92 87 84 90 86 90 91 89 87 88 88 88 89 91 93 92 89 86 87 88 86 86 85 84 85 84 83 83 84 84 83 83 82 81 81 80 85 83 82 82 83 84 83 83 83 83 84 84 83 84 85 85 85 85 84 84 85 86 86 87 90 89 89 88 89 89 89 88 92 93 95 97 99 100 101 101 97 101 97 93 86 110 145 135 98 107 126 113 97 39 135 241 211 229 176 165 215 216 254 96 51 84 78 82 89 79 87 91 86 85 84 83 81 77 78 81 82 4 12 34 188 168 214 225 127 64 181 238 200 206 219 225 211 210 219 222 224 225 219 221 218 222 215 208 223 212 210 212 216 223 210 225 238 237 220 160 162 177 207 211 220 236 74 66 78 78 76 77 76 77 78 77 76 75 77 78 78 78 75 74 75 81 65 6 8 70 70 226 131 13 144 229 190 180 197 196 196 196 194 193 190 189 188 186 187 187 189 185 185 173 164 251 244 252 251 252 249 252 253 252 254 253 250 244 252 191 111 53 253 253 254 208 83 35 72 76 56 1 9 19 67 215 201 173 204 187 182 117 183 164 189 185 177 
172 189 194 92 133 131 117 108 107 129 130 123 128 148 130 135 140 136 140 138 136 140 133 128 116 47 205 182 96 169 216 175 126 71 31 29 34 58 55 57 41 37 38 101 155 52 41 73 139 150 123 89 136 116 80 101 111 74 83 39 207 247 210 
187 191 175 177 175 179 179 180 178 225 253 216 175 179 187 185 188 178 185 205 197 208 193 189 189 191 191 189 187 188 186 183 180 203 205 187 181 187 187 182 185 183 188 187 197 190 196 206 198 206 218 195 194 226 210 169 171 157 86 130 210 233 245 252 232 235 251 251 219 76 124 251 215 244 254 155 37 63 35 205 223 208 216 215 223 223 226 229 232 232 230 235 236 224 224 233 194 184 128 14 37 185 222 159 186 158 39 179 249 180 175 88 1 156 252 180 145 114 126 215 238 137 98 84 91 103 48 15 21 10 6 25 190 90 88 64 132 151 136 137 143 133 119 125 136 129 91 33 31 35 53 62 69 33 115 153 142 139 118 101 144 120 130 158 127 124 80 62 102 93 114 25 7 66 134 177 193 197 152 187 186 139 129 181 122 123 156 208 151 0 14 67 22 78 161 208 211 221 223 230 180 201 227 229 224 231 227 223 230 218 228 229 212 223 219 225 221 230 228 230 227 225 232 219 222 220 224 221 220 218 217 225 204 76 4 8 39 79 68 65 70 71 72 73 74 75 76 76 77 77 77 77 77 77 78 78 74 75 74 73 71 82 59 41 64 45 24 8 72 78 124 143 156 157 154 144 143 137 166 193 189 250 250 244 251 248 243 235 57 3 78 115 74 74 84 72 77 79 79 78 78 78 78 75 71 76 78 71 67 64 56 45 33 7 50 124 118 131 176 130 203 183 65 74 79 86 90 89 90 94 95 91 89 90 91 91 91 93 93 92 88 87 89 90 86 86 85 84 85 85 84 85 82 83 82 82 81 80 79 78 84 83 81 81 83 83 83 82 83 83 83 83 83 83 85 85 85 85 85 85 86 86 86 86 90 88 85 86 88 91 92 91 92 92 93 94 96 99 102 104 103 103 94 105 82 108 176 142 151 150 63 104 70 79 107 193 156 178 150 198 232 201 237 112 89 105 72 70 93 89 88 84 86 85 83 81 77 77 84 90 52 9 8 5 149 177 195 207 160 65 161 243 222 209 205 225 224 226 226 215 215 222 219 222 230 231 222 207 218 216 217 217 216 219 206 229 228 216 227 191 168 183 218 204 220 207 58 74 77 76 76 76 75 76 76 74 76 75 77 78 79 78 75 74 71 78 67 4 5 81 80 127 116 13 167 209 173 193 192 191 192 191 191 190 191 190 190 190 185 197 179 177 192 172 167 252 179 107 144 145 171 136 195 253 247 251 250 250 243 161 177 95 252 253 253 203 157 80 49 89 53 3 0 1 86 209 180 176 199 176 173 145 192 151 162 
195 178 168 185 176 107 129 103 102 121 119 143 143 127 126 149 131 132 138 137 141 141 139 137 140 137 134 69 218 150 7 181 225 219 175 72 37 66 54 51 54 41 27 43 45 112 159 62 67 45 31 82 105 124 143 108 93 84 81 39 46 26 196 252 208 
171 198 188 196 192 195 204 199 194 188 189 193 194 196 198 196 202 194 196 191 185 192 185 196 197 198 200 202 202 200 198 198 194 198 198 198 201 199 196 198 194 193 196 192 195 184 192 221 221 209 206 179 148 161 234 157 75 130 108 15 75 86 37 157 239 241 215 190 237 135 151 245 211 236 253 164 12 67 39 206 227 203 216 217 222 223 224 227 226 239 232 234 218 220 227 226 194 174 131 18 44 187 218 160 179 165 52 181 254 183 181 90 1 153 254 180 165 70 74 242 244 115 93 90 47 33 38 10 37 16 8 12 172 42 77 80 139 157 141 145 144 132 150 137 153 157 77 13 31 37 56 85 44 45 128 129 86 101 89 60 121 139 116 153 138 128 76 69 104 98 113 16 10 50 131 163 172 185 148 190 184 112 111 199 99 130 158 185 154 2 2 70 54 35 103 128 174 236 216 221 188 204 232 227 229 231 227 227 228 232 227 228 216 224 224 230 226 225 229 229 224 224 228 228 228 233 227 238 235 232 233 234 220 73 8 1 63 74 67 68 67 70 73 74 74 74 75 75 75 75 75 76 76 77 77 77 78 78 70 79 73 69 40 215 246 246 239 253 241 96 109 168 187 188 188 194 186 196 143 151 157 32 80 117 100 81 24 4 1 77 68 76 94 69 76 80 76 79 82 79 81 77 75 79 78 79 66 62 77 72 50 52 163 249 244 255 254 253 253 253 238 146 87 72 78 69 88 87 85 95 97 89 88 88 89 92 92 94 95 92 88 88 89 88 84 85 86 85 85 84 84 84 82 82 82 82 81 80 79 78 81 82 83 83 82 81 81 82 81 82 82 83 83 83 84 85 85 85 85 86 86 86 86 85 87 87 86 86 87 89 91 92 91 92 95 100 104 106 104 105 107 101 101 112 93 74 6 72 166 148 154 123 107 115 146 188 162 183 167 206 240 251 209 96 125 204 199 69 77 82 93 85 85 94 80 78 83 83 82 65 4 6 16 4 82 193 212 187 180 89 154 249 226 215 224 220 221 232 226 231 214 213 230 216 227 219 220 205 224 215 219 209 198 210 220 197 222 232 229 188 180 195 208 206 215 219 54 72 74 81 81 76 79 82 79 76 78 76 76 79 79 76 76 77 76 84 65 4 12 113 230 144 52 7 167 206 201 177 198 193 193 193 193 193 193 192 189 188 185 176 187 194 190 175 206 252 133 22 64 60 73 32 150 251 246 252 251 250 249 153 146 84 252 252 248 103 121 133 17 49 55 5 13 11 87 216 167 164 206 202 154 130 172 154 193 197 
175 166 179 182 75 84 108 128 75 72 83 45 104 128 124 139 125 135 132 143 143 134 141 137 125 123 79 218 140 37 204 155 159 144 89 34 34 27 37 51 47 45 25 41 128 136 66 103 129 47 50 105 97 117 107 109 115 88 96 73 1 195 251 212 
177 195 178 186 186 183 184 180 186 182 184 188 185 185 186 184 187 184 178 196 199 215 187 190 188 190 190 189 189 188 186 185 184 203 204 190 189 198 195 185 193 186 188 187 200 199 164 99 183 205 233 202 101 86 159 135 174 107 101 190 137 73 6 65 237 225 190 175 236 150 144 248 202 219 254 156 17 52 22 210 218 205 218 216 226 224 225 238 237 217 228 236 225 224 221 238 187 175 132 13 40 191 221 153 183 161 24 126 254 177 175 100 4 153 253 183 160 59 47 210 208 131 110 86 62 17 7 12 18 21 12 30 167 60 56 57 137 141 136 149 133 140 150 142 168 164 88 46 62 61 63 31 36 49 139 138 91 109 103 76 122 146 119 145 133 127 76 63 106 100 122 26 0 70 148 151 175 170 142 188 197 136 130 179 110 135 159 203 148 7 2 63 69 46 40 125 153 137 201 235 239 227 232 227 237 240 238 239 233 235 234 235 235 241 242 244 240 240 242 243 240 238 237 235 234 229 223 220 216 212 216 200 179 136 5 9 46 80 60 79 68 71 73 74 74 74 75 76 77 77 76 76 77 78 78 78 73 82 80 76 67 61 59 247 206 201 254 209 91 127 113 106 97 91 148 176 199 213 253 241 192 76 2 5 27 36 22 66 92 73 75 66 69 81 76 78 76 80 80 79 80 78 78 75 74 74 80 83 71 47 88 225 245 244 228 211 190 174 153 90 58 82 77 84 71 88 76 82 86 91 92 92 91 86 85 94 92 94 95 91 88 88 89 89 86 87 87 86 83 82 83 84 82 82 82 82 82 81 80 79 80 82 83 83 82 81 82 83 81 82 82 83 83 84 84 84 84 85 85 86 86 86 86 84 86 86 85 85 86 88 89 90 93 94 94 96 98 101 104 106 103 114 108 89 96 103 78 4 173 159 128 144 72 72 190 173 173 162 152 203 248 243 132 7 54 203 205 217 62 75 87 75 74 81 85 89 85 79 88 91 59 9 8 6 6 170 168 196 167 90 150 246 239 243 239 245 243 234 245 236 222 227 217 229 201 201 228 219 219 212 224 216 202 209 201 211 221 199 189 223 218 197 200 212 223 185 40 78 76 79 81 80 78 79 77 74 78 76 76 78 78 76 76 78 73 90 51 6 3 143 254 147 63 11 177 208 191 190 180 186 188 188 187 185 183 183 183 182 186 193 191 188 200 162 214 247 148 39 79 72 84 44 185 252 247 254 253 253 249 171 107 71 251 251 246 144 129 190 207 152 36 1 26 23 86 205 184 168 189 186 166 116 176 136 167 201 180 159 
168 171 57 70 130 89 98 167 161 164 114 127 139 129 142 145 133 137 135 130 145 146 127 121 57 222 53 122 35 3 10 13 7 37 48 29 44 51 28 56 30 44 156 128 35 87 126 125 133 109 84 125 118 92 120 92 69 34 8 194 254 211 
185 200 178 186 194 194 192 194 192 189 193 197 193 190 190 188 194 195 197 182 184 177 178 193 198 198 199 200 200 200 200 200 193 197 200 203 201 192 191 200 192 198 199 183 195 212 161 14 73 140 173 171 139 163 198 185 194 123 56 58 104 145 177 84 173 211 251 229 202 135 148 244 195 239 252 134 0 52 8 197 220 214 209 204 213 220 231 216 220 230 244 223 217 223 222 235 205 187 137 14 41 191 229 160 194 174 25 133 253 182 172 108 28 163 253 186 157 73 59 231 249 118 97 89 29 15 48 44 21 19 6 16 163 103 72 39 115 145 139 141 132 143 133 155 155 140 92 61 61 66 81 34 52 49 130 146 107 108 98 82 127 150 120 149 145 135 82 60 91 90 113 30 0 71 143 167 194 174 151 182 183 127 126 153 89 111 151 209 147 1 2 63 60 63 49 29 98 135 105 173 153 143 147 144 156 154 154 156 155 149 148 149 161 166 165 156 156 139 117 97 84 74 61 54 53 44 50 29 34 38 70 59 99 236 8 2 44 73 73 64 69 72 73 74 73 74 75 77 77 77 76 76 77 77 77 77 85 77 71 73 76 53 65 249 186 217 159 140 182 102 111 107 113 117 95 57 50 114 197 236 252 251 250 134 49 58 82 76 69 70 75 74 79 85 80 79 75 81 78 79 77 79 78 71 60 64 65 58 75 67 120 237 61 70 49 97 94 117 120 48 17 64 49 90 67 51 85 79 83 81 84 92 93 82 83 98 93 95 95 91 88 88 89 89 88 89 88 85 81 79 80 82 82 82 82 82 82 82 81 81 80 82 83 83 82 82 82 83 81 81 82 82 83 83 84 84 84 84 85 85 86 86 85 84 86 86 85 85 86 88 88 89 93 94 94 94 95 97 102 104 105 106 108 101 97 77 105 35 21 143 138 141 74 90 222 191 180 164 181 213 208 244 144 249 169 201 213 226 150 62 78 105 94 75 79 87 83 78 78 84 94 13 4 21 3 35 204 160 202 195 159 168 158 157 155 148 150 162 133 193 236 221 239 226 177 176 217 212 207 216 233 228 218 198 177 186 201 207 188 173 206 191 197 219 235 196 49 80 78 76 79 80 77 77 78 75 78 76 76 76 77 75 75 77 80 85 61 7 5 156 250 206 206 12 197 215 189 199 191 193 187 189 191 192 191 191 192 193 190 199 189 181 201 165 223 253 137 59 77 79 86 52 183 246 250 245 248 252 246 179 117 79 249 251 248 131 138 205 173 127 52 1 7 11 61 204 188 157 207 160 182 139 182 159 177 173 187 152 172 160 37 
90 164 182 247 254 253 253 188 93 144 130 139 143 135 139 138 132 145 145 130 122 50 184 167 241 131 11 11 16 55 57 50 51 58 64 55 36 27 51 138 109 58 77 87 113 142 135 121 114 97 104 69 88 127 174 190 232 228 211 
184 200 178 180 185 188 181 185 182 181 187 189 184 181 182 182 178 185 171 202 208 223 186 183 183 183 184 186 187 188 189 188 185 201 203 191 190 195 195 190 196 196 193 184 199 199 150 10 60 92 128 169 226 118 125 250 224 92 71 58 177 179 181 169 140 168 250 187 88 151 235 231 192 234 254 179 53 57 39 193 234 186 228 199 177 198 203 241 235 218 228 230 216 218 234 224 193 173 137 34 62 192 228 158 185 187 34 128 254 190 167 132 56 141 254 180 114 146 165 205 253 140 89 95 60 31 19 39 42 54 46 36 115 98 72 45 117 128 143 154 118 139 163 160 127 113 103 70 55 57 75 40 59 47 119 145 111 106 97 87 126 152 125 151 138 121 85 75 125 99 115 35 0 63 144 161 166 172 166 201 186 125 117 156 90 112 158 207 169 1 5 67 62 64 70 58 28 48 88 75 81 81 85 74 71 56 48 43 45 39 34 20 21 12 13 9 8 10 15 23 42 77 118 150 182 201 227 147 78 6 6 5 4 2 1 11 45 79 60 66 70 72 73 74 73 74 76 77 75 75 75 75 76 76 76 75 72 81 82 68 72 53 83 240 179 179 10 130 208 87 104 118 112 119 123 148 84 156 162 164 195 208 207 246 177 12 55 68 69 85 75 74 75 67 74 80 75 82 77 80 76 79 74 70 109 77 75 51 60 91 20 7 49 59 46 103 107 88 220 197 81 216 245 222 210 83 54 81 82 81 82 90 93 83 84 97 94 96 95 91 88 88 89 89 87 88 86 83 79 77 79 82 82 82 82 82 82 82 82 82 81 82 83 83 82 82 82 82 81 81 81 82 83 83 84 84 84 84 85 85 85 85 85 85 87 88 87 87 87 89 89 90 90 94 96 97 97 98 99 102 106 104 100 91 90 87 99 91 59 10 69 185 100 148 197 176 176 167 197 223 216 222 106 116 184 215 203 215 204 53 110 185 123 82 79 85 84 84 76 77 91 67 5 10 7 6 82 200 158 159 184 183 162 161 147 142 123 119 103 93 218 235 237 244 189 194 232 226 225 230 233 231 227 213 218 211 219 226 239 226 240 232 234 223 248 216 42 78 81 75 77 80 78 80 82 78 78 77 75 75 75 75 76 77 66 82 40 5 8 133 229 178 191 18 185 204 194 191 189 184 190 193 193 194 193 191 188 187 188 187 187 183 192 167 219 254 251 253 251 251 252 240 253 253 246 254 249 253 251 164 117 76 251 253 250 107 145 123 25 60 54 5 2 6 30 196 171 166 201 175 187 131 166 154 169 191 173 172 188 154 25 139 101 12 254 
246 238 249 162 101 138 129 132 141 139 147 144 134 144 142 126 122 10 84 231 166 74 4 3 10 62 52 49 48 58 50 41 56 28 45 173 109 49 102 123 125 113 94 109 96 94 133 175 195 246 234 157 203 248 220 
169 190 183 182 182 187 179 181 186 184 189 191 186 184 186 186 191 194 194 181 185 173 182 191 195 195 195 196 196 196 196 196 188 201 199 185 185 192 191 187 187 184 185 192 208 184 194 167 123 108 109 184 159 127 117 199 182 33 43 70 22 108 186 128 122 169 250 213 138 162 218 240 187 253 254 165 202 164 157 209 209 205 213 200 198 202 221 238 229 243 243 233 237 235 218 226 178 158 126 25 54 182 229 160 183 130 39 116 247 178 196 121 27 113 254 189 117 164 184 217 254 111 86 88 28 13 37 29 50 60 58 58 61 71 62 64 107 109 100 125 128 119 134 126 130 129 103 60 56 56 81 44 46 50 122 135 98 98 93 77 121 141 114 147 149 134 80 32 69 96 104 39 6 105 153 148 143 164 149 191 172 115 91 158 89 134 156 182 169 1 3 61 68 48 54 64 59 53 40 28 4 1 3 3 8 2 5 7 6 6 7 7 12 38 90 122 171 193 213 225 234 236 233 233 220 217 229 138 74 6 4 21 24 14 30 24 59 71 74 71 70 72 73 74 73 74 75 76 74 75 75 75 75 75 75 74 82 77 77 78 80 50 105 255 159 225 100 158 208 104 121 108 125 107 107 200 155 162 158 171 191 242 235 193 254 193 48 76 79 62 75 81 83 89 80 78 76 82 79 81 76 78 65 78 170 179 192 196 98 82 95 112 171 182 161 202 137 91 243 205 23 7 103 235 240 247 96 46 83 87 87 89 93 89 89 94 96 97 95 91 87 87 88 88 86 87 86 83 80 79 81 83 82 82 82 82 82 82 82 83 82 82 82 82 82 81 80 79 80 80 81 81 82 83 83 83 83 84 84 85 85 85 85 84 86 86 87 87 87 88 89 89 90 94 96 97 98 99 101 104 103 104 95 84 89 102 85 91 101 88 11 21 73 105 138 141 168 188 193 202 203 208 71 41 167 232 218 193 120 65 94 144 103 77 84 86 78 82 81 85 84 85 27 4 9 2 7 36 165 193 172 163 176 158 168 161 154 142 129 97 95 238 231 209 209 199 192 174 188 187 172 170 168 158 132 108 126 126 115 103 104 95 107 122 89 26 82 83 83 79 78 80 80 83 84 80 77 77 76 75 74 76 77 77 82 77 13 9 24 99 71 120 88 98 204 202 190 191 191 200 186 185 185 187 189 189 188 187 187 182 188 189 187 150 227 251 242 253 253 252 250 248 243 247 253 252 253 255 223 164 135 101 255 246 253 163 161 56 67 102 45 1 5 6 51 212 163 168 190 172 191 138 165 134 169 195 180 151 169 194 28 114 90 2 226 
231 215 232 137 112 132 130 142 150 143 148 141 132 143 143 137 110 45 58 221 230 177 183 186 221 94 25 53 44 47 50 33 34 31 69 168 89 59 90 71 75 60 51 101 98 91 114 145 137 122 49 3 186 255 197 
171 187 191 196 190 198 192 192 194 192 197 199 194 192 194 193 188 192 180 206 196 208 196 193 192 193 195 196 197 199 200 200 203 206 203 202 202 199 199 205 199 207 203 190 203 175 213 251 238 225 205 172 181 174 195 211 190 128 146 102 57 140 173 191 79 145 249 212 124 141 231 236 185 188 132 141 88 124 151 198 220 221 230 219 238 206 155 176 205 209 183 143 154 203 203 225 199 179 134 10 30 167 235 165 171 108 51 125 255 177 168 91 6 123 255 191 128 78 59 211 253 117 110 93 65 51 88 62 40 35 68 89 104 83 63 40 113 107 36 56 128 110 110 140 135 158 107 53 57 54 97 51 47 44 112 144 122 119 115 103 125 140 113 147 157 153 91 2 6 66 90 69 1 108 157 143 191 198 152 191 183 135 93 168 95 177 173 174 150 2 1 66 67 69 76 55 52 66 61 67 63 35 7 2 1 2 48 87 137 164 200 224 235 233 232 229 218 221 213 202 206 201 188 183 185 194 223 156 60 34 13 83 71 87 67 72 78 67 65 68 71 72 73 74 73 73 74 75 74 75 76 77 77 77 76 75 82 75 76 74 64 40 117 247 243 245 254 150 114 71 102 102 103 101 155 157 77 158 137 163 157 243 216 201 246 254 48 69 72 82 77 68 67 77 84 79 78 80 81 80 76 79 58 102 182 136 67 138 48 80 113 151 169 155 71 133 76 83 204 206 20 44 137 201 236 217 244 92 72 80 83 84 91 95 97 97 95 96 95 91 87 87 87 87 87 87 86 85 84 83 84 85 82 82 81 81 81 82 82 82 82 81 81 81 81 81 79 78 80 80 81 81 82 82 83 83 83 83 84 84 84 84 84 84 84 84 85 86 87 87 87 88 95 95 94 94 96 98 102 106 102 97 95 97 96 87 86 81 88 85 72 1 2 4 4 4 50 44 60 84 97 146 159 139 198 167 123 62 59 97 76 71 82 76 86 87 79 81 82 83 70 90 80 34 5 3 7 10 14 68 160 170 156 151 131 109 104 98 70 86 89 62 61 48 34 38 18 2 7 1 1 6 1 2 1 5 1 5 1 3 5 2 0 31 4 19 45 61 77 83 80 77 82 84 81 80 78 79 78 75 76 76 76 75 68 98 34 14 23 97 101 136 35 17 195 210 188 193 192 186 195 192 190 189 189 191 192 193 195 194 194 193 197 153 246 253 253 246 253 252 251 250 252 252 251 251 251 251 207 172 107 115 252 253 254 195 57 53 62 89 48 1 6 1 94 221 170 161 198 161 208 161 186 120 176 178 167 137 166 172 27 125 82 13 254 253 244 254 185 95 140 135 138 146 142 146 
140 131 142 144 147 145 3 156 247 244 244 233 220 211 68 40 57 67 50 47 55 44 29 80 183 99 74 87 67 67 55 62 108 103 88 93 71 90 67 33 21 202 241 214 
178 169 167 173 161 166 163 166 167 165 170 175 171 169 170 168 173 165 168 184 188 185 188 167 172 173 175 176 177 177 176 177 172 195 195 175 173 187 186 176 181 184 183 169 207 188 204 231 212 222 234 223 237 234 251 243 142 101 174 83 17 92 176 129 159 187 237 200 155 149 242 228 155 147 109 104 79 103 91 110 243 200 208 214 182 88 66 164 215 143 108 141 107 163 227 201 207 190 150 24 36 162 234 160 185 71 45 139 253 178 160 67 4 109 255 193 132 97 81 213 255 133 99 87 84 71 84 71 49 44 60 67 97 98 105 99 81 71 48 88 124 123 113 105 94 125 118 64 60 53 85 66 56 38 99 158 158 151 151 154 137 150 129 152 134 129 113 54 92 89 118 116 1 77 183 160 186 188 150 194 205 158 108 170 129 207 193 186 160 3 2 71 55 55 66 51 33 23 14 23 33 49 68 96 134 160 211 231 239 235 221 211 198 196 187 184 178 190 184 172 177 181 186 200 202 201 223 198 52 77 2 69 60 73 64 74 65 67 68 70 68 70 72 73 73 73 73 74 73 74 75 77 77 77 76 76 78 88 81 74 80 71 59 35 81 131 199 238 157 132 120 98 113 112 26 78 91 166 172 195 194 206 253 249 200 9 3 45 42 68 72 79 82 80 89 82 81 77 82 78 76 80 53 134 243 174 185 94 84 78 84 108 83 208 177 128 80 76 211 197 14 103 232 205 225 214 242 131 69 77 79 82 91 97 97 97 93 94 94 90 87 87 87 87 87 85 84 85 85 85 85 84 82 82 81 80 80 81 81 82 80 79 79 79 81 81 79 78 80 80 80 81 81 82 82 83 83 83 84 84 84 84 84 84 83 84 85 86 87 88 88 88 94 94 93 93 95 98 100 101 100 97 93 89 91 93 91 67 56 78 99 155 149 178 158 174 163 152 130 83 23 39 11 23 27 44 66 81 90 81 85 92 89 92 90 92 90 86 85 79 91 75 86 87 68 10 8 6 6 6 1 4 21 28 18 33 26 15 1 1 1 1 2 2 2 2 3 62 133 157 160 149 159 137 145 181 137 123 119 131 121 122 160 156 180 158 178 94 60 83 83 76 84 84 77 82 79 82 80 78 75 77 76 73 76 95 50 5 9 125 127 182 233 30 229 232 221 220 233 223 216 217 218 214 210 207 208 209 204 204 200 198 205 186 199 204 201 200 199 203 205 197 166 88 99 100 88 149 199 179 54 74 254 249 213 85 41 69 75 91 44 1 12 8 103 199 180 170 191 182 211 133 183 116 164 198 157 149 180 154 18 139 53 9 248 254 239 250 179 102 149 130 
130 141 138 147 141 131 141 140 140 158 74 90 247 235 236 228 224 126 99 125 47 38 60 50 43 34 16 82 194 104 70 67 58 72 67 63 93 110 106 88 108 115 85 65 19 200 254 211 
231 199 188 198 187 195 201 211 215 214 221 226 225 224 225 222 228 232 231 240 207 208 231 233 230 230 230 227 225 221 217 215 203 216 217 206 200 195 192 193 192 185 190 175 199 168 197 254 237 198 171 167 139 80 139 226 204 140 238 193 146 214 190 146 152 190 233 187 148 132 235 197 130 124 76 79 91 115 60 141 225 119 161 107 43 36 63 222 250 227 120 130 69 101 227 223 200 176 138 23 37 156 237 177 196 32 3 78 253 177 172 85 1 94 251 187 135 113 97 212 253 132 85 106 86 76 67 76 89 109 60 65 47 87 53 50 58 71 69 75 60 72 53 36 45 50 100 50 51 65 88 120 60 47 101 147 138 134 141 146 145 137 119 162 145 131 123 73 79 90 81 56 17 52 143 162 171 170 146 184 200 160 127 184 119 161 152 163 173 1 1 60 67 54 26 58 95 116 164 182 200 220 222 215 222 218 212 174 174 184 180 180 163 166 165 172 140 140 130 145 191 214 211 207 207 201 221 229 39 106 1 57 76 56 75 69 64 64 76 66 68 69 72 73 73 72 72 72 71 72 74 75 76 76 75 74 46 48 41 41 33 29 51 49 11 4 9 33 46 72 166 172 167 162 137 156 144 225 240 251 248 253 193 68 1 6 199 253 134 46 67 87 75 84 76 84 82 75 83 76 78 83 54 156 189 249 241 131 85 83 96 108 115 193 117 90 69 59 228 212 22 140 224 212 208 246 194 15 80 85 86 88 94 95 92 93 89 92 93 90 88 88 88 87 85 84 82 83 85 85 83 81 82 82 81 80 80 80 81 81 78 77 77 78 80 81 80 79 79 80 80 81 81 82 82 83 82 83 83 84 84 84 84 83 84 84 86 87 88 89 89 89 91 92 93 95 97 98 96 94 91 93 95 98 87 81 60 80 171 220 248 244 247 240 243 245 248 246 248 250 245 120 173 142 66 37 82 77 87 91 87 86 83 93 84 87 84 75 82 82 76 74 78 70 84 94 68 30 8 13 3 7 22 78 72 109 157 136 156 156 172 186 175 197 205 211 208 244 251 242 250 246 248 250 250 249 250 251 251 250 254 253 252 255 249 252 253 147 43 79 84 74 84 83 75 85 81 83 82 79 77 78 76 72 77 90 22 4 5 225 230 214 243 26 133 130 138 126 135 139 144 154 169 176 178 182 187 193 198 197 202 203 202 214 102 102 113 92 37 69 74 67 87 97 101 104 151 203 132 68 44 71 249 254 71 31 72 77 74 80 53 4 0 15 109 199 191 164 198 171 195 123 172 155 189 187 170 166 174 183 19 152 94 50 254 253 
249 253 177 102 144 128 136 145 140 145 139 128 140 140 139 153 153 36 112 102 110 92 42 107 160 167 117 52 60 49 40 33 29 105 194 107 93 90 74 64 47 47 64 91 115 115 75 125 96 77 27 195 254 206 
243 245 246 245 238 248 250 253 250 253 251 246 246 249 251 248 249 253 249 244 253 245 253 249 252 253 253 252 242 253 253 254 254 249 253 254 252 248 254 251 249 254 251 254 251 251 210 246 227 199 122 28 4 4 51 151 215 244 226 230 238 232 224 232 204 223 250 194 131 142 239 228 84 106 82 37 69 121 104 147 151 120 121 67 94 52 70 197 237 224 188 166 165 162 221 215 202 175 136 18 25 139 232 172 203 55 0 88 246 190 171 117 4 110 254 193 125 108 81 207 253 130 90 84 94 61 89 88 81 93 69 77 80 94 46 54 59 92 73 86 60 46 63 33 41 32 55 25 21 30 28 87 63 47 95 154 148 126 154 146 127 141 107 146 151 112 118 120 60 60 72 51 87 125 176 192 185 161 161 178 208 135 104 183 93 130 158 197 171 2 0 60 33 57 105 185 236 237 226 218 212 211 201 206 199 198 211 186 191 204 209 219 194 170 193 200 186 201 204 193 171 201 200 210 211 211 203 238 46 108 6 27 77 65 65 66 70 67 68 77 69 71 72 72 71 73 76 77 72 71 76 71 81 73 65 84 139 108 113 134 127 113 239 253 251 254 247 213 171 146 151 163 136 144 211 185 201 242 164 106 26 3 5 22 35 134 251 249 251 48 59 82 75 76 84 82 81 77 87 82 81 78 58 126 65 9 43 128 84 79 100 99 112 174 158 141 122 98 247 185 62 14 66 221 246 244 59 51 82 82 82 86 86 86 94 92 87 90 92 90 90 90 90 89 86 85 84 84 84 83 81 80 79 79 80 79 79 79 80 81 81 80 79 77 77 78 79 80 81 80 78 79 80 81 81 79 83 82 82 82 83 83 84 84 84 85 87 88 88 89 88 88 93 93 93 94 95 96 96 97 93 93 96 83 85 60 94 225 234 208 207 135 141 35 4 30 42 102 132 141 191 54 229 248 231 179 40 64 82 90 86 88 89 85 83 89 85 79 80 76 77 84 73 74 80 69 89 85 98 72 80 127 133 101 38 197 252 254 254 253 254 253 252 253 247 253 251 251 241 200 212 222 238 237 235 229 224 228 227 218 222 224 219 223 208 214 253 183 39 86 81 77 83 77 85 82 81 81 81 81 80 79 76 75 79 98 22 5 2 213 255 219 251 179 145 118 153 121 103 100 98 84 58 53 35 31 37 42 50 59 20 33 71 80 109 126 127 131 135 120 121 102 96 88 74 53 53 35 34 131 236 225 152 68 42 66 73 74 78 86 51 0 1 10 101 192 183 160 191 185 188 151 177 131 174 187 164 164 179 173 38 138 49 130 191 200 
195 186 129 110 144 125 141 145 140 148 143 129 137 140 121 148 158 136 103 92 90 68 63 173 169 158 157 150 99 67 41 45 24 140 189 112 90 89 42 59 54 77 131 95 84 103 87 51 67 67 26 191 252 205 
4 18 6 29 74 197 87 58 70 19 2 109 135 166 189 193 195 207 193 210 205 201 212 197 191 204 204 185 51 85 116 117 192 172 11 182 250 241 243 250 226 163 249 248 254 242 222 231 231 210 177 55 85 111 105 105 122 189 198 182 190 231 239 232 225 221 251 181 144 146 207 178 80 83 79 86 56 77 138 143 186 118 129 90 93 78 24 79 248 208 230 225 202 193 202 223 204 181 147 67 43 145 232 151 189 52 0 82 255 191 139 211 24 42 251 200 141 126 90 209 255 144 81 83 87 87 74 78 100 106 110 143 106 88 78 69 78 65 59 72 57 47 27 12 22 57 44 49 64 49 63 61 54 61 100 149 157 129 145 148 133 122 117 153 168 154 135 128 119 85 88 113 124 116 212 228 180 159 145 184 199 118 122 183 117 174 163 160 167 2 3 42 116 171 110 115 215 196 203 204 207 208 199 206 201 202 214 193 198 223 217 215 212 152 158 202 214 206 205 209 163 177 202 207 202 198 214 238 92 91 38 11 80 71 66 68 68 65 64 71 77 70 67 71 74 72 72 74 77 75 76 70 76 74 60 98 251 204 249 236 234 194 253 253 254 254 254 252 251 250 250 249 246 246 251 167 84 118 179 221 240 177 70 39 46 72 251 216 253 129 38 92 78 78 92 82 88 81 76 82 75 73 70 65 234 218 199 126 99 84 89 116 158 106 206 216 199 149 108 69 66 41 73 238 175 30 25 92 74 77 76 79 82 86 92 93 91 93 93 91 90 90 89 86 85 84 83 83 83 82 81 79 80 80 81 80 79 79 80 81 81 80 79 78 78 78 79 80 81 80 79 79 80 81 80 80 82 82 82 82 83 84 85 85 84 85 87 88 89 89 88 88 93 94 93 93 94 94 95 95 96 94 88 89 115 162 231 224 232 205 9 19 13 135 89 17 16 56 57 55 54 68 93 91 223 250 236 62 72 93 80 90 90 90 85 83 85 89 87 78 80 73 91 66 77 74 73 91 35 36 147 98 69 111 115 173 249 243 239 240 242 241 240 240 240 243 236 249 249 230 242 236 243 240 236 230 227 233 234 226 233 228 223 233 222 223 255 216 43 80 82 79 83 79 83 80 80 80 81 81 80 78 77 76 80 88 21 4 6 38 48 80 35 56 91 84 108 119 144 148 163 179 197 210 243 238 208 210 210 224 221 227 238 223 190 224 211 218 209 214 210 208 211 215 219 233 239 241 246 248 165 60 52 50 64 72 76 76 73 81 55 0 0 2 94 191 187 171 190 199 196 133 193 62 183 203 172 157 171 174 28 136 148 176 96 
110 124 72 93 167 116 140 131 149 146 141 138 136 140 133 141 159 161 148 132 127 122 99 101 179 174 167 145 143 148 159 134 87 118 173 182 105 44 60 76 85 83 78 76 58 46 86 118 79 73 66 11 185 248 212 
15 2 6 60 8 220 162 58 76 51 45 157 136 201 237 244 241 196 207 213 168 221 234 229 243 242 253 243 152 171 204 154 193 215 104 185 249 241 237 233 224 208 251 64 92 179 212 241 226 186 188 40 91 172 145 129 183 199 202 201 204 226 226 234 246 238 252 214 158 112 200 187 130 95 79 81 91 60 77 109 97 135 171 125 57 86 27 43 228 251 241 240 205 201 207 225 198 179 130 41 51 96 210 188 197 46 2 82 249 193 131 224 38 44 253 199 149 92 81 204 247 141 93 97 86 112 93 86 87 39 81 98 66 74 45 46 45 57 55 65 74 67 48 43 24 42 23 63 76 85 71 69 63 92 113 147 171 141 140 148 134 145 120 160 163 139 135 116 83 57 51 55 66 80 217 232 200 166 143 188 188 125 122 165 130 180 173 141 152 2 1 146 197 105 98 166 220 196 205 201 208 209 203 209 206 205 213 194 200 172 200 225 199 133 150 147 197 203 192 206 188 203 218 202 211 203 192 228 158 71 59 2 73 72 64 66 70 70 67 72 74 72 71 71 72 73 74 74 77 75 76 71 72 77 51 114 249 123 224 173 125 95 218 252 246 245 245 248 250 252 251 249 254 253 253 206 118 107 138 117 119 205 253 146 13 34 246 172 185 191 37 74 71 86 71 78 75 80 84 87 80 75 79 54 108 253 100 2 118 113 34 22 34 17 23 12 24 15 38 28 22 93 53 31 5 45 71 73 76 83 81 79 83 87 87 90 93 94 93 92 92 92 89 86 84 83 82 82 82 81 80 79 81 81 81 81 80 80 81 82 80 80 80 79 79 79 79 79 80 80 81 81 80 80 80 81 81 81 81 82 83 84 85 86 85 86 87 88 89 90 90 90 91 92 91 92 93 93 94 94 90 92 90 72 44 2 185 237 247 147 24 57 38 205 176 137 71 67 60 117 173 58 109 101 245 230 247 224 52 79 90 89 78 87 87 83 84 86 83 81 86 73 70 81 76 78 83 11 20 156 87 63 84 131 141 182 254 246 240 241 243 243 244 242 234 241 240 250 230 224 251 243 245 240 236 232 231 236 238 231 234 242 233 233 223 236 255 241 51 72 83 81 82 83 81 78 79 79 79 79 79 79 78 78 76 94 76 44 46 17 6 5 7 6 1 2 3 5 2 5 5 3 2 4 70 77 10 4 4 4 4 5 6 15 25 30 55 66 77 69 74 96 95 103 114 102 91 81 63 17 25 56 65 77 81 72 75 69 66 90 43 0 14 25 118 208 187 162 200 203 192 122 200 87 192 191 168 160 186 161 54 100 181 101 162 174 186 25 74 146 139 129 140 153 149 149 149 139 139 
143 141 155 149 143 142 141 134 116 90 172 181 166 142 152 134 83 110 179 142 196 169 116 109 75 80 101 83 62 66 49 54 109 110 84 74 71 13 190 248 213 
97 70 61 118 79 223 196 135 129 63 86 90 60 140 70 25 58 67 74 46 17 63 78 157 85 86 87 96 124 85 104 112 146 80 17 219 254 230 247 240 246 241 252 29 3 141 215 233 224 190 182 107 132 192 174 168 167 188 189 165 174 228 217 187 101 153 151 157 146 103 162 156 96 120 98 38 68 51 114 151 89 77 97 110 120 71 53 34 227 126 92 144 194 200 217 222 201 182 153 32 44 107 235 163 201 100 1 80 252 189 177 175 10 52 252 187 133 57 70 194 255 131 97 96 78 105 133 101 41 38 37 32 56 62 44 72 53 46 67 45 43 81 75 96 64 16 49 63 103 113 99 77 86 113 119 137 164 142 140 145 141 136 117 138 155 151 94 128 225 231 234 202 51 44 216 218 211 162 142 176 186 182 126 168 100 143 152 162 169 11 80 193 109 144 209 212 207 214 193 214 209 210 207 211 208 207 211 198 198 175 185 216 217 141 95 65 151 149 185 229 199 192 211 207 206 204 204 211 186 65 105 3 64 74 63 67 70 72 70 72 67 80 84 75 68 72 76 74 71 72 76 73 72 81 41 125 254 149 242 172 170 155 246 250 251 253 253 253 248 246 248 253 253 252 250 249 250 251 248 254 241 175 194 251 204 3 168 211 187 250 39 62 84 74 83 89 81 78 83 70 84 81 69 66 53 36 43 57 110 149 16 73 5 5 57 27 2 2 3 3 7 1 7 20 54 55 71 83 77 85 88 80 84 87 82 87 91 92 92 92 93 94 92 89 83 82 82 82 82 81 80 78 80 81 81 81 80 80 81 83 79 80 80 80 80 80 79 79 79 81 82 82 80 79 80 81 81 81 81 82 82 83 84 85 85 86 87 88 89 90 90 91 88 89 89 90 92 94 95 95 94 95 82 93 107 12 6 214 229 185 52 3 41 210 161 204 168 35 49 87 94 98 111 119 250 176 154 253 100 63 79 84 83 86 86 84 85 82 76 84 85 78 87 67 75 94 26 6 235 172 173 132 5 17 100 146 253 247 242 242 243 243 243 244 237 247 250 251 207 205 247 240 240 235 233 234 233 236 235 228 234 242 231 227 217 231 240 249 58 68 82 83 82 84 79 79 80 78 78 79 79 78 78 78 81 79 87 89 84 92 105 80 53 40 71 119 103 33 46 82 52 106 177 160 148 181 198 233 215 41 59 75 42 35 45 51 31 35 90 73 72 62 49 79 109 74 95 112 125 110 82 51 62 68 67 66 72 61 54 77 42 0 10 14 109 202 180 159 196 180 170 135 194 89 173 193 163 147 189 158 32 63 250 156 117 106 99 169 206 98 141 129 142 149 
147 147 148 134 132 144 139 158 154 149 148 139 133 125 106 179 187 184 182 179 109 4 73 193 118 184 192 115 93 92 67 81 78 57 75 106 144 62 89 80 77 77 28 196 250 210 
129 103 86 97 87 223 243 195 147 99 70 106 112 132 113 55 85 131 111 97 81 75 96 145 72 87 90 84 62 73 100 65 96 108 52 210 246 235 229 240 229 238 253 115 30 117 215 239 226 245 239 254 250 240 254 242 213 203 212 221 216 225 214 217 195 201 159 177 218 136 101 130 134 92 122 96 98 129 134 78 38 72 85 100 74 77 98 43 89 31 15 71 165 147 226 221 188 180 152 33 24 120 238 174 182 72 40 100 239 188 179 77 1 45 254 203 140 93 94 209 255 130 94 111 104 103 132 78 57 66 78 53 55 68 53 46 56 43 48 57 38 40 63 37 58 76 38 39 113 121 84 109 119 131 136 143 148 130 139 138 135 149 128 143 152 139 111 251 253 252 245 245 252 61 176 218 218 179 142 163 183 220 129 175 120 173 149 181 130 4 189 113 134 214 229 214 206 202 206 201 208 209 206 209 209 209 211 205 189 221 215 203 198 147 125 167 179 210 215 198 198 212 203 216 208 203 204 213 231 86 95 3 56 78 65 68 69 73 68 69 73 81 87 83 75 71 72 73 70 71 75 74 72 82 38 135 254 158 236 175 161 110 221 251 249 250 250 250 251 253 254 254 254 249 251 190 98 219 255 252 251 253 181 166 251 178 86 253 203 224 103 53 67 79 79 70 78 80 86 68 76 75 75 85 79 72 65 62 59 15 41 61 9 45 66 64 86 115 154 201 178 214 228 203 141 86 31 56 66 74 85 79 81 86 82 87 89 91 91 91 92 93 92 90 83 82 82 82 82 81 80 79 78 79 80 80 80 80 81 82 79 80 81 81 81 81 80 79 79 81 83 82 80 79 80 80 83 82 82 82 82 82 83 83 84 85 86 88 89 90 91 91 88 88 88 90 91 93 94 94 92 79 96 81 77 103 21 4 176 248 245 239 119 82 52 64 96 9 109 130 61 37 23 75 230 247 247 146 59 85 98 85 91 84 86 81 83 88 79 81 75 76 83 80 91 14 3 178 238 205 202 141 87 44 110 146 249 248 244 242 242 241 243 245 241 243 245 247 216 214 251 236 233 228 232 235 234 233 229 222 229 221 209 222 216 210 213 246 62 70 82 83 81 83 80 81 80 80 79 79 79 79 78 77 78 78 74 74 67 70 80 75 64 162 172 192 218 4 9 129 122 56 128 239 236 238 233 247 232 220 241 231 237 225 234 234 227 222 206 163 187 221 207 180 232 218 219 220 176 48 112 79 57 64 79 82 79 73 71 81 46 1 4 1 97 198 178 163 167 190 155 90 185 81 184 176 169 161 165 159 9 61 254 251 245 
253 251 244 186 117 141 136 136 149 150 140 140 142 138 141 141 162 164 160 156 144 135 128 105 178 192 196 186 166 165 168 171 157 126 183 166 90 113 96 65 62 58 39 68 106 168 112 97 90 84 70 33 193 252 207 
197 182 155 96 70 196 240 237 247 246 249 249 242 247 250 254 253 251 244 255 252 252 254 244 248 254 242 254 254 254 254 253 253 249 250 224 218 241 242 236 236 233 239 250 244 210 212 226 226 236 254 255 254 244 248 243 238 229 231 243 234 236 233 244 242 255 247 241 242 136 106 77 64 74 93 159 110 83 82 27 98 122 135 117 110 50 61 109 54 72 117 92 119 23 213 213 191 176 151 42 48 110 215 173 181 70 34 49 240 203 186 120 3 70 247 205 144 84 78 197 254 154 81 101 98 97 129 122 130 157 127 43 63 76 27 67 68 68 72 51 58 69 62 58 51 60 63 61 111 78 98 127 107 116 136 154 150 131 149 141 143 161 114 158 173 118 124 253 252 251 249 253 252 64 146 219 228 209 142 157 178 201 121 168 94 153 157 200 108 56 161 100 200 234 175 150 212 201 209 208 210 211 207 206 208 209 209 209 182 202 210 215 212 207 203 213 220 201 203 202 208 220 211 216 226 225 210 197 184 91 237 4 41 77 64 69 69 74 70 71 79 70 71 85 86 76 73 77 74 72 75 74 72 81 43 140 251 161 242 170 148 120 246 250 252 252 252 254 253 253 252 251 253 249 251 171 4 162 247 250 252 244 195 176 189 228 178 246 246 253 125 44 90 74 76 86 72 78 82 84 77 73 84 61 73 63 77 48 32 108 147 159 212 222 240 236 231 239 247 247 189 175 215 202 224 227 189 60 69 65 83 82 78 87 83 87 89 92 93 91 89 89 89 87 84 83 82 83 83 82 81 80 78 79 80 80 80 80 81 82 79 80 81 81 82 81 81 80 80 81 82 82 81 80 79 79 83 83 82 82 82 82 82 82 83 84 85 87 89 90 91 91 91 91 90 90 90 90 90 90 96 91 89 84 83 77 100 35 2 66 168 246 250 233 185 154 99 44 169 67 64 136 179 105 247 236 95 37 63 73 72 65 71 72 90 84 78 88 80 77 89 70 75 96 37 17 206 220 210 197 147 215 251 154 116 158 252 252 248 246 245 245 247 250 242 242 245 248 235 219 248 233 230 225 231 238 235 231 226 221 244 236 230 239 236 233 238 252 57 74 81 81 83 81 82 84 81 81 80 80 80 79 79 79 67 77 81 73 80 74 81 70 26 246 170 144 215 53 9 112 205 74 121 237 208 216 219 216 230 203 84 235 223 234 228 228 228 215 161 207 209 203 197 191 201 203 205 195 234 123 48 70 86 66 74 80 67 60 66 82 42 1 11 5 109 212 181 164 185 187 133 81 221 106 
178 196 175 170 170 158 13 75 247 253 244 248 249 254 147 113 152 140 139 137 147 147 143 142 141 148 139 158 160 159 155 147 138 124 114 187 190 189 198 180 171 172 166 169 143 204 173 102 121 103 81 69 60 51 76 44 38 103 95 91 76 57 29 188 252 206 
193 198 211 170 79 63 102 152 206 232 244 248 249 251 253 231 247 253 252 240 247 248 229 242 246 246 245 236 232 236 244 238 235 246 250 240 242 248 243 237 231 234 225 226 235 231 237 225 230 204 240 211 230 254 247 253 254 255 243 249 244 245 240 241 238 243 245 251 222 134 177 153 67 144 181 207 166 136 73 71 147 93 83 49 23 99 159 172 73 26 120 239 192 139 175 180 188 143 122 12 13 99 254 166 195 104 23 46 234 169 192 87 13 89 239 208 154 84 69 189 245 160 88 107 96 101 128 152 156 156 87 69 109 103 57 37 35 72 67 53 79 79 78 73 82 55 39 99 147 127 78 93 113 106 120 147 153 140 159 150 146 144 119 140 160 127 171 246 97 84 78 177 249 74 169 228 221 198 134 155 182 170 119 170 120 156 147 158 106 113 67 157 253 208 141 114 198 210 195 209 214 213 208 202 205 208 206 213 192 199 208 204 211 208 206 211 203 225 231 222 224 222 205 194 159 126 95 120 91 144 133 1 28 74 63 71 68 75 73 72 73 66 66 77 84 81 77 77 75 72 75 75 74 78 47 133 246 138 226 159 175 130 221 252 251 254 254 254 253 252 253 254 253 251 248 166 7 141 254 247 248 238 182 180 159 249 186 112 155 79 58 66 80 81 77 71 88 75 66 76 79 78 66 52 41 88 111 122 198 239 245 247 236 227 225 223 227 213 212 241 114 116 141 201 231 183 226 222 87 65 81 84 77 87 83 84 88 93 94 91 87 86 86 85 85 84 84 84 84 84 82 80 80 81 81 81 79 79 80 81 80 80 81 81 81 81 81 81 81 81 82 82 82 81 80 78 82 82 82 82 82 82 82 83 82 83 85 86 88 89 90 91 92 92 91 90 90 89 89 89 89 89 79 85 90 84 66 85 67 20 8 7 49 115 97 137 169 118 114 66 82 141 114 74 63 11 32 65 67 74 71 91 94 69 84 87 76 80 76 79 78 88 100 66 10 29 185 225 200 192 138 194 221 112 73 119 253 248 243 243 243 243 244 245 240 247 251 247 247 213 239 236 230 226 230 237 235 229 227 226 236 239 238 232 229 238 248 222 48 79 81 81 85 77 82 83 82 82 81 81 80 80 81 80 88 72 70 77 80 67 81 81 21 170 129 143 179 126 12 110 187 48 124 243 212 217 217 230 211 214 188 215 216 211 210 213 218 205 142 203 203 212 201 201 206 216 199 216 193 239 160 44 86 61 67 79 73 64 65 83 45 1 6 1 105 214 182 168 181 195 149 97 210 116 
186 199 169 152 185 168 24 84 252 253 254 254 254 245 98 136 144 139 139 118 137 154 144 133 131 147 141 158 164 158 147 145 144 128 122 197 190 165 175 180 183 171 163 153 141 211 146 103 94 117 101 67 60 40 72 62 39 73 82 86 63 50 25 191 250 205 
209 201 191 215 207 127 84 30 37 44 82 108 168 196 239 233 221 241 241 252 242 236 237 236 235 234 241 250 240 246 241 245 242 245 236 242 248 237 243 245 241 251 244 238 234 227 216 222 216 214 220 180 148 148 178 226 234 246 239 255 254 248 243 240 240 244 235 243 253 246 254 253 219 199 183 180 199 199 121 87 115 26 20 39 120 184 216 212 166 114 95 127 223 230 234 228 192 191 156 65 13 61 205 160 180 105 57 46 237 196 181 97 1 32 234 206 151 122 85 190 254 154 93 101 85 99 125 143 151 143 136 121 90 83 81 107 81 49 67 60 54 69 86 80 123 152 141 180 169 125 124 170 203 164 137 144 151 138 150 140 139 153 115 147 170 107 159 79 2 162 24 86 253 61 180 226 222 177 134 154 188 153 108 164 111 191 149 125 129 104 58 181 241 218 159 105 148 213 204 205 210 209 207 202 208 210 210 219 198 184 212 214 222 219 230 225 223 202 172 149 114 88 84 57 64 71 43 11 25 9 2 8 24 77 66 73 66 72 70 70 68 75 76 69 71 80 79 69 71 71 77 80 78 76 47 123 253 111 239 168 178 155 243 254 254 251 249 249 250 251 251 251 248 254 252 250 234 224 252 254 253 226 164 122 240 223 1 7 21 57 65 79 69 79 78 77 77 74 84 75 72 75 67 145 198 110 44 211 94 162 235 219 225 214 229 218 223 224 225 240 146 102 163 156 227 184 189 237 96 61 77 83 75 89 86 83 86 91 94 90 86 84 85 86 85 85 84 85 85 85 84 82 81 83 82 81 80 79 80 81 80 80 81 81 81 81 82 82 82 81 81 82 83 81 79 77 81 81 81 81 82 82 83 84 80 81 84 85 87 88 89 90 90 91 90 90 90 90 90 90 86 65 81 76 77 76 67 72 83 98 108 99 61 13 43 26 21 68 123 91 88 97 86 112 123 149 168 154 149 164 187 182 166 82 66 78 79 81 75 82 81 78 64 8 3 5 5 157 250 185 153 167 146 107 65 103 252 249 242 243 246 247 246 245 241 244 244 239 254 214 242 245 231 226 229 235 231 226 229 231 242 236 238 236 231 232 244 203 40 82 79 82 87 75 81 82 82 82 82 81 81 81 81 82 71 85 73 77 74 75 76 85 20 159 178 99 159 208 13 95 187 57 142 233 217 233 217 226 208 215 235 229 218 204 214 217 217 198 167 189 187 206 187 199 203 199 200 206 165 183 235 141 58 65 76 67 65 72 71 78 44 1 8 1 109 218 182 165 189 183 127 106 192 62 192 
170 157 180 165 174 92 86 134 179 210 182 172 138 114 139 140 135 138 123 147 155 141 140 138 140 141 160 167 157 135 135 143 130 119 181 192 189 184 171 194 213 177 179 153 208 170 116 101 110 107 107 101 66 129 108 97 109 89 96 59 51 21 196 249 205 
207 210 202 197 220 226 168 91 97 82 66 54 41 38 63 95 102 127 178 233 246 241 249 252 253 239 248 239 236 239 232 242 243 230 241 246 232 237 250 236 237 244 239 242 246 246 243 242 235 227 223 228 224 211 205 204 205 216 221 204 193 220 246 245 248 238 240 236 234 240 244 252 253 254 246 237 237 254 245 146 155 86 78 232 250 246 240 244 253 255 232 195 194 229 250 247 243 255 250 252 231 190 167 138 150 57 17 42 240 201 186 127 36 87 198 194 165 79 68 188 255 161 93 88 83 89 121 133 146 150 128 103 48 85 111 112 85 77 79 55 79 76 75 60 102 187 195 215 152 86 184 220 216 197 145 169 144 148 142 135 140 152 125 140 165 115 132 91 77 150 143 219 200 68 180 224 224 189 136 163 190 184 133 179 131 177 159 160 104 37 166 118 202 236 194 150 167 205 224 205 212 214 226 222 228 208 192 196 200 214 220 213 206 182 139 105 81 68 45 21 30 9 2 7 7 6 5 6 2 11 32 55 70 68 67 68 67 69 70 71 73 74 74 73 74 75 73 71 74 75 75 79 78 76 46 137 252 138 251 151 138 146 249 254 249 255 253 246 251 251 250 254 254 253 250 254 252 250 252 246 250 155 127 245 226 1 8 89 77 75 74 74 76 77 80 81 82 60 139 145 50 86 45 191 210 210 152 203 103 124 243 226 232 223 225 226 223 228 224 240 140 126 123 164 204 186 239 119 23 84 70 80 86 79 89 81 88 94 95 90 87 90 92 90 90 88 85 83 83 83 83 83 83 83 83 83 82 82 82 82 79 79 79 79 79 80 80 81 81 82 83 83 82 80 79 78 80 82 83 83 81 80 82 84 85 83 81 83 87 89 88 86 86 88 89 89 81 93 75 75 93 132 118 114 147 182 154 161 140 146 130 161 182 161 158 168 165 154 167 163 167 180 184 162 158 153 175 165 162 182 171 161 176 96 65 81 80 79 74 82 85 69 65 21 8 12 3 1 207 211 125 208 215 150 72 111 254 253 252 253 253 253 253 252 254 254 247 254 254 229 248 234 229 237 238 203 215 228 228 235 237 246 245 244 251 247 254 198 44 89 75 89 75 83 86 80 82 82 81 79 78 79 82 84 76 77 77 78 76 76 77 79 47 79 235 169 137 173 19 62 187 47 156 241 212 228 223 230 198 217 212 221 234 230 232 218 226 216 152 195 194 189 199 201 197 198 199 209 172 185 235 157 47 42 64 79 75 66 73 99 41 0 3 8 97 214 178 160 154 173 118 
101 192 72 186 207 150 166 169 161 103 104 60 56 60 62 90 131 149 140 149 143 135 151 159 161 148 131 137 143 138 162 165 154 138 137 141 132 139 182 198 177 187 196 186 197 183 175 168 208 158 118 128 131 122 142 153 66 107 101 120 87 83 63 66 63 17 194 246 213 
207 213 211 203 199 208 219 224 184 148 105 82 77 78 77 75 61 54 49 5 41 116 154 192 222 245 242 243 248 246 247 228 230 238 240 231 233 241 227 235 239 230 245 235 236 238 238 239 244 245 247 242 238 236 224 217 210 212 216 202 176 175 200 219 219 235 232 252 255 240 245 235 237 230 239 254 245 236 248 255 191 120 103 230 254 239 246 234 243 249 253 253 252 251 246 240 239 246 235 249 252 241 239 222 197 151 71 48 207 193 164 122 53 160 198 222 153 91 69 176 253 168 91 93 86 105 125 135 148 103 63 98 116 132 97 61 40 84 75 80 84 82 62 45 103 187 185 188 144 83 135 200 194 189 159 162 150 140 143 158 150 154 114 153 168 122 134 251 249 253 248 175 224 110 157 229 232 192 147 170 176 162 120 139 113 168 155 157 125 4 75 202 89 166 229 241 187 211 220 211 199 188 180 146 145 209 169 165 120 157 137 98 74 37 4 15 4 4 7 57 97 60 11 24 42 57 86 49 62 78 76 73 67 68 69 68 67 67 70 70 74 74 74 73 74 75 73 72 71 69 74 76 77 80 53 94 218 214 234 244 243 221 254 250 254 248 251 235 236 228 239 223 236 252 254 95 121 123 133 152 194 227 251 143 0 25 95 65 74 74 73 73 75 77 78 79 86 76 70 75 72 80 44 130 213 186 204 199 154 137 248 219 226 225 227 229 221 222 212 241 125 92 149 152 205 232 113 13 85 71 82 79 79 75 87 85 90 94 93 87 85 88 89 87 92 90 88 86 85 85 84 83 82 82 82 82 83 83 83 83 81 81 80 80 80 80 80 81 81 82 83 83 82 80 79 78 81 82 83 82 79 79 81 83 83 82 82 84 87 88 87 87 82 86 86 77 93 69 97 122 112 99 111 152 200 101 96 112 108 103 90 107 157 170 175 163 149 165 157 96 132 171 151 156 159 158 145 128 148 179 176 160 175 111 57 79 85 83 75 75 81 88 97 78 6 10 16 0 4 128 83 179 237 228 157 172 253 252 252 252 250 252 253 253 252 254 254 240 251 230 245 254 248 254 250 249 249 250 249 253 252 244 241 239 215 201 210 139 26 73 81 81 83 89 81 79 83 83 83 82 81 80 80 81 79 78 77 78 78 78 77 76 80 20 197 153 90 176 14 72 168 51 164 236 223 222 212 203 211 218 205 88 140 133 199 235 225 217 162 176 196 197 182 203 206 203 197 219 152 214 229 77 73 70 78 73 66 69 75 90 42 1 10 4 109 218 192 169 167 187 127 114 204 
121 192 187 169 172 164 160 83 153 110 119 117 123 148 144 142 146 150 137 143 152 155 155 142 131 140 148 153 176 170 157 146 154 152 134 144 196 192 196 200 191 200 186 179 162 169 210 160 142 119 120 111 145 145 86 122 77 78 63 67 80 40 47 9 195 254 215 
215 208 206 211 209 204 207 216 216 223 215 177 131 95 73 64 76 56 77 59 64 48 32 25 29 165 206 197 213 222 231 253 254 252 239 250 239 237 230 239 228 220 219 217 225 229 224 227 226 229 223 226 233 240 246 238 240 223 220 229 226 214 203 195 197 194 131 140 209 229 239 254 251 250 247 230 229 235 232 238 255 221 78 208 251 237 230 232 235 231 231 236 236 231 231 235 243 242 229 236 242 241 250 243 254 254 254 227 203 171 157 84 14 138 186 218 161 85 84 188 255 172 88 81 88 105 124 133 139 151 92 84 91 67 90 63 52 55 78 87 81 94 90 90 152 191 195 197 144 112 135 187 199 201 179 150 157 142 143 154 138 168 114 143 160 136 123 254 254 252 251 149 204 94 138 222 206 183 140 158 172 157 139 165 124 166 149 150 136 2 4 114 159 82 94 166 162 174 168 180 149 119 96 76 77 152 111 94 44 29 26 21 3 83 165 177 109 108 139 201 212 199 170 165 173 187 187 163 90 60 73 59 66 67 70 70 69 69 71 72 73 73 74 74 73 74 73 73 66 74 83 71 70 77 67 56 16 5 3 9 7 8 29 43 37 41 91 94 100 91 103 93 84 110 121 135 134 188 193 211 174 115 14 2 53 77 65 69 72 73 72 73 75 76 76 77 67 82 79 70 81 78 50 135 190 157 170 158 166 190 238 224 224 221 229 220 214 227 228 242 179 123 220 220 172 69 1 46 59 79 79 70 76 80 78 98 93 93 90 85 85 88 89 87 92 91 89 88 87 85 84 83 82 82 82 82 83 83 83 83 83 82 82 81 81 80 81 81 82 82 83 83 82 81 80 79 81 82 83 82 80 79 80 82 80 82 83 85 87 88 86 85 86 84 87 99 65 100 128 150 171 218 191 161 198 100 90 110 110 103 93 92 130 154 161 148 160 144 153 137 159 163 142 159 151 161 145 145 163 165 165 164 182 146 57 78 82 82 79 79 72 84 81 82 98 21 2 17 5 6 117 133 82 149 178 133 159 124 109 121 107 104 72 64 63 25 23 33 194 194 187 156 137 121 76 72 50 31 20 12 11 17 26 37 50 79 141 172 142 75 79 85 78 79 83 83 82 83 83 84 84 82 80 78 82 79 78 79 80 80 77 74 78 66 31 198 221 247 10 87 178 54 184 234 222 221 214 202 206 247 225 91 70 130 177 242 243 225 151 210 208 208 192 215 209 209 181 172 216 231 91 40 90 65 64 75 72 63 70 101 45 1 10 4 110 220 195 172 191 185 140 127 175 111 202 208 158 171 181 161 102 127 
81 109 110 105 145 141 134 138 146 141 141 148 150 155 147 135 140 144 155 161 151 154 153 157 146 127 127 215 184 192 201 178 203 182 171 167 160 222 163 126 108 90 78 71 150 148 105 38 46 55 38 36 9 9 13 204 239 212 
214 213 212 211 210 206 201 198 202 200 200 211 224 213 167 122 68 51 68 80 101 93 75 51 88 214 191 172 179 176 178 169 169 194 192 235 235 243 251 249 243 251 249 251 251 246 235 248 245 230 246 234 231 238 220 235 254 252 247 244 240 239 233 225 217 215 208 192 183 178 170 180 193 214 237 249 255 255 245 236 240 248 202 158 237 233 234 232 235 236 235 231 231 236 238 237 229 236 232 235 234 232 241 240 238 240 242 249 240 246 243 203 165 134 171 197 156 66 81 188 250 176 108 67 85 91 125 126 132 143 109 91 94 81 68 81 96 79 75 88 101 147 178 198 194 196 198 203 140 139 148 166 176 181 173 135 147 151 153 151 143 157 111 147 157 110 126 250 244 251 250 164 215 90 149 221 221 217 151 149 176 140 119 164 134 167 148 163 150 4 2 24 68 122 140 115 123 105 62 66 66 55 36 25 11 11 22 3 25 38 47 64 72 153 189 168 168 176 163 156 150 144 142 156 148 151 140 144 116 27 59 82 69 68 67 68 71 73 74 74 73 72 72 74 74 74 74 76 79 73 72 70 84 67 71 62 75 82 71 109 76 74 85 99 83 76 91 95 118 140 143 157 181 197 195 230 250 213 211 193 151 74 11 21 66 75 64 74 71 71 71 73 74 75 76 76 82 76 75 81 74 78 48 98 204 137 215 198 168 83 245 234 235 248 229 245 236 231 211 220 186 161 165 134 54 100 155 94 70 38 60 84 78 88 85 84 91 90 88 86 88 92 92 89 89 88 87 87 85 85 83 81 82 82 82 82 83 83 83 83 83 83 82 81 81 81 81 81 82 82 83 83 81 81 80 80 81 82 82 81 80 79 79 80 81 83 85 87 86 86 85 86 83 83 94 48 76 144 157 239 227 201 191 222 201 111 107 101 111 108 109 107 122 144 154 154 153 137 149 152 143 141 158 144 154 159 158 162 163 156 157 170 174 166 57 79 79 76 79 83 84 71 78 75 93 86 4 4 5 9 12 78 123 104 83 62 57 64 58 47 44 49 53 24 22 24 11 14 6 8 7 6 23 44 62 92 102 124 155 171 183 196 202 208 217 210 203 224 221 60 66 88 85 75 81 79 83 82 82 83 85 84 81 79 83 81 80 80 80 79 76 74 75 84 41 26 241 137 9 85 176 56 209 249 237 242 227 219 193 180 123 156 179 118 203 183 195 172 175 188 187 182 194 149 190 211 218 238 225 44 62 101 68 64 67 65 68 77 83 93 47 3 2 7 97 218 182 164 186 184 137 107 203 112 191 212 172 150 165 178 
89 100 38 91 111 66 102 126 125 135 159 126 141 145 147 154 151 140 143 144 142 147 138 145 152 160 145 119 109 231 199 189 201 179 190 185 171 189 190 210 120 78 88 82 103 157 184 164 148 121 124 110 99 95 92 150 164 209 231 221 
213 215 214 208 206 209 213 214 207 212 211 204 197 200 211 222 209 176 133 73 73 81 58 86 137 247 247 220 177 166 152 136 156 146 125 182 207 160 77 67 147 138 165 174 203 226 222 222 226 244 241 249 245 238 247 245 175 200 219 224 228 236 240 239 235 242 235 222 226 213 186 191 163 155 141 148 153 176 222 233 253 253 250 224 228 233 222 231 221 229 233 230 230 234 233 226 234 239 238 238 235 229 233 234 228 245 235 238 248 247 241 252 250 242 219 193 170 99 52 151 248 167 90 45 71 87 126 125 91 130 150 133 183 117 104 82 82 155 77 118 135 167 184 182 194 206 194 193 135 142 138 138 149 153 162 146 143 150 157 155 158 144 109 154 163 108 133 254 253 254 253 143 225 105 142 216 215 213 146 151 191 153 115 154 165 165 138 175 182 2 4 50 37 49 56 63 63 77 95 116 148 167 182 218 252 248 251 186 56 101 101 110 128 160 146 147 145 145 176 196 174 148 155 145 150 148 165 194 86 17 12 59 77 72 67 66 71 74 74 72 73 72 73 75 74 72 74 78 81 74 71 74 79 45 140 248 204 249 249 185 230 241 237 233 241 234 250 246 248 254 252 254 249 251 251 251 247 188 152 198 223 250 249 182 34 38 75 69 72 72 73 73 75 75 76 76 75 77 62 78 70 68 68 72 204 179 181 142 196 74 212 177 184 171 170 149 139 84 128 60 93 86 108 89 111 106 180 199 204 190 64 51 77 76 92 94 88 87 86 87 90 93 91 87 86 86 86 86 85 84 82 82 83 83 83 83 82 82 82 82 82 82 81 81 81 81 81 82 82 82 82 82 81 81 81 80 82 82 81 81 80 80 80 81 83 85 86 86 85 84 85 87 87 92 67 37 211 138 231 206 171 190 209 107 106 163 91 114 119 114 104 101 113 146 150 147 152 167 161 144 146 145 161 163 151 145 162 160 160 171 163 155 161 163 54 81 82 77 77 77 78 93 67 81 72 79 91 26 1 2 3 6 7 31 66 50 50 68 76 79 66 72 57 49 110 231 83 165 219 207 207 227 220 211 218 212 211 208 202 198 201 185 186 191 192 198 191 190 208 68 68 75 86 82 76 82 83 82 81 82 84 85 84 82 82 83 83 83 80 78 76 75 71 81 90 2 5 4 7 96 118 36 118 147 136 164 172 191 169 142 172 190 157 184 157 158 132 98 179 166 161 159 100 42 137 196 133 58 34 81 108 60 65 70 77 69 69 81 83 84 49 3 1 7 96 213 177 162 183 192 185 112 
196 80 192 198 158 169 167 167 50 93 165 112 98 152 169 177 199 138 125 138 147 146 141 148 146 139 147 151 138 157 155 142 145 157 152 122 110 213 211 199 201 187 173 183 182 167 208 207 164 189 222 254 241 206 150 149 229 252 234 249 246 252 250 245 217 208 208 190 
215 211 209 212 213 209 206 204 208 201 199 203 210 208 199 192 200 210 212 186 123 65 68 64 41 83 47 122 129 91 95 109 147 119 130 152 144 112 66 119 122 48 107 70 94 133 130 115 120 144 113 105 110 125 160 139 143 144 138 139 154 168 176 183 189 190 196 217 202 202 225 199 200 199 174 162 140 125 119 73 19 92 138 192 206 202 216 202 222 219 218 218 220 222 226 229 224 222 221 222 226 229 232 232 232 227 227 229 223 232 240 239 236 249 246 247 243 248 213 181 218 146 90 93 73 58 86 127 77 79 132 78 158 141 110 101 137 219 154 187 187 179 184 171 186 198 201 196 124 138 144 127 147 138 145 159 151 143 145 146 153 151 121 150 157 131 123 248 249 246 248 180 217 89 121 214 218 199 140 155 192 173 128 147 171 152 141 172 185 1 3 62 76 57 23 11 239 246 248 247 242 247 250 254 253 250 252 203 144 153 156 165 147 151 149 154 129 156 175 188 191 154 153 152 151 153 160 175 135 21 8 39 79 74 68 67 70 73 72 70 73 71 72 75 74 73 76 80 75 76 70 72 83 41 133 252 140 210 218 180 206 229 103 88 104 122 248 254 252 245 254 244 248 254 247 244 247 159 62 157 148 182 174 248 239 47 40 64 73 73 72 73 75 75 76 76 70 78 79 69 81 67 52 41 186 179 87 75 128 179 150 123 130 122 133 88 69 75 50 202 230 195 191 170 156 156 160 165 91 185 241 85 61 85 82 78 86 85 85 87 90 90 88 85 86 86 86 87 86 86 84 83 83 83 83 83 82 82 82 82 82 82 81 81 81 82 82 82 82 82 82 82 81 81 81 81 82 82 81 81 81 81 81 81 83 86 86 86 86 86 85 86 79 81 9 90 174 181 190 129 207 235 202 158 60 105 89 107 105 109 94 88 119 165 179 169 149 150 155 146 155 144 145 179 156 138 161 164 163 174 162 156 177 162 55 80 82 82 79 77 75 71 84 71 85 75 84 93 80 43 3 34 209 247 248 248 249 252 242 234 240 229 218 210 204 165 145 224 201 183 197 184 197 182 193 175 175 169 174 193 187 191 193 183 184 182 188 203 210 85 71 79 77 84 83 80 83 82 81 81 83 84 85 85 82 83 84 83 80 78 77 78 73 72 79 8 1 1 10 69 91 67 51 53 55 77 103 132 100 96 98 117 118 113 129 119 83 72 104 97 90 91 20 33 39 57 47 75 150 76 34 69 74 67 73 75 77 80 82 95 52 1 8 7 109 208 183 169 205 185 142 65 220 
124 193 200 156 156 167 148 1 214 251 221 252 255 252 254 246 147 132 134 142 141 138 147 145 136 142 146 145 156 160 137 136 125 135 121 131 193 208 210 202 197 179 194 191 174 199 205 208 244 224 153 37 120 180 178 170 201 207 192 219 174 176 204 207 216 194 211 
213 214 215 214 208 204 207 214 208 206 205 202 200 200 200 202 203 197 198 221 215 198 214 32 55 216 19 31 123 96 105 112 94 111 147 149 139 155 150 154 155 108 164 116 123 159 166 170 150 142 165 86 61 110 95 122 178 180 167 151 143 128 116 116 118 129 118 129 132 131 147 138 147 154 157 173 175 166 173 175 164 150 143 150 175 178 169 192 173 171 174 180 183 181 182 186 193 192 198 203 213 223 228 233 236 245 247 249 245 247 241 249 249 247 244 254 252 249 254 247 253 235 218 204 89 3 2 48 48 42 28 41 75 108 77 89 168 200 170 185 172 163 192 197 191 190 205 193 121 141 149 135 134 132 128 146 152 137 144 148 151 152 122 158 152 121 125 254 253 254 245 250 246 84 120 222 208 201 144 152 188 190 140 165 140 150 157 173 168 1 3 54 50 32 84 158 252 253 244 250 252 246 247 251 249 252 247 212 150 153 148 151 151 148 142 152 141 161 168 179 179 177 182 152 148 151 145 172 125 19 10 26 71 71 69 68 70 71 72 72 73 71 72 75 75 72 76 83 69 80 80 71 70 39 133 245 198 230 227 232 236 237 157 187 87 103 240 250 249 251 253 246 247 249 243 251 248 210 109 112 95 220 215 195 243 239 30 65 74 74 73 73 73 75 75 76 78 73 68 43 41 39 55 95 77 46 108 157 96 113 89 75 64 37 11 38 102 94 88 239 254 249 254 245 253 244 252 252 133 100 179 234 60 56 96 93 85 84 84 86 88 89 88 88 88 87 87 87 87 87 85 83 83 83 83 83 82 82 82 82 84 84 83 82 82 82 82 82 83 82 82 82 81 81 82 82 81 81 81 81 82 82 82 82 85 84 85 86 88 87 84 83 85 95 18 112 120 178 205 196 225 238 196 198 43 120 142 121 120 124 108 99 148 164 181 160 150 144 153 144 148 150 161 174 162 147 150 156 157 157 157 170 181 147 59 80 79 84 80 84 75 79 78 87 67 80 77 78 90 55 162 252 249 147 84 72 69 52 49 62 64 194 26 33 38 7 95 214 184 184 193 195 203 204 202 199 208 206 199 203 194 208 205 196 218 199 187 193 208 85 56 92 81 87 84 74 82 83 83 83 83 83 85 86 83 83 82 82 81 80 79 80 88 76 111 50 7 31 67 90 253 254 240 248 248 243 241 254 49 15 45 29 56 42 29 41 56 53 27 15 174 251 253 252 252 248 248 249 244 135 80 73 70 73 76 65 71 90 96 97 53 1 8 11 112 207 183 175 207 188 179 
109 177 116 169 203 153 143 177 149 3 208 243 247 250 248 248 255 251 139 118 142 139 141 142 152 149 135 138 142 147 150 153 118 128 110 122 97 139 217 214 218 218 205 186 202 209 191 191 223 135 53 81 82 31 121 87 65 112 173 211 187 190 157 147 180 202 216 225 207 
216 216 211 206 209 215 209 198 204 204 202 199 200 202 199 193 196 187 200 183 195 210 234 17 62 213 167 132 95 108 121 122 111 134 120 142 159 136 134 123 137 134 125 104 115 128 94 80 49 102 153 107 59 73 100 144 176 183 169 152 153 152 137 129 123 114 112 105 106 121 126 128 134 141 139 139 153 159 161 185 195 199 207 199 196 189 181 146 177 183 189 192 195 198 198 193 200 201 207 200 188 180 173 175 178 166 156 166 163 181 183 197 205 210 207 225 216 237 243 243 206 210 216 192 129 110 140 148 142 133 139 117 177 196 114 39 155 225 173 208 189 185 207 206 208 213 208 178 142 156 138 155 136 160 150 142 149 130 152 164 156 153 108 155 162 123 139 203 193 208 182 186 252 86 107 213 204 231 168 152 186 186 118 165 164 177 142 171 181 4 0 53 45 138 179 80 216 255 253 249 252 253 252 247 250 251 251 207 141 146 150 147 150 153 147 140 180 183 142 151 172 190 182 152 152 144 154 125 131 37 8 5 61 65 69 71 69 70 72 75 72 71 71 76 75 72 76 83 79 67 70 79 75 41 132 251 173 224 238 165 126 235 160 240 88 129 253 255 248 253 246 254 254 251 254 251 249 218 100 74 91 213 214 216 183 239 221 26 74 74 73 72 72 73 74 75 76 71 61 162 206 207 218 207 205 214 214 198 237 64 63 92 107 128 179 133 217 248 195 211 248 239 232 236 232 240 237 244 141 134 119 217 189 38 91 80 84 83 83 86 89 90 92 93 89 88 86 86 86 86 84 82 82 82 82 82 83 83 83 83 86 86 85 84 83 82 82 82 83 83 82 82 81 81 82 82 81 81 81 81 82 83 83 82 86 86 85 87 88 87 83 83 96 46 25 178 110 200 225 217 219 234 215 197 62 92 111 117 124 118 108 109 184 168 180 148 141 147 144 152 159 141 156 151 135 149 145 148 163 161 156 154 154 117 60 86 80 83 77 84 75 83 71 74 83 73 86 70 7 91 249 76 29 88 151 148 148 161 144 144 149 149 125 165 167 142 195 201 198 191 212 187 200 241 236 232 222 222 220 218 228 221 226 225 230 206 204 185 213 121 51 79 82 87 73 87 81 83 85 84 83 83 84 85 85 83 80 81 82 83 81 79 72 84 36 46 14 69 73 86 248 196 202 210 201 212 214 241 82 70 97 101 111 100 81 70 48 56 45 25 188 253 245 254 253 249 244 243 254 123 76 128 88 70 69 75 80 81 84 
100 53 1 1 19 104 206 172 173 215 188 159 101 169 188 185 200 172 154 159 133 0 213 173 22 254 254 254 250 251 153 115 136 151 150 148 155 149 137 144 152 142 162 162 97 126 135 137 65 114 249 219 213 230 195 160 175 179 179 183 198 103 63 102 112 72 86 115 89 151 160 42 90 87 90 184 202 213 203 202 198 
217 214 211 212 212 211 209 209 210 208 206 203 202 201 199 198 197 190 187 180 179 190 157 2 17 9 2 83 128 106 122 113 118 133 130 141 150 131 141 120 161 177 122 146 139 134 109 98 117 128 126 136 134 134 130 153 19 41 172 191 156 136 147 134 140 137 114 100 102 100 77 45 39 44 28 12 19 24 14 7 3 1 12 12 25 33 63 35 14 42 35 35 43 60 111 65 32 44 52 34 46 41 39 49 48 53 66 111 101 97 90 94 97 99 101 93 94 98 95 105 158 195 203 228 252 251 252 246 242 244 245 227 244 243 237 206 182 181 155 162 166 153 174 177 179 182 159 191 115 38 13 59 102 129 132 119 137 136 137 138 143 143 118 151 167 135 124 208 193 164 166 229 248 92 112 206 201 220 161 156 184 183 142 143 149 203 173 155 166 1 3 41 160 168 106 94 211 252 248 249 253 245 249 252 251 253 246 218 123 144 150 146 151 151 141 147 149 161 201 161 147 146 181 158 153 152 139 140 128 60 11 2 31 68 71 74 64 68 74 69 68 72 71 73 76 75 76 82 79 69 71 80 76 38 127 245 172 199 240 184 164 245 123 96 156 157 254 253 254 250 249 251 253 252 255 249 253 221 87 95 78 223 202 210 196 241 181 3 50 79 74 70 75 71 73 73 71 74 58 207 231 245 227 231 231 220 239 240 234 170 198 235 236 237 198 159 207 230 205 212 252 241 232 243 240 234 248 244 127 153 131 203 252 110 61 85 81 83 83 84 90 96 92 83 85 85 84 84 85 85 84 83 83 84 84 83 83 83 84 85 84 84 84 83 83 82 82 82 83 83 83 82 82 83 82 82 82 82 83 83 84 85 85 86 85 87 86 84 84 86 84 81 65 36 2 93 166 121 236 217 192 226 217 199 178 113 105 120 120 121 111 100 85 183 150 156 147 135 159 135 156 157 147 149 142 162 160 172 155 124 85 66 139 145 59 87 79 84 77 83 86 78 71 85 83 93 82 6 14 246 140 64 224 221 194 172 202 198 210 222 230 195 158 197 227 212 197 193 192 202 186 197 203 198 191 201 205 211 196 203 206 194 203 214 220 202 197 191 213 140 48 82 80 80 86 82 82 83 84 85 84 83 81 80 81 83 81 82 82 79 80 89 11 0 1 9 10 65 61 115 250 207 210 211 214 212 219 229 133 114 154 170 140 133 177 181 177 178 182 164 169 254 242 235 240 236 245 240 254 153 25 60 120 109 67 74 67 85 81 90 51 1 3 8 90 203 175 168 188 193 153 100 
144 165 206 204 172 160 165 112 7 243 159 5 252 254 248 254 249 148 122 138 140 154 154 148 140 138 145 143 138 161 158 72 91 151 135 114 133 230 209 199 161 177 181 181 187 179 193 205 147 84 76 80 79 90 108 73 81 109 106 104 105 86 173 212 207 207 216 195 
218 215 212 213 214 212 210 209 209 207 205 203 202 201 199 199 191 192 199 189 172 197 138 4 44 36 9 73 123 98 109 116 119 123 124 134 151 132 88 99 102 112 127 130 120 131 145 145 148 126 133 130 121 75 74 158 71 78 198 195 146 161 147 90 77 77 101 91 89 83 80 45 9 13 6 2 6 4 0 0 5 1 1 1 0 2 25 9 15 18 19 22 18 8 30 21 27 9 3 4 34 75 89 82 88 82 85 128 125 126 123 127 128 132 134 127 122 119 110 117 85 87 70 69 82 87 93 93 133 129 134 122 145 134 133 147 184 200 180 181 177 161 172 165 164 167 151 134 32 1 9 1 5 28 110 122 125 126 130 136 136 143 113 152 167 153 126 142 190 226 213 201 117 23 140 211 195 230 153 142 174 188 168 152 152 152 143 129 167 4 10 120 169 97 137 183 207 247 251 244 252 246 249 250 249 254 250 225 131 142 145 146 154 155 149 154 157 165 241 208 136 159 186 162 149 155 147 153 129 69 11 7 54 75 65 72 69 70 72 68 71 74 73 73 75 72 73 80 72 76 75 69 72 39 122 253 182 181 219 208 228 246 124 84 143 155 254 254 247 250 252 248 242 254 253 251 254 213 80 88 79 209 221 193 247 179 1 6 60 80 73 71 77 73 74 74 76 67 50 155 219 216 218 223 215 222 213 215 229 115 190 250 214 219 178 198 235 234 238 224 241 234 229 239 239 237 249 242 92 169 151 197 245 77 48 83 83 81 80 85 93 94 88 80 89 88 87 86 86 85 84 83 81 81 82 82 82 82 84 85 84 84 84 83 83 82 82 82 84 83 83 83 83 83 82 83 83 83 83 84 85 85 85 86 87 88 88 85 85 86 85 83 86 71 1 8 172 133 228 239 226 202 202 203 210 175 86 110 115 118 99 104 105 189 174 170 170 158 158 168 176 202 187 189 182 161 160 146 137 147 118 93 151 88 68 81 75 82 93 78 78 84 90 74 96 69 4 8 150 228 122 245 218 208 132 243 254 255 247 254 241 110 151 180 203 192 186 183 193 206 187 183 185 208 193 185 202 213 214 236 214 207 207 214 214 186 185 186 213 154 49 84 83 82 86 83 84 84 84 84 83 83 82 82 81 82 81 81 82 78 79 87 9 2 7 11 10 65 62 123 246 203 207 207 210 210 215 222 209 218 241 227 236 204 224 234 227 240 237 216 169 252 236 243 237 243 247 238 252 220 172 88 31 102 126 55 66 91 67 100 52 1 3 24 125 212 181 164 205 173 162 128 146 149 211 206 163 153 188 96 
3 253 100 12 253 254 247 251 248 143 122 137 146 148 147 151 146 137 143 147 138 170 166 105 69 120 131 118 124 232 237 183 82 147 222 230 208 209 227 203 206 125 73 139 125 115 120 82 110 130 151 95 65 89 194 217 208 210 219 203 
220 216 214 214 214 212 211 209 209 207 205 204 203 202 201 200 200 194 193 186 174 214 116 1 51 44 13 71 136 119 108 111 94 137 125 130 133 140 124 124 112 102 130 104 120 134 86 74 141 127 69 111 137 126 120 156 40 2 96 198 110 156 119 72 16 15 86 93 100 86 79 29 25 26 15 2 1 5 16 28 6 7 10 15 4 15 33 26 47 37 44 47 55 47 42 49 56 49 46 50 59 72 66 71 82 90 96 127 119 128 124 119 126 128 131 124 124 125 123 135 56 53 61 69 81 100 113 125 125 144 158 139 166 158 138 132 176 216 207 215 215 214 232 225 220 231 234 61 1 29 21 48 43 7 44 125 146 111 135 117 142 159 120 158 158 158 144 130 98 66 6 4 9 24 127 211 202 232 149 155 177 167 162 155 166 179 149 149 173 11 51 185 102 153 212 174 178 246 252 253 253 248 251 253 249 253 255 235 123 124 141 152 148 148 159 149 152 209 173 184 183 170 181 166 152 159 163 148 133 87 16 4 64 78 62 72 72 70 70 71 71 75 74 73 74 71 73 80 72 78 76 69 81 46 108 249 163 214 225 171 198 229 143 16 24 88 253 254 254 247 254 252 254 254 253 249 252 187 18 88 139 186 206 245 173 1 28 79 70 80 71 70 77 74 73 73 70 77 57 170 182 231 228 225 220 232 212 220 233 175 252 254 203 207 163 145 236 245 220 216 236 246 244 236 229 237 249 240 133 142 103 190 218 5 65 86 79 78 81 86 88 89 93 97 90 89 88 87 86 85 84 83 82 82 83 82 82 82 83 84 84 84 84 83 83 83 83 82 84 84 83 83 83 83 84 84 84 84 85 85 85 85 86 87 88 90 89 87 86 87 86 85 93 92 23 5 15 118 133 191 236 227 220 199 188 185 140 158 162 176 159 165 158 111 161 148 115 123 128 136 91 78 51 46 32 45 27 31 58 19 7 40 80 55 84 81 86 71 81 86 86 72 82 92 57 6 7 53 241 132 183 219 197 91 109 248 252 251 253 255 223 52 127 206 199 190 191 188 198 198 187 177 161 198 197 189 198 183 181 184 185 204 204 209 210 182 189 187 210 172 46 82 84 81 83 80 85 85 84 83 82 83 83 83 81 82 81 81 81 77 78 86 9 5 10 14 10 65 60 127 240 200 204 205 208 211 213 216 202 205 211 205 209 184 203 219 208 210 205 197 157 254 241 241 243 225 237 246 254 171 186 247 107 53 72 122 80 66 77 64 42 3 9 38 144 206 176 166 196 178 168 113 157 159 208 192 155 156 177 121 35 
248 96 6 251 251 254 251 251 130 131 147 143 150 151 155 147 137 145 150 140 166 149 117 91 125 146 125 123 213 209 176 135 170 208 207 213 192 219 203 182 97 60 115 121 96 116 103 129 157 136 112 83 108 201 213 212 214 217 198 
219 215 213 214 214 211 209 209 209 207 205 204 203 203 202 201 196 193 188 189 183 205 97 2 9 12 7 57 113 116 110 108 117 117 128 141 113 63 101 136 139 112 133 42 54 145 82 85 132 83 14 113 161 131 122 137 187 166 134 183 92 92 144 93 39 31 96 94 94 74 54 10 8 19 18 4 2 3 12 19 18 10 7 5 3 10 29 29 27 42 47 30 36 47 50 64 47 57 50 51 60 74 67 89 73 81 89 127 121 128 123 121 130 130 131 123 122 126 129 145 76 66 89 87 78 94 114 140 146 167 164 135 160 169 153 105 158 205 189 194 190 188 210 206 216 212 214 18 17 44 31 54 34 38 26 15 63 113 123 112 117 147 109 158 156 151 150 140 152 135 57 58 42 42 154 196 195 205 137 167 189 159 148 163 158 181 145 166 166 21 162 148 110 223 220 131 240 254 249 251 253 250 253 253 250 254 255 244 135 137 153 156 154 148 158 155 144 236 182 163 171 172 177 172 152 154 151 155 129 117 11 4 52 75 63 71 72 68 69 72 69 73 73 73 74 71 74 83 72 73 82 75 76 46 107 250 176 225 242 175 207 239 177 196 191 183 245 250 250 216 226 234 230 222 246 236 243 207 104 187 206 238 251 80 2 47 74 72 73 76 69 71 76 73 70 73 66 81 41 159 170 218 221 216 217 197 218 222 234 139 199 104 111 166 174 88 230 220 206 204 237 227 228 243 244 231 231 239 93 110 87 188 118 52 84 77 77 82 87 88 85 80 79 79 85 85 85 84 84 84 83 83 86 86 85 84 82 81 82 82 84 84 84 83 83 83 83 83 84 84 84 83 83 84 84 84 86 86 86 86 86 86 86 87 88 89 87 86 87 88 86 86 84 92 92 25 10 13 71 139 129 161 171 155 145 163 181 168 155 126 125 82 99 77 82 56 38 19 8 12 9 5 17 6 9 15 47 37 19 20 89 128 61 82 77 74 87 78 75 86 76 89 77 95 15 4 8 193 196 125 165 224 212 87 114 247 252 253 253 253 251 100 86 209 200 189 194 192 195 182 184 185 194 204 205 207 200 181 202 194 167 211 211 206 206 181 191 182 203 188 45 78 84 81 80 78 84 84 84 83 83 83 83 83 82 82 80 80 80 76 78 87 8 5 10 14 10 64 52 126 240 202 207 207 211 214 216 215 194 205 216 216 241 190 198 215 207 203 211 194 161 250 247 242 238 240 246 234 254 175 145 195 249 97 67 95 116 76 75 89 39 3 6 30 131 200 158 165 192 172 165 113 184 157 193 196 162 162 176 94 53 253 47 22 
253 254 239 254 252 135 121 135 142 156 154 149 145 145 148 139 147 169 156 138 143 119 124 127 122 213 189 147 142 158 208 196 198 190 210 163 180 176 70 99 100 122 143 97 115 163 116 120 131 120 197 212 215 211 212 185 
218 214 212 212 213 211 209 209 209 207 205 204 203 203 202 201 191 199 189 187 181 187 144 105 132 132 138 131 114 114 121 118 124 128 106 137 92 155 106 106 125 106 103 119 105 87 76 26 23 30 58 62 85 83 104 93 124 151 137 139 123 111 79 7 13 9 40 31 30 31 24 23 24 31 41 40 29 26 33 41 49 38 47 37 47 44 51 41 19 43 42 44 48 51 54 46 52 55 50 47 51 80 72 65 84 72 75 124 121 117 114 121 125 128 133 129 127 127 126 142 67 61 100 111 105 117 120 134 150 159 166 163 171 160 159 95 148 199 178 193 192 187 210 210 192 204 188 3 42 51 33 30 36 43 57 45 5 41 95 110 125 151 110 151 158 153 147 143 137 133 45 39 48 24 138 201 217 199 142 163 180 155 128 160 160 152 158 170 154 108 189 143 170 225 171 144 212 249 251 251 252 251 253 252 250 251 253 247 159 156 156 145 161 152 147 157 140 205 152 148 180 173 157 171 156 142 151 163 146 121 3 0 42 78 67 67 69 71 72 71 69 72 73 73 74 72 75 82 79 64 71 75 79 59 77 142 140 133 122 160 159 167 172 188 184 247 145 115 130 173 144 154 158 168 183 177 191 214 196 171 162 92 3 2 54 77 78 75 71 70 73 74 75 72 69 74 74 66 78 4 132 241 212 221 223 219 214 205 228 183 220 129 143 248 224 212 245 247 207 204 246 234 223 227 238 239 234 235 114 118 177 207 30 77 73 78 79 81 80 77 80 87 88 85 84 84 83 83 83 83 83 83 86 86 85 84 82 81 82 82 83 83 83 84 84 84 84 84 85 84 84 84 84 84 84 85 87 87 87 87 87 87 86 86 88 87 87 88 87 85 85 85 82 83 87 96 50 13 12 7 50 100 112 95 67 43 26 28 29 14 22 36 17 17 7 36 44 80 130 148 147 146 217 246 227 228 253 191 199 171 103 131 78 74 76 82 73 81 87 81 78 88 94 63 4 17 111 246 118 134 176 229 247 131 103 247 245 251 253 254 251 113 45 211 196 189 194 190 191 186 197 191 189 201 199 196 194 181 212 211 178 219 218 215 213 184 197 195 197 200 50 75 85 82 82 81 82 83 84 84 84 83 82 81 82 82 80 79 79 76 77 88 12 8 9 13 7 66 46 123 242 204 210 208 213 215 216 216 200 208 223 237 165 184 230 217 220 211 217 200 170 251 247 239 242 244 246 250 252 197 210 212 234 188 89 66 77 98 71 98 43 1 1 12 112 213 147 159 181 177 195 121 178 161 207 192 170 158 183 99 
48 252 27 62 248 253 253 253 253 128 129 143 145 153 146 141 143 145 143 125 131 141 168 145 111 143 169 79 90 227 172 153 161 130 166 218 208 202 167 130 165 158 106 171 145 162 150 96 120 124 121 110 105 84 179 205 204 205 220 183 
218 214 212 212 212 210 209 209 209 207 205 204 203 202 201 200 197 205 188 182 181 181 192 196 181 171 186 153 100 110 126 120 125 133 127 129 123 124 91 97 111 103 132 111 95 88 106 91 73 88 132 115 87 65 93 91 103 85 95 95 103 136 79 36 45 48 57 64 77 93 86 101 82 75 86 95 84 70 76 89 76 69 86 76 93 86 84 69 27 34 21 35 23 12 24 12 24 18 40 45 23 42 65 68 67 74 86 123 111 114 116 121 121 124 131 128 126 125 126 143 88 69 90 104 112 132 130 135 161 162 173 166 150 138 159 110 163 219 194 213 206 190 201 199 204 190 214 78 14 23 56 27 46 45 25 90 89 4 0 43 101 130 115 141 153 156 149 151 151 78 46 70 60 28 151 213 210 175 140 163 173 156 145 221 165 160 172 135 139 166 195 124 151 226 198 149 114 249 252 254 250 251 253 252 251 251 253 248 167 118 147 153 154 157 156 148 161 130 108 164 187 179 170 167 152 157 163 170 144 142 13 1 40 82 68 63 68 75 73 67 71 73 73 73 76 73 72 78 90 75 73 73 79 75 57 40 24 30 25 50 11 11 5 2 35 118 130 140 128 248 241 239 240 246 245 223 233 243 198 165 158 108 98 98 40 49 74 66 70 69 77 76 74 74 71 76 72 67 62 33 173 236 220 226 220 221 218 238 242 213 138 198 211 142 132 102 130 142 86 248 246 252 254 253 254 254 247 249 96 165 243 33 45 71 63 70 71 77 83 82 79 79 78 79 86 86 85 85 84 83 83 83 82 82 83 82 82 82 83 84 83 83 83 84 84 84 84 85 85 85 84 84 84 84 85 85 87 87 87 87 87 86 86 86 87 85 85 87 85 83 83 84 80 89 77 79 88 67 21 7 22 59 7 25 93 115 118 144 168 210 206 242 234 246 254 251 254 254 246 249 250 249 254 254 198 176 243 192 121 111 110 111 102 57 85 85 74 80 84 83 75 90 68 2 8 90 229 246 121 140 156 239 225 93 109 246 250 148 195 254 251 154 57 188 200 196 191 187 187 192 199 176 155 213 217 205 215 198 191 198 187 208 213 219 214 177 187 193 194 206 59 69 82 80 82 81 79 82 83 84 84 83 81 80 82 82 79 79 79 76 78 88 14 10 9 12 6 69 43 124 242 203 209 209 211 211 214 218 197 210 242 121 77 70 224 221 214 207 204 195 168 251 241 237 237 242 239 239 251 188 176 202 243 165 80 82 109 75 84 98 39 2 2 9 100 221 149 164 196 167 183 133 196 143 180 205 163 142 166 73 53 
253 21 162 218 239 251 217 218 143 126 130 140 148 146 143 132 123 130 133 137 161 157 115 64 133 155 39 98 221 149 141 119 147 173 159 125 181 206 121 205 205 70 105 140 108 106 109 122 126 116 101 114 101 204 216 204 211 226 166 
219 215 213 213 213 211 209 209 209 207 205 203 202 201 201 200 195 202 190 189 188 179 175 175 168 149 175 147 99 115 126 118 121 127 124 133 138 111 107 108 152 94 85 91 107 87 81 81 137 134 138 134 104 100 103 99 88 94 105 102 112 108 152 130 141 137 132 144 152 152 135 133 122 120 131 140 131 121 118 115 121 113 119 97 104 109 112 109 86 93 82 87 67 99 156 155 160 106 67 55 79 94 68 27 41 56 69 101 90 100 103 104 121 125 133 132 130 129 130 148 86 81 103 117 124 135 132 131 163 166 189 164 152 153 151 103 152 217 192 210 200 185 199 196 194 206 198 159 82 48 41 56 49 42 38 55 115 104 43 1 20 54 105 141 149 151 141 146 142 125 44 50 55 26 175 219 213 178 152 172 173 151 141 226 199 161 182 174 175 28 166 175 127 178 228 163 135 244 254 247 251 253 250 250 253 253 253 250 188 102 155 170 157 158 163 161 161 166 182 176 167 195 158 172 176 187 152 165 109 146 8 1 24 76 70 67 70 74 68 67 72 74 73 74 77 74 70 74 85 93 88 76 67 72 80 72 82 78 68 84 42 62 183 221 228 221 196 132 109 238 227 218 219 227 243 224 229 251 167 167 231 225 242 231 150 64 42 75 72 69 79 75 72 77 74 75 73 73 59 93 197 245 246 244 247 231 235 216 228 163 2 1 3 8 3 1 10 6 1 58 78 66 82 105 120 124 152 215 179 144 9 25 80 60 69 74 60 60 67 83 90 87 83 85 86 86 86 85 85 85 85 85 81 81 82 82 82 82 84 85 83 83 83 84 84 85 85 85 85 85 85 84 84 85 85 85 86 86 86 86 86 86 86 86 88 85 83 85 84 81 82 84 91 79 88 74 83 57 152 176 194 211 172 165 254 254 251 251 251 246 254 254 252 246 247 251 236 244 242 249 242 247 249 249 218 247 245 153 81 89 126 108 133 79 76 72 85 87 83 83 76 82 29 1 6 3 12 222 202 124 148 231 217 134 99 245 244 122 184 255 241 183 79 147 211 199 187 193 187 188 190 170 176 239 241 228 242 232 208 222 219 224 226 220 210 186 194 198 195 209 71 65 79 77 80 78 79 81 82 82 82 82 81 81 82 82 80 79 79 77 79 89 12 8 8 12 6 71 42 131 245 204 210 211 211 208 215 224 221 224 254 165 104 89 237 232 230 231 235 210 177 248 238 243 243 242 240 236 252 163 148 219 213 49 67 108 69 72 75 93 34 4 9 12 100 215 158 167 193 173 184 121 183 145 
178 195 188 159 157 88 67 246 151 164 33 65 68 55 79 184 124 134 138 151 152 142 123 115 132 145 120 166 111 109 114 91 103 121 119 198 125 141 136 134 121 133 117 139 200 121 135 146 74 99 118 109 112 102 79 108 73 39 71 79 191 199 200 215 229 168 
220 216 213 214 214 212 210 210 209 207 205 203 202 201 200 199 195 198 188 188 186 187 175 177 167 150 181 152 104 114 118 121 105 99 140 123 123 133 128 111 151 50 36 102 119 133 137 138 107 107 137 75 73 116 98 94 95 101 101 102 97 74 35 100 130 125 118 125 122 117 122 123 127 129 128 117 112 128 137 124 125 133 145 134 130 139 130 129 99 96 84 82 83 156 187 127 154 194 185 150 198 198 124 61 109 74 58 105 102 90 79 87 76 87 110 121 127 128 129 146 84 92 108 106 100 110 131 151 172 147 157 121 135 156 141 110 148 216 187 200 191 182 202 204 214 222 205 154 128 170 23 36 91 93 66 46 101 119 132 56 29 40 118 155 153 148 138 145 134 142 72 44 45 36 148 192 204 184 151 164 176 169 142 182 230 180 157 120 168 9 26 166 131 110 181 217 143 235 250 247 251 253 250 250 254 252 252 251 214 142 172 164 169 150 138 192 174 194 178 194 159 185 173 100 63 23 22 21 57 60 7 7 4 65 72 72 70 66 65 72 72 73 72 74 78 75 72 73 80 89 76 78 78 74 77 69 70 73 64 43 135 218 237 185 153 107 36 97 147 235 226 228 224 222 223 221 208 255 132 4 19 27 214 222 224 202 63 44 74 69 79 73 70 80 73 73 73 66 60 78 201 131 103 62 43 37 10 14 4 3 9 19 33 40 38 54 65 71 110 68 82 97 110 105 114 125 119 130 84 37 112 141 127 137 126 128 177 120 68 64 78 82 81 85 83 83 83 84 86 87 87 87 83 84 84 83 83 83 84 85 83 83 83 84 84 85 85 85 86 85 85 85 85 85 85 86 85 85 86 86 86 86 86 86 88 84 84 85 85 81 82 84 82 80 88 51 56 92 139 210 216 140 162 111 233 254 240 238 235 239 234 245 242 249 249 241 254 254 253 251 253 253 244 236 241 232 246 176 87 101 112 45 80 71 67 85 80 76 92 81 87 35 16 4 11 11 3 52 242 165 133 142 223 203 89 186 251 249 216 249 250 233 138 154 227 203 191 216 203 196 203 205 183 212 211 206 208 207 184 197 196 196 189 162 156 165 189 192 200 213 82 64 79 78 81 78 80 81 80 80 80 81 81 82 82 82 78 78 79 77 80 90 12 7 7 11 7 72 42 137 248 206 212 213 213 210 217 228 176 182 192 217 188 176 223 232 225 211 218 183 189 250 246 237 240 240 240 245 249 174 228 194 23 69 126 61 74 86 70 90 40 3 1 8 106 213 167 158 201 160 199 141 160 134 
196 197 166 149 194 84 81 253 194 28 102 115 126 7 37 174 125 132 148 159 148 132 125 133 146 142 141 128 101 154 149 88 137 126 158 193 144 153 160 126 117 154 163 145 208 121 104 144 57 116 84 115 104 83 75 68 88 66 50 80 202 209 209 207 216 167 
220 216 212 213 216 215 210 205 211 209 207 204 204 204 202 200 197 195 191 185 183 183 179 173 167 153 178 149 92 111 113 113 99 74 117 83 132 145 127 72 124 64 62 81 76 128 134 138 118 113 117 76 99 113 86 109 107 99 111 111 96 96 93 88 88 124 114 120 132 124 112 133 124 117 132 85 77 136 134 135 132 122 103 118 126 134 126 128 136 131 66 59 73 119 117 97 56 25 148 200 187 181 193 198 249 125 98 154 154 148 143 156 155 130 134 136 120 130 132 147 84 82 77 91 74 75 114 130 150 165 143 102 99 137 134 101 120 182 160 173 181 183 206 207 208 219 204 143 132 171 232 151 20 91 119 119 101 96 128 51 25 56 98 156 157 154 139 146 138 146 113 54 47 20 157 199 210 177 147 163 193 170 126 169 235 234 190 164 172 3 8 36 152 167 93 156 71 215 251 249 249 253 248 253 254 254 250 251 244 111 87 126 133 125 88 146 210 169 178 187 33 5 21 8 22 63 129 166 215 158 48 22 29 74 70 61 73 70 65 76 71 72 73 73 74 73 74 74 68 83 89 78 71 73 75 71 74 48 19 140 235 221 237 104 81 25 220 249 222 233 219 228 215 222 229 231 215 248 184 12 40 47 215 229 225 227 218 66 65 71 76 71 76 79 68 73 69 69 45 40 160 1 67 43 32 45 67 86 101 122 139 143 176 187 188 217 227 229 244 150 16 35 60 56 60 61 71 64 69 91 69 87 83 97 90 80 78 108 143 76 69 86 80 83 85 85 84 85 85 84 84 85 88 86 84 83 84 84 84 83 85 85 86 86 86 85 85 85 81 82 82 83 82 83 85 86 86 86 85 85 84 84 85 85 87 87 89 88 87 86 82 80 82 93 67 33 122 211 128 45 166 152 160 155 225 252 244 245 248 241 245 242 220 215 232 244 190 176 164 223 204 93 166 238 234 235 245 215 144 105 114 38 59 105 68 75 90 84 88 83 81 98 78 1 11 16 10 5 106 235 113 213 229 214 204 202 234 225 219 195 198 196 173 172 140 124 69 177 211 190 186 188 173 174 171 189 194 171 181 173 184 195 187 194 196 201 202 193 223 247 100 53 81 75 90 75 81 82 82 82 81 81 81 81 81 81 75 80 77 72 81 87 15 1 11 15 10 71 50 127 240 197 205 211 205 207 213 237 88 39 69 74 81 92 86 88 84 77 70 42 202 251 248 243 241 236 242 250 254 194 104 38 96 121 59 64 69 84 78 97 29 6 6 12 103 195 157 169 191 148 205 122 166 170 211 193 169 172 
179 75 8 253 242 84 51 29 40 47 238 136 143 138 153 150 139 134 129 133 144 140 115 138 153 145 147 114 128 139 132 177 144 143 148 156 165 168 138 140 182 144 147 113 20 69 75 98 56 56 27 10 8 13 40 32 164 227 215 201 227 169 
220 219 217 214 211 210 211 213 209 209 207 206 206 207 203 202 200 198 193 187 184 182 176 170 158 151 181 152 90 104 110 118 109 107 130 85 99 93 83 67 121 84 95 52 66 122 89 80 80 62 93 109 46 76 73 112 101 126 101 109 116 116 113 105 79 81 128 136 131 127 96 128 116 105 128 139 125 103 122 125 138 118 108 121 134 132 122 114 158 132 111 123 100 77 106 238 244 133 181 191 216 211 172 192 218 133 119 140 141 150 155 158 247 247 244 185 112 120 130 150 76 53 51 38 71 66 106 88 90 79 121 133 121 123 123 141 137 173 153 169 214 205 199 204 211 218 213 126 142 69 83 90 17 31 43 90 119 135 84 63 135 8 108 156 158 162 181 162 152 152 125 76 48 27 117 196 204 187 136 168 182 183 119 159 225 228 210 199 184 12 1 35 43 133 98 119 51 197 251 252 252 252 251 250 235 233 229 203 202 108 109 103 99 106 106 98 70 11 14 6 15 98 135 178 211 208 188 178 199 204 46 40 22 74 72 70 72 69 67 71 71 72 73 73 74 74 75 75 71 83 87 77 71 74 76 72 66 78 112 213 218 212 232 111 205 17 192 253 202 225 225 214 227 231 207 222 223 253 186 58 109 46 221 214 205 227 238 69 67 74 81 75 71 75 77 75 67 52 78 88 127 156 174 190 198 203 213 219 220 225 232 233 232 230 224 224 220 214 235 214 164 58 92 120 144 174 180 202 211 211 224 224 225 229 210 187 111 62 92 133 84 55 79 85 84 82 78 80 84 85 85 86 85 84 84 84 84 85 86 86 83 83 84 84 85 85 85 84 81 82 83 83 82 83 84 86 86 86 85 85 84 84 85 85 85 89 90 85 78 78 85 92 79 86 23 110 242 233 177 171 179 171 158 152 214 252 241 242 248 244 247 235 214 223 240 236 191 183 197 221 244 227 235 247 250 234 252 216 150 126 118 83 135 167 68 71 64 61 73 86 84 82 93 48 1 4 8 12 17 152 199 172 215 249 223 209 200 170 172 198 187 189 180 171 166 150 130 81 194 197 194 188 189 196 203 208 199 213 212 216 214 210 223 214 215 164 199 249 135 79 72 83 75 83 73 87 80 80 80 80 79 79 79 79 79 80 78 80 79 72 76 85 1 9 10 9 13 70 42 164 250 247 249 245 254 253 242 252 148 116 143 149 151 147 132 126 138 133 143 105 240 251 252 251 253 254 252 254 253 120 40 110 109 62 59 71 71 78 69 106 37 2 2 15 108 195 156 180 200 
151 184 116 160 130 210 193 178 138 162 103 1 239 252 252 252 248 252 253 251 122 139 142 151 148 138 136 135 139 147 139 124 147 132 138 129 89 92 122 110 122 107 113 141 141 165 155 132 152 164 124 114 101 51 77 38 18 67 99 132 155 170 174 175 45 40 104 164 194 181 109 
214 216 216 216 214 212 211 211 209 207 206 205 204 202 199 196 198 196 192 190 187 185 181 175 167 159 185 150 87 102 107 120 113 110 102 175 177 184 200 214 211 232 228 190 174 188 165 186 178 191 147 104 61 83 129 65 83 136 144 33 66 59 77 96 121 94 77 118 151 130 120 113 115 131 128 124 125 80 112 133 92 114 146 100 79 131 117 112 133 145 94 94 96 144 178 164 219 137 154 188 205 246 174 160 233 171 144 146 139 158 152 153 139 188 251 211 117 123 128 148 74 43 42 42 68 58 81 72 42 22 62 147 137 198 222 111 64 108 164 186 202 195 214 213 220 219 231 157 167 93 123 153 154 116 88 36 46 97 15 90 68 87 136 161 180 168 156 163 168 165 156 88 56 76 132 198 205 199 132 154 166 186 140 189 225 231 141 143 189 1 5 45 63 32 52 109 136 160 200 158 145 104 94 104 106 110 104 90 81 78 85 83 50 41 22 7 12 8 66 207 209 208 210 208 174 176 189 168 193 219 44 48 5 55 71 72 69 67 69 69 71 72 73 73 74 74 75 75 74 82 84 76 72 76 77 74 60 45 203 239 190 220 217 205 243 92 211 252 242 230 242 225 249 247 222 226 235 254 182 52 101 18 226 241 205 238 153 2 70 70 72 76 69 71 78 67 41 93 251 245 229 226 231 222 227 227 228 226 221 216 217 219 212 209 214 208 217 209 210 223 227 223 228 237 227 192 176 153 130 129 110 99 98 92 214 241 233 184 128 110 128 74 85 80 82 80 77 79 84 87 85 84 85 85 85 85 85 85 86 87 81 82 82 83 84 84 84 84 82 83 83 83 82 82 84 85 86 86 85 85 84 85 85 85 86 85 84 83 81 80 80 80 94 78 7 173 249 167 158 144 172 188 160 143 194 249 245 243 233 249 246 245 252 253 248 253 253 253 254 246 248 252 251 254 246 254 252 218 149 102 117 108 127 170 70 42 78 115 47 54 73 55 47 58 74 17 3 10 5 9 252 226 57 77 36 62 172 164 140 185 159 144 111 113 117 116 97 69 180 247 210 221 213 216 194 172 160 101 108 50 88 32 29 13 32 3 62 92 56 51 73 80 72 91 82 78 81 81 81 81 80 80 80 80 79 78 82 78 78 74 76 89 7 2 10 13 6 72 46 65 181 144 142 150 148 149 152 173 86 79 101 114 121 117 107 100 93 98 71 70 95 115 94 106 110 98 72 65 104 115 99 82 63 73 55 66 78 73 81 78 24 0 4 18 110 199 163 192 197 159 175 130 174 95 199 189 193 
152 195 90 3 245 251 247 245 253 253 243 218 113 149 148 146 143 136 137 139 143 147 134 134 139 115 144 147 109 104 88 168 209 76 100 129 144 135 167 165 210 199 106 119 163 184 186 168 168 219 189 167 129 95 82 50 41 40 44 33 158 155 232 
222 220 217 215 215 213 209 205 211 208 206 205 205 202 199 198 197 195 192 189 190 187 181 177 165 163 187 151 98 119 121 123 124 94 107 244 230 222 221 219 221 217 214 240 248 224 213 249 250 246 153 88 92 107 115 120 67 37 102 23 83 79 114 88 90 103 81 66 117 131 124 120 117 118 127 126 132 128 146 124 141 132 115 126 108 130 136 136 114 95 50 61 86 197 193 135 179 196 175 199 198 237 212 202 222 170 134 141 128 159 148 161 140 178 250 206 104 115 125 157 84 58 56 53 48 38 48 56 52 51 24 143 146 215 211 86 67 50 112 197 220 192 212 221 207 211 211 168 140 156 226 240 233 174 116 117 61 20 40 9 50 132 104 159 160 146 127 146 148 157 148 69 86 122 149 200 200 208 160 161 184 182 166 214 201 197 168 147 218 13 1 59 64 65 50 54 50 66 87 88 84 80 77 59 45 32 16 15 21 19 11 19 9 19 23 36 54 34 150 210 176 175 173 171 179 150 188 195 176 210 109 49 2 29 76 68 67 69 70 70 71 72 73 73 74 74 75 75 75 80 80 74 72 76 77 74 85 56 43 252 229 227 229 128 46 9 155 158 150 220 232 225 252 232 226 216 246 253 190 15 22 24 203 246 242 149 15 64 81 74 65 71 75 71 74 67 74 99 226 220 223 212 219 210 211 212 212 214 212 207 208 217 220 217 220 207 222 225 218 222 227 210 226 118 60 102 105 118 167 111 141 99 170 231 235 232 241 242 140 116 110 104 64 72 82 82 82 82 84 85 85 83 85 87 88 87 84 83 84 85 82 82 83 83 84 84 83 83 83 83 83 83 82 82 83 84 86 85 85 85 84 85 85 86 86 83 82 83 85 84 80 77 94 18 33 234 222 157 157 143 174 189 160 145 198 249 250 254 251 252 253 246 242 244 242 227 238 252 249 249 244 249 240 235 244 237 238 206 65 128 122 102 115 158 64 59 246 241 197 86 67 112 128 165 118 58 21 2 1 4 24 246 246 215 141 97 137 156 149 157 188 195 202 186 170 178 151 106 68 29 3 4 4 4 5 7 2 2 31 37 52 59 99 126 158 199 196 53 58 100 77 82 85 76 80 82 82 82 82 82 81 81 81 81 81 77 84 73 76 76 81 92 16 1 10 3 4 11 40 82 24 25 54 50 20 13 15 13 18 22 24 26 27 20 15 13 22 1 2 4 4 2 14 3 10 13 3 11 55 58 36 36 44 74 73 69 79 81 78 98 34 7 13 17 111 207 157 165 188 163 158 132 193 100 185 187 181 182 178 75 35 254 236 254 254 248 
252 254 174 117 142 135 142 142 138 141 141 143 144 131 139 137 130 142 135 114 147 81 112 246 119 64 130 128 136 154 107 111 156 115 134 92 144 190 135 82 42 48 32 5 1 12 42 18 59 120 152 210 230 199 
220 217 214 211 210 212 214 216 212 208 205 206 206 204 203 204 203 197 193 190 190 185 178 173 159 166 190 147 96 121 115 110 125 95 127 231 211 194 182 180 177 168 162 88 75 117 121 102 82 121 98 85 121 131 106 116 61 88 108 74 103 113 122 89 80 105 115 85 109 111 96 120 118 121 112 125 124 82 83 122 126 122 136 123 122 147 123 88 135 154 89 70 70 189 189 171 185 227 162 169 253 230 187 166 239 162 114 102 87 114 139 179 181 202 253 208 108 120 120 149 80 54 66 33 34 39 62 54 42 36 15 139 152 192 147 68 52 52 88 182 222 187 187 193 198 216 204 174 131 182 213 224 219 221 152 104 143 114 76 104 139 131 112 162 148 158 149 157 143 142 101 47 97 114 132 209 191 204 170 169 201 185 186 226 192 166 191 164 194 2 1 56 60 69 64 54 56 58 46 31 18 9 10 14 10 19 69 135 78 27 43 63 103 120 163 158 185 183 171 188 174 161 192 175 179 181 145 185 187 210 140 23 20 16 87 67 70 71 66 69 71 72 73 73 74 74 75 75 75 77 76 73 73 75 76 75 68 72 55 37 151 205 231 168 41 23 14 49 93 248 254 238 249 240 247 236 252 250 224 111 178 206 246 230 79 2 48 61 66 78 73 69 74 73 73 77 126 101 226 218 211 212 196 221 210 212 211 213 216 212 213 223 216 216 219 208 212 215 223 217 217 215 223 199 204 230 242 242 248 147 84 83 197 247 240 234 244 241 140 99 119 102 91 68 75 81 87 86 85 85 86 85 86 87 88 87 85 83 84 85 84 84 84 84 84 84 83 83 83 84 84 83 82 82 83 84 85 85 85 84 85 85 85 87 87 88 87 83 80 81 87 94 79 10 79 234 181 176 152 162 156 164 160 161 216 247 235 236 254 240 225 246 245 167 117 151 195 236 239 246 236 240 246 245 245 241 249 226 81 117 98 103 112 183 50 163 213 179 241 107 29 253 252 253 225 45 84 52 3 1 2 12 48 197 240 248 218 213 189 164 114 90 69 44 18 29 27 45 75 93 157 156 194 204 233 251 252 254 254 254 254 252 249 254 248 255 251 91 61 83 79 84 81 79 77 87 80 80 80 80 79 79 79 79 81 76 84 72 76 77 84 77 92 90 8 6 21 58 52 201 180 181 174 169 181 181 167 165 162 173 165 164 163 157 158 158 152 165 154 155 215 140 119 121 124 115 134 140 108 112 138 136 105 55 55 62 74 69 69 91 46 6 6 11 118 221 156 153 188 163 137 
109 187 131 180 200 167 168 195 117 37 186 233 231 245 252 246 195 111 132 158 137 144 147 145 146 142 140 143 131 135 141 129 130 122 112 143 53 108 251 231 112 125 111 137 141 112 134 196 124 61 3 80 66 30 27 35 76 31 23 45 30 23 16 96 175 216 213 172 77 
215 218 221 219 213 208 208 210 213 207 204 204 203 199 197 197 202 196 191 191 189 186 178 175 164 177 197 147 93 120 119 121 133 142 94 211 207 192 183 185 171 178 178 132 6 2 9 7 4 94 175 176 130 126 155 148 164 146 140 153 150 164 147 141 157 133 140 127 138 143 114 121 114 127 119 131 126 128 133 89 70 93 127 136 126 68 99 94 117 159 88 89 85 197 206 150 175 217 156 142 237 204 164 164 223 116 111 145 154 130 144 170 171 211 254 208 98 112 122 157 68 34 61 54 37 48 61 62 79 56 22 136 170 185 170 76 50 33 67 176 208 157 175 213 213 214 207 169 139 199 210 204 222 234 167 119 122 147 151 137 128 134 125 157 154 165 137 159 155 135 105 98 101 111 142 193 194 203 154 166 192 184 176 192 175 170 185 186 207 23 4 41 72 51 57 78 35 36 43 65 75 97 135 159 164 204 235 219 187 153 182 201 215 171 205 227 191 182 129 195 194 166 164 181 163 167 185 172 213 242 151 48 41 9 81 68 70 71 67 70 71 72 73 73 74 74 75 75 75 75 74 73 73 74 75 75 81 67 74 61 38 21 101 165 203 180 132 59 23 187 210 207 212 219 217 232 237 232 241 239 232 199 98 4 9 57 143 92 41 60 77 72 72 74 68 76 123 59 213 213 211 207 209 211 208 214 212 210 214 209 207 216 211 209 213 218 219 212 226 216 216 222 223 219 251 245 221 223 225 220 202 204 241 237 225 233 220 195 162 143 151 100 172 148 71 81 88 87 85 85 87 86 84 85 86 86 86 85 85 86 85 85 85 85 85 84 83 83 83 83 84 83 82 82 83 84 85 85 85 84 85 85 86 87 90 89 86 84 83 82 80 82 8 20 69 226 180 162 174 164 143 162 169 139 180 237 244 249 242 234 233 240 243 240 243 248 247 247 239 241 241 252 241 242 242 241 234 246 126 115 100 108 109 100 89 225 163 174 182 54 49 198 227 195 123 44 77 94 88 14 25 92 122 100 93 93 93 94 81 74 74 100 79 95 251 255 253 255 250 248 251 254 254 254 255 252 254 251 243 210 198 220 219 207 226 240 255 116 42 77 79 75 73 86 83 77 81 81 81 81 80 80 80 80 78 75 84 75 77 75 84 46 2 9 66 43 32 52 89 154 136 135 147 156 145 129 131 148 134 147 147 154 155 158 158 161 162 165 135 214 238 242 242 243 241 237 238 242 238 237 240 237 117 86 89 55 68 81 91 72 38 0 3 15 119 219 
162 178 187 172 157 114 171 155 178 215 182 160 182 139 99 60 67 95 101 94 113 103 133 135 137 147 144 149 147 144 136 134 139 131 125 150 112 119 129 124 116 35 188 238 135 151 142 120 135 123 113 146 189 116 23 50 171 111 48 32 61 91 54 22 33 52 65 43 97 125 183 176 99 95 
223 225 225 226 226 223 218 215 216 210 208 210 209 202 198 198 203 196 190 190 192 187 181 177 168 178 200 157 108 126 119 122 119 156 80 198 206 190 185 175 185 175 171 191 49 7 36 41 32 38 141 206 128 110 69 98 131 141 135 111 133 148 110 118 137 115 129 81 97 161 115 116 136 128 126 127 130 119 124 131 109 101 135 122 118 93 114 150 143 138 81 44 52 200 198 133 181 216 169 151 217 209 171 152 251 122 109 158 159 142 143 147 138 200 251 212 104 106 118 156 70 21 65 89 49 37 32 42 45 62 28 150 208 194 204 132 127 90 107 159 202 199 221 224 228 218 205 181 140 168 230 213 225 244 140 125 141 133 133 132 135 129 106 171 164 161 136 156 144 129 140 147 127 127 161 171 199 207 152 171 191 184 155 133 142 154 187 163 195 34 1 56 69 65 57 36 92 147 165 167 172 174 179 191 168 171 197 163 155 181 211 220 205 116 146 176 172 153 143 189 196 170 173 182 188 178 175 178 171 158 204 41 50 7 57 74 67 67 71 71 71 72 73 73 74 74 75 75 74 74 74 75 74 74 75 77 73 76 70 53 74 88 80 96 117 177 212 221 197 146 109 140 90 79 51 63 62 36 17 7 13 13 27 46 92 35 187 164 107 60 66 74 73 76 64 71 119 65 195 227 200 202 213 202 207 217 215 211 215 214 211 218 223 213 210 210 216 210 219 215 212 204 225 200 162 176 217 217 213 221 234 248 251 234 226 254 221 99 175 166 176 88 162 95 77 85 89 86 83 86 87 85 84 84 84 85 86 86 85 84 85 85 85 85 85 84 84 83 83 83 83 83 82 82 83 84 85 85 84 84 85 85 86 86 91 86 82 83 86 84 75 67 4 1 10 206 228 146 152 141 126 165 191 153 174 247 247 242 252 253 244 236 247 246 240 250 241 240 248 251 244 238 230 248 252 242 248 248 69 134 107 107 129 53 128 161 102 198 78 47 76 53 61 28 44 84 98 42 34 166 186 131 120 99 124 132 122 93 130 115 115 26 8 137 253 237 248 233 242 219 219 253 231 234 249 243 228 255 206 235 234 211 215 206 239 236 255 165 41 89 70 79 84 73 79 82 81 82 82 82 81 81 81 81 79 77 81 77 77 74 88 21 9 99 196 117 141 27 124 160 146 143 150 145 120 122 130 113 125 128 127 131 123 126 119 123 121 125 100 212 245 245 244 241 235 249 251 243 242 246 242 242 56 61 112 86 44 74 78 82 39 0 13 
18 113 210 155 177 187 173 190 139 168 170 183 211 157 146 165 146 127 124 87 80 91 88 110 132 129 153 148 139 144 147 142 138 130 129 137 131 126 161 122 112 118 115 110 52 140 202 153 84 75 155 114 100 95 147 198 104 34 103 166 103 24 45 81 69 50 25 6 6 69 118 65 81 40 131 106 92 
145 137 134 149 175 197 206 205 220 217 217 224 225 219 215 215 210 200 192 191 192 185 178 175 169 174 199 164 111 103 65 52 233 250 247 251 254 247 254 252 243 152 179 187 101 12 32 37 32 23 77 122 134 110 79 51 121 139 122 121 116 115 125 120 114 129 90 92 121 133 122 130 92 90 149 121 116 131 122 116 122 135 131 106 108 147 130 115 133 133 81 101 149 213 192 142 176 218 181 154 248 214 199 181 242 130 84 107 79 134 149 137 193 230 247 209 110 108 115 152 71 8 79 87 76 45 53 40 48 36 17 88 97 160 206 138 120 124 151 141 164 126 129 167 163 196 182 202 128 57 143 134 157 174 147 126 133 150 141 141 144 122 113 153 156 154 135 139 138 131 127 105 130 115 156 198 195 198 142 155 189 195 182 146 121 142 164 152 190 15 9 39 62 61 51 97 86 175 158 161 154 171 153 162 167 172 197 171 157 168 180 144 165 128 241 234 164 160 130 194 191 180 163 179 195 179 157 180 174 171 201 80 57 8 38 84 65 65 75 69 72 72 73 73 74 74 75 75 74 73 75 76 76 74 75 79 76 71 69 52 252 206 255 251 251 250 243 244 250 252 231 250 251 249 247 237 213 166 127 61 27 54 79 73 59 75 33 82 232 91 56 74 78 81 69 77 98 44 180 223 209 209 200 183 198 211 211 206 213 212 208 215 208 209 213 203 216 215 213 216 214 215 222 194 127 108 186 224 193 212 238 235 234 247 234 235 228 147 173 114 108 115 85 58 86 91 90 85 84 86 87 83 86 85 84 85 86 85 83 81 83 84 84 85 85 84 84 84 82 83 83 83 82 82 83 85 85 85 84 84 85 85 86 87 87 87 86 84 81 80 83 85 94 29 6 131 251 205 144 162 167 166 169 141 158 248 238 243 236 236 235 237 244 248 251 251 248 248 247 249 250 248 248 244 249 214 170 195 194 206 161 131 134 95 196 106 146 157 42 82 81 69 77 85 96 82 18 13 179 176 89 113 157 86 127 122 106 79 79 73 58 108 114 251 252 224 248 253 253 232 220 249 217 219 233 243 251 254 223 252 254 208 230 223 229 231 255 184 36 85 83 81 76 80 84 78 80 80 80 80 79 79 79 80 83 78 78 76 75 75 95 12 7 231 219 161 120 26 123 157 145 139 131 134 129 118 123 134 133 126 125 126 116 125 120 127 127 127 95 207 245 244 252 253 249 250 248 253 243 248 246 245 102 41 46 183 87 46 86 85 
37 0 7 8 116 226 159 161 189 159 191 145 171 186 193 194 172 152 199 138 128 141 121 101 88 120 141 140 159 150 145 133 146 147 140 135 128 129 139 133 137 156 133 108 123 119 114 22 79 130 88 73 65 107 108 129 79 139 215 74 44 116 115 116 26 38 69 75 47 39 41 23 63 136 74 67 53 141 117 94 
206 202 191 169 171 152 142 136 144 116 87 100 122 182 184 182 188 197 199 197 199 191 179 179 174 193 209 170 43 44 2 6 39 51 94 117 102 124 140 157 184 185 189 233 101 19 36 34 39 20 52 113 131 119 131 29 115 162 116 120 134 109 122 117 127 119 76 130 126 155 108 116 100 73 65 109 131 119 124 131 127 128 130 130 134 120 127 122 129 143 68 72 91 202 192 164 171 218 200 180 221 225 190 184 236 150 80 82 44 140 150 115 126 223 250 214 114 103 117 131 115 63 27 90 107 69 79 135 111 60 46 18 1 4 1 51 62 100 182 207 212 187 182 175 111 117 123 201 136 38 107 119 114 157 132 130 148 150 155 138 143 138 114 156 160 159 133 130 136 130 132 133 149 89 118 219 197 201 153 172 199 187 156 129 136 145 161 169 200 30 1 47 69 56 84 86 18 175 150 137 162 168 146 165 183 175 192 192 181 168 164 122 176 129 241 248 218 200 141 183 217 184 179 173 175 183 183 194 177 186 202 146 46 15 25 87 67 69 76 72 73 73 74 75 75 75 75 75 74 74 75 75 75 75 76 76 73 65 66 61 250 53 178 254 254 248 252 251 243 250 251 190 214 249 252 251 248 227 248 192 207 68 15 70 66 62 69 56 42 66 67 70 79 72 70 70 102 49 173 218 204 206 198 202 208 209 215 213 209 210 214 213 216 213 210 216 213 205 214 217 219 213 232 199 170 111 153 239 213 227 221 236 231 232 232 229 253 229 136 118 125 140 79 77 85 85 86 86 87 87 84 84 84 85 86 86 86 86 85 85 84 84 84 85 84 84 84 83 83 83 83 82 81 80 82 84 81 82 84 86 88 88 88 88 84 84 82 82 82 83 82 80 97 48 3 28 176 250 223 150 148 135 106 86 114 244 248 242 240 241 241 242 241 227 211 204 201 158 143 117 91 75 53 49 32 29 33 41 39 35 26 71 54 94 226 204 222 74 67 79 77 77 79 89 37 6 15 124 180 74 72 220 205 158 117 139 135 97 122 158 162 170 179 251 253 157 218 254 252 231 206 251 219 230 239 248 250 237 237 192 209 225 239 237 203 213 243 211 44 81 83 80 82 81 81 84 80 79 80 80 80 81 82 82 78 84 80 73 74 81 87 4 31 213 153 166 107 25 145 153 151 137 133 137 131 124 126 129 125 125 117 117 117 114 115 108 138 129 110 209 247 249 250 250 249 247 250 251 245 246 252 249 228 80 43 127 221 44 71 77 32 1 11 5 111 224 
155 159 189 167 180 151 168 133 179 207 174 175 218 136 124 123 46 86 90 68 51 35 79 156 148 143 140 143 148 135 127 135 138 136 134 170 153 151 136 133 121 34 65 119 74 72 55 89 122 80 67 162 200 67 62 97 73 105 22 46 77 70 36 61 70 52 70 103 76 87 53 127 128 92 
215 222 229 220 225 217 218 218 195 190 198 167 140 139 131 123 106 165 171 185 172 167 189 181 173 181 189 192 77 21 47 10 4 3 24 47 24 4 14 45 31 94 48 30 43 36 38 50 36 23 27 96 115 123 135 102 51 95 110 136 103 133 127 129 111 90 104 109 150 146 113 112 85 64 20 83 163 116 136 151 132 114 119 118 127 142 126 132 132 139 88 57 57 187 196 151 181 231 205 180 195 190 166 171 250 115 94 105 65 144 170 182 87 197 243 209 107 113 124 137 182 55 7 81 98 72 79 108 100 124 97 54 29 24 11 53 131 172 179 202 217 192 216 230 236 219 188 212 149 93 123 97 151 154 148 133 146 157 144 144 152 149 116 150 159 161 134 137 125 85 86 113 119 95 143 204 194 191 144 165 196 182 173 148 128 139 170 162 194 35 7 55 69 51 96 22 125 191 143 144 162 162 159 176 188 182 180 180 168 164 193 125 180 144 112 248 241 191 163 151 225 199 179 194 190 181 189 181 174 183 206 223 65 28 9 67 75 71 72 68 73 73 74 75 75 75 75 75 75 75 75 75 75 75 75 75 82 72 52 78 250 77 189 253 248 251 253 239 247 249 255 255 209 206 254 252 245 249 164 105 253 249 122 15 62 77 70 60 62 74 69 70 77 74 74 66 108 53 168 222 211 214 213 214 198 213 219 220 219 217 220 219 216 215 213 214 214 212 214 215 219 208 228 185 167 153 188 224 226 221 224 240 239 248 246 237 223 196 173 110 118 89 54 91 86 86 86 87 87 87 84 84 84 85 86 86 86 86 85 85 84 84 84 85 84 84 84 83 82 83 84 83 82 82 83 84 81 82 83 84 85 85 86 86 84 84 82 83 84 84 84 83 90 102 40 2 39 165 245 254 228 229 184 179 160 250 205 174 143 131 103 77 58 42 37 47 20 29 14 6 20 26 38 9 5 10 47 38 43 31 43 41 42 3 134 197 76 23 61 75 77 75 90 64 5 10 37 170 71 82 89 184 117 97 150 173 130 139 207 252 252 249 252 252 245 255 255 249 254 243 217 245 242 240 240 249 248 241 255 250 251 249 246 216 210 222 248 232 53 80 82 78 81 80 79 79 81 80 81 81 80 80 82 81 84 79 78 81 75 69 87 11 173 202 154 114 55 26 115 162 142 129 127 136 134 127 124 123 135 138 133 136 138 138 142 141 149 126 93 210 251 250 252 254 251 246 247 247 246 247 253 254 192 236 53 131 183 164 21 84 36 0 0 12 136 211 159 149 185 172 185 129 
169 163 181 202 172 140 181 141 127 60 39 124 4 77 59 58 49 105 154 142 145 144 144 134 128 137 140 137 130 154 173 147 123 105 84 35 52 81 61 42 66 123 100 100 96 174 181 63 46 60 107 117 11 46 62 61 33 42 62 60 75 85 72 77 62 83 112 115 
217 215 215 210 214 208 207 203 211 207 203 212 227 218 191 134 170 159 159 171 174 167 171 177 187 141 151 149 67 58 46 46 27 28 32 29 14 1 4 23 6 24 15 0 2 0 34 52 80 74 63 109 133 126 115 135 101 121 121 101 136 108 136 118 62 144 61 111 151 133 110 130 78 66 141 141 132 128 111 101 126 143 146 113 104 151 139 130 131 148 102 84 81 192 183 173 173 222 193 196 214 206 175 167 252 122 91 94 61 117 162 144 129 212 252 211 109 119 114 125 110 41 54 105 82 66 87 114 130 118 93 54 5 5 3 11 120 192 167 175 211 195 195 217 219 234 217 209 142 49 106 139 145 189 160 127 146 145 139 148 150 152 123 152 159 162 133 138 120 148 144 102 31 61 104 193 197 187 136 166 209 174 154 144 140 142 191 164 190 30 1 35 67 53 113 40 229 196 137 162 162 153 162 170 178 185 182 184 195 173 185 124 147 163 105 200 197 171 158 82 170 193 178 176 193 187 194 188 191 188 195 172 85 53 9 56 82 71 70 74 73 73 74 75 75 75 75 75 75 75 75 75 75 75 75 75 63 82 45 112 241 68 249 252 239 252 232 247 252 250 246 252 254 222 186 244 147 128 103 148 230 254 244 144 18 64 70 71 75 75 68 70 73 74 74 56 132 72 162 223 204 207 210 210 196 220 218 218 217 209 210 204 215 216 215 210 217 222 219 220 211 216 225 193 245 253 241 246 242 231 221 216 195 170 181 231 244 238 101 98 119 61 88 79 85 85 86 87 86 86 85 84 85 85 85 86 86 85 85 85 83 84 84 84 85 84 84 84 82 83 84 84 84 84 84 85 84 84 84 84 85 85 86 86 85 84 84 85 85 85 85 85 73 84 95 38 2 5 83 140 169 186 190 144 70 44 59 40 31 22 16 21 34 37 41 49 65 68 67 76 83 62 90 105 94 82 87 83 87 48 84 112 91 99 117 152 106 143 74 63 78 83 82 9 6 6 101 181 146 186 165 211 218 231 168 153 172 141 129 252 231 236 230 253 252 255 243 254 254 243 227 251 254 248 243 254 254 249 241 240 231 226 215 192 201 205 212 218 62 72 81 78 80 80 80 79 82 81 81 81 80 80 81 80 83 79 78 78 76 77 77 2 192 108 163 145 72 27 120 157 158 135 123 125 127 127 129 130 130 135 133 136 139 137 143 143 160 142 99 220 249 247 246 248 251 248 246 247 246 251 254 252 111 222 159 214 153 214 128 54 33 0 2 24 146 218 163 151 183 161 196 
133 149 170 187 197 171 136 147 149 67 9 70 98 3 119 84 89 40 82 158 140 148 145 141 135 131 138 144 140 135 173 123 69 71 49 52 37 20 38 12 17 89 102 104 88 86 165 176 71 53 74 90 84 16 64 56 50 45 50 70 70 68 79 71 61 56 63 89 88 
204 209 213 209 212 217 217 207 203 208 195 197 196 196 167 163 184 165 183 170 185 188 187 178 153 148 182 188 73 61 76 49 15 2 13 8 13 11 13 7 16 19 29 9 4 2 11 11 22 7 8 37 123 126 102 106 128 109 108 80 123 122 96 82 116 150 75 96 136 153 131 145 130 130 119 116 99 131 116 14 73 107 117 116 106 113 118 111 123 146 61 49 57 196 174 153 179 228 196 207 210 204 195 200 245 131 80 101 117 143 161 156 180 218 250 206 113 123 128 155 58 29 50 67 62 75 70 66 75 83 32 133 159 164 174 83 91 135 177 190 207 200 190 216 211 233 223 205 170 106 121 185 157 192 147 109 139 143 140 137 147 137 116 151 156 163 120 96 43 76 106 101 112 13 52 188 196 192 134 150 205 191 150 153 155 130 187 159 195 39 14 57 56 60 99 101 229 190 133 152 164 159 164 164 163 176 179 174 186 176 186 147 176 189 105 158 169 173 176 157 207 198 183 176 203 207 196 125 217 242 105 46 92 57 8 35 66 69 69 73 72 73 74 75 75 75 75 75 76 76 75 75 75 75 74 74 89 68 50 132 233 64 247 254 243 252 255 244 244 239 253 243 246 253 248 210 162 188 103 173 244 241 236 252 192 69 69 74 72 69 68 73 72 75 75 47 137 83 155 230 209 208 216 216 189 219 213 214 222 219 221 216 216 217 216 210 216 221 214 219 225 227 190 214 174 77 149 145 122 108 88 105 132 148 189 237 218 55 65 125 59 79 79 86 83 84 86 87 86 85 83 84 85 85 85 86 86 85 85 85 83 83 84 84 85 84 84 84 81 82 84 85 86 86 86 86 87 86 85 84 84 84 85 86 86 85 84 85 84 86 86 86 87 72 74 84 68 2 5 55 111 96 110 56 54 86 102 100 108 97 91 97 104 105 102 104 103 115 133 133 84 120 82 81 114 215 210 198 210 215 211 198 191 214 193 179 199 221 99 54 79 92 39 1 4 9 133 175 193 213 177 241 249 243 166 140 168 167 152 254 253 242 226 254 251 184 208 255 255 247 222 241 220 224 219 215 199 195 176 179 206 218 219 233 247 250 247 254 73 66 84 81 81 81 82 80 82 81 81 81 81 81 80 81 79 78 77 76 75 88 53 7 227 186 197 130 41 44 147 164 158 138 128 129 128 126 122 118 122 126 123 127 127 122 126 125 141 141 112 233 251 251 251 248 250 248 248 248 247 250 253 252 109 219 155 213 175 202 92 68 38 2 10 11 108 227 160 166 180 
158 184 142 150 173 182 200 175 153 188 152 35 1 150 67 8 110 82 90 44 82 147 135 145 143 137 134 130 134 143 140 133 134 80 158 220 217 233 253 225 240 235 246 223 43 86 76 49 158 154 51 30 74 50 57 31 64 42 32 37 25 30 47 53 71 55 54 39 76 103 93 
198 202 199 196 192 189 185 185 194 189 200 192 201 199 146 177 173 178 178 182 176 164 171 152 138 155 162 171 108 25 72 98 49 2 7 5 9 12 10 6 1 9 16 1 7 10 5 4 6 2 8 3 86 117 106 95 122 124 107 109 126 133 80 92 117 135 140 116 140 125 91 87 71 42 73 89 81 134 128 97 116 123 127 128 128 114 115 106 119 133 64 72 63 180 201 170 186 220 187 211 223 220 202 193 235 103 110 119 66 122 158 157 158 189 248 208 120 117 127 153 72 44 70 75 68 80 71 60 49 37 4 147 183 209 228 79 67 41 153 219 207 183 197 219 221 231 225 195 165 175 107 108 168 156 195 175 157 156 146 148 152 120 106 148 151 166 105 45 98 119 119 112 138 14 88 189 195 194 162 159 188 213 165 147 165 118 180 166 208 37 1 41 67 81 96 110 210 219 152 143 151 162 167 169 167 178 186 168 178 185 187 228 235 198 139 177 243 244 249 251 244 200 198 203 172 129 75 16 100 105 19 28 18 32 58 80 72 69 66 80 72 73 74 75 75 75 75 75 76 76 75 75 75 75 74 74 61 81 55 140 252 139 252 253 247 248 254 254 246 253 253 249 246 254 248 245 227 250 156 188 254 224 232 254 251 67 52 75 72 68 71 77 72 75 78 48 121 87 144 236 213 207 214 211 186 217 217 215 217 212 213 213 218 215 214 212 214 213 211 217 193 210 199 222 143 55 155 159 177 206 225 233 232 230 205 121 63 124 140 49 63 84 80 76 82 82 84 85 85 85 83 84 84 85 85 85 85 85 85 84 83 83 84 84 85 85 84 84 82 82 84 85 86 87 87 86 86 84 83 82 81 82 83 83 86 86 84 84 84 85 84 84 85 91 71 97 60 111 153 155 128 121 120 118 123 84 94 110 79 90 113 134 142 145 151 156 168 50 93 93 85 43 21 29 104 205 174 181 180 179 171 182 170 165 184 181 172 194 132 52 86 82 26 10 6 8 128 181 186 184 171 252 252 217 120 140 100 148 165 249 216 233 221 252 250 215 249 248 253 251 209 218 229 233 235 245 249 253 245 249 254 253 254 251 255 255 255 251 86 60 88 85 79 79 79 77 81 80 81 81 81 81 81 81 79 75 76 81 73 86 27 56 236 144 173 216 109 24 152 163 149 137 131 132 133 134 133 128 124 125 122 128 131 126 128 125 118 128 118 239 252 250 250 247 247 248 249 246 243 248 253 253 179 216 47 151 205 85 28 74 28 1 13 11 98 223 151 147 176 173 150 
129 180 192 172 196 171 148 172 138 34 15 137 39 13 105 100 106 70 90 154 139 139 142 134 131 125 125 137 130 128 97 104 254 244 244 238 255 245 240 241 247 219 35 52 34 23 163 147 50 19 45 51 71 34 42 37 43 61 43 38 76 61 59 44 55 28 64 107 116 
254 238 209 210 215 207 201 219 199 196 192 189 209 172 168 187 202 191 177 193 164 153 119 116 130 104 133 152 106 64 48 58 80 35 27 13 5 10 12 12 4 0 14 18 3 4 9 19 9 16 23 14 57 124 129 122 120 100 91 122 121 82 102 106 110 136 86 103 150 139 127 85 76 37 79 124 126 117 116 128 132 121 140 122 131 138 129 131 137 152 121 133 128 147 172 160 192 224 204 204 196 199 216 237 237 181 170 157 116 153 152 153 163 193 251 216 128 128 132 140 66 31 64 75 63 75 71 46 22 18 3 90 155 183 135 49 78 37 105 197 227 189 206 216 216 224 233 209 145 102 118 105 119 131 206 195 154 131 136 146 148 123 119 153 148 164 105 45 82 50 67 89 47 10 96 207 211 177 170 176 174 201 181 152 161 109 170 171 218 40 1 38 65 68 99 72 206 233 152 145 155 171 174 177 179 186 193 180 174 180 157 192 126 124 179 203 235 214 212 194 190 168 131 77 58 36 17 45 53 9 44 56 75 64 79 75 65 74 65 65 72 73 74 75 75 75 75 75 75 75 75 75 75 75 75 75 83 75 66 54 125 173 204 234 241 232 205 251 253 246 247 253 253 248 254 254 219 254 138 186 229 254 254 100 5 30 67 76 73 72 74 75 68 73 78 53 115 98 131 233 212 206 216 216 170 201 219 216 213 212 212 219 214 210 208 217 216 214 225 224 201 185 232 232 233 242 237 236 242 243 207 181 162 105 91 109 158 107 14 80 83 90 69 91 82 82 84 84 84 83 84 84 84 85 85 85 85 85 85 84 83 83 84 84 85 85 85 84 82 82 83 84 86 87 87 87 85 85 83 82 82 82 83 84 87 86 83 83 84 85 83 83 75 82 97 15 106 173 139 156 208 213 217 200 177 208 245 187 198 193 192 185 176 179 186 189 205 65 54 78 30 9 17 44 102 189 168 174 176 178 186 186 172 177 178 182 156 187 149 44 84 88 25 9 12 11 150 174 157 159 156 250 252 221 115 151 80 126 164 254 188 225 220 253 214 232 253 242 247 231 228 254 254 252 250 254 254 249 249 254 254 253 237 203 235 249 255 254 96 51 85 84 78 80 83 81 78 79 80 81 81 82 80 81 77 79 78 78 74 95 16 52 210 198 115 140 99 25 161 147 147 139 129 122 118 126 127 119 124 124 122 129 134 128 130 128 129 124 125 242 254 248 246 249 252 251 250 246 243 250 251 249 209 57 47 138 102 51 67 74 20 0 6 20 122 216 163 137 179 175 
144 132 184 188 176 171 166 161 146 122 27 42 55 11 13 108 103 104 73 76 155 123 141 148 137 132 122 121 135 123 115 107 83 247 219 217 228 234 210 221 187 178 144 39 39 46 13 131 151 56 28 34 49 74 47 42 43 42 64 62 48 52 55 45 44 54 41 44 81 82 
37 155 221 218 206 218 206 202 228 214 196 201 201 158 183 174 161 172 194 175 158 173 128 126 119 144 130 117 76 86 43 20 37 42 30 41 38 21 13 8 0 7 11 1 6 13 9 11 17 18 10 16 46 123 119 111 116 84 101 125 96 111 138 122 123 107 113 120 120 136 128 79 71 66 49 80 131 123 119 151 133 116 137 140 134 118 103 125 123 118 68 43 76 101 151 166 191 214 209 210 211 210 210 214 213 225 238 222 140 122 133 141 239 244 252 221 110 117 121 129 53 38 65 60 48 52 60 52 47 37 5 82 158 204 184 62 95 66 67 152 218 190 201 216 226 223 217 212 150 64 155 186 157 150 171 159 153 137 147 147 143 135 130 152 147 161 103 63 34 66 173 175 59 5 80 191 209 160 144 155 178 191 202 170 186 137 177 166 207 36 1 42 68 61 107 79 187 241 179 160 169 170 173 168 170 173 171 181 182 183 186 186 194 239 220 205 193 166 144 97 68 42 33 21 22 46 56 51 67 77 75 70 68 64 71 68 67 75 76 78 72 73 74 75 75 75 75 75 75 75 75 75 75 75 75 75 76 67 70 67 42 45 13 18 53 72 103 128 138 115 139 117 106 114 136 138 198 215 171 244 221 102 1 6 81 88 59 71 73 74 73 73 68 72 77 55 114 111 125 234 219 219 231 233 191 203 227 228 231 238 234 240 243 242 234 241 234 234 246 235 196 133 155 168 152 144 138 112 106 86 124 108 61 53 60 35 20 33 85 83 61 78 79 74 85 86 84 83 83 84 84 84 84 84 85 85 85 85 84 84 82 83 84 84 85 85 85 85 83 82 82 83 85 87 87 87 85 85 84 83 83 84 84 86 87 85 82 82 84 84 83 82 84 95 36 13 145 141 224 217 170 105 98 70 11 177 190 175 180 176 179 178 175 182 182 167 191 144 184 199 173 154 143 82 102 197 179 179 187 188 184 183 179 178 172 201 178 179 171 55 77 89 3 15 6 28 154 173 220 215 129 253 246 229 221 145 91 128 178 244 198 207 229 250 221 236 242 242 233 199 206 255 250 254 255 249 221 204 240 254 254 255 245 217 246 254 237 254 113 47 83 82 77 83 85 80 78 79 80 81 81 80 78 79 75 81 80 71 75 97 21 11 208 166 148 169 48 40 189 188 155 154 156 150 153 156 146 129 129 130 126 134 135 129 134 137 139 129 143 243 255 253 254 254 254 253 254 252 249 251 251 237 47 37 120 183 35 66 59 81 33 1 2 13 109 212 174 161 183 159 168 147 179 165 
186 159 175 186 193 126 29 31 78 15 21 109 101 102 73 78 161 130 143 153 137 129 121 124 139 121 119 91 0 194 251 212 232 238 209 208 160 172 105 26 20 49 30 142 156 50 39 45 59 99 42 33 37 36 46 55 66 47 34 39 46 47 60 49 81 84 
44 207 226 134 147 234 154 1 1 23 143 206 196 185 154 149 149 148 150 135 158 147 153 150 148 104 90 86 53 43 35 37 40 63 38 85 90 34 16 25 17 13 23 10 4 4 16 16 15 23 21 23 29 79 87 105 121 223 139 76 119 140 147 137 125 124 142 140 118 167 118 131 136 136 128 138 122 138 122 122 126 135 123 123 110 117 127 133 125 116 134 150 143 125 153 177 164 189 202 205 213 211 207 207 203 208 231 167 115 177 195 187 182 195 217 218 102 116 125 155 42 43 54 59 74 55 47 63 44 57 33 62 123 198 174 30 91 53 76 182 215 186 201 219 218 230 222 225 172 143 146 195 221 144 176 166 160 152 140 147 145 141 120 134 147 162 89 53 72 177 192 201 64 3 72 168 177 172 144 141 210 204 198 130 145 121 169 165 209 44 3 42 67 59 93 94 123 241 215 149 144 135 151 149 159 164 153 182 187 207 207 194 203 155 128 102 72 65 28 21 25 34 52 60 71 66 72 75 64 66 68 61 66 73 67 68 75 68 69 73 72 73 74 75 75 75 75 75 74 74 75 75 75 75 76 76 74 76 75 77 66 66 48 80 103 127 156 133 69 248 231 212 202 188 156 119 85 50 75 33 10 2 64 79 70 70 76 67 69 75 73 73 72 76 78 57 112 122 126 241 226 220 220 215 213 194 204 187 175 175 146 139 129 123 98 98 74 66 88 48 30 34 46 29 24 21 19 23 31 10 29 18 25 44 43 61 84 88 78 81 80 77 85 79 87 87 85 84 84 85 86 85 84 84 85 85 85 85 84 84 82 83 83 84 85 85 85 84 84 83 82 82 85 87 87 87 82 82 82 82 82 82 83 84 86 85 83 82 84 84 83 83 80 90 3 106 148 174 211 175 149 151 129 106 76 166 199 182 179 179 183 178 172 184 193 186 194 182 214 165 195 242 227 94 99 209 166 156 173 179 158 177 174 180 175 190 205 183 191 51 83 42 8 5 9 23 130 190 158 204 115 252 247 242 243 155 100 123 141 252 254 245 206 213 220 250 243 244 254 240 207 252 254 254 254 254 250 240 254 240 251 254 253 253 249 251 152 215 135 55 87 82 77 83 82 75 79 80 80 81 80 79 77 77 79 75 77 73 74 77 28 3 254 200 225 15 40 31 17 49 56 67 78 84 102 131 136 121 144 146 143 150 150 145 156 161 153 152 173 242 246 252 245 246 250 250 250 248 245 242 234 215 38 91 122 49 66 72 69 78 25 0 13 18 91 220 155 158 182 153 182 150 197 159 186 173 182 174 173 134 12 41 
151 10 37 108 112 112 73 79 144 133 141 150 131 122 119 126 140 120 127 85 8 171 244 203 225 235 209 201 182 154 67 48 41 43 7 167 123 28 20 15 48 93 40 23 29 43 20 4 45 50 44 59 52 50 65 51 94 145 
164 220 237 224 62 250 40 1 3 68 201 215 180 136 158 142 150 147 142 151 168 113 147 152 145 11 1 51 52 64 78 58 63 22 45 37 8 42 60 40 37 46 58 61 31 9 14 15 17 23 16 24 37 68 96 132 108 102 94 97 106 124 107 91 129 134 96 101 131 150 126 139 130 131 136 136 123 135 126 127 129 127 118 120 125 134 123 135 150 157 140 124 135 123 158 187 173 187 194 207 217 209 210 218 231 217 239 186 139 149 140 158 143 86 88 113 127 147 157 160 62 41 80 53 67 54 20 22 29 49 14 15 88 181 206 65 71 44 105 210 208 187 216 219 230 212 244 205 140 164 116 187 199 132 172 169 163 147 134 136 144 135 122 136 141 166 100 11 92 105 124 113 33 11 39 172 197 191 137 140 198 196 154 137 123 107 182 169 214 40 0 51 71 60 49 111 36 133 241 183 190 187 195 206 188 210 218 202 154 119 88 77 64 40 26 25 13 35 51 59 70 77 70 62 63 64 65 66 67 68 67 66 69 69 69 70 71 72 72 72 73 73 73 73 74 75 76 76 75 75 76 76 75 75 75 75 80 69 75 70 59 146 254 250 212 209 251 206 78 253 243 251 251 253 254 253 229 172 95 39 49 48 63 75 73 67 72 68 69 78 72 70 73 73 76 72 66 55 54 46 27 20 21 10 14 13 9 2 1 0 1 1 1 0 2 2 2 2 2 2 55 57 60 60 59 59 61 63 75 43 34 62 86 85 80 84 74 75 76 76 76 77 80 83 88 88 87 86 86 86 85 85 84 85 85 85 85 85 85 85 85 84 83 85 85 84 83 83 85 83 82 83 86 88 87 86 82 84 84 85 84 84 87 89 87 84 81 83 87 87 83 79 94 54 9 166 204 180 181 185 162 165 157 148 104 166 201 189 188 177 182 186 180 193 202 191 197 180 184 172 211 171 160 150 146 208 187 152 154 160 156 166 182 171 176 175 182 179 200 52 76 32 7 3 18 10 72 210 126 170 153 217 253 247 194 138 114 167 84 242 254 254 236 244 246 245 237 247 244 251 209 253 253 244 186 248 254 253 253 100 193 251 243 254 249 252 221 254 152 39 89 78 81 77 86 81 83 83 81 80 80 79 80 80 79 78 80 74 73 84 62 3 162 254 114 3 38 44 107 80 69 45 28 5 7 15 15 15 18 36 24 20 23 22 31 19 40 56 92 74 66 46 54 69 74 72 70 57 40 43 55 78 108 105 61 66 72 72 57 75 31 8 0 35 135 222 182 157 181 163 185 148 197 141 187 192 185 176 183 126 1 40 114 7 36 82 82 79 63 82 146 137 142 139 136 128 131 131 143 130 
91 71 64 222 230 210 221 215 151 110 173 128 52 62 32 38 17 165 123 41 19 50 57 92 33 45 33 34 22 8 17 47 44 61 63 60 70 56 84 173 
190 207 255 113 96 218 13 33 7 156 219 193 152 122 130 152 147 142 132 184 152 131 155 180 111 4 50 75 63 54 32 27 16 6 16 14 21 35 31 43 40 40 41 39 18 6 15 16 19 21 15 19 38 73 93 133 125 123 133 117 111 135 109 107 123 128 87 110 134 112 89 72 41 59 129 134 121 125 118 142 123 124 135 144 125 130 132 134 145 166 96 91 78 100 121 190 185 194 198 199 203 204 210 228 224 208 240 198 135 142 125 120 219 225 185 117 149 64 25 34 34 63 63 77 64 58 34 24 34 49 26 55 112 170 253 186 149 160 171 201 210 200 138 78 96 42 124 217 123 120 125 144 206 183 184 174 142 151 145 145 153 127 110 141 141 155 88 36 103 94 99 74 13 0 31 142 178 176 154 131 192 204 168 176 148 112 175 173 227 49 1 51 70 66 62 52 98 18 44 162 231 233 211 133 88 94 109 76 66 47 28 17 8 9 33 63 65 74 72 64 65 67 64 63 65 65 64 65 66 67 66 66 69 68 69 69 70 70 72 71 73 73 73 73 74 75 75 76 76 76 76 76 76 76 76 76 71 75 80 72 73 36 215 254 154 94 254 83 142 254 228 238 232 239 247 248 247 246 251 253 227 92 37 28 67 74 62 77 80 67 67 72 72 73 74 82 73 77 64 49 46 34 23 27 61 53 67 82 55 16 35 88 86 84 84 85 83 79 78 81 75 76 76 77 74 74 73 73 74 78 78 74 71 73 74 75 75 75 76 77 78 79 82 84 87 87 86 86 87 87 86 85 85 86 86 85 85 84 84 84 84 84 85 85 85 83 84 85 84 83 83 84 86 87 87 87 83 84 85 85 85 85 88 89 87 84 80 83 86 86 84 84 103 6 22 185 200 191 183 180 173 184 173 142 62 145 200 176 186 183 192 193 181 181 188 182 182 161 205 178 148 88 144 63 94 183 169 156 154 168 162 160 179 186 178 186 170 175 185 64 79 96 38 10 7 15 51 162 189 196 185 201 252 251 211 146 175 169 170 198 252 241 212 254 254 249 238 251 246 248 205 254 254 233 115 254 250 251 254 246 253 254 251 252 254 254 247 254 181 45 77 90 84 74 87 78 81 81 80 81 81 79 80 79 79 73 74 74 74 87 58 17 38 17 1 4 76 35 223 241 233 231 229 226 229 130 36 33 25 33 37 52 42 33 12 12 11 13 10 11 13 9 14 16 23 29 16 33 74 76 87 88 59 61 66 58 70 62 72 84 19 1 5 42 122 200 168 179 189 177 192 140 189 153 176 167 182 179 163 132 3 24 99 6 127 145 97 138 66 85 151 125 139 140 137 128 130 129 139 
129 59 67 142 247 233 210 227 192 137 117 211 99 17 52 20 45 48 159 117 46 62 44 26 45 65 74 62 51 39 42 29 17 31 42 56 58 60 75 118 212 
212 207 175 83 205 65 1 1 34 198 211 179 141 125 132 148 142 144 128 159 84 151 150 171 58 5 46 56 32 26 26 24 6 10 10 11 30 24 4 29 33 29 19 15 8 8 18 17 18 22 18 18 45 79 85 129 122 114 123 129 121 128 117 136 106 130 136 115 117 157 160 102 113 114 113 123 133 121 125 86 113 137 138 139 134 120 110 122 115 144 89 88 109 114 84 192 189 193 202 197 199 204 200 216 230 212 242 197 111 134 142 146 202 137 109 69 134 41 5 14 45 69 61 82 89 60 50 45 17 11 42 102 151 162 232 220 176 201 189 193 213 205 129 25 41 49 89 223 108 116 144 166 176 197 196 151 144 142 137 133 136 120 96 126 138 151 94 114 120 100 129 156 12 8 31 127 170 169 152 131 204 203 160 154 144 107 167 168 224 53 1 51 70 59 71 60 72 109 75 49 55 48 62 71 70 44 30 15 8 9 22 53 76 80 70 61 62 67 64 61 63 64 65 67 66 66 65 65 66 66 65 65 68 68 68 68 69 69 70 70 73 72 72 72 74 74 75 76 76 77 77 77 76 76 76 77 78 75 70 79 69 48 25 226 212 105 174 52 221 243 234 234 244 246 245 239 229 227 232 238 251 253 225 107 22 58 69 69 76 70 80 78 72 74 70 72 67 75 71 70 80 79 77 86 85 80 73 72 76 79 76 71 69 68 68 71 71 70 68 70 75 74 71 71 70 69 68 67 67 71 75 75 72 71 75 78 74 75 77 79 80 81 83 84 84 84 84 83 84 85 85 85 87 87 86 86 85 84 83 83 83 85 85 85 83 82 84 85 83 84 85 85 85 86 87 88 84 85 85 86 86 86 88 88 85 83 80 82 85 86 87 88 85 3 100 148 167 200 200 178 169 173 161 124 12 122 211 189 194 190 190 189 186 182 181 181 192 173 168 193 161 190 202 95 92 173 150 164 173 163 148 168 180 183 174 170 173 188 191 47 77 92 64 0 17 5 14 158 138 187 228 181 133 135 174 148 129 134 130 142 129 116 70 119 252 248 238 253 233 239 207 250 248 255 253 253 247 252 252 253 254 245 249 252 254 252 239 217 124 64 81 81 84 80 81 82 78 79 79 79 80 79 80 78 82 76 76 78 71 75 19 2 4 2 3 10 77 48 219 207 194 199 207 210 230 117 29 57 36 21 21 47 28 38 36 64 35 33 23 144 243 226 202 173 165 119 93 88 99 80 47 46 75 61 76 83 72 74 63 73 36 4 1 17 112 223 168 162 194 178 187 133 184 165 160 155 169 180 187 116 13 34 73 121 240 166 196 167 33 115 131 137 138 140 139 129 129 127 
137 127 53 0 104 208 207 206 236 209 143 154 142 48 37 36 23 19 13 145 108 28 49 15 44 67 55 60 61 51 27 49 51 44 37 61 152 89 35 96 182 188 
192 189 221 173 195 33 7 9 102 215 202 161 140 136 143 138 150 169 191 103 67 147 155 141 1 9 28 47 21 32 31 19 24 19 26 30 30 19 4 11 18 16 7 7 9 13 21 17 20 23 24 21 54 87 79 123 125 120 102 128 123 110 123 131 128 133 117 125 114 136 152 97 97 111 131 122 123 133 125 96 110 137 121 121 135 117 101 115 120 128 116 94 128 133 79 183 200 199 216 211 213 218 201 206 220 209 232 191 102 131 145 154 187 56 103 115 154 106 44 16 32 56 87 75 94 51 33 49 33 42 25 67 141 154 253 214 155 165 194 206 208 201 222 111 53 44 105 234 98 125 193 164 158 148 148 143 152 137 143 113 107 100 82 101 103 129 98 153 106 86 127 186 3 6 31 136 182 181 134 144 221 196 157 139 148 127 184 169 215 50 0 40 76 61 59 70 49 65 78 93 88 61 31 24 8 7 16 45 60 70 77 73 61 56 63 73 60 63 64 66 70 67 64 67 65 65 65 65 66 66 65 65 68 69 68 68 69 69 69 71 72 72 72 72 73 74 75 75 76 76 76 76 76 76 76 76 70 70 80 73 79 83 58 27 170 247 247 51 251 246 240 244 240 239 239 241 242 239 231 226 236 251 251 231 222 86 18 68 66 74 73 69 73 76 73 72 78 69 74 76 66 67 72 64 68 76 77 69 65 69 72 70 70 69 70 72 75 76 75 74 72 70 68 69 70 70 69 68 73 65 64 71 75 73 69 69 73 75 76 78 79 82 84 84 83 84 83 84 84 85 85 85 87 87 86 86 85 84 84 83 83 84 84 83 82 83 84 83 83 85 86 86 85 85 87 90 86 86 86 87 87 88 89 89 86 83 81 83 84 86 90 92 50 9 128 29 108 207 183 177 179 176 172 140 7 95 206 189 190 189 183 184 187 183 178 183 182 171 178 176 159 186 183 127 92 154 145 149 162 171 160 169 183 168 175 183 181 186 194 52 73 79 86 7 14 15 9 74 157 107 229 225 171 176 169 179 89 124 124 106 116 121 165 147 218 254 235 240 241 255 231 253 253 248 254 254 253 228 213 198 145 115 98 74 68 47 46 32 62 79 87 75 79 84 80 81 77 78 79 79 79 79 78 76 79 76 77 81 76 83 8 3 0 17 4 8 67 89 223 196 196 195 211 202 231 193 186 219 196 153 129 161 146 141 108 83 87 76 44 154 251 249 252 254 252 251 244 248 250 247 163 79 61 73 72 61 65 63 73 79 22 0 8 13 107 229 146 135 195 167 180 145 202 195 178 201 176 158 176 124 1 2 62 121 85 99 123 5 2 124 140 138 142 142 139 130 129 127 138 
127 21 2 150 252 217 212 232 213 160 103 125 28 9 39 13 12 55 189 102 13 42 47 85 43 58 54 69 72 31 34 27 21 10 20 140 103 61 63 137 215 
172 210 163 99 188 211 229 191 163 216 180 132 124 141 147 161 179 190 212 53 142 151 171 68 2 17 36 34 27 44 28 33 22 23 37 41 34 23 11 7 8 11 6 8 13 16 22 18 22 24 23 22 55 92 83 126 124 134 115 124 117 118 128 119 119 131 133 113 119 170 106 94 87 90 104 128 138 142 127 123 121 105 102 120 126 106 108 124 125 121 156 159 142 162 133 176 193 191 209 202 198 203 192 202 216 217 241 215 142 152 132 123 134 73 153 135 157 148 97 73 70 86 97 62 99 76 39 46 78 33 23 47 139 152 232 222 156 122 189 199 205 192 213 70 7 3 95 230 86 95 120 104 112 151 153 153 153 152 113 130 240 242 248 238 173 127 80 136 112 98 124 161 17 11 28 138 193 189 130 156 223 193 164 173 132 107 158 149 203 55 4 45 65 60 61 67 70 55 61 56 60 58 43 52 68 87 75 70 68 64 60 59 63 67 65 60 71 71 67 67 69 66 63 69 66 66 66 67 67 67 67 67 70 69 70 70 71 71 71 71 72 72 71 72 73 74 74 75 75 75 75 75 75 75 75 75 74 79 74 76 65 68 61 61 19 165 218 106 249 239 236 243 233 238 244 248 250 246 241 238 234 253 230 173 134 230 159 26 67 82 70 70 80 74 76 78 76 68 75 79 71 75 79 72 75 67 65 72 76 73 69 69 70 69 68 68 69 70 69 66 72 71 69 70 72 74 73 71 66 72 72 69 69 73 73 70 75 75 75 76 79 82 82 83 83 84 84 84 86 86 84 84 86 86 86 86 85 85 85 85 85 85 82 81 82 85 84 81 83 86 88 87 85 85 87 90 87 87 86 87 88 89 90 90 88 85 84 83 83 86 90 95 44 16 38 158 120 206 186 174 185 168 170 153 18 114 221 186 179 188 186 186 186 177 174 185 177 169 202 208 161 168 203 190 191 143 156 169 148 148 164 177 180 188 174 183 177 209 185 44 77 85 88 69 3 4 15 10 135 157 101 159 201 155 179 161 103 120 84 109 94 111 72 38 71 241 252 251 253 251 209 202 193 149 89 83 73 55 17 14 34 39 48 57 76 75 80 87 80 80 80 86 75 81 84 78 78 78 79 80 79 78 76 76 79 78 73 73 73 88 9 9 12 1 5 20 53 80 235 207 209 204 219 203 216 192 205 205 213 220 220 238 195 191 225 221 210 215 174 195 251 234 239 242 228 237 247 238 248 249 76 71 132 48 66 73 72 69 68 70 42 2 7 4 89 217 142 167 211 173 182 146 191 183 158 194 177 155 180 141 4 4 153 247 139 124 121 145 240 152 132 135 147 145 139 129 
130 128 140 129 22 0 139 247 223 218 225 194 157 115 94 41 13 8 9 6 40 177 110 21 13 62 82 40 77 69 63 59 20 33 26 11 21 30 112 48 25 25 36 83 
185 220 126 112 184 196 210 201 209 184 154 146 130 154 160 189 182 212 144 51 175 169 154 4 1 17 36 31 64 41 25 28 22 45 51 47 48 28 7 7 10 14 7 9 15 14 18 19 23 23 17 20 52 91 93 133 117 117 126 124 115 126 116 128 137 124 121 121 98 168 123 53 108 154 135 119 110 124 132 118 120 143 147 114 118 136 133 124 124 141 148 152 165 133 126 191 189 194 216 212 198 196 201 218 206 207 232 205 135 135 122 117 139 107 150 102 122 69 45 55 43 80 113 74 113 33 68 126 29 34 30 42 130 153 251 156 88 71 189 217 213 189 204 146 153 146 167 179 102 116 130 137 114 101 164 140 152 163 95 230 251 253 252 252 245 135 63 152 122 99 125 176 16 1 15 141 188 179 138 160 222 193 137 158 178 130 163 158 216 63 1 39 67 75 65 60 71 84 61 66 58 65 76 68 70 56 58 62 64 64 64 65 67 69 67 64 63 63 61 62 67 66 66 69 66 66 66 67 67 68 68 69 70 70 69 70 71 71 71 71 72 71 71 71 73 73 74 74 74 75 75 75 74 74 74 75 70 76 71 79 75 76 71 71 61 28 53 192 254 245 244 240 240 241 243 245 247 245 241 237 250 253 130 14 86 150 252 145 29 61 78 80 77 75 79 71 73 80 73 69 76 72 63 69 64 72 77 72 69 70 70 68 71 72 71 70 72 73 72 70 71 70 69 70 71 71 71 70 68 66 68 72 73 72 75 80 77 76 75 76 79 81 82 83 84 84 84 85 86 86 84 85 85 85 85 86 86 86 86 86 86 87 84 81 82 85 85 81 84 86 88 87 85 85 87 90 88 88 86 87 88 89 90 89 88 86 85 85 84 86 89 93 87 9 14 139 183 200 163 180 185 166 167 138 22 99 214 180 181 181 175 171 177 175 172 180 203 139 48 105 76 160 203 202 195 171 184 170 184 191 181 202 206 200 188 186 190 200 176 43 85 72 81 96 52 7 2 5 18 139 177 133 102 80 74 132 137 151 134 146 141 132 114 124 128 169 125 81 59 45 61 115 128 40 69 168 195 203 165 73 81 89 81 79 88 83 75 85 86 85 76 84 82 81 78 79 78 79 79 79 78 77 76 76 78 80 74 72 74 85 5 4 12 6 8 35 38 87 233 186 197 195 205 215 224 187 201 199 188 205 205 219 162 163 215 195 199 202 166 181 252 242 243 244 249 234 241 252 231 254 84 16 189 156 19 79 60 77 59 83 29 0 11 13 107 242 147 160 203 169 184 145 188 193 172 205 190 177 182 139 5 1 147 253 251 253 253 254 246 124 140 143 148 146 140 
130 130 129 142 133 24 5 148 245 224 211 222 186 134 139 87 24 50 66 38 9 65 163 126 36 9 72 50 55 31 73 79 71 28 46 46 23 26 35 132 22 46 82 146 171 
254 135 120 207 196 210 214 204 208 167 157 164 166 174 174 182 170 217 69 111 154 169 90 2 18 24 21 8 75 52 33 30 38 67 64 55 54 23 2 6 14 15 4 7 15 11 14 19 21 21 13 21 50 86 99 130 126 110 126 126 114 116 99 128 123 115 122 127 117 136 86 122 104 97 123 127 130 109 82 144 119 112 128 124 131 103 85 128 103 82 125 156 156 140 149 192 184 188 206 212 196 188 202 218 219 207 235 199 118 121 146 153 159 107 160 143 166 83 51 70 67 69 93 58 121 9 119 250 71 8 19 28 113 159 254 138 65 49 120 207 211 194 209 229 233 254 225 158 254 252 253 254 254 98 122 125 122 106 98 250 249 251 248 246 254 91 28 162 127 95 124 177 1 6 48 169 178 177 137 150 223 194 127 122 168 131 170 165 214 61 1 45 74 55 77 61 63 61 67 70 68 70 70 54 61 64 71 62 60 61 62 63 63 63 65 67 65 68 66 65 69 67 62 63 65 66 66 67 68 68 69 69 69 69 69 69 71 71 70 70 71 71 71 71 72 73 74 74 75 75 75 75 75 75 75 76 73 79 81 75 56 73 64 72 82 66 42 34 98 216 249 245 251 244 233 233 239 243 242 239 235 254 54 15 80 253 235 252 76 40 64 77 66 78 78 73 73 80 73 70 79 76 68 74 72 68 71 78 76 67 65 71 65 69 70 68 68 70 70 70 73 73 74 74 74 74 76 76 83 70 67 78 80 70 69 77 78 77 76 77 80 83 85 85 86 86 86 85 86 86 87 87 85 85 86 86 86 86 86 87 86 91 90 84 81 83 86 84 85 87 87 87 86 86 88 89 88 88 86 87 88 89 90 89 86 85 84 86 88 86 86 86 95 45 2 54 173 207 201 149 157 133 139 110 22 72 203 193 191 185 175 173 183 184 175 167 185 132 60 106 127 180 200 178 167 110 152 166 119 103 90 68 48 73 62 73 151 72 55 79 82 69 83 79 104 70 19 3 4 7 42 100 136 180 179 140 119 122 114 66 52 81 108 84 108 95 65 24 53 62 21 15 27 70 48 168 208 191 170 58 69 76 76 74 84 83 80 82 70 86 79 77 84 83 74 81 79 78 78 78 78 78 77 77 73 77 76 80 84 85 11 7 11 12 8 39 28 108 229 197 201 205 203 215 197 158 199 202 204 201 191 212 153 173 214 190 199 202 163 192 254 237 238 247 238 238 237 239 253 250 58 78 34 231 72 56 80 68 59 73 15 0 12 4 94 239 149 165 200 163 180 141 181 185 166 184 178 181 185 159 0 5 155 253 201 222 217 242 207 118 129 140 144 146 144 133 130 127 142 136 58 41 170 
240 198 226 211 132 91 34 35 39 59 43 45 28 64 151 123 36 26 73 35 64 49 97 77 70 26 33 47 50 7 34 154 81 170 190 207 201 
243 40 183 73 40 67 82 115 129 158 160 123 182 187 182 172 192 180 6 149 161 170 24 0 24 21 45 16 95 105 12 6 48 67 65 58 45 16 2 6 12 12 1 5 15 9 11 19 17 19 11 25 50 82 98 121 125 121 117 120 115 122 120 130 127 121 122 112 114 188 148 46 63 92 123 130 145 104 84 126 100 79 125 128 120 106 95 118 115 119 99 90 97 146 83 173 199 193 197 208 197 190 208 220 224 199 237 207 121 120 153 145 156 105 163 120 125 83 48 76 65 75 107 95 126 5 82 235 151 23 10 38 117 150 246 84 50 52 62 212 217 200 205 218 217 221 193 225 247 251 253 251 254 212 89 101 106 75 127 231 65 34 76 166 248 97 35 101 117 101 124 123 2 31 69 138 177 193 132 135 221 195 166 142 145 139 196 178 205 52 0 47 75 58 68 68 68 60 72 60 67 64 61 71 60 64 60 64 66 65 64 64 65 63 64 66 66 68 63 59 63 66 64 65 65 65 66 67 68 68 69 70 68 69 69 69 70 70 70 70 71 71 71 71 72 73 74 74 76 76 76 76 75 75 76 77 75 78 82 69 74 67 60 63 59 60 73 54 18 23 70 186 250 249 250 251 253 254 251 245 252 254 47 64 66 201 230 253 254 79 57 81 68 76 68 82 78 69 74 76 69 71 74 66 66 71 74 72 70 71 68 63 70 74 74 71 69 69 68 66 67 70 71 71 70 72 74 76 71 79 82 77 76 80 83 82 81 79 78 80 82 84 86 87 86 87 85 85 85 86 88 88 87 86 86 86 86 86 86 86 86 94 95 87 81 82 87 88 86 87 87 87 86 87 88 89 89 87 86 87 88 89 89 87 87 85 84 87 90 87 83 82 89 70 3 11 123 141 207 227 201 116 87 83 61 93 185 145 145 149 152 153 150 140 122 104 98 104 143 134 100 77 84 62 65 59 67 73 64 74 73 84 73 63 76 107 111 62 82 81 78 80 75 85 79 93 95 72 38 25 17 7 37 46 19 53 128 44 94 152 201 253 154 5 67 48 38 25 111 84 4 68 42 67 60 157 178 181 198 66 67 71 82 78 82 79 86 78 93 74 80 87 76 79 82 75 78 78 78 78 78 78 79 79 78 77 71 73 74 67 6 4 4 11 10 42 21 112 235 186 183 203 210 212 159 138 212 204 200 196 200 227 150 175 208 205 184 198 149 190 254 245 245 239 244 239 241 247 245 249 98 79 34 132 240 18 73 56 70 74 32 0 4 12 108 242 147 169 206 161 178 149 191 188 170 182 179 175 205 153 34 61 55 177 253 235 242 200 108 132 148 139 138 146 147 136 129 125 142 138 60 16 143 252 210 253 195 107 63 
45 57 44 56 39 65 14 53 159 116 36 61 81 32 28 66 73 24 53 44 37 37 47 14 41 191 205 183 173 172 191 
191 116 180 47 71 87 104 121 133 147 135 102 155 184 169 168 216 59 29 119 140 102 2 10 16 21 60 12 92 125 96 43 53 90 24 24 20 12 14 8 17 13 8 10 7 10 20 15 11 17 10 24 36 78 75 127 123 134 128 120 137 114 127 119 118 121 118 108 114 150 169 74 91 116 121 120 95 125 123 124 114 96 123 123 95 109 124 123 133 143 92 103 103 144 86 152 200 198 200 195 196 206 211 218 220 211 239 202 121 127 116 150 146 68 157 105 117 69 55 64 58 76 62 69 134 22 3 2 65 43 6 41 118 168 170 29 72 81 53 175 227 189 201 216 219 208 193 234 153 63 62 117 251 218 115 118 112 93 125 91 2 85 134 142 251 112 64 44 131 136 138 98 2 13 8 129 188 194 140 145 222 186 199 182 144 115 176 171 216 56 8 34 74 66 65 68 65 65 68 72 69 63 68 67 65 65 58 63 65 65 65 63 68 59 66 62 62 63 67 62 64 71 54 69 61 68 73 65 65 70 66 70 66 75 62 69 71 68 72 71 71 71 71 72 73 74 74 74 72 74 76 77 77 76 75 74 72 73 76 64 60 77 84 68 68 62 46 57 45 28 27 11 27 77 128 164 199 242 251 254 254 223 120 146 193 245 255 236 161 27 46 73 76 68 69 80 73 75 73 73 78 77 74 76 73 63 74 71 76 81 63 72 63 73 70 62 80 61 73 66 68 67 71 64 68 78 62 69 67 50 56 51 49 53 62 42 47 71 74 90 80 80 86 88 88 84 81 85 88 87 86 86 88 87 86 86 85 85 86 86 86 85 84 83 84 85 88 89 87 88 88 89 89 89 89 88 90 90 88 88 88 88 90 90 90 87 86 85 88 87 86 84 81 93 40 3 32 168 136 159 217 208 198 198 203 199 173 152 146 134 132 125 126 127 116 121 121 134 120 125 105 89 83 81 84 68 69 74 70 75 81 74 57 51 77 69 71 84 83 83 81 81 81 79 80 81 85 87 96 95 94 99 55 7 141 254 208 251 251 251 251 254 182 20 51 52 28 18 106 100 76 64 101 101 57 139 218 201 212 87 64 76 78 81 81 80 83 76 80 78 77 77 79 80 79 78 80 79 79 79 79 79 78 78 77 80 73 71 79 65 5 8 15 2 11 56 17 114 240 200 195 209 210 222 221 171 200 199 200 201 208 196 150 172 214 200 169 172 123 198 253 248 248 243 249 237 245 248 251 244 205 47 141 40 214 138 16 70 70 78 29 0 4 9 127 216 159 167 201 174 180 136 188 177 161 203 166 160 179 146 53 141 68 76 134 126 118 103 143 155 140 137 143 149 146 142 129 125 136 135 32 6 7 227 219 146 209 
109 68 61 48 49 37 59 40 9 48 167 112 23 76 49 43 16 22 50 67 43 53 36 39 19 11 14 100 185 178 166 186 198 
190 252 86 46 124 100 142 155 150 157 119 129 158 176 171 178 187 18 97 138 153 32 4 28 37 35 29 5 94 114 116 87 138 120 4 8 11 17 15 21 16 24 20 9 19 62 68 18 15 14 7 12 29 75 66 134 123 90 132 126 119 128 131 135 125 103 124 129 115 159 140 120 106 89 119 99 75 99 96 107 121 128 102 96 116 128 120 82 80 106 105 96 114 178 85 148 210 200 202 194 185 199 217 225 219 198 219 214 131 121 95 46 138 102 141 151 146 77 41 65 59 81 35 23 64 12 4 24 64 61 13 34 87 103 43 30 91 85 46 106 202 199 199 205 206 207 219 147 27 65 31 93 253 238 104 106 118 82 130 89 21 148 125 196 182 121 66 41 38 76 77 34 35 21 15 153 181 199 156 156 219 188 117 156 164 120 170 171 211 85 1 32 70 67 73 74 66 61 59 58 60 62 64 62 62 67 67 66 56 61 71 65 63 61 64 68 73 59 60 65 63 55 74 60 70 66 69 68 72 71 65 72 67 67 64 75 71 67 64 77 71 71 71 72 73 74 74 74 76 74 73 73 74 77 81 83 73 84 67 81 79 93 80 76 51 59 64 71 84 121 86 37 38 18 13 70 36 38 32 73 112 124 178 199 148 148 57 8 7 48 83 77 73 74 76 69 76 77 76 81 68 74 72 69 79 71 76 74 67 71 76 74 77 72 69 70 61 81 70 67 74 71 84 62 54 45 57 65 79 109 123 147 184 174 202 198 151 83 44 57 86 82 88 75 80 85 85 82 82 86 88 87 87 87 86 86 85 86 86 86 87 86 84 84 84 85 87 88 88 88 89 89 89 89 89 89 89 89 88 88 89 89 90 90 90 89 87 86 89 89 87 84 80 89 93 76 8 19 116 152 141 123 109 102 91 100 92 96 75 70 80 79 75 70 59 59 57 48 46 30 17 36 38 36 36 27 33 40 35 40 49 47 47 63 66 63 86 83 80 82 83 84 84 84 83 81 80 79 71 81 100 48 23 117 254 249 169 251 252 252 248 248 215 12 83 69 44 6 92 99 70 93 117 111 79 131 204 195 213 85 56 72 78 83 80 72 78 85 80 79 78 78 79 80 80 80 79 79 79 79 79 79 79 79 76 73 71 76 90 56 3 7 3 3 11 56 33 162 220 185 199 207 210 211 206 172 196 187 201 201 210 170 122 206 210 195 199 199 157 228 253 242 243 246 237 247 249 240 251 206 240 118 128 122 95 242 65 67 57 79 18 5 5 8 128 224 151 177 219 183 183 142 172 185 162 219 176 170 192 134 74 144 112 124 96 91 127 147 145 153 150 138 148 154 148 141 127 125 139 140 29 28 10 215 194 1 207 30 30 23 52 53 11 14 43 7 
72 177 89 42 69 39 51 43 54 87 34 25 44 27 28 21 26 13 86 191 173 179 177 188 
218 190 63 83 106 128 122 151 170 167 123 165 165 161 156 196 100 9 130 141 126 3 13 26 33 36 4 17 114 107 98 71 202 68 1 27 8 17 24 16 18 21 8 24 58 61 42 28 25 19 29 41 38 41 24 133 126 85 120 124 119 126 114 131 120 130 123 114 113 145 113 110 103 109 121 127 121 124 123 121 108 117 82 72 107 132 128 94 95 127 143 151 154 162 68 133 215 199 200 189 174 191 212 222 212 198 235 216 103 111 137 102 175 83 79 103 111 146 105 68 52 29 33 71 68 28 48 77 59 47 32 49 74 24 124 65 57 63 69 175 207 189 182 202 200 208 190 140 38 39 39 202 161 185 112 105 107 77 122 251 253 245 244 154 189 163 65 109 46 54 61 43 59 12 36 156 193 189 154 142 184 192 133 196 146 120 196 181 224 100 1 37 72 65 62 64 65 69 71 65 67 70 65 64 63 61 64 60 74 65 62 56 60 71 62 60 54 70 67 67 69 72 61 71 69 57 55 53 48 34 25 39 60 72 85 65 64 84 70 68 71 71 71 72 73 73 74 74 73 74 75 76 75 75 75 76 76 57 129 99 28 30 28 26 65 213 220 222 188 236 201 58 70 59 143 253 225 205 145 61 38 49 52 8 31 20 41 66 86 89 61 63 75 72 73 78 76 76 76 61 75 71 78 76 69 84 72 71 78 72 69 72 69 67 68 64 69 68 57 59 59 39 68 88 118 137 153 151 143 123 107 91 87 90 88 138 225 214 207 89 47 78 72 85 86 87 87 84 83 86 90 91 88 87 86 86 86 86 86 86 88 87 85 85 85 85 87 87 88 89 89 90 90 90 90 89 87 88 88 89 89 89 90 90 90 88 87 88 90 89 87 84 84 71 80 96 89 10 18 26 47 88 128 129 125 92 62 56 37 37 54 61 59 64 66 66 72 87 97 137 156 134 145 144 148 145 155 159 149 150 160 160 173 187 121 63 84 76 79 86 82 82 82 82 82 80 77 75 80 65 11 15 167 233 227 254 155 240 254 241 236 247 249 37 76 118 90 26 80 105 75 102 93 58 18 74 187 172 176 102 66 82 74 70 79 82 82 77 80 79 78 78 79 80 80 79 79 79 79 79 79 79 79 79 73 78 78 67 88 55 7 13 12 14 14 56 27 197 214 195 202 200 206 210 207 192 223 216 218 214 221 201 137 214 197 207 196 186 171 247 247 242 249 237 242 245 241 235 253 208 241 91 140 97 104 248 82 50 63 80 29 2 1 11 129 242 157 168 171 150 196 147 186 185 168 203 172 161 176 120 96 153 132 135 136 133 147 154 142 140 139 149 146 153 147 138 123 122 137 138 45 7 30 
250 169 13 249 40 29 29 50 38 30 75 51 14 57 173 83 53 48 51 46 31 45 59 9 41 25 9 12 28 17 22 141 197 177 171 192 186 
229 104 39 102 108 132 140 145 149 139 129 176 170 158 159 207 20 56 120 146 68 6 17 28 38 38 4 20 112 108 93 101 176 35 30 37 34 23 12 15 14 5 37 78 54 16 12 5 2 16 35 47 43 33 21 124 127 151 128 115 121 120 128 131 126 123 112 112 123 116 81 59 79 134 113 117 110 101 95 112 100 79 93 103 106 75 70 114 103 135 133 93 94 150 106 130 207 198 199 193 191 205 218 232 223 198 231 187 87 106 124 121 193 171 148 152 184 121 9 38 32 58 59 31 41 45 48 32 25 33 41 36 22 57 252 197 66 64 42 172 195 183 193 199 196 196 168 232 233 242 246 233 128 230 71 95 123 75 102 252 254 253 250 126 197 149 63 117 86 46 49 2 2 3 27 148 185 185 166 152 191 190 168 188 157 82 193 154 192 63 1 40 67 63 64 65 64 66 65 58 61 62 59 69 71 65 69 70 61 65 67 69 63 65 65 69 73 70 50 69 60 52 48 30 35 29 38 50 73 105 147 198 148 5 44 88 72 59 70 78 71 71 71 71 73 73 73 74 72 73 75 77 76 74 71 70 81 81 98 36 24 98 153 201 201 199 148 231 215 235 165 194 232 199 220 254 228 230 253 246 108 87 73 28 66 75 77 64 53 49 62 71 72 70 70 72 73 71 79 71 83 75 75 63 80 68 74 82 73 74 78 65 58 54 56 55 71 68 87 108 116 137 142 146 104 88 97 82 98 124 140 169 195 191 168 108 110 134 176 230 139 56 77 79 84 77 75 81 85 85 87 92 87 87 86 86 86 86 86 87 88 87 86 86 86 86 87 88 89 89 90 90 90 90 90 90 86 87 87 89 90 90 90 90 90 90 87 88 89 89 86 83 84 85 86 70 85 101 31 62 110 137 147 117 137 111 136 154 147 140 151 156 150 157 166 163 78 71 35 124 237 222 224 222 219 220 227 226 215 213 217 217 214 229 148 55 79 83 82 82 82 80 79 80 80 81 81 81 75 92 94 16 7 59 164 250 250 225 249 245 247 253 225 33 31 31 28 61 47 54 60 55 86 106 134 161 218 220 201 94 59 78 76 76 82 80 78 77 80 79 78 78 78 78 79 78 77 78 79 79 79 79 79 80 76 80 81 62 83 40 4 4 10 3 13 66 33 203 207 183 192 192 198 209 179 136 175 180 190 210 200 207 157 216 218 216 214 213 177 236 249 245 235 249 245 237 248 241 243 236 138 44 129 54 247 56 32 68 69 75 29 0 24 30 113 227 166 168 159 168 230 158 174 158 178 211 175 163 172 133 108 148 94 95 123 130 134 144 158 153 139 146 139 148 146 137 123 
122 134 132 39 1 137 253 115 154 114 22 22 47 26 8 53 40 67 9 61 152 80 44 37 82 36 4 63 44 8 45 28 33 16 39 35 17 122 201 167 166 172 183 
202 46 58 80 86 125 137 164 128 110 130 166 162 160 180 140 6 79 106 114 6 6 31 69 42 29 28 38 112 104 73 122 75 28 79 67 45 38 51 34 30 69 84 52 11 7 21 16 2 18 31 50 32 8 27 133 150 84 108 117 125 137 105 129 117 106 120 91 96 140 122 85 58 86 84 85 103 103 77 95 81 54 47 59 103 80 54 89 91 72 129 118 96 111 82 138 193 195 193 190 202 203 195 207 194 191 213 186 145 156 154 172 212 204 165 174 171 83 19 17 82 86 66 42 54 58 46 36 15 35 49 30 13 80 196 56 125 179 157 188 211 180 192 193 190 196 157 240 254 254 253 205 75 254 83 95 113 70 124 245 240 254 248 205 251 134 65 120 182 209 189 190 192 72 29 176 200 199 167 145 185 172 161 174 190 85 151 157 202 69 3 41 68 67 70 68 61 62 68 71 65 66 66 68 67 64 63 59 64 66 58 63 63 56 64 59 56 61 68 50 44 65 79 109 147 168 201 220 223 219 211 224 190 5 7 20 66 75 72 69 71 71 71 71 73 73 73 73 75 74 72 72 72 74 77 79 85 44 91 55 51 249 250 253 215 167 125 249 252 254 99 154 227 127 138 251 229 223 246 250 128 56 199 122 27 56 67 70 63 99 96 54 71 72 75 76 80 73 74 83 65 77 81 76 67 60 55 43 52 55 52 78 94 113 131 145 114 133 134 94 75 64 109 114 154 218 222 245 237 186 144 125 148 114 175 203 228 180 115 140 216 171 49 64 83 85 86 87 86 84 83 82 87 87 86 86 86 86 87 87 87 87 86 86 87 87 89 89 89 89 90 90 90 90 90 90 85 86 87 89 90 90 90 89 90 90 89 89 87 86 84 83 78 80 88 84 89 9 88 239 170 87 52 130 248 232 220 212 222 217 223 227 217 216 220 208 61 68 60 106 201 206 192 196 197 198 201 200 195 194 194 193 191 206 141 53 81 89 81 77 85 84 82 82 84 83 83 82 82 83 91 89 75 16 4 42 164 162 183 179 206 187 100 90 104 126 132 170 197 216 214 186 183 165 129 102 90 46 36 49 80 81 73 81 85 74 74 82 79 79 79 78 77 77 77 77 77 78 78 77 77 79 79 78 78 67 75 79 97 34 4 11 7 10 15 66 67 217 236 218 228 227 222 234 169 77 102 110 97 98 98 157 134 120 108 102 129 91 128 252 251 238 242 245 241 249 240 239 250 168 65 77 27 239 100 28 70 61 72 79 30 0 26 27 115 219 170 163 199 189 192 160 174 176 187 202 174 162 185 155 128 148 87 99 117 120 129 134 142 145 146 134 137 148 146 137 
124 124 135 131 64 1 97 252 254 84 0 12 43 63 53 60 29 20 56 11 74 152 102 50 15 43 41 51 45 58 21 33 37 29 5 27 6 12 134 209 183 187 195 207 
115 13 54 99 94 122 148 155 126 107 135 165 156 172 186 43 41 79 138 78 6 12 28 42 51 13 21 39 113 108 73 127 126 96 88 86 56 59 87 36 38 105 87 41 50 42 12 3 11 27 26 31 8 2 13 76 122 86 156 133 39 70 127 112 162 169 179 199 205 190 149 151 139 106 89 75 101 89 145 156 149 129 141 150 142 142 179 153 170 162 212 203 163 158 176 196 199 200 197 198 213 210 193 202 201 210 199 214 237 242 243 247 241 194 146 146 115 54 10 21 62 69 61 63 42 59 54 42 51 52 44 44 18 46 16 27 147 190 175 178 198 184 175 194 183 192 150 232 244 245 250 205 150 211 109 98 114 90 121 253 252 240 253 114 203 124 53 128 82 61 53 50 223 252 47 147 195 180 181 185 190 181 144 150 238 217 114 143 208 61 1 38 75 65 64 67 66 65 65 62 65 70 72 60 59 69 63 58 45 48 50 54 75 75 77 58 62 51 45 71 40 174 240 215 223 219 215 205 202 201 197 205 203 3 1 3 54 77 78 65 71 70 71 71 72 73 73 73 74 74 73 73 72 73 74 74 84 68 54 25 73 245 252 252 218 178 211 253 229 251 135 183 253 190 172 244 232 218 234 251 121 87 104 5 41 86 67 56 74 238 197 49 64 79 85 65 69 78 74 60 65 46 40 54 42 52 113 138 133 131 116 118 121 93 93 78 112 128 120 168 159 175 160 196 233 123 109 79 80 73 81 76 87 81 109 229 223 238 240 161 124 196 212 80 49 65 74 73 76 86 92 89 87 87 86 86 86 87 87 88 87 87 87 87 88 88 90 90 88 89 89 90 90 90 90 89 86 86 87 88 89 89 90 89 91 90 90 89 86 85 84 82 74 89 79 78 11 97 232 137 55 57 153 228 220 198 211 203 205 204 205 210 208 208 210 199 216 230 224 212 198 184 200 203 203 204 203 201 201 201 200 198 206 210 146 56 83 82 78 84 85 86 86 86 84 82 79 76 85 73 72 75 80 95 85 33 4 38 89 84 52 80 132 235 251 251 239 181 175 177 185 171 158 97 63 60 64 85 94 85 62 70 73 78 79 77 82 77 79 79 78 78 77 76 76 78 77 77 76 76 76 77 78 77 86 73 74 69 75 23 4 3 2 2 9 71 80 94 93 128 168 162 156 187 158 101 124 129 130 131 136 142 143 156 166 160 156 149 192 254 247 252 252 233 243 238 238 233 250 114 60 23 208 157 23 59 73 71 55 66 31 0 3 7 133 228 166 159 178 169 175 172 188 161 177 199 174 151 180 147 148 149 117 121 130 157 159 154 145 143 141 136 
140 148 144 133 121 124 136 131 46 9 20 142 169 143 178 156 134 30 42 37 44 20 34 37 93 149 85 34 17 31 71 85 17 39 12 37 36 3 8 26 34 53 152 174 176 176 181 155 
165 131 135 161 149 156 134 110 100 97 139 165 160 186 136 15 116 110 135 15 2 19 24 30 30 9 22 46 110 80 33 26 46 81 68 77 85 47 45 53 69 55 50 61 58 47 41 19 21 28 23 6 6 39 25 4 128 164 192 223 119 74 197 113 82 79 69 82 109 90 61 61 57 62 76 67 69 33 159 187 142 145 128 125 137 66 46 65 64 66 69 73 70 71 136 110 83 67 71 76 81 87 85 86 89 112 120 124 118 104 111 115 118 112 90 49 46 72 34 31 40 66 47 42 28 30 31 45 40 46 46 22 34 43 86 54 129 182 182 201 210 190 168 195 188 187 151 219 254 248 236 238 251 195 92 104 122 84 117 254 249 243 251 135 203 99 100 249 237 233 240 176 163 190 8 155 192 174 184 195 176 182 151 160 173 202 115 135 216 65 3 38 72 62 63 71 67 56 49 44 52 39 44 27 24 37 26 38 51 70 102 52 40 36 42 43 54 87 88 250 211 191 210 199 199 197 197 194 196 201 197 205 197 23 3 3 56 78 63 74 70 70 70 71 72 73 73 73 71 73 75 76 74 71 68 66 60 96 125 54 48 83 95 151 167 181 142 107 144 138 131 144 129 116 167 253 245 248 249 201 77 59 10 49 79 72 64 70 52 162 134 54 75 72 71 81 77 78 69 79 100 107 111 136 178 169 150 111 93 92 95 116 115 135 128 138 159 153 230 145 143 159 105 129 197 70 87 98 100 91 89 104 100 87 99 241 229 230 244 246 173 114 189 216 117 105 94 87 85 86 87 85 88 87 86 86 87 87 88 88 88 88 88 88 88 88 89 89 88 88 89 89 89 89 89 89 87 87 87 87 88 89 90 89 91 90 89 89 86 84 84 82 85 78 110 3 97 230 187 220 44 130 233 202 202 206 193 206 205 209 203 205 204 203 209 201 213 213 192 207 200 194 210 192 202 205 200 195 198 199 195 193 186 214 142 52 87 79 82 87 84 86 86 86 83 82 80 79 76 86 89 83 78 73 78 94 99 73 16 11 90 213 190 95 185 254 241 154 174 172 138 117 69 73 97 100 100 96 99 101 62 62 72 83 77 74 83 75 79 79 79 77 76 75 76 77 77 77 76 76 76 75 76 75 75 73 77 69 78 74 79 67 10 35 35 8 7 4 1 3 1 1 1 8 8 7 17 16 24 14 28 20 22 14 21 31 44 34 126 244 253 245 251 251 249 252 250 249 245 102 32 162 179 16 83 64 58 63 65 84 19 4 2 15 129 218 167 174 196 171 171 160 190 161 174 197 179 158 169 132 144 120 113 86 50 100 115 149 138 155 144 139 139 147 142 131 120 122 132 124 42 52 
25 7 3 0 0 23 9 46 47 23 14 11 13 3 77 138 95 30 20 28 74 86 46 39 9 31 33 10 42 50 43 37 58 68 27 10 15 47 
178 195 199 159 83 114 120 74 79 93 148 161 158 178 52 21 80 95 83 1 16 37 13 36 3 19 29 48 105 86 80 42 21 19 23 21 77 71 62 72 54 28 41 69 51 44 69 69 56 32 51 60 45 54 35 32 101 112 150 149 131 142 203 178 150 30 48 28 39 37 18 7 6 33 76 60 59 35 127 171 151 137 145 112 93 37 2 2 3 2 2 2 2 2 82 104 47 11 11 9 2 2 9 1 4 1 23 19 8 17 14 11 23 63 68 34 36 36 49 55 49 37 41 46 38 42 78 62 44 36 42 12 12 6 28 29 57 187 188 159 208 173 178 190 186 150 229 252 243 246 249 237 240 196 95 99 98 82 122 254 250 253 249 231 217 40 111 252 253 252 253 253 155 177 7 109 166 183 163 152 165 175 168 199 184 100 179 153 206 75 1 43 73 67 68 65 52 52 79 109 85 57 82 98 120 146 153 198 207 205 225 117 97 133 172 210 195 221 232 184 150 192 202 197 196 195 199 198 200 199 199 212 223 19 1 8 41 78 72 71 70 70 70 71 72 73 73 73 75 74 72 72 71 72 74 75 70 55 86 97 44 26 48 29 44 174 153 53 251 214 92 51 52 30 71 244 204 171 96 46 12 40 71 78 71 73 67 75 63 51 61 67 73 78 65 75 74 66 88 202 142 193 152 117 124 135 136 131 129 137 145 131 132 129 132 120 140 141 155 137 128 177 145 124 191 104 82 95 102 93 184 114 105 109 110 227 210 237 236 234 250 211 127 176 161 110 77 80 88 82 81 88 87 87 86 86 87 87 88 88 89 89 88 89 88 88 89 88 87 88 88 89 89 89 89 88 87 87 86 87 87 88 90 89 91 90 90 89 86 84 82 82 78 88 5 44 236 188 242 247 236 117 213 198 209 200 201 200 199 207 201 203 205 200 205 199 194 202 205 199 189 200 194 206 203 206 201 196 200 200 196 195 183 236 153 48 89 80 89 82 87 87 86 84 83 86 90 93 86 68 81 84 75 81 80 82 72 4 66 241 253 145 62 66 205 247 199 209 241 222 164 128 164 93 85 91 99 90 96 89 212 109 46 68 84 75 80 75 79 80 80 78 76 76 77 79 76 76 76 76 75 74 75 74 80 73 76 77 82 84 96 85 82 77 97 76 95 113 124 114 92 123 147 119 105 128 127 127 122 130 142 141 153 135 130 109 79 61 25 1 10 12 26 60 90 110 157 196 249 120 94 85 38 77 65 64 70 67 65 78 28 2 0 28 123 221 179 171 200 187 171 158 165 178 176 215 163 165 166 134 127 86 94 50 1 4 4 62 33 111 146 137 136 145 143 136 124 124 129 118 48 98 94 49 43 24 29 
25 21 42 35 20 54 44 26 22 82 123 107 37 33 36 47 64 38 68 46 14 21 22 29 44 65 39 39 39 50 30 53 79 
200 180 185 188 177 143 113 129 100 119 166 163 159 140 4 62 88 106 29 9 23 15 50 45 8 29 25 64 87 65 204 56 28 47 46 34 50 66 46 88 89 37 52 68 43 21 50 57 37 69 43 70 80 82 70 39 25 17 3 2 3 1 3 4 7 77 114 80 74 92 112 111 96 96 107 84 100 78 76 108 73 79 66 63 64 43 28 21 9 24 16 12 22 6 28 96 98 92 74 55 40 44 49 17 8 17 55 32 38 39 41 36 62 90 49 36 26 50 39 66 65 44 46 70 59 68 38 37 26 29 30 35 10 17 44 77 51 171 142 23 194 177 188 177 183 158 230 255 242 243 251 249 244 210 104 102 94 86 141 200 161 196 143 217 248 40 111 250 244 249 254 250 129 226 30 132 178 178 174 166 161 188 177 191 204 134 208 176 219 68 2 33 73 65 59 56 50 156 153 142 219 211 211 224 221 220 210 214 204 208 205 197 226 216 199 209 175 179 175 119 45 175 220 193 194 198 200 197 201 206 196 177 202 62 1 4 31 80 66 73 69 70 71 73 73 74 74 74 67 71 75 74 72 71 71 72 66 65 65 53 60 80 77 73 50 41 35 35 29 19 19 29 23 30 20 31 22 3 5 34 74 80 70 75 73 72 74 73 69 74 74 74 74 70 69 74 74 67 78 183 127 131 139 146 156 141 136 126 141 164 154 149 173 160 198 187 137 136 140 138 124 176 191 140 171 101 105 126 100 95 141 108 103 87 117 147 126 220 240 232 250 208 146 205 42 63 82 84 86 89 86 83 91 71 74 89 89 86 89 88 87 89 90 91 91 90 90 91 91 91 90 89 88 88 87 87 87 87 86 87 88 89 89 88 93 91 89 87 86 83 80 76 120 64 12 212 195 239 190 166 179 153 208 205 194 206 199 203 203 203 202 201 199 199 198 199 200 205 205 206 201 194 205 199 208 204 201 211 211 199 195 194 188 224 154 49 88 87 79 83 90 89 87 83 82 85 94 100 77 81 80 89 77 78 98 74 4 79 254 250 190 92 158 149 189 254 231 138 164 171 131 205 231 147 77 94 94 91 91 77 224 251 108 54 79 83 69 88 78 79 78 77 78 78 79 79 78 77 77 77 76 77 77 77 75 74 80 67 50 49 25 1 1 46 202 140 190 155 150 158 162 165 173 167 158 164 175 169 171 156 162 157 143 156 165 163 133 182 203 118 78 75 60 58 19 33 26 47 52 63 49 59 75 64 65 58 61 70 70 83 27 1 1 31 137 214 185 170 189 189 178 151 163 165 179 202 181 144 166 136 119 71 10 6 62 179 174 142 131 105 146 138 134 150 142 134 126 125 134 125 29 
99 104 64 65 61 52 27 25 41 36 64 60 45 72 10 87 175 108 30 45 38 36 48 45 88 46 27 32 32 27 90 89 43 38 51 89 54 45 53 
158 165 193 185 193 195 192 162 145 129 124 133 176 91 3 58 113 91 1 5 15 14 26 1 1 32 3 39 50 89 119 1 50 57 30 46 2 2 2 12 20 10 22 46 16 48 40 4 5 11 20 2 2 15 36 67 11 9 3 1 4 1 1 1 2 10 24 9 9 8 21 28 20 8 16 10 27 17 5 4 2 1 1 11 1 0 9 12 14 18 23 18 14 12 29 43 61 49 45 50 46 42 43 31 38 59 17 14 66 58 62 46 9 42 43 37 47 55 35 59 60 54 35 42 50 55 18 33 74 18 33 39 47 27 64 47 28 126 145 169 207 183 173 198 188 174 238 253 243 252 250 233 226 220 119 118 132 146 145 198 163 149 141 249 246 65 121 252 249 251 247 254 198 179 12 148 202 199 168 164 131 165 159 209 197 116 167 166 215 75 1 38 79 58 63 54 163 132 15 59 216 206 205 202 198 206 198 197 198 201 198 186 210 208 199 210 174 157 181 122 92 174 212 198 197 199 200 198 200 200 193 185 212 106 1 2 21 78 75 70 70 71 72 73 73 74 74 74 73 75 72 67 70 78 77 73 71 68 77 69 55 38 13 21 9 21 35 46 70 112 156 181 186 163 249 209 239 228 128 33 67 66 59 79 71 71 81 71 74 76 74 74 76 74 72 76 77 64 66 173 137 137 137 131 134 130 124 148 179 199 192 178 180 106 119 147 140 140 133 138 134 157 171 140 169 146 101 124 116 122 103 98 108 107 99 143 219 221 226 249 243 124 176 138 68 81 87 84 84 86 85 86 78 126 119 84 86 93 86 92 88 89 90 91 91 90 90 91 91 91 90 89 88 88 87 87 87 87 86 87 88 88 88 88 92 90 87 87 86 85 81 79 40 23 178 231 114 241 165 140 114 136 216 197 203 202 201 202 200 199 200 204 206 205 203 204 197 192 201 207 197 212 205 205 206 202 192 195 199 199 200 197 194 205 159 56 80 79 91 86 87 87 88 87 85 84 86 88 84 88 80 82 80 84 68 6 75 253 216 235 207 121 167 170 191 242 233 77 83 211 178 205 248 140 67 101 97 90 101 73 200 251 127 48 88 70 89 67 79 79 77 77 77 78 78 78 77 77 77 77 77 77 76 76 72 74 82 46 5 3 6 6 4 55 77 87 178 139 138 149 140 140 143 140 133 141 153 151 150 151 142 134 144 141 142 136 181 224 254 251 250 250 247 239 230 213 185 139 104 76 44 50 72 65 72 79 68 64 74 73 29 1 1 21 126 210 167 159 188 177 158 172 174 179 170 190 180 152 151 130 107 31 13 31 52 136 146 152 153 108 143 133 132 146 142 135 125 121 130 126 89 111 99 
80 87 65 54 47 34 52 47 21 14 36 50 16 99 162 95 47 35 38 47 54 69 87 26 20 24 27 31 23 62 71 24 39 34 35 14 37 
75 138 164 215 218 199 189 188 209 182 148 139 133 6 3 39 37 28 69 69 21 40 35 5 14 32 20 39 73 63 24 21 59 37 33 48 33 15 26 19 20 25 15 35 31 105 91 34 79 120 67 87 69 28 32 73 75 78 75 47 45 62 72 60 55 42 40 32 39 36 37 27 30 28 46 42 38 49 55 69 49 3 1 2 4 8 1 7 8 3 2 2 7 12 14 2 4 2 20 16 18 39 32 46 44 34 33 33 48 64 58 45 41 42 51 29 44 47 35 65 66 65 43 15 80 84 19 46 51 19 20 33 31 31 54 28 39 64 103 214 210 185 180 206 199 169 222 252 245 238 242 254 234 231 107 132 140 139 118 123 162 190 172 148 103 78 155 248 247 248 255 254 168 175 32 126 147 144 144 146 176 174 175 194 178 137 197 190 224 76 0 31 75 50 44 164 85 32 30 87 206 197 209 204 199 201 196 198 196 201 196 183 200 206 206 216 196 182 196 174 114 170 217 210 206 204 202 201 201 200 201 206 217 148 4 2 13 76 70 67 71 71 72 73 73 73 73 73 74 73 72 72 73 75 72 69 68 63 48 20 43 77 95 151 198 227 249 249 248 250 249 246 251 203 199 136 235 248 253 201 6 44 86 72 66 70 66 75 75 78 76 74 77 76 73 75 67 71 65 173 140 132 137 136 137 146 131 140 137 135 139 140 133 72 84 116 133 146 139 141 136 149 156 110 127 158 96 96 101 110 105 102 90 95 72 160 247 228 237 249 135 172 187 62 79 85 85 81 83 84 86 92 71 133 121 73 85 101 89 86 88 89 91 91 91 90 91 91 92 91 90 89 88 88 88 88 88 88 87 87 87 87 87 88 89 88 87 87 88 86 84 81 43 4 6 197 203 245 208 122 148 163 210 202 214 200 203 206 199 205 204 199 199 205 205 200 198 231 211 195 214 207 202 202 199 206 203 197 195 197 200 193 189 210 163 37 81 78 82 90 84 85 87 87 85 83 81 79 84 88 80 81 85 90 65 4 81 249 215 233 201 134 130 86 166 249 239 125 123 219 179 180 202 144 90 90 91 92 84 83 211 194 43 77 71 82 78 90 80 79 78 76 76 76 77 76 78 77 77 76 76 75 75 75 76 76 88 45 4 3 10 12 22 44 94 149 165 144 151 145 131 129 137 144 148 153 153 146 157 157 148 148 140 119 154 181 224 235 225 234 253 251 252 252 253 250 255 253 246 254 164 98 53 59 66 68 80 72 59 88 23 1 4 25 134 225 160 160 178 192 158 170 185 181 158 206 171 140 164 123 97 45 18 13 82 99 103 103 64 63 153 128 135 145 143 138 126 119 129 
132 78 92 83 68 80 69 59 48 24 87 39 10 32 40 47 31 54 140 74 59 47 50 51 76 39 52 15 23 33 4 10 33 52 41 67 35 24 44 64 47 
16 25 22 55 113 193 194 208 204 227 211 205 161 71 85 87 80 2 4 1 4 4 27 131 109 138 244 229 216 214 218 214 219 222 186 201 231 183 213 199 210 212 205 202 208 228 227 215 220 229 250 234 238 252 249 237 253 242 253 233 210 229 247 227 248 245 253 253 253 248 253 254 254 253 254 254 246 253 242 253 221 174 202 180 168 145 142 127 125 132 115 95 85 61 50 71 39 42 17 16 16 15 9 1 1 7 1 3 1 1 1 1 1 2 28 2 5 16 3 3 6 29 5 4 23 22 5 15 19 8 26 32 8 8 54 50 63 52 85 193 212 197 195 200 209 196 239 254 253 255 253 245 252 194 91 136 131 144 150 136 98 86 66 99 126 117 150 251 242 253 245 241 108 192 5 115 168 157 150 140 214 167 173 142 130 115 185 172 222 69 0 40 65 23 206 158 25 61 107 203 207 192 201 205 207 201 195 201 198 203 200 190 198 209 208 214 207 165 192 203 142 109 215 208 198 199 201 202 197 193 192 195 212 178 5 2 9 58 74 72 70 72 72 73 73 73 73 73 72 69 71 77 76 69 68 73 63 35 155 220 238 254 254 249 249 246 243 238 233 233 240 250 212 6 17 2 212 249 221 250 180 26 69 56 63 68 71 71 73 78 77 74 77 76 73 74 75 75 43 165 150 141 138 138 137 136 114 125 128 137 140 149 125 118 137 136 134 144 141 141 141 138 163 133 136 151 94 104 100 107 100 96 107 144 144 125 237 216 245 179 136 210 86 63 78 81 81 82 87 86 86 91 94 79 77 92 96 83 81 95 89 90 91 91 90 90 91 92 92 91 90 89 88 88 88 89 90 90 89 88 87 87 87 89 88 87 87 88 88 87 85 83 104 57 7 4 210 205 210 134 165 142 205 217 191 203 193 197 196 200 200 200 199 202 206 207 216 227 220 206 191 174 186 184 196 205 202 200 199 201 206 198 201 210 178 53 82 94 92 78 86 84 83 83 83 83 82 83 82 82 81 85 83 85 85 60 6 59 254 246 210 117 122 82 136 231 208 102 111 191 154 139 130 134 95 90 93 90 91 104 96 92 91 62 74 76 71 76 79 79 77 77 76 75 76 76 78 78 76 76 75 75 75 75 74 69 86 46 10 15 15 8 16 56 80 157 166 133 148 137 129 126 128 133 136 139 146 150 152 152 151 149 151 190 214 195 202 225 219 231 249 246 253 242 243 253 222 229 249 236 100 191 175 76 57 73 64 63 68 79 30 1 2 15 127 229 161 172 194 207 179 165 176 167 169 204 192 143 175 116 80 60 44 13 79 
116 115 117 81 87 148 123 139 145 146 140 127 119 129 141 91 101 87 50 49 53 61 58 73 43 13 15 35 70 57 11 92 175 92 66 53 57 58 81 29 40 34 17 31 12 3 16 38 19 22 39 33 50 74 22 
105 67 51 35 26 37 131 150 113 142 117 142 183 186 177 177 170 164 129 87 87 69 90 145 90 43 137 194 189 190 183 176 181 181 164 154 172 167 152 185 154 154 169 161 139 126 148 163 169 138 174 154 178 201 167 190 221 201 233 240 192 200 219 191 187 159 158 169 182 181 191 190 199 195 187 193 202 210 190 217 189 164 194 183 178 190 218 200 213 216 200 213 222 229 216 229 225 216 213 216 209 208 185 194 189 175 171 172 151 157 137 125 104 105 111 79 64 112 133 147 155 152 88 184 173 178 164 93 170 116 114 99 107 198 76 73 74 72 99 180 160 145 140 153 160 142 183 227 237 248 251 253 192 114 114 146 139 163 142 140 126 136 121 129 146 116 152 252 243 247 255 238 129 203 1 97 184 183 145 166 220 182 193 171 184 137 165 162 221 68 0 37 44 74 253 210 18 98 242 245 215 207 199 199 205 204 198 198 200 203 203 193 195 209 208 207 212 170 175 187 158 124 218 204 203 201 198 194 192 196 199 201 198 199 31 1 13 42 79 63 71 72 73 73 73 73 72 72 72 71 70 71 73 73 71 70 44 80 253 254 240 226 234 237 234 225 224 230 234 232 238 249 253 53 71 23 195 241 213 199 240 48 119 84 67 50 83 49 63 74 78 76 77 76 73 75 75 78 39 160 159 148 136 147 140 130 120 132 154 162 137 138 146 144 151 141 135 140 138 142 129 140 200 166 143 162 90 98 102 98 86 110 202 197 139 140 209 246 196 106 199 145 52 82 81 83 83 87 91 88 84 89 86 81 90 89 79 90 99 82 89 90 91 91 89 89 90 92 92 91 90 89 88 88 89 89 90 91 91 89 88 87 88 89 89 88 88 88 88 86 85 82 76 99 55 5 12 223 149 77 82 107 100 169 241 238 223 219 222 216 217 227 228 223 229 241 105 11 29 27 194 212 211 205 218 221 219 225 228 227 226 218 219 224 176 64 80 81 74 90 85 84 83 84 83 85 85 85 83 80 82 86 77 76 88 89 63 4 1 169 253 233 215 97 129 252 248 195 171 176 201 177 166 155 96 112 105 90 109 94 38 61 113 61 83 78 83 78 77 76 76 76 75 75 76 76 78 77 76 76 75 75 74 74 75 70 88 36 5 8 11 11 16 82 66 161 173 140 142 140 131 139 147 146 140 134 142 156 172 161 148 142 166 241 235 202 174 224 237 243 253 253 247 242 246 249 249 248 250 247 96 101 147 185 110 56 64 67 70 78 26 1 2 12 125 222 
158 164 183 213 178 161 192 178 173 208 180 150 154 123 79 24 35 18 102 122 117 126 56 75 150 139 141 142 145 138 124 117 127 144 96 86 80 59 53 49 65 83 52 31 26 42 33 29 38 9 92 158 87 34 8 33 77 96 47 37 52 32 17 5 6 5 13 20 18 15 43 40 10 43 
64 86 98 88 50 26 94 100 87 109 107 147 175 172 161 189 187 184 190 219 201 199 176 179 171 129 164 197 209 192 178 183 195 200 189 192 207 195 205 208 196 186 200 203 169 188 214 203 207 195 189 212 190 209 224 174 211 215 232 227 164 197 226 181 94 130 179 194 197 192 201 200 200 207 203 200 200 199 186 232 190 163 176 172 206 220 110 171 135 154 182 199 131 154 164 149 166 179 160 177 172 182 190 180 192 188 196 195 185 205 202 210 220 229 223 236 219 215 207 219 191 189 150 175 178 171 160 125 173 98 120 71 58 188 159 24 66 71 133 220 202 183 197 213 209 206 196 144 96 136 166 152 152 118 142 141 143 152 138 151 134 136 128 138 151 125 175 252 251 249 242 237 131 198 2 115 183 179 148 181 217 176 184 176 170 142 154 168 208 77 0 37 39 160 238 221 28 237 230 105 168 216 208 201 198 205 208 205 207 205 204 199 192 208 209 209 211 185 170 192 206 203 201 210 193 194 197 200 204 207 209 208 223 245 63 3 7 14 98 63 71 72 73 73 73 73 73 72 69 75 73 68 73 80 66 43 79 229 217 254 228 250 245 231 233 237 239 240 238 236 237 240 252 51 49 30 142 249 215 253 202 8 66 75 59 92 219 133 57 71 77 76 76 76 75 77 68 80 51 149 162 143 134 154 139 138 145 149 167 165 138 140 141 136 135 128 132 140 139 140 144 133 176 124 130 212 111 80 107 133 117 152 194 176 173 207 173 153 105 225 191 43 81 89 82 84 83 85 90 88 86 91 93 86 86 92 91 86 87 91 90 90 91 90 89 89 91 92 92 91 90 89 88 88 89 90 91 91 91 89 87 87 88 90 89 89 89 89 87 85 83 81 79 79 86 76 6 4 237 208 91 83 120 73 114 187 162 146 150 144 132 119 114 119 121 120 45 23 43 19 218 207 189 186 174 163 135 109 82 62 67 74 51 4 6 8 47 71 93 80 83 84 86 87 87 86 83 82 84 83 83 82 78 78 75 68 96 113 29 10 18 86 148 144 114 192 175 80 84 135 129 115 141 105 64 38 46 65 36 37 37 25 69 80 44 67 73 82 77 76 76 75 75 76 77 78 77 76 76 75 75 75 75 74 78 73 87 25 4 9 11 16 18 75 64 188 149 134 138 130 121 133 143 148 150 145 139 141 180 173 148 134 176 234 210 227 203 254 253 246 248 246 243 254 250 240 253 242 252 237 138 154 120 120 187 136 51 61 70 80 22 2 5 19 134 221 176 171 
167 204 179 181 196 182 175 204 162 152 162 138 98 30 13 22 92 81 85 109 39 91 172 122 137 136 143 134 120 116 122 143 99 76 75 62 54 42 45 50 23 21 63 30 40 41 5 33 96 156 84 23 27 47 57 62 59 38 16 20 36 19 22 9 25 55 39 59 5 36 47 46 
99 52 51 75 116 142 77 100 137 123 81 144 169 166 162 192 206 192 173 186 175 169 119 178 156 108 151 186 219 208 228 200 209 193 208 192 203 185 181 179 202 198 194 200 183 204 192 164 200 175 180 182 201 178 201 192 207 249 235 210 148 204 235 190 124 173 209 199 201 208 217 209 212 213 220 221 225 223 205 224 183 166 175 174 249 255 90 251 150 162 216 250 133 180 197 141 204 254 123 182 181 150 228 114 67 212 144 176 228 145 145 158 172 171 101 133 185 181 151 140 151 177 128 1 1 3 10 13 7 18 18 142 69 24 120 94 52 73 152 222 228 199 208 215 209 218 227 184 105 109 127 112 115 129 147 150 164 155 146 151 137 121 114 141 149 122 169 247 246 243 255 235 218 187 1 125 186 169 173 161 204 166 182 175 149 144 164 181 209 83 2 24 53 169 222 246 150 246 232 48 109 208 204 207 195 199 206 207 211 207 208 205 189 202 204 204 207 184 180 162 152 82 104 218 212 212 218 220 211 193 179 174 90 84 74 5 23 74 61 72 71 71 72 73 73 73 73 73 69 74 75 72 74 74 61 42 227 202 211 234 219 237 229 234 232 237 237 230 228 232 236 239 251 73 12 5 83 250 253 253 28 32 88 72 55 78 160 107 62 75 77 74 76 77 76 77 77 74 49 110 169 150 140 141 142 140 134 128 155 146 132 130 136 139 143 137 134 137 136 135 137 125 161 134 141 191 165 177 190 181 169 243 180 103 159 117 58 70 239 192 36 74 77 83 81 85 84 83 87 89 88 91 84 92 87 82 89 96 91 86 90 91 91 90 90 91 91 92 93 91 90 88 88 89 89 90 90 90 90 88 87 86 88 90 88 88 89 87 85 83 82 81 80 81 79 74 82 11 5 138 228 186 174 120 115 112 81 93 81 81 66 47 46 54 43 23 70 99 59 44 25 25 22 8 4 5 4 4 14 41 90 121 190 181 199 189 182 85 57 74 80 83 86 87 87 84 82 81 83 83 83 80 80 82 73 64 91 76 46 57 33 77 101 143 145 189 170 150 157 149 123 130 132 123 132 100 140 199 148 177 162 153 164 231 175 28 73 70 77 77 76 76 76 77 77 78 76 75 75 75 75 75 75 75 74 70 80 16 5 13 6 11 14 96 44 167 147 132 151 136 132 136 134 134 148 153 148 149 148 160 138 113 187 246 222 215 142 244 247 248 254 249 247 250 254 254 247 239 254 211 126 173 190 147 132 187 157 59 43 80 27 7 1 14 127 199 185 169 181 192 176 
165 160 160 184 181 162 138 158 123 68 37 15 18 109 169 167 150 107 97 133 135 134 134 144 135 122 118 122 140 104 76 68 47 49 63 67 56 23 27 53 27 25 16 28 42 109 151 61 12 58 72 32 32 46 72 47 15 26 28 30 24 45 54 51 9 34 46 45 40 
108 122 105 97 110 116 116 109 108 136 56 133 161 155 142 192 178 179 160 178 169 153 141 183 170 140 148 172 205 195 206 201 204 214 199 204 189 174 176 195 198 217 202 202 218 219 197 204 189 186 208 198 186 197 205 217 187 247 220 219 167 203 220 194 113 158 196 198 208 207 212 214 224 214 222 215 212 218 213 220 176 178 171 178 241 248 110 232 147 157 215 254 126 182 199 137 196 252 136 201 188 153 236 141 85 253 139 172 254 166 171 188 168 189 65 74 190 205 122 28 119 201 127 5 1 73 120 64 50 64 54 124 115 80 83 123 73 128 170 196 186 176 180 211 210 210 219 188 121 145 173 154 154 148 169 160 168 168 140 150 127 138 132 139 143 130 170 251 246 248 253 224 134 197 1 99 181 176 211 165 197 185 199 197 176 135 143 165 219 80 1 10 209 222 222 250 194 223 243 104 110 213 192 208 202 204 205 206 206 204 211 208 184 194 194 193 177 163 124 152 174 164 151 207 195 166 130 97 60 30 24 34 21 39 51 38 69 78 75 69 71 70 72 73 73 73 73 73 76 70 70 74 71 64 69 80 250 148 133 240 210 242 238 239 242 238 235 234 236 235 234 234 253 128 96 135 198 252 249 40 7 58 58 58 74 64 47 60 72 79 78 72 75 78 75 74 73 73 59 83 161 137 142 143 142 146 129 116 146 134 142 140 131 127 137 147 138 127 132 145 145 155 170 158 188 187 223 212 194 172 169 140 145 125 83 79 122 197 131 34 69 87 86 80 84 89 89 86 89 89 86 88 86 87 91 92 87 88 93 92 90 91 91 90 90 91 91 93 93 92 90 88 88 89 89 90 88 89 89 87 86 85 87 90 89 89 88 87 85 83 80 81 80 75 78 78 79 83 47 8 34 120 116 108 96 90 80 61 97 88 95 120 135 120 93 79 123 138 145 184 181 198 210 202 209 215 220 236 246 245 241 228 198 208 220 203 219 96 65 105 78 82 84 84 84 82 83 85 83 81 83 80 77 77 77 84 62 9 103 214 253 253 253 249 254 253 246 252 245 251 251 252 254 253 250 250 244 241 209 195 251 253 235 239 210 211 51 74 78 78 78 77 77 76 77 77 76 75 75 75 75 75 75 76 77 79 88 16 7 11 4 14 18 94 100 156 138 141 137 137 126 140 144 137 138 141 141 148 161 154 135 115 192 237 239 225 117 249 251 249 253 244 252 246 245 251 245 254 254 221 146 172 187 197 160 128 177 181 83 39 10 2 3 22 
127 169 151 109 157 211 137 69 165 162 171 209 182 151 163 154 65 40 60 27 164 203 180 177 191 136 128 138 134 136 149 139 125 124 123 140 123 90 83 63 64 77 72 53 54 47 26 18 62 35 37 13 122 154 78 15 11 27 26 69 73 67 68 39 29 42 31 30 30 12 20 26 45 33 58 67 
106 131 114 102 122 118 124 113 107 135 58 102 155 145 158 194 191 187 176 174 141 113 136 180 157 116 152 195 225 214 191 196 203 203 201 206 209 201 190 189 188 188 195 209 217 216 213 210 183 198 210 208 187 208 228 231 209 241 222 218 156 195 238 171 109 148 199 199 214 207 211 209 220 218 218 220 218 216 194 209 177 165 176 174 237 253 100 235 155 144 217 253 122 192 198 125 193 254 117 192 190 146 241 144 86 236 144 172 246 168 182 179 167 187 100 78 199 197 145 58 128 203 136 2 3 89 184 159 173 143 151 77 99 139 177 170 117 142 141 166 193 171 180 214 225 232 251 192 148 129 151 148 170 163 170 166 160 157 148 156 139 144 144 137 151 125 178 251 243 243 254 215 143 218 1 108 154 168 169 175 211 153 178 201 186 143 163 174 217 86 0 24 59 181 171 254 144 230 240 221 218 200 201 197 204 200 198 203 196 212 200 215 189 181 231 232 232 228 225 192 138 183 245 78 8 40 32 52 42 42 35 70 74 64 69 72 74 70 67 72 72 71 72 72 73 73 73 73 71 73 76 73 71 75 70 54 195 248 170 252 245 233 235 229 235 233 225 235 238 249 254 236 252 252 242 247 186 127 44 83 135 123 107 60 45 82 74 74 77 72 78 77 72 74 75 81 71 79 65 73 175 134 143 135 146 132 139 131 135 134 133 132 147 168 180 171 148 153 201 197 207 190 121 158 176 159 139 131 137 116 123 110 122 166 167 138 116 70 47 79 89 82 76 88 85 85 86 88 89 90 88 87 86 89 91 90 89 89 91 93 93 92 91 90 91 91 91 90 92 91 90 89 88 89 90 91 90 90 88 86 87 89 89 86 86 87 87 86 83 81 80 81 71 90 72 81 69 80 80 39 19 5 60 141 186 196 151 155 238 186 197 217 185 154 245 252 255 249 251 251 242 229 217 208 224 216 224 187 213 205 200 191 200 169 213 197 198 171 90 154 74 79 82 84 83 83 81 81 82 77 77 90 80 83 76 3 61 231 251 253 254 250 236 242 234 212 217 229 189 161 143 142 138 128 124 88 182 241 110 187 253 250 242 248 173 247 109 47 81 78 77 77 77 75 76 76 77 75 75 75 74 74 74 74 79 68 83 20 5 11 8 12 21 104 109 176 146 132 145 136 144 144 147 146 139 141 153 158 163 155 144 130 214 241 208 203 142 248 252 252 249 248 246 250 251 239 254 238 254 215 133 199 179 208 215 154 139 169 
181 137 45 4 12 1 67 96 97 70 68 103 150 203 178 166 163 194 158 170 172 148 58 7 21 44 216 207 202 196 204 126 129 132 144 139 149 132 130 134 127 125 95 77 102 79 79 82 70 75 69 56 40 45 63 38 50 26 106 161 89 50 29 28 33 53 44 47 28 77 75 37 37 25 11 41 30 48 24 52 72 26 
122 121 111 127 129 122 100 114 123 130 85 46 176 144 147 154 192 146 128 145 174 136 131 180 162 155 162 192 239 219 195 187 194 202 207 207 205 199 197 203 204 193 196 218 229 215 196 188 184 199 207 188 172 195 213 215 218 243 223 208 160 189 223 173 120 155 195 203 214 213 214 224 220 220 221 222 222 225 206 226 194 169 177 173 240 252 92 201 174 151 206 252 143 137 190 141 201 244 149 163 187 146 231 151 88 212 150 177 253 171 141 173 166 184 81 79 192 205 148 58 137 215 132 5 1 74 189 137 134 91 111 120 178 181 136 146 109 124 173 183 187 189 178 173 190 152 188 158 107 89 134 106 109 119 148 152 150 139 136 145 135 129 132 136 149 112 184 248 246 250 254 211 114 232 11 138 153 159 145 141 192 169 188 193 184 159 173 173 223 98 3 30 42 87 192 241 145 97 242 249 227 201 192 203 201 204 209 217 227 220 226 229 200 178 150 111 93 62 47 52 28 67 182 57 29 31 57 60 51 77 80 69 70 65 68 72 73 71 68 72 71 71 72 72 73 73 73 73 71 72 75 73 71 74 71 59 61 231 204 249 242 247 254 251 252 242 252 251 253 245 233 162 109 104 77 92 97 102 101 105 113 98 106 131 68 35 79 71 70 71 70 71 72 73 77 78 79 77 69 55 172 146 135 139 132 150 140 137 155 151 161 190 200 169 168 165 154 146 134 116 112 116 117 120 129 124 140 142 149 125 122 115 112 101 67 55 48 79 75 79 75 83 93 84 84 85 87 88 88 88 87 86 86 89 90 90 88 87 89 91 92 92 91 91 91 90 91 91 90 90 89 89 88 88 89 90 89 90 89 87 86 87 87 84 85 85 85 85 82 81 78 77 90 75 72 75 98 39 2 159 214 245 244 208 190 149 95 88 54 9 10 6 5 67 230 241 225 212 209 188 189 194 198 196 203 195 205 189 198 206 195 198 221 207 226 198 212 209 76 132 85 76 85 83 84 83 80 80 83 90 80 59 92 77 2 98 254 252 254 246 219 244 246 244 254 228 254 198 1 11 42 16 1 1 7 2 98 249 225 254 249 246 247 250 192 213 155 35 81 78 76 77 76 76 75 76 76 75 75 75 74 74 74 74 68 75 86 14 12 12 10 8 16 108 114 169 158 145 133 151 142 151 157 151 138 142 151 150 154 156 143 120 196 224 166 80 138 249 252 245 244 252 248 239 249 254 245 252 254 177 127 188 189 192 193 140 141 178 169 132 73 1 6 19 23 99 108 70 
73 73 143 247 162 137 193 188 166 150 206 150 38 43 66 84 109 80 93 84 81 133 131 136 138 136 147 150 129 112 121 124 94 54 89 99 71 58 58 26 35 37 56 60 42 58 35 22 80 165 50 30 67 49 49 42 15 48 55 58 53 42 46 23 22 53 60 27 49 58 46 81 
131 125 125 116 140 115 126 117 115 125 101 68 121 166 147 151 144 131 131 186 157 92 116 140 152 141 162 170 197 198 205 195 196 207 210 208 204 201 201 208 213 197 197 215 219 203 191 194 168 174 196 199 202 212 217 232 205 237 218 220 138 195 215 176 123 169 195 191 194 206 205 217 220 220 219 218 220 223 207 230 194 164 173 173 240 252 106 195 151 171 200 249 141 138 212 149 191 255 137 170 185 151 235 148 79 149 160 165 251 184 129 168 161 178 83 89 192 197 149 75 130 197 144 13 1 64 172 160 169 75 81 91 136 168 144 159 164 121 168 185 201 221 137 35 11 21 19 59 169 132 132 119 104 105 126 128 136 127 123 124 120 106 109 116 120 87 192 251 251 251 247 230 174 156 6 161 171 156 141 151 210 192 191 192 178 161 169 157 210 95 1 28 75 19 143 248 152 22 72 157 210 223 218 211 216 216 209 195 157 120 88 54 28 38 43 46 52 31 41 38 50 22 8 46 59 59 54 55 46 49 40 54 62 67 66 70 71 70 67 71 71 72 72 72 73 73 73 73 72 71 73 74 71 72 72 65 51 48 115 254 253 244 222 229 229 135 104 71 27 31 18 42 68 65 57 65 65 43 41 25 34 49 132 79 122 77 18 96 82 80 63 72 82 72 76 79 73 78 74 61 144 154 152 164 162 164 176 157 131 121 108 116 108 100 111 121 124 136 139 134 144 117 121 95 81 74 71 62 41 51 34 33 33 41 61 59 76 85 78 77 77 86 80 73 84 85 86 87 86 85 85 86 86 87 88 88 86 86 87 88 90 92 92 92 90 90 90 92 89 89 88 87 87 88 89 89 89 92 92 89 86 86 86 85 86 86 86 87 85 82 80 78 66 88 83 98 13 5 255 246 144 94 55 54 68 80 66 88 100 114 161 173 220 229 233 234 218 211 218 204 204 220 212 217 194 195 225 202 187 203 207 222 219 181 219 221 193 217 87 121 98 66 86 82 85 84 83 84 75 91 85 75 41 4 74 245 254 254 246 231 237 255 242 235 229 247 252 202 4 15 99 79 36 54 58 23 99 251 227 231 255 238 245 248 220 214 194 27 80 77 75 76 76 75 74 76 75 75 75 74 74 74 73 73 71 84 75 6 8 4 12 8 15 133 100 175 153 156 157 142 140 142 148 149 141 142 147 144 144 155 160 143 136 123 137 122 153 247 246 246 242 241 246 251 238 252 241 251 252 161 145 193 180 159 130 148 176 117 59 39 11 3 12 9 55 202 188 136 114 121 125 233 158 160 186 189 
182 182 220 149 23 8 68 103 84 31 42 28 24 154 142 132 144 143 138 142 138 135 150 131 93 98 82 89 44 72 69 35 24 52 35 40 38 48 34 39 77 158 72 51 47 78 80 39 73 63 67 65 45 6 15 38 36 32 43 46 95 59 93 24 
134 128 118 118 116 115 118 121 113 116 118 83 61 131 134 141 127 103 159 201 140 93 96 144 177 147 202 196 202 208 203 204 196 201 201 199 201 201 197 196 195 195 205 219 220 204 188 182 186 193 202 203 214 233 211 203 209 241 216 214 103 156 212 160 102 146 188 197 205 201 196 212 218 222 220 216 217 220 204 230 193 162 173 164 220 247 102 182 121 153 205 253 140 148 211 127 185 254 105 153 155 128 221 137 52 170 228 145 254 178 119 245 219 177 77 75 208 205 145 70 127 205 156 5 4 71 165 177 163 70 112 138 138 139 131 127 156 134 167 199 205 220 131 24 43 45 28 34 189 171 131 113 94 107 137 138 139 121 124 126 128 115 116 124 125 106 185 249 225 241 254 250 251 188 2 157 162 159 166 175 213 186 186 202 179 152 170 168 213 100 1 34 72 65 14 119 184 83 52 42 29 133 176 123 99 55 36 15 25 38 23 49 62 20 3 19 17 16 23 22 13 28 25 24 30 19 38 25 47 45 8 27 53 69 65 69 68 69 66 71 71 72 72 72 73 73 73 73 73 70 72 74 71 71 73 70 68 50 31 80 75 31 4 30 65 2 20 65 73 88 71 50 35 8 3 11 37 33 12 16 37 31 127 146 122 124 76 19 54 83 72 76 82 74 83 80 77 67 80 36 152 203 37 170 94 88 129 140 129 135 139 121 130 133 106 107 90 72 75 54 44 34 33 35 23 37 12 5 23 57 73 94 113 118 102 96 75 51 60 88 80 84 84 88 83 85 86 87 85 85 85 86 86 87 88 88 87 87 88 89 89 91 93 93 90 89 90 92 90 89 89 88 88 88 89 89 91 94 94 90 87 87 89 89 87 87 87 88 87 85 81 78 91 86 94 0 3 247 207 89 92 105 104 81 55 72 70 165 250 249 237 225 193 138 194 226 181 187 209 215 204 218 183 194 195 191 237 218 223 231 222 201 208 160 210 230 172 208 113 111 112 60 85 80 84 82 85 83 86 74 29 112 231 227 251 207 227 254 252 254 249 242 240 255 241 235 249 221 5 32 2 8 19 32 30 2 93 249 225 246 245 254 240 252 213 229 211 29 78 76 74 76 76 74 75 76 75 75 75 74 74 74 73 73 70 79 67 15 19 3 7 3 3 129 128 205 211 186 181 164 154 150 148 143 135 141 152 154 153 148 145 150 147 142 155 104 189 249 240 250 255 248 240 238 244 252 254 237 254 173 151 149 132 127 186 162 74 44 54 82 18 1 3 27 144 230 176 190 193 195 153 126 176 165 177 191 175 199 218 143 1 6 157 
181 72 136 105 116 122 122 141 139 145 147 132 94 95 97 134 139 96 137 121 80 78 48 64 97 36 56 28 23 58 52 48 25 86 160 64 89 68 73 29 21 30 58 83 78 51 19 29 39 30 6 35 36 34 51 53 83 
132 133 133 115 105 127 113 113 109 108 115 87 65 102 110 110 108 93 113 182 161 123 118 191 184 154 190 199 227 215 196 218 210 215 215 216 220 219 213 212 215 213 206 202 207 211 198 179 185 196 208 221 216 227 211 225 198 237 215 214 157 139 222 171 126 149 127 50 70 136 187 194 211 222 222 218 221 223 206 232 195 163 176 163 215 243 109 180 130 157 194 244 55 154 196 125 176 233 197 217 222 159 202 125 35 186 252 131 231 166 117 254 227 169 80 71 202 202 147 113 144 205 140 6 1 72 193 159 152 106 151 191 170 161 158 150 138 149 126 172 194 212 133 26 46 33 68 25 133 158 142 146 146 130 118 114 129 131 135 127 123 114 112 126 133 123 122 154 186 183 181 191 246 191 16 116 170 163 161 156 204 196 200 196 173 128 162 183 216 98 1 29 73 61 69 29 45 86 101 94 80 68 49 33 52 35 29 29 36 42 45 49 57 149 166 128 145 197 209 190 190 179 176 195 204 222 233 209 215 195 197 28 44 71 65 70 67 69 66 68 71 72 72 72 73 73 73 73 73 70 72 73 70 71 73 72 73 71 51 28 5 30 55 51 102 178 42 10 3 3 4 5 11 75 146 168 172 114 99 139 148 110 200 154 100 134 120 99 11 74 87 76 70 73 88 76 66 83 72 53 100 192 144 163 139 122 117 119 116 78 73 48 46 43 31 43 49 46 60 65 74 98 88 106 112 153 164 187 218 218 234 242 253 243 183 224 194 173 64 52 80 74 79 87 83 86 87 86 86 84 86 88 86 87 88 89 89 90 91 91 87 90 92 92 90 88 89 92 90 90 90 89 89 89 90 90 91 94 94 89 85 87 90 94 84 84 85 86 85 83 81 79 86 78 5 4 217 200 14 42 169 100 50 70 91 91 104 190 239 215 201 199 199 170 197 223 176 191 218 204 202 215 189 197 220 202 236 223 220 220 204 178 217 218 226 218 192 213 135 104 124 62 83 79 81 79 81 79 78 89 10 114 253 216 254 243 171 246 254 242 230 255 226 233 233 232 243 240 7 19 166 134 59 101 97 48 134 250 245 243 245 244 241 252 210 192 197 33 77 76 74 75 76 74 75 76 75 76 74 74 74 73 73 74 67 72 81 84 84 64 58 38 13 2 7 11 52 72 117 139 158 167 176 171 167 177 184 182 173 168 158 155 142 145 161 111 204 254 251 246 248 253 254 254 253 251 244 251 249 141 109 121 164 193 107 42 66 77 67 76 26 5 15 11 128 212 158 158 182 188 184 127 
203 163 183 172 196 204 223 158 6 2 161 197 188 200 193 195 151 121 142 124 146 144 143 85 98 74 108 152 90 117 101 62 82 50 38 53 34 41 75 34 21 24 58 37 76 166 44 65 26 30 44 45 50 67 33 16 18 43 46 8 40 69 89 43 52 53 80 58 
127 138 107 113 122 112 128 112 128 111 93 91 48 84 105 105 88 99 107 169 199 132 170 177 137 110 126 179 200 183 203 220 205 214 218 219 217 209 206 211 203 217 224 220 222 222 203 179 190 206 214 230 218 208 185 173 177 176 192 184 186 185 156 226 250 240 247 229 248 240 237 228 203 219 220 215 219 218 198 226 195 158 171 166 230 254 126 187 119 145 208 254 39 166 196 116 202 245 252 253 227 169 224 181 66 108 119 139 252 199 123 204 187 156 72 76 197 212 145 127 148 206 144 6 175 84 96 115 178 111 134 189 148 135 133 122 138 180 141 176 193 203 131 22 42 46 65 66 160 132 149 166 159 154 138 133 127 123 124 120 129 122 117 129 134 136 102 117 118 84 43 22 15 2 12 185 192 160 144 144 209 195 203 188 197 136 170 196 219 103 3 35 76 57 64 64 58 60 54 62 73 57 57 38 17 22 42 54 60 65 66 48 65 194 182 192 161 206 202 195 218 194 225 199 215 223 214 246 229 203 252 47 34 74 66 71 66 72 68 67 71 72 72 72 73 73 73 73 72 71 72 72 70 72 73 67 57 64 82 119 149 174 173 195 192 184 149 45 77 132 162 203 205 201 178 160 179 80 95 130 200 113 202 127 123 140 113 70 41 74 80 78 74 71 81 79 74 73 77 78 66 75 73 65 68 31 29 9 10 11 10 30 30 51 97 86 106 127 125 149 148 153 142 191 248 250 249 250 249 250 252 254 250 250 208 179 171 220 222 117 53 87 78 83 84 87 88 88 85 85 87 89 86 86 87 88 89 91 91 92 88 89 91 92 90 89 90 90 91 90 90 90 90 89 90 90 89 91 91 87 84 86 89 92 84 85 86 86 84 84 84 83 99 23 3 138 201 70 124 171 165 127 193 179 223 250 174 163 224 211 178 203 197 166 233 231 191 209 231 193 214 225 225 221 228 209 218 219 191 192 187 191 196 222 212 196 192 187 136 91 125 64 75 79 81 81 84 81 86 80 92 65 34 2 14 219 254 254 247 253 222 240 249 245 244 234 221 218 1 6 98 79 15 47 89 16 112 247 178 203 254 237 247 246 188 234 162 32 78 76 75 76 76 75 75 76 75 76 74 74 74 73 74 74 80 68 65 77 75 76 88 88 79 36 25 5 9 18 14 7 36 27 43 81 113 137 158 171 176 173 183 193 174 156 165 155 211 251 251 252 252 250 248 248 247 247 250 246 244 114 164 181 140 61 45 73 68 64 56 85 15 1 6 13 114 205 163 172 187 175 170 155 185 
141 190 191 203 195 215 183 17 9 178 181 174 171 160 177 128 128 154 136 137 140 142 74 94 76 104 146 109 133 124 93 40 67 83 72 66 55 35 20 19 21 61 34 91 181 60 21 39 81 89 55 71 69 38 58 56 56 66 61 61 20 30 56 66 68 77 37 
133 133 61 128 119 108 94 96 89 91 119 122 90 75 82 58 62 76 73 120 88 134 102 140 132 105 123 197 192 177 206 202 206 214 221 223 215 201 201 213 198 204 211 211 211 213 215 217 212 226 225 217 229 230 216 153 140 161 75 123 129 112 81 198 255 230 233 232 241 237 237 232 194 215 217 212 216 215 193 223 197 155 162 157 229 254 117 171 180 146 214 248 74 130 209 138 190 246 234 249 156 119 218 193 55 192 148 150 254 185 108 161 142 169 92 81 186 190 130 97 132 214 134 14 96 30 11 138 195 102 131 173 161 141 146 132 124 147 146 178 195 204 132 20 34 31 22 72 163 113 163 152 168 156 122 126 124 135 135 130 130 119 115 128 126 133 120 125 146 127 125 96 23 51 23 165 177 156 159 160 206 156 187 192 195 141 168 181 209 102 1 29 75 65 63 63 47 15 43 55 81 97 123 65 80 94 76 34 37 47 62 48 37 187 158 146 144 131 165 186 195 175 184 207 193 222 199 112 82 140 241 50 25 75 65 72 68 75 70 71 72 72 72 72 73 73 73 73 72 72 73 71 70 75 72 62 85 200 179 192 193 163 173 168 170 177 185 196 207 191 167 158 162 160 157 166 181 67 80 113 193 115 175 190 146 136 103 19 95 79 68 76 79 74 76 82 79 70 73 65 77 87 73 74 63 101 123 105 118 177 198 244 254 251 245 134 120 134 114 123 156 137 125 167 253 245 247 242 250 254 240 249 248 255 195 113 147 136 188 240 121 43 91 75 85 87 90 89 86 86 88 89 86 86 86 88 89 90 90 90 88 89 90 91 91 91 90 89 90 90 90 90 89 89 89 89 88 91 91 88 85 86 88 89 85 87 88 87 84 84 87 90 61 1 50 226 25 50 177 184 195 250 202 170 238 248 217 186 202 228 206 194 214 183 188 228 202 220 230 204 222 227 222 215 200 187 188 213 210 216 201 180 191 204 209 211 201 195 173 98 125 72 70 81 81 82 84 81 77 79 84 70 94 80 1 76 209 251 254 253 247 235 238 228 237 206 212 207 190 191 180 181 210 225 223 248 248 206 170 252 246 251 235 238 168 251 108 44 79 77 76 77 78 75 75 76 76 75 75 75 73 73 74 74 68 73 80 72 67 50 36 28 93 114 100 91 74 62 32 49 44 11 7 7 9 8 8 10 25 42 68 84 116 158 174 186 126 105 68 68 79 78 89 96 107 136 119 158 167 155 116 56 47 61 65 73 64 70 73 74 22 7 10 18 120 209 169 176 202 170 184 158 
198 128 173 185 188 183 209 162 1 25 184 171 152 163 186 181 121 135 142 148 151 162 154 92 88 89 127 151 122 114 103 52 25 20 86 61 56 92 33 34 49 27 63 23 125 151 75 23 9 48 73 47 43 34 24 36 41 38 38 37 34 24 53 45 75 41 48 28 
140 144 120 103 108 152 69 39 54 101 123 122 124 99 75 81 55 65 70 16 20 45 75 191 174 142 139 191 202 202 197 210 199 203 209 215 212 200 199 212 188 178 181 198 209 209 214 223 211 201 211 210 203 159 213 224 176 182 104 142 141 124 69 209 243 231 244 254 253 255 254 252 188 212 217 212 220 222 202 233 196 155 157 152 227 251 117 172 231 206 199 255 49 135 200 126 187 248 239 254 138 106 210 182 55 204 132 146 249 167 131 174 135 170 74 50 194 200 143 59 135 213 143 5 11 41 125 152 190 179 217 143 186 190 174 106 148 127 166 191 192 195 127 25 31 54 49 52 151 132 145 149 144 150 124 137 121 130 128 126 130 111 111 136 136 134 134 113 139 135 133 83 39 33 38 141 174 165 170 162 211 161 199 187 175 143 172 181 220 119 1 28 67 71 62 49 90 166 163 216 220 186 217 175 229 129 87 118 97 65 39 53 41 205 191 148 166 193 153 182 186 196 209 201 210 234 158 4 3 15 252 53 20 74 65 73 68 76 74 72 72 72 72 72 73 73 73 73 71 73 74 71 70 75 73 57 52 189 175 168 173 169 180 175 171 164 164 158 153 153 161 157 168 160 165 172 173 98 73 83 154 148 121 205 211 103 95 23 79 73 73 67 67 79 81 78 83 79 66 88 72 75 87 72 55 254 246 250 254 254 254 254 254 254 254 171 178 192 205 223 235 253 255 232 251 245 252 244 242 244 251 238 255 245 125 174 199 123 114 207 231 138 54 79 86 89 91 90 88 85 86 88 86 86 86 87 88 89 89 87 88 89 90 91 92 92 90 90 89 89 89 89 89 88 88 88 88 91 93 91 89 89 87 86 82 85 87 85 81 82 86 91 1 2 223 167 70 154 136 152 225 247 186 173 197 201 130 149 224 246 230 202 209 209 220 223 217 230 215 225 217 216 185 189 186 191 198 203 213 211 203 158 200 208 212 210 208 223 195 80 132 86 72 85 80 78 79 74 83 76 81 80 78 74 71 92 6 66 220 254 254 254 254 255 252 252 247 248 251 247 251 251 250 254 247 206 172 253 236 228 201 211 200 207 225 86 43 76 79 77 76 77 77 76 75 76 76 75 75 75 73 73 73 73 73 75 59 8 8 4 3 13 143 67 148 183 170 165 177 161 161 175 183 172 156 148 135 114 127 118 98 58 67 87 57 60 83 84 67 59 60 60 78 85 72 55 54 60 56 47 43 65 72 63 68 74 59 68 64 77 27 1 3 9 114 203 183 163 188 159 185 153 
184 159 174 207 182 209 225 154 79 57 81 226 220 232 104 83 137 138 141 144 149 144 136 139 144 139 148 130 108 161 127 50 41 22 71 34 47 113 92 46 51 57 84 11 101 173 76 43 43 51 57 43 37 43 55 31 36 52 54 48 48 73 59 58 79 56 58 44 
132 129 125 172 149 121 118 91 87 121 94 77 51 114 136 163 212 171 165 209 217 186 122 196 156 225 202 135 182 187 180 202 193 199 194 207 215 190 177 196 185 173 179 221 220 202 164 178 193 210 171 188 128 66 175 241 207 181 155 209 201 171 101 200 251 235 222 182 196 197 188 182 204 211 215 213 217 221 199 230 194 157 154 151 219 252 115 207 223 138 196 251 45 156 200 109 187 246 235 254 135 113 214 182 49 222 130 141 245 169 141 189 132 163 82 82 193 187 158 56 130 212 147 3 5 96 251 178 163 184 175 115 142 156 152 90 179 144 166 191 189 187 194 167 180 209 227 144 181 142 158 154 143 156 133 130 134 131 119 125 124 115 115 134 135 138 133 133 147 129 113 49 41 46 39 54 105 149 141 135 236 211 180 190 183 129 158 197 248 101 1 32 77 64 63 93 186 252 88 202 228 196 163 169 228 217 151 163 229 126 76 2 59 216 229 173 164 153 138 110 180 253 216 175 204 216 196 104 93 140 253 59 29 75 69 65 68 73 75 73 72 71 71 71 73 73 72 72 74 74 73 73 72 72 71 70 43 167 178 162 176 168 163 161 166 145 151 160 168 163 168 155 159 170 163 159 195 106 108 119 105 88 62 185 106 113 41 61 77 72 69 80 63 67 80 79 87 70 81 76 75 72 82 80 42 217 253 242 245 254 247 246 250 246 254 238 239 249 253 254 252 254 250 224 239 249 252 245 244 243 250 247 243 252 135 158 152 202 220 170 205 187 147 85 77 87 93 89 82 83 87 87 89 85 83 87 90 89 85 85 90 89 88 90 93 94 92 91 88 89 89 88 87 87 89 91 89 90 91 91 88 85 86 90 84 88 90 89 77 97 98 14 1 115 250 93 185 111 143 140 208 246 193 178 216 187 114 181 244 237 239 216 229 213 221 230 242 220 206 221 199 191 200 198 200 173 197 191 191 206 194 158 198 216 205 206 237 218 206 114 135 105 70 81 89 75 78 83 84 76 82 77 78 85 61 94 100 23 13 54 119 199 219 227 208 189 189 215 161 154 125 68 76 45 2 5 7 13 42 29 39 52 63 66 80 45 68 79 78 78 77 75 74 76 76 76 73 76 75 75 72 72 73 74 67 91 43 4 8 9 13 11 124 97 166 136 146 153 141 150 162 122 125 125 117 140 150 138 142 133 138 86 54 47 47 50 43 29 190 228 191 180 163 161 138 95 82 74 83 39 73 69 64 70 70 62 68 70 55 71 32 6 20 40 121 205 165 165 
191 167 171 138 203 155 182 201 206 167 218 168 118 109 71 67 78 95 90 136 147 142 156 147 150 150 147 148 129 122 137 127 107 140 117 98 76 35 105 81 32 94 90 118 78 105 122 30 93 169 77 54 56 68 31 7 32 27 29 32 69 35 51 73 95 52 59 76 71 76 60 79 
28 63 102 204 148 47 78 61 64 69 63 72 57 115 155 144 205 204 200 215 214 207 138 188 144 210 201 152 205 195 176 192 179 188 198 174 192 202 185 217 203 167 189 214 203 159 162 174 148 95 79 141 134 102 191 237 190 192 119 164 180 192 109 223 239 254 170 29 80 90 75 125 211 213 214 214 219 221 202 231 198 149 143 138 219 254 97 106 112 167 194 252 42 127 214 102 170 254 240 254 155 101 210 183 42 195 141 115 255 188 119 164 115 140 64 59 179 184 140 55 126 211 146 2 0 112 199 122 128 143 151 193 133 86 184 142 130 152 175 191 208 180 179 211 191 187 214 152 152 102 150 149 147 152 129 128 128 128 125 133 133 127 120 131 137 145 115 80 110 143 125 56 40 44 47 117 162 171 135 160 229 212 189 133 159 125 178 209 252 116 1 35 63 69 67 55 66 168 161 193 197 189 186 209 200 149 174 215 232 220 119 4 16 202 227 206 188 174 87 74 16 108 237 182 192 205 209 246 244 232 231 72 30 75 70 71 69 69 70 75 72 71 71 71 73 73 72 72 73 73 73 73 72 72 71 71 39 141 174 165 167 165 159 166 160 161 168 153 158 163 164 168 170 185 182 188 168 129 56 47 56 74 82 56 118 105 25 80 75 74 78 73 82 75 62 74 64 75 74 70 80 78 78 78 39 198 253 250 252 254 251 251 253 250 252 215 223 212 223 226 233 236 242 228 239 249 245 252 246 245 248 247 247 249 88 32 181 222 250 180 199 206 132 92 82 89 91 88 85 88 90 89 91 87 86 89 91 89 88 88 94 92 89 89 91 92 90 90 87 88 87 86 85 86 87 89 89 90 92 92 89 86 87 90 87 85 86 84 93 70 10 1 152 248 127 184 193 149 111 131 200 75 132 209 214 197 150 154 248 214 192 206 221 218 215 228 233 214 222 220 200 218 197 189 212 190 183 210 175 217 190 170 212 224 189 194 204 145 201 106 74 80 75 81 85 78 83 84 83 74 80 91 76 62 80 72 100 67 86 55 37 1 2 3 48 91 112 135 129 119 152 181 199 194 192 89 29 105 118 105 76 38 13 33 56 58 70 73 77 78 77 76 74 75 75 75 76 75 75 75 73 72 70 69 67 87 41 5 7 6 8 15 136 118 159 152 142 136 161 123 82 148 157 137 143 136 128 111 111 94 131 151 157 190 178 177 171 125 231 254 249 254 252 251 250 251 252 253 252 96 21 73 74 57 70 63 58 63 73 75 24 1 11 28 114 206 170 168 198 174 
171 139 191 137 177 203 206 169 211 171 107 101 81 87 96 93 144 136 134 144 143 136 146 150 148 148 134 128 140 135 118 122 122 98 118 100 88 50 47 87 55 130 117 148 121 34 84 172 84 56 53 62 43 32 9 26 18 30 49 34 48 86 60 49 65 65 50 45 44 39 
47 63 150 42 42 89 95 80 82 106 60 77 70 98 215 207 192 220 218 214 209 220 147 184 155 235 215 137 193 201 185 183 184 186 199 159 173 179 161 194 197 153 198 182 174 168 154 156 144 112 69 70 57 39 156 206 161 176 159 143 165 167 142 207 237 252 180 46 98 99 85 129 209 211 210 212 217 219 203 229 176 107 135 119 187 232 82 105 88 76 158 241 42 109 160 77 174 220 215 235 117 95 147 149 63 152 111 123 179 147 120 137 115 140 101 121 174 184 175 168 181 187 154 17 0 78 176 147 155 199 173 153 127 119 188 150 153 137 172 197 189 177 191 181 187 196 208 139 160 132 160 140 147 144 127 134 130 129 127 129 123 125 121 130 135 151 134 109 51 52 100 107 42 40 60 102 141 181 173 135 244 175 155 232 197 89 141 209 249 97 8 27 71 59 49 67 38 37 63 78 85 128 188 116 135 88 91 102 90 128 198 225 155 194 205 198 183 247 177 140 47 62 216 203 172 203 215 203 198 208 243 61 31 68 60 67 71 69 67 71 71 71 71 71 73 73 73 73 72 72 72 72 72 73 73 72 52 107 168 160 157 162 156 163 159 165 156 149 172 177 179 183 174 144 134 104 116 161 86 52 70 60 90 106 93 29 78 63 67 68 76 77 76 82 81 65 95 118 85 68 79 79 76 81 38 169 250 254 251 252 253 253 254 253 254 250 246 248 255 254 252 252 252 243 242 254 242 249 244 243 251 252 241 253 171 128 172 169 186 163 188 175 61 72 88 89 89 87 90 95 95 91 91 89 88 89 89 88 89 90 96 93 90 89 90 91 91 89 87 88 88 87 86 87 88 89 90 90 92 92 89 86 88 90 87 87 81 91 91 68 45 14 100 246 162 133 193 196 170 169 197 248 198 164 211 200 164 148 237 233 217 228 238 226 210 231 221 220 215 211 179 200 201 202 213 209 172 205 189 160 181 176 172 211 171 163 210 105 164 109 37 73 86 83 81 83 86 78 76 82 84 85 74 85 73 73 84 76 67 42 9 32 164 227 234 235 238 239 246 245 254 169 145 249 231 246 244 253 250 220 237 197 215 194 121 40 49 73 76 77 77 76 76 76 75 75 76 73 73 75 74 73 70 65 76 78 22 3 9 8 3 14 121 103 159 133 142 140 133 144 71 230 237 232 241 235 235 228 227 213 124 132 144 142 150 167 188 140 220 251 240 253 247 249 249 238 254 251 248 160 74 40 69 73 69 61 76 73 53 82 22 0 6 18 108 213 179 172 
187 176 175 149 188 132 179 200 186 157 176 167 72 102 100 38 2 3 5 99 143 138 149 150 142 149 145 141 134 132 145 148 135 119 119 93 97 92 113 65 62 84 50 76 97 166 96 24 90 173 84 64 53 54 94 147 22 30 34 44 53 59 81 68 68 47 39 42 47 35 64 81 
105 169 187 61 43 78 82 94 69 89 65 98 73 99 223 185 190 213 208 214 209 218 143 185 130 241 210 113 177 182 147 151 146 156 155 192 214 167 173 170 141 185 160 132 153 168 130 129 162 125 109 201 204 135 88 178 152 133 130 173 156 150 130 221 239 237 246 217 245 243 237 220 198 208 210 211 213 219 207 224 182 129 147 166 160 184 200 201 129 152 157 162 168 159 174 173 151 168 145 150 163 200 188 187 190 193 200 197 183 199 191 194 216 196 217 213 210 200 203 209 183 182 178 57 31 71 165 165 171 177 197 174 175 190 192 130 151 154 177 186 184 172 181 182 177 187 203 139 169 140 145 154 150 138 124 137 130 130 129 123 130 124 122 135 132 141 146 153 127 80 48 40 30 47 40 60 28 71 108 127 239 114 151 255 238 115 152 137 173 109 93 81 39 73 67 63 68 67 60 50 41 43 3 83 254 118 0 14 27 19 22 63 120 228 221 195 194 175 227 193 117 110 186 182 193 144 175 208 227 218 181 96 32 72 65 68 71 71 70 75 71 71 71 71 73 73 73 73 72 72 72 72 72 72 72 71 54 75 178 170 164 167 163 163 162 168 155 173 164 105 69 41 22 17 44 53 88 100 89 76 87 117 113 81 42 38 84 67 56 59 68 89 67 74 79 66 124 141 89 71 72 74 78 86 47 146 249 249 241 245 253 252 250 247 254 254 184 213 247 255 247 251 248 236 232 255 248 249 252 243 241 250 240 253 216 154 187 144 138 205 215 72 66 86 87 88 87 86 90 94 94 89 89 89 89 88 87 88 89 91 94 92 90 90 91 92 92 90 88 89 89 88 87 88 89 90 89 90 91 91 89 86 87 90 88 87 84 95 79 88 116 69 8 8 249 158 145 159 132 75 178 254 218 187 189 216 211 145 228 226 216 217 229 206 206 229 225 202 212 198 160 184 173 209 203 192 176 202 216 199 147 165 144 166 165 177 187 158 194 182 51 79 90 83 82 86 84 73 74 76 89 78 77 76 62 76 107 58 16 4 179 234 226 221 224 228 235 239 242 226 254 158 138 230 168 184 210 181 254 105 103 150 176 224 254 251 113 42 77 76 77 77 77 75 75 74 74 72 72 73 74 73 71 68 79 75 13 2 10 13 3 19 114 52 184 153 145 151 138 168 138 198 176 167 185 146 163 174 185 150 121 142 130 135 130 134 137 117 211 254 248 250 244 252 246 250 237 251 248 124 160 153 46 80 63 72 66 58 66 79 25 2 7 12 105 217 
184 170 193 182 163 145 199 164 196 184 172 184 206 118 23 166 136 150 210 196 206 135 117 156 144 144 140 150 148 140 134 132 136 141 114 113 120 103 94 74 128 96 38 112 88 62 97 135 95 19 91 201 122 78 54 61 96 124 39 46 16 29 57 60 49 28 60 31 45 64 73 115 143 89 
178 203 193 42 71 84 71 58 63 102 105 79 58 117 184 229 206 212 205 220 219 213 131 171 176 214 221 178 178 179 184 171 201 197 173 91 72 104 107 92 75 148 92 73 105 107 63 125 156 182 88 77 90 71 55 71 105 74 29 83 131 147 95 210 245 229 235 241 242 247 254 228 186 207 213 213 211 222 214 219 228 255 254 244 237 235 254 245 159 200 208 225 210 217 195 168 202 208 206 198 197 116 213 215 211 224 181 129 222 179 233 227 155 196 181 188 189 88 170 78 127 210 147 2 0 95 175 175 173 162 179 191 161 158 175 144 151 164 172 179 197 174 172 199 204 194 219 148 169 168 156 152 157 137 118 130 124 130 134 126 134 119 115 136 135 137 136 145 156 161 120 84 78 40 30 121 152 176 132 135 248 132 129 251 234 135 175 142 178 124 72 67 34 65 65 69 66 66 62 65 71 29 66 245 230 252 209 49 39 68 65 32 15 191 214 216 205 193 110 211 170 181 156 138 167 119 128 180 175 186 229 105 20 72 73 70 66 67 67 71 71 71 72 72 73 73 73 73 73 73 73 72 72 71 71 71 63 60 181 167 154 154 162 159 168 166 175 169 89 8 4 40 48 56 51 66 94 79 79 61 64 64 56 72 99 96 76 98 94 57 27 67 93 74 65 80 92 101 70 73 72 73 81 83 56 126 252 249 239 245 254 250 254 247 248 254 199 246 254 252 246 254 247 245 233 245 248 245 249 249 244 247 243 254 212 97 124 146 187 212 123 48 91 90 84 86 88 88 87 87 88 88 87 88 89 88 87 90 91 92 92 92 92 92 93 92 90 88 86 87 88 87 86 86 87 88 89 88 89 90 88 85 86 89 90 86 92 85 82 89 87 93 76 1 28 253 122 49 165 121 133 225 218 208 190 198 201 122 209 233 218 202 208 226 243 244 224 218 190 207 177 157 159 156 197 200 195 212 228 237 214 227 223 211 230 229 241 198 142 81 71 79 84 80 82 84 80 80 82 74 79 74 99 92 87 15 5 47 122 253 241 178 227 244 239 234 226 232 234 227 248 120 158 212 150 148 153 150 226 254 254 254 242 194 218 251 160 41 77 75 75 78 77 74 74 75 73 73 73 73 72 71 72 72 75 79 22 7 4 10 5 39 104 64 214 186 167 142 162 166 140 98 120 135 182 120 130 123 120 88 122 140 131 145 145 143 134 119 216 253 250 249 239 244 252 246 252 252 252 99 115 187 144 51 71 66 65 60 67 71 24 2 7 11 103 215 181 165 177 183 158 
129 178 161 195 180 157 195 186 110 72 159 50 202 246 244 253 243 98 133 147 148 144 154 156 146 137 130 121 120 92 110 122 106 129 88 109 111 59 100 102 52 111 140 81 44 103 191 105 60 48 57 75 76 31 30 25 68 38 26 25 9 42 58 54 46 55 82 92 112 
190 196 164 50 47 82 65 67 86 90 94 69 49 143 183 203 215 215 214 221 219 208 121 137 145 204 221 219 228 192 151 159 159 179 123 101 69 58 140 179 173 86 75 85 115 129 64 135 128 150 112 114 156 183 159 121 98 160 142 175 162 176 55 162 254 224 222 238 223 224 241 228 184 207 212 212 209 220 216 214 205 199 204 182 208 227 151 95 1 133 199 64 185 218 97 62 205 240 255 211 124 43 223 125 169 230 92 58 245 104 228 234 76 210 129 197 191 43 175 62 104 219 153 2 4 106 200 169 169 200 183 185 169 179 156 136 178 134 145 177 186 177 192 196 202 206 220 138 167 187 153 129 154 138 120 130 125 132 135 126 126 116 114 133 134 140 137 138 147 150 109 74 68 38 43 132 185 181 160 137 239 186 169 227 222 141 147 164 185 114 82 69 13 67 63 72 68 71 73 64 51 42 240 218 191 253 254 220 51 28 64 58 32 221 233 185 191 204 126 199 109 173 155 153 174 163 154 161 180 212 245 111 16 67 66 66 71 76 71 65 71 71 72 72 73 73 73 73 73 73 73 72 71 71 70 70 69 49 162 174 172 180 187 178 179 184 181 88 9 25 29 39 48 56 101 41 27 32 29 77 79 137 66 46 116 195 208 163 151 111 94 24 38 92 85 78 72 75 66 79 77 75 80 78 59 106 253 252 247 251 254 250 249 254 255 255 240 255 254 253 254 254 254 253 244 246 249 251 243 249 252 252 248 254 255 170 177 236 237 141 48 79 77 78 84 86 89 89 86 86 87 88 89 90 90 91 91 93 95 94 93 94 94 94 93 91 88 86 87 89 89 89 88 88 88 89 88 87 88 89 87 85 85 88 85 98 88 84 87 76 74 90 90 60 2 31 236 125 45 133 86 235 214 136 148 140 158 133 170 248 231 239 243 239 186 184 222 210 207 209 205 216 214 220 225 233 222 230 176 103 100 71 51 61 63 38 25 11 42 61 79 78 83 82 83 81 77 87 75 78 84 86 52 40 27 58 59 221 241 223 234 214 245 216 212 224 231 231 229 239 253 108 189 200 160 190 196 178 254 213 226 236 215 201 215 253 141 24 78 76 75 76 76 72 72 74 74 74 74 71 70 69 70 70 75 75 15 7 3 13 7 53 115 73 184 151 159 145 150 104 139 114 40 168 214 109 146 141 124 107 131 132 134 132 139 133 126 111 220 249 249 253 252 252 244 249 239 248 252 156 127 121 184 142 42 65 59 67 74 68 23 1 7 15 105 212 177 164 168 187 168 
138 181 168 197 199 190 173 180 134 3 223 3 137 253 238 254 241 110 135 153 138 152 154 156 142 132 132 126 124 95 121 127 121 122 56 110 105 74 115 65 44 89 98 81 67 105 161 90 65 61 70 85 93 23 34 26 30 58 27 43 27 20 72 67 52 102 174 165 152 
203 201 187 31 52 86 83 78 78 99 76 55 52 135 180 200 209 210 221 214 215 205 126 122 140 203 205 205 208 184 131 137 132 167 114 111 86 50 98 168 209 165 102 193 169 100 162 158 163 162 105 219 219 218 228 217 204 203 214 225 226 217 105 179 255 232 246 250 254 254 245 244 196 208 206 212 209 217 216 215 203 226 209 195 221 220 166 151 28 160 181 23 180 229 88 80 200 255 255 220 135 71 229 143 179 234 120 97 254 121 219 241 96 209 147 203 183 76 157 88 118 209 159 8 1 76 195 153 169 162 168 166 161 194 179 138 161 134 148 173 182 171 190 206 190 201 216 162 172 161 148 152 150 144 129 135 128 132 131 125 132 126 123 134 130 138 138 141 145 170 80 20 43 50 35 108 179 179 141 132 230 188 197 174 171 146 173 163 185 133 125 78 38 69 59 65 75 72 66 68 47 238 254 190 249 252 237 254 240 67 37 58 30 198 221 184 183 193 203 199 186 195 219 163 175 200 199 234 195 196 231 100 28 72 66 67 70 72 70 70 71 72 72 72 73 73 73 73 72 72 72 72 71 71 71 71 60 53 155 203 177 151 111 83 28 4 3 15 57 131 161 188 220 245 252 151 106 224 232 251 251 247 183 105 111 171 209 178 158 162 116 113 50 21 81 85 83 82 81 80 83 76 77 79 61 86 254 254 254 251 253 253 254 255 248 252 251 251 245 250 251 243 251 224 225 254 248 243 253 250 248 252 253 248 251 190 198 187 119 44 66 85 75 89 85 86 86 86 86 85 87 89 87 90 91 91 93 96 96 94 94 94 94 94 92 90 89 87 89 91 91 91 91 90 90 91 89 88 88 89 88 86 86 87 81 99 83 91 85 76 98 87 89 97 104 3 51 247 192 100 88 82 151 159 139 136 151 120 86 135 86 90 62 41 44 136 244 242 234 227 218 188 164 135 93 58 26 33 29 67 67 93 115 149 169 222 92 64 85 82 79 79 86 82 84 86 77 85 86 80 79 75 7 7 44 253 254 208 107 207 249 206 222 222 219 233 237 233 244 226 240 146 193 166 140 165 149 199 254 233 247 247 242 200 212 248 175 38 80 75 74 76 74 70 71 74 72 71 70 71 70 70 68 67 77 66 5 5 6 16 10 65 137 91 245 197 122 135 169 118 135 54 52 202 167 135 140 144 139 87 146 134 123 144 142 138 130 115 238 254 247 246 245 249 246 253 253 248 247 173 122 145 123 170 129 44 53 52 83 83 25 1 8 21 108 208 173 166 173 
167 136 125 190 176 177 190 165 151 183 110 57 201 10 151 254 245 249 247 113 148 140 151 156 148 152 138 128 138 137 134 101 122 138 146 108 29 122 83 67 112 78 60 69 70 65 96 142 198 122 47 25 71 102 96 9 22 39 22 31 7 73 76 25 70 39 22 69 78 60 80 
190 203 168 29 72 92 78 88 78 67 69 56 56 150 185 185 201 202 223 211 213 209 142 133 161 214 202 203 203 187 130 136 154 177 117 113 131 119 103 168 200 185 184 218 222 211 180 228 216 196 143 162 182 161 234 216 217 200 186 207 184 224 99 173 254 241 202 111 143 160 121 137 211 212 204 214 213 217 217 219 222 205 221 210 209 229 174 145 28 166 198 50 175 243 99 80 203 254 249 224 146 67 238 146 160 225 125 90 240 134 245 231 71 191 154 182 165 48 176 81 109 223 154 9 1 110 212 176 181 174 200 175 165 167 202 152 164 157 181 193 186 173 179 171 181 176 192 151 132 142 169 129 157 155 135 132 122 127 130 130 134 120 115 135 137 142 141 146 139 145 62 51 65 45 31 150 165 175 132 134 223 212 178 199 216 114 183 161 228 103 4 23 76 62 74 66 65 71 64 69 46 116 246 254 253 245 250 252 248 254 128 45 34 230 205 251 233 235 249 246 242 246 238 247 215 214 244 230 238 220 227 124 25 75 71 59 39 29 42 66 71 72 72 72 73 73 73 73 71 71 71 71 72 72 72 72 78 33 49 62 6 7 35 77 132 203 225 254 254 249 253 248 249 207 97 176 141 242 249 252 250 249 228 81 94 133 205 165 96 106 120 160 102 86 30 80 78 80 83 71 85 78 75 83 65 75 248 251 252 247 245 254 247 252 251 253 189 172 149 169 137 115 142 105 157 253 253 253 251 253 253 251 252 241 229 136 122 66 60 67 86 202 71 87 86 84 83 83 84 85 86 88 86 88 90 90 92 96 96 93 93 93 93 92 91 91 91 91 88 90 90 90 90 89 89 90 90 88 88 89 89 87 86 88 85 84 88 89 89 86 81 86 82 77 87 104 32 22 254 249 186 141 58 70 90 63 73 72 104 123 138 202 221 238 229 187 148 94 70 31 40 45 33 37 27 51 80 80 196 244 242 241 245 246 249 248 135 41 81 78 77 79 84 76 83 94 80 78 82 77 83 80 86 94 61 78 27 158 241 241 219 215 236 239 238 215 241 234 225 230 253 105 129 213 167 189 212 154 247 231 222 225 199 192 242 254 149 39 81 75 73 74 73 69 70 73 69 68 66 68 72 72 67 64 73 61 6 10 6 11 12 82 140 115 252 213 134 139 159 117 128 227 199 173 130 123 143 138 123 113 138 137 142 138 131 133 128 105 240 252 252 253 252 248 254 242 246 250 247 156 168 186 140 123 173 130 40 55 55 87 26 1 9 23 108 202 167 165 
192 178 148 138 192 165 171 220 186 142 189 134 70 184 3 171 254 243 253 254 118 124 145 138 152 144 155 145 133 143 137 126 120 114 142 131 115 63 119 82 85 99 40 61 95 75 82 99 135 187 128 53 26 68 83 62 22 26 12 75 81 45 51 69 34 53 35 27 28 10 40 54 
200 178 163 28 72 85 71 86 65 70 69 76 52 143 195 180 214 206 203 232 221 221 183 119 134 208 196 196 194 189 105 130 146 160 117 123 195 105 146 218 239 231 180 176 191 161 125 181 173 167 197 245 184 98 167 148 205 204 194 216 183 204 82 181 250 252 189 42 92 102 111 141 220 200 205 208 210 214 210 216 212 213 225 212 221 231 173 122 28 160 192 59 188 245 104 85 211 247 249 225 145 66 244 163 165 243 125 85 247 151 156 184 108 205 136 152 236 154 174 94 121 219 149 4 1 104 192 148 165 175 186 154 179 177 188 151 164 147 180 211 187 179 182 182 183 181 203 157 117 123 160 141 146 147 128 121 119 122 136 132 141 121 116 137 134 137 136 139 144 131 67 46 58 41 60 172 177 172 159 137 221 196 189 189 212 101 200 182 254 111 1 24 74 67 65 69 69 68 71 70 61 32 62 254 252 250 251 227 204 240 249 62 2 132 198 188 183 188 191 168 148 158 153 172 150 124 118 128 140 131 155 54 39 64 33 40 100 205 149 29 70 74 71 70 75 76 72 71 74 72 72 73 71 74 73 67 51 65 96 121 173 234 248 254 252 252 239 228 222 214 216 231 233 89 108 154 152 241 253 253 249 252 248 65 98 106 159 195 110 118 109 169 107 79 67 77 76 77 78 79 78 77 77 77 68 62 254 254 250 254 250 255 253 252 250 250 133 67 122 129 153 118 137 139 156 210 172 140 105 98 87 70 50 55 19 3 11 35 37 43 44 40 66 82 80 97 82 78 96 85 86 87 90 88 89 92 95 95 95 95 92 92 92 92 92 91 89 87 86 88 89 89 88 88 88 88 87 94 88 83 90 93 87 87 85 85 87 88 89 88 86 85 86 87 69 67 86 34 13 135 247 253 231 201 221 231 237 233 227 202 134 120 74 48 38 38 38 39 93 105 138 163 162 166 171 181 163 141 155 247 232 241 238 235 233 247 175 33 71 82 77 78 77 77 80 83 81 77 82 79 80 79 78 86 79 53 43 5 48 159 253 253 246 239 233 237 240 240 232 228 249 144 121 209 152 187 233 111 143 222 178 138 234 235 202 87 53 68 76 76 73 72 69 68 68 68 70 69 68 68 69 69 67 66 74 52 6 4 5 11 21 95 130 151 193 191 151 150 173 162 151 219 200 129 138 134 146 128 107 100 144 139 145 136 135 134 122 128 238 252 247 251 251 250 251 244 252 251 248 145 182 199 143 138 147 185 157 214 28 85 39 1 7 4 114 206 180 186 
205 182 184 123 178 143 189 206 170 160 184 138 84 172 9 191 253 234 253 253 106 132 137 150 144 150 154 147 137 139 138 131 134 109 141 135 117 111 144 49 51 151 116 140 144 126 117 120 139 187 145 107 82 89 101 82 157 168 88 51 91 96 81 76 77 88 82 72 84 83 72 54 
197 197 187 21 85 117 62 77 91 92 80 70 60 126 217 196 209 217 209 220 213 226 142 102 139 213 204 194 203 182 116 138 101 139 69 134 183 123 199 174 157 149 172 130 189 121 135 159 153 152 203 250 202 114 134 173 199 226 215 192 181 200 85 173 248 255 189 36 87 102 95 103 215 202 207 209 211 216 212 217 214 213 225 213 219 225 173 134 27 139 203 59 179 222 66 61 214 255 254 187 145 69 224 134 178 237 115 92 249 129 177 240 168 208 116 156 251 207 174 87 115 212 146 2 1 103 196 163 199 160 173 175 192 160 161 147 207 133 171 188 182 169 190 167 184 178 208 162 117 152 184 129 158 153 131 121 118 119 131 129 130 116 117 140 136 137 137 142 151 155 76 43 60 41 39 154 187 177 152 135 222 184 182 213 223 141 212 167 247 119 1 41 75 68 66 70 68 67 70 69 70 65 39 24 249 253 218 184 226 207 87 27 40 12 12 1 3 2 3 1 5 2 3 3 7 3 8 12 16 20 35 39 40 37 115 215 202 229 253 88 50 69 77 72 71 72 71 71 75 72 73 72 69 69 67 59 101 242 253 251 253 236 227 219 216 224 223 223 225 219 217 226 242 146 111 231 167 132 255 247 255 249 245 79 99 88 186 185 117 120 134 106 82 27 86 73 76 77 78 78 77 77 76 78 79 48 254 250 253 250 254 235 208 219 173 157 98 87 89 78 74 74 54 41 34 16 11 8 6 30 60 3 27 64 109 157 166 194 189 154 180 154 85 56 87 75 90 88 83 80 92 80 90 88 88 91 93 93 93 93 92 92 92 91 91 90 89 89 87 89 90 90 89 88 88 89 87 92 89 85 88 91 89 86 84 85 88 89 89 88 86 85 82 74 77 80 88 90 76 56 1 16 132 198 220 83 45 60 54 27 24 44 86 138 172 194 215 54 73 209 189 173 167 180 194 165 186 226 176 234 250 232 243 241 234 254 218 28 74 72 77 77 76 76 79 82 81 78 78 80 72 76 85 71 65 85 78 87 35 10 36 145 219 242 251 243 244 252 245 241 252 177 112 252 232 209 238 191 207 245 252 208 133 100 55 32 78 69 74 74 72 71 70 69 69 70 70 69 68 68 69 69 67 65 66 60 73 40 6 9 11 141 88 123 181 142 149 172 149 167 143 130 129 143 150 139 168 159 101 116 145 129 128 127 133 128 114 134 246 252 250 254 241 251 248 248 247 253 249 142 158 116 116 139 167 69 46 66 51 79 30 4 10 11 106 208 178 178 174 174 184 111 202 155 153 190 161 144 183 
136 73 171 7 246 247 253 252 250 125 136 151 141 143 152 153 145 140 141 143 143 121 128 125 135 117 96 145 97 65 133 110 160 135 156 139 112 141 172 140 135 111 47 67 75 127 158 117 57 109 122 144 79 88 100 124 48 24 119 90 97 
179 187 183 17 78 140 90 71 93 113 70 78 55 141 208 145 214 217 213 228 216 209 148 153 145 180 174 186 177 168 154 189 118 150 117 118 180 106 91 53 40 47 57 29 187 246 182 165 140 141 155 253 217 8 125 171 194 199 174 203 184 212 91 199 245 240 201 117 161 172 175 181 204 202 209 209 212 217 214 218 215 211 223 211 214 217 171 140 38 145 177 53 156 194 49 46 214 203 217 180 146 79 217 129 184 230 102 95 199 59 228 239 171 190 150 147 254 185 153 107 111 217 154 2 11 123 212 173 172 171 195 170 171 180 171 131 172 154 158 180 195 170 172 176 182 180 208 159 102 130 169 147 145 141 131 132 133 129 132 128 126 116 118 139 135 134 135 145 158 166 80 32 58 48 43 184 209 202 166 145 224 174 171 214 206 126 199 160 231 133 5 14 77 69 68 70 68 66 68 68 67 58 56 28 14 173 251 236 245 167 155 173 218 208 128 103 95 113 122 74 103 120 78 74 56 45 41 51 37 40 36 48 61 199 253 215 153 134 252 125 46 70 80 73 71 74 74 72 73 71 72 73 70 71 69 62 49 230 220 204 226 217 226 215 214 221 222 220 221 218 215 217 214 238 231 238 189 77 254 254 246 252 251 105 86 97 173 187 178 195 112 110 39 82 75 81 77 78 79 79 78 76 77 77 75 52 113 103 16 3 31 28 21 14 20 32 57 66 87 90 94 107 108 129 157 169 202 189 201 220 217 162 181 182 231 216 198 199 203 76 60 102 223 118 38 81 84 86 78 88 88 87 90 89 89 92 93 92 92 92 92 92 91 90 89 88 88 89 87 89 90 90 89 88 89 89 88 89 91 88 85 88 90 86 85 85 86 87 88 88 85 85 87 88 76 83 80 57 75 9 42 232 252 216 95 57 158 153 198 234 248 244 252 234 205 177 208 211 195 214 197 170 199 180 167 58 134 243 174 202 246 253 243 246 241 254 237 39 68 78 75 76 75 75 79 82 81 78 84 76 75 77 75 74 76 77 56 76 79 79 62 28 25 57 105 173 184 203 219 218 216 216 212 240 224 226 202 144 167 96 44 16 23 72 63 71 71 82 71 71 71 71 71 71 70 71 70 69 68 68 68 67 67 65 63 61 72 73 62 50 19 71 94 100 102 63 82 100 123 144 163 166 150 157 159 143 176 215 173 186 184 181 188 192 190 178 147 171 247 245 244 253 244 254 249 254 249 251 246 112 108 125 159 129 51 36 68 62 66 81 29 4 6 11 99 215 184 170 162 147 154 114 160 
132 222 189 152 160 174 127 71 141 6 203 170 192 169 170 124 134 148 147 147 157 153 142 140 139 143 153 109 132 133 120 118 51 104 80 67 139 112 117 122 128 111 117 135 188 147 108 92 19 36 9 5 17 69 141 143 133 113 124 106 100 134 71 46 88 18 30 
185 208 185 33 87 142 111 66 84 104 85 72 58 123 221 163 215 222 217 221 223 213 180 139 134 70 12 25 32 165 230 220 227 250 146 127 188 50 64 71 53 67 59 41 16 218 240 172 151 129 195 251 228 10 67 176 196 176 153 207 176 223 106 187 254 229 253 253 254 248 254 243 192 202 209 208 211 216 215 217 216 212 222 209 213 219 171 137 33 128 249 228 127 199 239 150 209 66 112 230 144 65 224 163 171 243 115 108 202 61 202 216 93 204 147 168 218 39 176 106 112 220 155 5 1 102 183 159 171 178 189 172 162 187 158 139 179 157 156 197 189 158 188 176 183 188 199 162 132 135 142 138 156 143 129 127 128 125 128 132 132 122 118 135 131 131 132 146 150 153 103 39 58 46 37 191 197 202 172 152 224 188 188 213 204 92 174 171 245 128 1 21 77 69 68 70 68 67 69 69 64 71 69 61 40 14 134 244 197 96 153 153 103 116 116 141 132 150 151 141 117 126 147 123 135 170 193 162 166 206 88 29 252 227 252 219 179 218 123 25 64 75 75 69 73 78 76 72 73 71 72 73 71 73 72 66 56 205 237 219 218 216 215 211 214 220 221 218 219 221 220 219 230 222 109 116 205 194 250 249 247 249 251 134 118 97 199 209 165 122 116 21 80 78 70 70 76 79 80 81 79 77 77 77 77 47 147 152 152 172 170 191 151 163 199 208 205 165 191 231 226 230 213 195 211 219 199 201 184 129 172 202 197 226 230 208 210 218 211 167 138 70 58 218 183 40 83 78 91 90 89 94 93 92 92 94 94 93 92 93 91 91 91 89 87 87 88 90 87 89 90 90 89 88 89 89 89 88 92 91 82 85 90 84 85 85 85 87 87 88 86 85 80 79 68 84 45 19 19 26 251 175 97 163 200 244 252 253 249 236 220 228 214 167 173 197 168 179 165 129 162 152 166 166 159 59 80 242 219 199 254 237 241 243 244 245 240 83 54 83 75 75 75 75 77 81 81 79 83 76 81 81 73 77 79 63 71 66 84 77 34 16 27 42 26 11 31 7 15 1 10 44 47 31 27 3 3 11 2 27 53 59 86 84 68 79 76 66 69 69 71 71 71 72 71 71 70 69 68 68 68 68 66 64 63 75 64 73 84 76 86 55 41 31 45 26 36 40 16 20 114 151 107 96 130 147 165 221 223 180 105 107 140 170 188 192 180 200 246 253 252 242 252 242 243 249 243 252 213 73 162 186 100 52 57 60 60 64 59 79 29 2 4 9 94 209 192 173 171 184 181 106 154 140 203 
195 172 152 163 111 62 172 110 126 31 66 78 69 149 146 141 151 155 163 153 139 137 132 136 155 98 129 128 135 85 25 36 15 65 125 144 147 147 140 123 124 139 192 137 88 85 42 59 30 11 107 161 57 103 132 130 145 138 132 135 136 143 77 8 1 
151 197 163 24 102 144 105 93 74 68 78 84 72 119 228 214 223 223 215 212 215 211 178 171 130 102 51 35 51 115 153 239 205 226 158 62 82 68 61 79 77 61 70 104 37 66 220 192 150 108 144 254 200 94 131 177 184 170 173 210 182 193 102 190 253 221 230 233 221 219 241 218 183 202 207 207 212 215 215 217 218 216 225 210 218 229 174 129 38 131 239 247 100 174 251 122 222 120 134 248 170 92 220 170 157 215 61 111 200 59 244 241 85 181 159 204 196 56 167 89 102 211 158 26 2 109 192 191 203 203 186 189 180 204 155 159 190 131 154 167 192 158 197 185 182 192 191 163 156 151 151 137 145 132 125 126 128 126 124 129 135 124 116 133 134 133 131 145 152 143 134 48 45 44 50 199 200 198 168 151 210 184 191 194 227 138 202 162 246 121 1 35 75 67 67 70 69 68 70 70 54 84 141 124 146 143 16 90 40 96 154 82 52 149 190 186 116 112 165 198 141 42 97 102 164 160 186 199 145 187 135 2 211 223 207 254 253 110 24 66 74 74 69 69 74 75 71 72 76 73 71 70 68 70 70 64 68 174 237 216 205 213 215 224 218 223 227 227 226 228 226 219 237 195 96 144 134 122 251 252 250 249 250 146 59 125 134 112 91 105 58 69 77 72 79 78 76 79 80 81 80 79 78 78 68 55 212 213 233 200 183 172 133 211 227 251 254 236 206 227 232 228 251 244 175 179 191 220 209 112 118 216 193 214 235 218 222 219 217 187 232 238 59 60 242 101 53 89 94 85 91 90 94 93 93 95 94 92 91 93 90 91 89 88 88 87 89 90 86 88 89 89 89 88 88 89 90 88 93 92 82 83 88 83 86 86 86 85 87 86 86 87 86 89 79 95 70 19 1 184 172 94 240 254 250 229 233 218 186 147 155 138 120 89 112 168 143 176 105 88 103 149 171 158 152 119 145 236 199 187 250 240 243 242 241 239 252 120 43 76 75 77 75 74 78 80 80 78 73 82 81 80 85 74 68 83 86 64 34 12 21 120 151 249 252 251 254 246 216 190 171 150 111 95 113 137 135 160 85 63 49 33 56 44 48 56 62 70 69 69 71 71 71 71 70 70 70 69 68 68 68 68 67 65 65 73 54 40 38 34 26 30 11 54 28 5 12 22 7 5 0 9 4 6 6 7 20 56 76 85 61 81 70 49 49 59 34 211 250 246 248 248 247 247 251 252 253 251 227 150 137 66 43 65 71 61 75 63 69 67 33 2 9 13 94 197 197 175 180 186 181 124 150 140 200 183 160 
154 195 123 14 129 149 159 162 148 103 48 137 141 144 148 157 163 151 139 136 129 134 157 121 133 145 165 107 31 69 36 66 98 120 153 139 158 133 127 150 196 148 107 90 50 29 3 39 227 224 69 20 193 187 130 124 126 93 114 115 111 99 116 
169 189 171 29 94 143 100 115 68 62 84 106 79 131 216 209 226 216 207 208 205 217 148 240 146 79 66 12 52 133 178 235 216 218 167 75 100 79 74 90 92 79 69 83 51 66 193 187 121 94 155 251 243 76 130 141 186 176 156 201 205 202 89 190 251 236 216 227 235 236 239 221 179 203 204 205 213 214 216 218 217 217 226 210 220 232 173 122 32 122 235 223 138 215 251 143 217 94 137 252 156 68 219 157 164 193 125 108 208 56 237 235 79 189 148 199 205 78 164 94 99 213 163 18 0 113 175 133 141 188 184 168 153 196 158 141 128 117 222 206 200 203 222 208 196 177 172 165 162 137 156 136 122 116 123 130 134 132 121 122 129 121 114 133 139 138 131 144 160 141 143 61 36 41 64 197 190 172 139 141 205 188 210 217 215 136 210 161 237 126 5 24 75 67 67 71 69 70 72 70 53 77 174 242 238 246 44 18 31 125 141 31 26 98 100 136 165 152 148 163 131 81 34 102 173 118 136 151 90 140 87 13 77 249 248 178 52 29 70 70 70 72 72 74 76 71 69 75 75 72 71 71 69 72 73 67 70 166 238 216 227 229 220 216 222 221 225 225 222 224 227 222 226 238 149 123 199 149 247 177 149 91 67 42 46 85 92 82 90 59 75 75 71 73 73 76 76 79 80 81 81 80 79 79 66 60 186 221 200 174 200 169 180 245 252 253 254 253 239 207 227 251 246 250 207 207 200 208 211 177 117 199 202 195 250 201 201 225 234 108 127 180 233 61 111 235 44 84 91 88 86 91 91 91 91 93 91 89 89 91 88 90 89 88 87 87 88 89 87 88 89 89 88 87 87 88 89 89 91 90 84 83 85 84 87 86 85 85 87 86 86 86 83 88 81 77 97 3 82 236 86 248 242 224 221 240 131 169 152 138 170 69 119 144 92 178 155 178 131 112 124 176 146 167 167 138 202 228 195 224 250 248 244 246 241 237 251 125 38 80 76 78 77 75 77 80 80 78 78 81 79 76 81 84 80 77 30 12 14 100 171 118 57 248 252 251 253 254 243 248 254 243 252 246 167 141 177 178 213 216 199 160 156 114 98 81 66 62 68 69 70 70 71 71 69 68 69 67 68 67 68 68 67 65 60 75 21 10 4 2 11 105 166 126 31 155 253 238 231 203 202 171 137 129 99 72 41 31 34 42 23 39 46 45 48 46 37 62 70 89 97 129 148 156 180 221 214 245 165 45 47 51 72 54 62 77 54 67 63 64 53 2 6 17 104 201 202 164 199 218 169 126 185 138 
189 189 166 151 156 133 31 145 121 3 7 3 4 10 154 137 150 138 154 154 146 140 136 129 138 161 131 119 139 145 129 27 124 90 66 91 132 166 166 173 154 133 153 183 139 129 109 71 36 22 19 107 251 252 67 1 154 153 138 163 168 175 73 112 106 204 
153 164 154 23 73 124 98 110 71 76 124 101 80 109 226 211 216 218 211 198 208 253 141 205 141 58 119 54 58 124 167 224 207 233 172 114 173 84 67 57 67 75 73 69 32 251 255 151 92 111 146 254 138 72 142 185 161 195 180 207 185 189 87 201 253 233 189 211 228 231 233 228 177 202 200 203 213 211 215 218 215 214 225 211 218 225 170 126 37 127 245 211 171 217 139 74 234 103 159 245 154 80 225 150 182 252 243 163 163 17 247 242 93 183 128 165 211 78 169 89 103 207 163 3 0 128 193 119 128 160 185 184 153 156 159 167 47 154 253 196 164 135 110 129 140 112 105 133 171 132 156 130 137 126 127 121 121 123 117 123 129 123 114 131 138 136 128 143 154 131 123 103 63 34 46 164 201 182 138 141 209 188 204 217 178 78 174 180 246 126 6 37 76 67 67 73 69 69 71 70 59 63 169 252 252 250 55 28 49 159 156 105 96 117 157 217 168 172 152 178 143 34 175 67 91 97 95 147 138 199 109 33 39 132 111 23 48 67 73 66 67 74 76 75 76 73 72 76 72 70 72 73 72 75 75 68 57 147 251 214 219 219 219 226 221 216 221 225 221 225 235 235 236 254 253 241 184 19 22 23 30 37 50 63 52 71 31 81 78 58 73 66 77 75 84 75 77 80 81 81 81 80 80 80 66 52 241 218 164 147 170 190 211 227 250 212 180 186 218 201 194 242 250 251 206 206 222 210 191 203 193 192 201 203 247 205 213 209 229 78 141 191 196 219 69 231 99 55 91 90 86 91 88 88 90 91 89 86 87 89 87 89 89 89 87 86 87 88 86 87 88 88 87 86 87 87 87 90 88 87 87 84 83 87 87 87 86 86 86 86 85 85 91 81 95 85 69 10 229 183 188 250 230 238 230 220 106 110 119 237 197 186 227 145 115 171 159 178 168 180 169 161 167 169 158 143 147 159 120 151 244 249 240 244 241 233 250 156 34 86 78 80 79 77 78 80 80 78 87 76 77 79 73 79 66 28 13 16 151 145 71 91 98 251 251 254 235 249 183 56 252 241 249 249 146 24 71 57 71 76 70 166 183 150 162 165 178 64 69 68 69 70 70 69 68 68 68 67 66 66 68 69 68 66 71 73 4 5 24 4 24 90 125 122 86 175 252 252 254 254 254 254 254 254 254 253 248 254 251 252 236 225 207 195 191 174 159 117 98 110 57 46 54 61 39 34 26 37 18 27 61 67 64 71 56 64 73 55 67 62 64 2 1 19 96 202 201 155 160 164 161 98 187 153 
175 195 150 155 179 152 17 193 252 92 81 102 159 244 130 147 155 142 151 145 142 142 135 128 139 158 131 129 128 134 120 76 119 118 89 98 151 152 142 144 163 129 163 192 141 140 107 70 84 102 99 116 236 207 132 98 9 82 246 254 254 253 209 219 149 197 
140 190 153 26 84 105 69 75 61 64 96 104 80 120 229 213 219 214 214 206 216 252 164 200 154 41 115 32 10 148 207 223 222 216 111 103 149 46 37 59 66 49 51 20 132 152 71 88 74 119 110 144 36 135 156 172 184 157 155 199 211 187 104 205 251 233 197 224 228 235 239 217 176 201 197 202 212 208 213 217 216 213 225 214 217 219 169 135 35 134 240 206 178 209 66 47 238 64 128 231 139 72 207 140 157 233 152 127 205 162 242 231 81 172 242 254 211 77 172 119 136 209 170 6 2 116 213 166 191 161 186 207 166 116 155 195 38 140 250 193 175 119 158 172 184 192 160 146 180 121 148 136 133 124 129 123 123 129 122 128 136 128 117 128 133 129 123 141 154 121 91 136 98 43 55 182 195 192 142 143 220 197 203 215 165 110 192 172 232 126 1 39 77 69 68 73 69 69 70 68 49 94 143 250 250 252 46 39 47 152 151 131 142 151 154 170 237 238 188 163 207 119 123 101 131 160 94 131 185 211 25 42 73 36 40 61 70 65 71 69 68 75 73 68 72 76 74 72 72 70 72 73 71 71 68 60 39 101 253 219 222 234 229 239 246 240 249 254 243 239 241 237 205 169 133 125 47 35 64 55 55 56 56 69 58 52 43 67 35 84 74 73 76 72 72 78 77 80 81 82 81 80 81 81 70 59 243 214 180 178 187 224 212 214 244 204 184 200 198 196 220 252 248 241 221 207 208 220 206 212 211 199 203 191 240 215 210 209 210 182 189 216 213 226 60 199 128 49 83 85 93 82 87 87 89 90 89 86 86 88 85 87 89 89 88 86 87 87 84 86 87 87 86 86 86 86 85 90 86 84 89 86 82 89 87 87 86 86 86 86 85 85 84 87 84 89 17 2 239 251 224 213 142 117 162 203 140 118 120 192 123 174 224 212 150 156 168 178 160 168 164 150 144 141 146 154 149 156 140 174 248 237 239 235 238 232 249 218 30 76 79 81 79 78 77 79 79 78 79 77 76 84 84 48 8 5 40 166 122 149 139 88 95 251 250 251 247 251 202 156 251 250 240 254 128 57 85 88 88 84 77 128 181 151 174 145 143 68 68 68 68 70 71 70 69 68 68 67 67 67 68 69 68 66 62 64 25 5 14 3 69 101 120 131 39 128 253 246 246 247 248 243 245 245 248 252 251 253 254 252 248 246 247 248 250 248 248 252 251 252 135 82 115 117 130 124 97 95 133 75 56 42 48 47 69 67 64 67 60 64 51 2 4 20 70 183 194 162 170 162 173 106 
171 139 214 184 162 170 209 147 30 160 251 253 253 252 245 179 126 147 140 141 151 140 140 142 132 124 135 151 125 127 141 106 120 116 85 97 80 143 146 128 127 107 67 63 62 177 158 111 51 44 99 92 124 60 193 203 222 184 66 28 143 186 151 108 212 240 223 222 
160 177 163 33 81 102 70 88 131 35 47 107 77 111 223 177 213 210 219 224 205 216 167 159 138 99 147 59 73 192 189 199 179 243 130 69 194 213 212 127 81 123 171 93 157 154 178 184 185 214 155 175 51 26 40 86 122 105 125 150 157 176 106 204 249 236 228 226 223 231 236 230 167 198 200 200 203 206 214 216 214 213 226 212 225 228 183 128 42 145 223 182 172 226 97 68 212 191 202 243 104 73 195 250 253 226 62 126 235 255 254 151 31 179 249 253 215 71 169 128 140 199 176 9 0 105 158 164 215 177 201 185 164 197 156 153 124 155 253 219 197 178 220 226 215 207 212 145 173 154 151 154 142 140 122 121 122 133 125 125 131 121 109 138 134 131 148 140 155 138 110 124 116 100 73 188 180 176 135 145 228 188 196 201 197 124 184 184 231 110 1 35 75 69 68 71 69 70 70 68 39 121 139 111 110 156 32 44 58 148 144 133 125 131 121 96 144 175 185 211 244 243 160 155 145 140 111 111 167 181 30 53 42 78 68 64 72 67 71 69 71 72 72 73 73 74 74 74 75 70 69 74 72 64 75 101 140 163 255 245 253 240 233 216 205 179 162 126 112 120 30 26 24 18 13 20 30 31 36 44 89 117 149 171 182 174 141 101 44 23 75 87 73 71 75 79 78 79 80 80 78 78 79 80 69 45 238 212 180 178 215 238 191 249 249 213 199 210 215 203 205 238 245 239 215 204 221 204 196 211 203 215 207 203 247 214 213 219 208 155 223 237 232 244 128 115 249 74 68 90 86 82 86 87 88 89 90 89 88 88 87 88 88 87 85 84 85 86 84 85 85 85 86 86 86 86 85 86 86 86 85 85 86 87 88 86 84 85 87 89 88 87 85 83 98 26 6 1 128 248 226 227 92 82 127 215 132 211 223 224 143 108 120 184 119 132 131 152 161 160 165 181 185 209 226 243 239 241 235 205 242 252 251 249 251 247 246 236 40 81 80 80 78 76 78 81 80 76 77 79 81 76 76 86 59 8 34 167 108 165 125 85 98 250 251 249 240 250 187 143 254 232 255 255 105 55 79 86 89 76 86 151 171 138 156 150 147 61 71 72 71 68 69 71 69 65 69 69 69 69 67 68 68 68 64 70 77 12 4 6 4 109 147 117 28 172 254 247 250 252 250 249 248 248 246 247 249 249 247 245 245 246 245 244 243 243 245 246 232 247 80 114 121 142 161 177 206 227 214 211 158 112 78 62 47 56 69 61 65 72 25 1 7 13 83 231 174 173 
189 162 166 121 169 174 223 190 166 164 180 179 86 52 82 143 158 112 97 122 139 147 142 147 154 146 148 149 137 131 141 153 99 145 113 84 100 86 80 99 85 85 148 120 123 100 20 14 61 175 122 37 26 48 64 54 54 44 147 168 153 158 150 138 88 63 98 3 3 7 3 142 
159 162 149 45 75 88 68 93 93 75 72 86 76 125 209 220 222 218 219 216 214 222 169 149 94 152 221 213 210 174 140 183 109 223 148 93 198 194 210 252 253 174 135 153 229 227 206 184 165 153 162 202 200 163 157 163 149 154 152 128 102 128 31 213 254 226 204 203 211 226 224 210 171 188 199 200 202 207 212 213 215 213 224 202 204 204 173 137 28 150 229 229 239 253 107 93 206 251 247 254 115 73 190 244 242 254 105 131 222 227 254 171 70 190 233 241 228 63 183 93 106 210 175 3 2 104 181 148 168 167 187 186 167 180 194 167 162 136 185 188 187 164 198 205 198 222 225 168 216 224 129 145 149 143 128 129 125 127 118 122 125 125 115 136 136 139 129 135 142 130 97 130 76 64 66 206 194 192 151 145 219 186 191 185 201 185 214 184 223 114 3 19 75 68 67 69 68 69 71 69 51 156 174 145 147 179 44 31 66 174 135 148 138 138 145 132 124 112 122 122 123 165 199 218 225 140 105 114 184 176 90 92 21 66 69 66 68 62 71 74 72 72 73 73 73 73 74 74 71 73 72 73 73 68 70 80 72 44 120 96 68 49 17 54 14 18 20 18 26 47 20 36 22 30 34 54 78 107 147 167 182 181 61 82 134 189 195 146 139 69 9 33 80 75 80 75 79 78 79 79 78 78 80 81 67 88 218 224 135 163 235 194 193 251 244 193 198 208 205 206 196 201 203 219 210 198 211 203 183 205 185 212 215 198 245 205 203 205 218 162 207 253 241 217 200 167 174 51 95 82 84 84 86 87 88 89 89 89 89 89 88 88 88 87 85 84 84 84 85 85 85 85 86 86 86 86 85 86 87 87 87 87 88 89 89 87 85 85 87 89 88 87 82 89 86 61 15 39 141 221 232 221 139 141 175 245 152 165 191 144 144 141 140 143 162 187 171 187 219 228 244 241 241 234 233 212 156 156 93 50 253 248 225 173 108 84 57 54 61 75 80 81 79 77 76 80 79 77 81 78 79 75 71 79 83 73 11 31 178 142 130 112 117 249 252 240 254 252 183 176 255 247 245 255 120 46 75 96 86 85 89 164 133 153 188 138 152 67 72 73 71 70 70 71 69 67 69 70 69 69 67 68 67 67 67 75 83 11 2 0 2 139 147 110 45 194 255 248 247 246 248 249 249 249 246 247 249 248 247 248 248 249 249 250 248 248 248 249 250 241 102 136 142 151 147 129 134 145 131 164 224 242 187 116 83 49 55 60 67 82 26 2 4 9 84 210 178 160 160 
178 157 131 166 198 194 204 167 162 183 176 98 100 39 21 17 39 99 140 144 144 159 150 158 151 147 142 131 133 145 155 119 134 84 56 20 14 25 47 46 60 79 95 96 108 112 65 60 157 126 59 10 37 37 65 42 33 32 70 86 128 158 154 150 134 162 3 2 10 2 147 
124 90 135 108 77 95 107 82 83 81 101 103 69 142 213 196 208 217 226 210 217 223 182 146 160 154 169 186 176 177 228 241 252 143 90 119 111 99 129 128 139 24 14 3 78 98 103 102 131 150 128 145 167 180 210 185 219 241 229 174 172 160 101 216 243 227 217 215 217 221 217 206 184 177 197 196 198 207 208 212 216 205 214 201 213 212 174 132 44 130 212 239 229 243 138 116 187 235 232 254 117 71 200 235 232 243 105 105 222 235 250 173 101 174 251 242 221 69 181 109 134 196 166 11 1 69 176 165 191 169 168 148 154 147 149 153 162 138 168 195 194 168 203 210 220 205 240 151 200 220 160 129 155 132 110 113 120 126 122 125 115 122 115 128 133 144 118 133 146 128 110 109 74 104 68 169 198 198 152 124 188 176 203 205 200 204 201 182 225 110 3 30 74 67 67 70 68 69 71 70 55 81 98 252 253 171 11 45 91 177 153 145 160 146 142 142 150 175 144 153 142 133 133 140 154 144 163 169 187 132 44 95 32 74 75 70 72 70 74 71 72 73 73 73 73 73 73 73 71 76 73 70 73 74 69 66 54 73 22 22 42 36 28 8 6 18 10 14 27 47 80 107 164 186 197 223 233 237 254 242 216 238 53 70 12 95 197 213 193 224 126 22 13 83 75 87 78 77 79 78 78 78 80 80 62 92 245 229 157 163 192 200 221 250 243 199 207 209 204 209 215 205 197 219 220 209 218 216 182 186 157 176 199 197 233 205 202 209 226 189 196 175 190 243 169 207 109 57 94 86 84 89 89 89 89 89 89 89 88 88 88 88 88 87 86 85 85 85 85 85 86 86 86 86 86 86 85 86 87 88 88 88 89 90 91 89 87 86 88 88 87 86 84 93 78 95 113 2 62 249 232 253 237 233 246 234 227 159 179 203 207 230 241 251 249 253 240 244 231 193 163 145 130 79 58 49 59 65 52 67 78 19 4 13 58 78 75 56 83 78 79 80 79 75 75 78 79 79 74 78 82 81 73 69 72 77 72 14 17 165 170 99 115 248 246 237 247 247 113 150 251 241 252 250 80 72 83 88 108 84 77 185 145 143 171 138 139 56 72 72 72 71 72 71 69 68 69 70 69 69 68 68 66 67 78 34 6 7 17 3 45 138 131 94 57 217 250 247 248 244 248 248 250 250 247 248 248 247 248 247 248 248 249 250 252 253 247 241 249 210 100 132 136 131 124 133 126 133 134 108 157 209 248 239 163 103 53 41 50 69 27 2 4 10 89 195 192 156 153 217 152 
155 189 117 199 196 169 152 168 180 72 76 91 129 142 168 165 126 133 138 146 146 150 148 145 135 127 133 147 153 135 91 58 36 179 251 152 103 110 100 48 97 109 93 65 62 60 153 83 49 32 50 38 27 62 36 40 54 48 131 118 110 153 157 150 14 3 16 2 141 
45 58 67 55 69 67 49 75 73 65 70 67 46 130 218 198 224 205 214 210 223 226 224 194 197 213 219 214 209 208 200 173 174 106 115 172 144 140 126 121 112 156 166 159 151 115 117 114 131 121 84 138 119 104 137 189 170 202 240 231 223 164 190 227 231 238 249 254 252 250 253 254 200 170 194 191 192 204 205 211 216 203 212 204 228 232 182 126 38 140 213 229 233 247 131 119 199 237 230 254 110 62 196 241 246 242 86 93 232 239 242 163 114 176 235 249 221 61 190 108 125 207 184 3 19 89 129 138 131 146 203 172 157 180 180 153 179 147 166 186 194 172 203 209 206 213 214 179 224 118 173 130 147 130 118 122 126 129 125 123 118 124 117 126 130 138 126 132 132 114 68 70 98 77 53 172 181 187 153 132 197 179 196 188 210 187 174 177 226 100 1 31 75 69 68 70 68 69 72 70 58 91 104 208 233 169 22 42 80 170 153 144 143 157 160 163 138 107 96 96 104 132 149 123 121 160 147 149 178 125 55 91 19 56 66 65 72 74 77 70 72 73 73 73 73 73 73 73 73 77 72 67 72 76 72 69 71 51 61 90 45 23 59 73 115 144 167 197 228 227 249 253 252 251 232 241 244 239 253 232 209 249 127 102 55 86 253 254 207 180 201 191 89 61 78 72 78 78 77 77 77 78 80 81 66 65 244 234 191 175 204 202 218 214 222 202 204 207 214 212 214 214 206 210 209 206 213 210 190 186 186 181 204 212 208 191 223 207 224 198 214 181 184 210 85 237 71 79 84 88 86 89 89 89 89 89 89 89 89 89 88 88 89 88 87 86 87 87 86 86 86 86 86 86 86 86 85 86 87 88 88 88 89 90 90 89 87 87 88 88 87 86 89 79 79 75 75 83 2 254 218 106 253 253 234 245 233 254 253 253 249 250 249 235 213 178 129 99 108 115 122 41 44 56 75 83 71 69 45 74 43 59 192 242 253 221 97 65 71 84 76 78 76 74 72 74 77 80 77 80 77 72 74 76 71 69 70 91 29 14 130 138 174 248 251 249 250 253 147 176 254 248 251 253 63 58 82 95 81 97 82 184 158 156 170 144 129 57 72 73 72 72 72 72 69 67 69 70 69 69 68 68 67 67 77 20 7 10 3 24 113 75 116 88 61 235 253 245 250 246 247 248 249 249 248 248 249 248 247 247 246 247 247 248 252 252 253 242 247 187 95 125 125 120 129 125 90 137 232 201 170 126 178 249 235 204 120 57 50 76 29 1 6 13 85 193 197 158 160 192 
158 101 101 88 183 194 170 166 190 158 46 230 242 253 227 198 228 217 119 149 142 148 144 144 146 140 130 131 142 147 135 35 212 165 207 183 254 255 253 241 252 247 233 100 53 9 78 145 95 54 33 37 92 77 35 66 55 45 30 52 45 85 153 175 171 2 1 1 6 130 
67 63 71 67 59 66 56 66 71 55 71 82 55 116 232 205 226 230 240 192 188 212 195 72 196 228 219 205 216 214 204 217 206 191 195 242 227 252 218 197 214 183 230 254 212 181 198 180 236 207 219 226 216 211 188 214 219 225 115 100 191 205 189 213 231 238 243 246 250 253 255 255 202 162 191 190 193 204 204 210 211 211 223 204 218 226 185 132 35 137 225 238 238 255 124 108 185 241 230 249 136 94 193 247 237 253 82 100 228 225 254 176 101 180 243 248 215 45 179 97 115 197 186 4 13 106 113 79 124 170 190 168 166 164 160 163 180 136 167 182 199 169 192 207 211 221 216 183 230 178 182 104 76 89 114 124 121 121 127 127 124 125 119 131 128 127 138 123 101 65 116 98 60 45 35 168 138 158 140 150 221 187 203 200 202 160 172 172 221 107 1 33 76 70 69 71 69 70 72 70 53 117 144 35 95 104 32 38 92 179 150 153 138 160 76 192 254 189 183 172 148 159 91 61 100 110 109 132 185 126 126 104 12 47 71 72 70 67 70 69 72 73 73 73 73 73 73 73 74 75 71 70 74 73 72 75 53 97 243 235 195 222 243 252 249 253 251 241 246 218 215 214 219 218 198 221 233 224 237 220 169 241 144 74 82 68 251 249 214 199 173 46 57 86 80 81 79 78 78 78 77 78 80 82 70 55 228 226 232 236 245 242 221 212 212 200 206 212 219 215 211 218 213 208 206 209 213 213 187 203 220 206 220 227 213 199 205 229 216 205 192 216 241 137 138 217 48 80 93 82 89 83 89 89 89 89 89 89 90 90 89 89 89 89 89 89 87 87 87 87 87 86 86 86 85 85 86 86 87 87 86 86 87 88 88 88 87 88 88 88 87 87 83 87 89 81 76 100 56 32 254 93 65 180 235 231 241 241 217 184 118 86 65 45 60 74 95 120 69 66 39 4 31 101 89 99 102 66 107 158 70 144 247 239 198 175 137 64 73 70 75 74 74 73 72 72 76 79 79 81 76 73 75 76 71 69 70 81 80 63 13 25 96 202 247 246 247 245 248 248 246 247 249 237 46 60 79 66 68 56 82 169 142 152 156 136 131 46 74 72 72 72 73 71 69 68 69 69 68 69 68 68 68 67 80 16 14 12 8 22 97 200 112 93 68 246 254 242 251 247 250 249 247 247 248 249 249 249 249 247 248 247 248 248 249 250 252 244 248 176 96 124 118 120 120 119 99 147 244 253 246 159 148 140 185 232 103 104 46 46 35 1 7 14 72 195 184 156 170 183 
153 142 152 108 218 212 155 136 157 115 58 253 217 100 18 2 7 116 187 109 153 150 148 147 151 148 133 127 135 144 121 19 118 168 126 3 190 242 205 220 203 203 172 60 38 26 85 156 123 49 52 50 71 105 70 83 45 41 53 47 62 109 121 124 145 52 74 118 40 152 
66 59 76 77 63 73 61 59 98 66 75 84 48 103 236 206 226 208 213 186 185 204 210 102 250 253 234 243 234 230 242 230 231 192 160 226 195 197 170 159 144 138 207 147 158 182 166 181 205 165 171 201 219 227 199 188 203 247 119 115 213 220 201 218 244 248 247 246 248 249 247 252 194 157 190 190 198 204 204 208 205 210 225 203 215 225 185 131 46 122 218 236 218 245 134 108 195 237 232 253 124 76 181 236 232 243 103 109 228 239 254 183 87 189 245 246 227 57 190 112 110 212 166 4 11 70 89 71 154 184 194 129 111 163 175 154 177 146 178 183 202 176 192 197 196 198 202 159 193 178 163 114 107 113 130 124 112 109 121 117 119 119 109 133 126 124 133 108 189 245 254 254 254 240 101 126 174 174 120 141 229 177 190 183 180 128 172 161 215 99 1 36 74 69 69 71 70 71 71 69 57 81 137 102 122 68 57 47 116 172 146 147 135 177 130 220 231 254 245 254 252 123 84 175 119 87 130 130 152 76 62 93 50 68 79 74 69 69 69 69 72 73 73 73 73 73 73 73 71 73 72 74 75 70 68 74 35 117 255 237 243 240 235 216 196 214 215 203 215 200 203 219 219 222 203 218 228 219 232 236 174 249 167 77 38 10 187 219 205 193 84 38 80 73 72 87 79 78 79 79 78 78 79 80 73 45 230 232 243 167 168 199 226 241 211 191 211 217 210 212 211 209 203 204 210 210 206 210 198 222 218 208 221 218 212 174 173 185 203 200 234 247 112 103 238 95 64 80 90 84 89 83 88 88 88 89 89 90 90 90 88 88 88 89 90 89 88 86 88 87 87 87 86 86 85 85 85 86 86 86 85 85 86 86 86 86 87 87 88 88 87 87 85 80 71 87 78 76 97 4 33 254 248 88 100 140 79 81 170 124 83 103 126 139 124 80 32 11 25 62 74 79 134 186 200 254 189 165 187 190 108 125 233 167 212 145 104 59 70 74 74 73 73 73 74 73 75 78 78 78 82 83 75 68 70 77 87 54 28 23 20 96 83 49 87 103 100 99 99 131 154 104 96 130 176 198 179 188 202 201 190 194 159 148 165 177 138 50 75 72 71 72 72 69 69 69 69 69 68 69 68 68 68 67 77 8 9 12 6 27 130 239 103 79 73 249 255 242 251 249 250 249 247 247 248 249 250 250 249 250 249 249 249 249 249 249 246 245 247 168 98 123 113 117 123 137 112 137 239 251 250 152 189 80 235 209 84 60 139 85 39 1 6 12 65 200 177 162 
173 203 183 148 168 136 208 201 154 156 177 156 67 212 252 243 242 254 254 253 175 125 144 145 146 143 146 145 131 125 136 148 98 126 161 146 155 1 227 243 204 199 184 126 125 59 39 66 73 132 100 87 89 49 27 71 76 37 21 38 45 87 131 98 54 6 73 103 183 244 202 217 
51 46 60 51 48 64 50 61 56 58 60 60 52 116 209 194 228 231 229 198 198 206 200 89 208 241 221 227 226 220 225 221 238 183 124 210 165 157 171 163 150 161 152 158 153 185 170 181 207 184 154 206 203 207 203 170 213 230 239 243 226 188 236 238 228 239 241 242 247 246 246 255 190 160 187 185 197 199 203 208 208 205 216 203 223 230 180 119 35 142 216 231 236 250 131 115 195 234 233 254 101 56 203 254 244 245 111 118 226 211 252 168 66 188 121 215 229 44 198 89 105 209 181 7 2 57 115 35 34 113 194 169 182 186 155 148 202 167 164 172 190 174 189 181 192 199 221 116 187 216 144 133 140 125 129 124 122 124 137 130 129 127 104 136 128 139 117 104 248 254 244 250 251 252 62 107 150 187 140 160 220 140 186 218 224 164 207 172 233 92 6 42 70 65 66 70 70 70 71 69 68 61 68 99 74 46 71 39 109 159 146 146 131 179 254 223 227 252 254 250 250 14 89 220 109 66 121 109 180 91 11 70 69 68 67 64 68 75 75 75 72 72 73 73 73 73 74 74 70 74 73 73 74 70 68 74 50 73 253 219 187 194 225 221 194 232 226 214 221 203 207 229 211 226 213 216 227 218 220 232 209 225 203 69 71 64 174 178 140 79 36 73 75 85 68 85 78 79 80 79 78 77 77 78 83 34 210 252 209 73 134 106 211 236 189 190 211 213 206 216 205 200 195 195 207 207 200 204 184 207 207 212 231 232 230 188 169 187 243 212 90 76 118 245 178 33 86 90 78 85 88 85 86 87 88 89 90 90 90 90 91 91 91 91 92 91 89 86 88 88 87 87 86 85 85 85 84 85 86 86 85 85 86 87 85 86 87 87 87 87 87 86 85 94 86 83 84 74 89 89 49 29 161 250 249 252 250 167 126 110 105 88 83 15 6 10 69 133 66 76 109 71 134 253 254 239 127 185 213 245 248 182 231 183 253 189 16 47 80 65 76 74 73 75 77 75 73 74 81 75 76 78 73 76 80 72 12 10 47 118 178 138 90 104 125 187 129 110 125 100 125 74 101 165 121 62 38 40 57 57 69 50 67 58 59 62 52 68 74 72 70 71 71 68 68 70 69 68 68 68 67 68 68 68 74 23 2 12 7 49 100 120 86 41 78 249 252 244 250 250 248 248 247 248 249 249 249 249 249 249 250 250 250 250 250 250 248 253 248 158 104 126 125 123 114 133 108 133 241 252 250 161 179 81 254 186 95 69 164 100 39 1 3 9 67 202 179 167 177 202 169 181 
164 136 151 189 163 165 182 127 16 249 140 165 254 243 250 253 165 111 152 151 140 140 141 137 127 129 138 144 122 33 107 181 130 1 246 225 205 193 212 120 21 51 29 35 74 127 96 69 34 91 89 9 47 114 40 28 58 63 57 77 82 21 75 235 229 201 183 206 
69 62 77 62 59 70 51 67 75 57 77 67 22 131 243 212 208 219 208 187 213 225 208 98 220 245 237 233 231 237 229 239 252 208 111 215 201 151 147 163 126 186 176 121 77 120 149 150 221 190 172 194 179 181 193 170 198 222 255 169 179 224 224 242 247 252 246 243 251 251 248 255 193 165 185 179 193 192 203 208 217 206 213 201 220 222 171 113 34 145 222 244 231 251 153 103 197 254 233 254 139 95 196 189 212 250 77 115 201 120 254 168 87 197 67 220 227 56 186 111 119 203 181 4 4 73 132 27 112 178 195 153 166 161 188 153 175 158 159 203 197 156 187 211 207 186 201 149 166 182 158 145 147 135 154 163 163 153 158 147 158 153 115 147 136 160 106 108 254 235 189 225 242 252 82 143 170 196 123 150 229 151 198 223 232 179 205 141 214 68 1 13 67 62 64 69 69 70 71 68 71 67 61 53 57 74 58 54 133 183 195 168 177 132 95 162 177 156 127 167 194 76 82 165 93 82 119 78 202 65 31 65 62 64 72 72 70 70 69 74 72 72 72 73 73 74 74 74 71 76 73 70 72 73 73 76 66 50 236 221 201 202 222 215 167 225 216 213 220 191 189 203 204 222 211 208 229 233 232 246 203 224 223 42 80 173 182 190 102 41 64 76 70 76 85 71 79 80 80 79 79 77 76 76 74 42 203 249 228 221 248 203 233 240 196 228 230 221 222 229 229 235 232 227 238 245 240 242 239 242 246 226 222 228 229 216 216 212 170 141 127 176 247 170 31 94 80 90 85 78 90 82 85 86 88 90 91 91 90 90 96 95 94 94 94 93 90 88 88 88 88 87 86 85 85 85 83 84 86 86 86 86 87 88 85 86 87 87 86 86 86 86 85 88 79 86 86 87 82 79 89 80 45 31 55 61 33 9 28 30 60 75 6 13 91 157 142 181 186 56 98 101 40 163 202 244 246 247 248 232 241 175 164 207 224 254 170 27 82 70 78 75 74 78 80 76 72 72 76 74 77 78 78 81 52 8 18 124 137 150 185 145 5 122 156 120 150 163 208 122 160 65 116 128 35 74 88 67 41 40 48 60 62 56 66 60 69 70 74 71 69 71 71 68 68 69 69 69 69 69 67 67 68 68 72 5 2 6 5 83 80 39 80 14 86 250 242 244 247 247 246 246 248 249 250 251 249 248 247 248 249 250 249 250 250 250 245 251 242 141 103 128 137 131 127 121 116 161 240 254 251 148 178 94 246 148 94 75 62 54 43 5 3 6 69 195 178 162 199 201 155 158 165 132 188 211 
184 151 193 111 68 253 38 29 249 254 251 248 186 113 139 147 143 144 145 137 128 133 137 133 121 38 132 195 105 1 254 218 207 193 209 130 43 35 27 17 78 149 141 59 7 49 43 40 76 64 94 111 50 95 58 71 77 110 143 205 196 201 188 201 
74 54 74 62 56 71 54 59 75 65 69 70 31 122 240 220 207 211 207 224 222 221 203 91 217 243 229 231 230 229 231 234 250 192 147 205 175 214 146 111 145 148 195 130 104 153 163 173 242 181 153 238 192 213 194 210 208 238 253 160 193 223 231 242 245 249 249 250 252 250 251 255 195 161 186 186 188 196 202 208 206 216 218 197 198 206 172 133 29 135 231 221 237 248 162 109 188 150 172 254 135 86 199 76 166 255 86 110 222 104 254 164 89 180 88 224 224 60 188 118 132 199 171 9 2 76 175 155 223 181 202 180 179 153 189 152 170 145 183 193 196 170 206 202 197 188 223 149 169 181 176 159 154 144 167 160 152 141 154 141 144 136 126 149 137 145 117 123 128 45 96 100 114 253 72 126 171 186 135 152 221 156 199 221 225 180 211 165 163 90 84 88 39 58 63 62 69 71 68 71 69 70 72 66 62 64 66 53 77 87 71 66 82 155 140 85 97 76 92 68 67 134 108 88 91 83 87 130 191 70 36 79 61 64 69 62 69 69 71 70 71 71 72 71 72 73 74 74 76 76 76 75 73 72 71 70 62 52 213 211 230 225 223 231 201 224 226 222 227 229 201 204 222 228 238 225 250 252 254 245 234 237 231 107 162 172 121 121 57 56 72 79 69 77 79 77 78 77 77 77 76 76 77 77 72 55 158 248 246 232 215 215 187 160 207 218 202 194 209 185 178 171 173 171 167 157 166 161 159 116 171 92 47 86 72 95 116 144 134 143 154 125 70 47 80 82 83 83 85 86 86 86 89 91 91 90 90 92 92 90 93 93 94 94 93 91 87 84 90 90 89 88 87 87 86 86 87 86 85 85 84 84 85 85 87 87 86 85 85 85 85 85 85 84 83 83 83 83 82 81 79 80 83 83 78 71 68 72 73 93 73 6 14 125 134 135 208 252 251 76 88 86 57 156 249 214 182 176 232 238 249 219 160 213 204 252 186 80 80 73 77 78 76 77 77 78 78 78 77 76 76 77 80 79 68 57 11 134 195 214 251 198 46 111 103 199 205 106 14 77 103 32 67 159 34 172 163 134 138 98 62 66 70 71 71 70 70 70 72 73 71 70 68 68 70 72 69 69 69 69 69 66 65 66 69 37 12 0 6 113 122 66 144 167 165 246 246 248 249 248 244 250 244 244 248 246 251 251 248 250 249 248 250 253 253 248 247 246 239 127 118 134 130 142 135 140 100 182 249 252 234 155 172 98 246 137 97 87 42 139 133 1 4 13 96 193 173 174 189 200 154 134 165 147 197 201 
174 150 198 150 97 245 67 40 252 254 253 248 193 105 152 145 140 145 142 138 132 130 137 128 95 52 133 207 119 1 240 218 208 112 70 107 70 62 50 37 41 131 134 74 77 88 49 44 64 49 79 64 50 46 77 52 53 120 138 224 182 191 170 193 
51 45 49 55 53 56 59 52 65 48 65 53 35 112 245 218 220 219 211 209 218 227 190 103 221 248 234 236 235 234 235 238 255 192 135 217 157 195 149 90 112 129 164 200 163 166 185 153 206 161 130 227 175 199 212 205 196 225 254 180 186 205 239 245 243 247 247 248 250 248 249 255 195 162 187 188 191 199 203 208 207 211 215 203 216 227 183 135 36 158 193 101 190 251 101 76 198 73 142 254 131 85 183 83 180 250 104 124 197 151 253 166 85 197 234 253 215 74 178 112 128 206 177 8 1 77 173 143 175 128 182 174 160 169 160 143 190 162 164 204 194 169 193 211 217 237 229 134 194 200 163 134 152 150 179 165 147 134 150 141 154 136 118 141 133 143 110 109 31 94 161 154 143 133 43 110 178 174 134 164 225 147 185 226 206 199 193 186 207 129 91 132 43 62 68 66 70 70 67 71 66 67 68 71 81 63 71 63 53 44 32 7 20 42 46 8 1 10 17 7 3 17 15 2 15 29 85 97 146 12 23 63 80 61 70 72 72 81 65 71 71 71 72 72 72 73 74 74 75 75 75 75 73 72 71 71 78 19 189 254 198 216 238 245 203 223 253 253 247 248 223 250 249 251 247 244 246 231 201 178 124 90 62 50 92 68 20 19 76 83 81 67 71 80 74 76 79 79 78 78 77 77 77 77 84 56 64 25 1 1 2 2 1 1 1 10 12 2 5 8 7 5 8 11 4 29 16 6 18 14 33 33 32 51 44 29 23 3 51 77 44 50 76 80 84 84 84 84 85 85 84 84 89 91 93 93 93 94 93 90 92 92 92 93 93 91 88 86 89 88 88 87 86 85 85 84 84 84 85 85 85 84 83 83 86 85 85 84 84 84 84 84 85 84 84 84 84 84 82 81 81 81 81 81 78 74 72 76 74 83 13 9 168 171 191 243 252 151 253 127 65 105 59 112 197 145 192 249 231 249 234 249 176 212 203 253 151 64 88 77 78 77 77 77 78 78 79 79 83 79 73 71 74 81 82 79 46 12 85 233 254 135 60 148 142 214 166 100 10 129 120 91 101 153 93 245 122 147 164 96 60 62 65 68 69 69 71 71 71 72 70 70 70 69 71 71 70 70 69 68 68 66 66 65 73 67 70 70 54 70 84 80 104 119 105 155 185 232 245 250 251 251 252 253 253 252 242 239 252 245 241 246 249 250 252 254 247 243 238 106 126 136 132 138 133 121 112 229 247 254 208 165 153 111 245 124 88 90 127 58 40 2 7 10 84 186 190 161 188 194 167 135 171 158 197 206 178 157 219 145 87 253 63 25 253 247 235 252 216 116 131 143 
141 144 141 140 129 123 133 131 103 20 151 196 113 10 231 219 231 141 19 18 33 64 70 67 44 87 113 53 50 98 82 54 119 76 31 53 33 43 39 86 85 88 118 222 209 207 205 204 
73 45 74 63 60 77 51 63 76 64 67 69 37 123 247 223 238 233 217 229 218 215 212 86 212 241 228 230 228 228 229 230 239 201 86 166 179 183 142 138 172 159 159 168 186 154 144 168 209 157 111 197 156 190 203 190 161 216 255 200 202 206 238 231 241 244 245 246 248 246 247 254 192 159 183 188 191 199 202 204 212 212 216 203 217 225 171 118 33 153 191 102 198 255 91 74 190 96 157 247 131 77 188 185 222 254 82 102 222 245 254 164 96 199 251 241 224 61 177 120 122 204 169 4 5 87 169 113 143 137 144 177 183 173 184 154 168 158 172 174 185 177 196 212 171 158 195 123 150 176 160 109 131 133 168 152 139 134 152 146 153 147 127 134 127 155 121 101 64 59 113 99 134 86 68 148 186 180 140 148 209 164 195 215 218 192 206 185 203 108 113 140 42 58 66 67 69 69 68 72 76 66 73 64 57 73 59 59 51 30 57 113 138 162 182 163 221 210 187 185 195 183 194 196 202 103 111 113 126 104 66 22 11 65 80 68 65 65 69 69 71 71 71 71 73 73 74 74 75 75 75 75 73 73 72 71 71 34 159 247 231 244 241 241 232 224 201 203 213 226 205 192 163 141 90 64 31 21 3 4 27 38 56 79 66 82 60 45 30 19 69 83 78 71 74 78 79 80 79 79 78 77 78 78 74 75 63 176 176 189 192 170 200 204 172 141 52 78 61 66 98 117 100 73 107 79 58 75 56 59 55 68 69 78 63 53 67 122 76 52 75 78 87 79 83 84 84 85 86 86 86 85 89 92 94 95 95 95 93 90 90 90 90 91 92 91 91 88 87 87 86 86 85 84 83 83 82 83 84 85 85 84 82 81 84 84 83 83 83 83 83 84 85 85 85 85 85 85 83 82 81 78 76 77 77 78 79 83 93 7 9 140 254 109 235 193 122 74 187 212 45 102 85 110 199 239 235 222 252 248 214 138 187 248 217 192 54 56 79 68 77 77 76 77 80 81 80 79 79 79 77 76 75 80 80 78 80 80 8 30 188 90 30 59 119 174 124 56 4 73 82 13 18 35 80 244 129 154 95 109 66 66 68 68 67 67 68 69 70 70 69 70 71 72 72 71 71 70 70 68 66 66 66 66 63 69 69 70 66 56 60 55 50 41 6 6 6 24 20 43 110 124 178 215 240 247 244 245 240 250 252 254 249 250 248 240 242 245 229 101 125 135 110 120 108 109 132 239 241 253 181 158 119 139 247 141 66 116 140 77 41 2 5 22 75 194 212 158 186 195 190 136 159 146 183 208 187 165 203 154 94 247 57 39 254 254 252 
246 236 97 151 146 142 143 141 142 128 118 132 137 103 28 151 199 108 1 249 220 222 184 63 53 49 45 70 55 43 108 141 69 16 9 73 51 58 96 80 82 39 18 70 56 62 47 150 229 207 204 208 201 
60 45 59 64 63 68 62 62 62 57 57 72 36 128 251 231 88 104 223 228 212 228 202 94 213 242 231 232 230 230 231 231 254 205 94 134 164 185 206 200 187 157 177 155 171 189 160 152 192 132 106 181 152 189 178 179 161 228 251 169 193 216 240 243 242 246 246 247 250 248 249 255 192 159 181 186 190 200 202 203 207 210 221 206 215 223 172 127 29 161 187 123 206 255 132 80 205 225 224 254 138 72 203 254 245 247 96 103 233 225 254 162 84 175 245 254 208 35 197 96 109 211 182 7 3 84 184 145 185 206 197 165 175 188 195 168 161 148 185 182 198 164 119 117 143 110 99 76 145 131 135 136 153 144 170 149 140 141 152 140 149 149 135 140 126 153 121 96 173 252 252 252 211 58 107 100 178 178 137 127 203 204 218 200 178 192 212 182 206 82 18 44 51 59 65 67 68 69 69 72 65 66 76 69 78 59 62 54 53 132 189 180 166 159 159 145 243 232 236 230 250 248 240 213 235 189 123 140 128 153 174 178 55 17 23 78 71 74 76 76 72 71 72 72 73 74 74 74 74 74 74 75 73 73 72 71 71 31 138 254 246 235 250 242 161 81 60 69 80 77 21 33 3 7 3 10 5 15 15 30 18 23 28 39 53 71 64 105 121 65 9 43 86 81 76 71 78 79 79 79 78 77 78 78 74 76 28 244 254 251 253 242 253 241 254 232 60 142 229 222 89 53 43 27 53 61 197 204 196 197 187 185 174 175 170 162 156 125 83 114 68 80 74 90 83 84 84 85 87 87 88 88 91 93 94 94 94 94 93 91 90 90 89 90 91 91 91 89 87 86 86 85 84 83 83 83 82 83 84 85 85 84 83 82 83 83 83 83 83 83 83 84 86 86 86 86 87 86 85 83 82 79 76 77 78 79 80 81 14 8 100 203 184 193 247 80 43 249 153 173 54 118 97 89 139 243 249 229 159 95 72 16 19 26 5 7 28 76 72 80 76 76 75 78 81 82 80 78 74 77 81 80 78 75 72 68 63 80 76 48 16 90 173 165 206 229 110 112 169 4 4 8 11 3 98 194 110 161 109 93 67 68 70 69 69 68 68 67 70 69 68 70 73 73 72 70 71 71 69 67 66 66 66 66 64 64 62 59 68 72 37 2 5 0 7 48 60 15 5 2 3 4 7 12 8 23 64 105 163 206 246 252 251 253 254 254 243 245 240 77 131 125 132 136 150 142 128 147 145 155 134 159 182 194 232 170 67 100 61 90 47 2 1 12 101 223 185 174 194 195 180 129 164 157 195 215 193 146 197 138 90 253 60 122 244 239 201 139 203 127 137 137 
143 145 143 142 128 121 135 140 100 33 144 217 123 1 241 219 215 87 62 101 74 29 64 82 14 113 121 106 50 29 93 91 51 81 14 63 77 53 65 53 130 103 102 231 202 200 229 181 
49 36 50 53 51 56 51 51 56 48 62 63 44 113 251 223 46 78 239 209 219 234 185 104 215 247 235 236 234 234 235 233 239 181 147 222 214 195 202 178 142 159 155 176 130 139 141 149 207 149 109 161 125 156 158 184 166 222 253 162 191 221 232 240 245 248 249 249 252 249 251 255 195 161 184 187 192 202 204 206 206 207 223 208 215 222 168 128 31 129 235 253 238 244 163 92 196 254 231 254 118 60 198 233 229 249 89 96 219 242 254 167 75 185 245 246 206 78 198 97 115 212 172 3 1 78 170 125 118 150 131 138 153 155 155 150 142 164 173 184 190 195 111 59 91 143 106 103 194 130 145 162 170 151 174 149 141 145 152 139 160 136 125 152 134 136 98 85 198 254 245 253 185 55 98 154 183 177 138 139 220 217 208 181 153 147 202 155 236 86 5 18 73 69 68 69 69 69 69 68 75 68 66 60 61 62 54 80 188 156 139 157 146 122 90 98 225 183 180 189 212 206 216 173 231 192 154 154 167 149 124 137 206 117 5 12 74 66 75 61 73 72 72 73 74 74 75 75 74 74 74 75 73 73 73 72 75 46 84 172 98 71 52 5 2 4 2 9 6 7 10 7 2 15 26 39 56 84 112 135 168 206 129 8 32 38 34 43 66 104 123 24 10 85 75 83 78 78 77 78 77 78 78 79 74 84 32 200 242 218 222 235 231 224 223 215 175 220 237 209 200 239 225 228 226 211 254 247 252 255 250 255 255 242 254 219 255 157 119 86 106 66 88 81 85 86 85 86 87 89 89 89 92 93 93 91 91 93 93 92 90 90 89 89 89 90 89 88 87 87 86 85 85 84 83 83 84 84 83 83 83 84 84 84 83 83 83 83 83 84 85 85 87 87 86 87 87 87 85 84 86 84 80 79 80 79 74 73 61 163 196 182 174 238 245 249 248 241 254 253 55 102 109 56 91 66 94 62 56 36 65 101 137 142 159 121 139 69 61 78 76 76 76 78 80 81 79 78 76 77 76 74 72 74 77 76 73 74 63 73 67 56 104 72 79 113 125 90 98 83 95 89 70 79 134 164 106 124 130 66 64 65 67 70 71 71 70 70 69 68 69 70 73 74 71 70 70 70 69 66 66 66 66 67 71 59 70 72 61 73 22 2 4 4 15 76 66 37 188 237 189 149 96 85 63 22 12 1 8 4 4 14 33 78 154 219 239 244 241 105 136 131 145 150 141 149 148 130 139 145 194 247 238 175 144 105 79 52 70 79 46 1 9 5 67 204 171 164 210 217 179 135 161 139 183 191 181 152 186 134 66 251 162 223 99 32 5 1 223 189 126 
144 143 148 144 139 128 126 137 135 111 31 159 157 101 12 234 207 179 66 87 52 87 44 15 93 25 86 118 87 74 48 71 38 25 69 59 39 55 58 51 45 100 149 128 236 184 216 246 200 
75 52 83 67 60 80 57 69 67 63 68 77 48 117 249 220 71 103 242 221 225 221 198 95 214 246 234 233 232 233 233 231 253 193 130 208 206 192 176 190 163 156 145 171 106 93 138 143 179 137 117 196 150 181 207 180 180 208 253 172 178 208 232 246 242 246 246 246 248 245 247 254 195 161 184 187 191 201 204 208 211 205 221 206 216 224 160 117 32 136 234 229 230 255 163 100 193 244 226 254 113 64 208 249 246 254 80 99 229 231 230 205 121 197 157 174 215 93 165 108 129 236 193 8 1 75 196 179 151 163 173 221 169 178 177 195 180 176 158 193 191 167 116 68 88 88 76 93 177 119 122 137 153 137 167 144 137 143 152 148 165 138 126 155 141 148 105 79 173 253 243 253 153 74 116 148 186 184 143 152 227 213 203 188 191 181 190 163 232 105 1 49 79 68 66 69 69 69 70 67 62 76 62 71 77 41 80 202 72 99 149 114 81 47 39 57 223 200 194 217 206 160 177 116 191 185 137 144 172 153 164 136 121 215 106 3 28 79 66 78 72 72 73 73 75 75 75 75 74 74 74 75 73 73 73 72 70 74 45 39 25 49 33 12 30 30 33 45 61 95 119 157 180 195 216 226 243 240 236 230 232 184 161 101 91 134 231 94 60 75 64 112 42 17 64 80 77 77 76 77 77 78 81 81 77 79 28 219 254 214 204 207 233 232 236 183 91 139 64 55 213 253 242 247 249 242 232 249 237 231 244 240 237 235 243 213 247 184 150 109 235 79 66 83 89 88 86 86 87 88 87 88 93 93 92 90 89 92 93 92 90 89 88 89 89 89 88 87 87 87 87 86 85 84 84 83 84 84 83 83 83 83 84 85 83 83 83 83 84 85 85 86 88 87 85 85 85 85 84 83 81 82 81 80 81 81 77 74 82 79 101 171 247 248 246 230 220 214 210 242 22 87 109 104 82 61 146 104 75 124 149 191 179 172 206 254 237 106 77 73 76 77 76 78 78 78 77 77 77 78 76 72 72 75 77 76 82 72 71 74 67 70 46 57 46 40 45 63 56 75 80 76 153 132 82 82 96 85 73 58 65 66 69 71 72 72 70 70 68 68 70 71 73 73 70 69 70 69 69 68 66 66 66 67 72 54 67 67 55 78 23 12 6 6 19 68 50 34 242 249 251 247 222 251 254 243 253 250 213 187 148 102 49 9 3 3 9 24 26 37 60 102 132 176 194 199 209 213 234 244 237 197 139 93 21 46 39 72 78 86 64 1 18 27 40 178 194 153 193 206 160 143 173 150 195 190 179 155 192 168 6 229 253 88 6 2 8 19 
185 119 145 134 144 150 145 138 127 127 135 129 94 39 196 133 76 1 241 225 176 145 150 21 27 22 21 17 50 103 142 90 55 43 86 18 31 64 97 101 75 68 58 51 112 127 117 240 111 106 38 102 
40 42 48 49 44 53 61 56 59 57 50 79 44 128 253 227 45 74 217 225 218 216 204 101 216 249 236 235 234 236 235 234 237 209 157 223 217 221 194 162 162 174 157 137 173 158 148 123 123 155 90 127 150 181 163 164 154 201 254 199 204 213 232 234 241 244 244 244 246 243 245 251 193 161 186 189 191 199 203 206 209 200 218 204 218 231 168 129 41 122 228 236 225 245 155 124 199 236 222 253 117 57 206 232 205 212 106 111 202 55 165 198 178 202 139 190 216 64 175 112 106 222 182 6 1 58 146 99 122 199 92 131 162 184 166 155 171 166 172 179 184 182 132 55 79 55 66 113 182 79 78 150 149 132 170 150 142 143 146 145 153 143 134 150 137 166 127 85 186 249 237 253 157 61 102 124 170 181 137 151 224 206 206 207 187 151 196 173 239 92 9 32 75 64 64 71 69 69 71 68 72 70 69 62 54 63 163 79 194 165 174 70 98 102 106 96 249 230 204 209 221 216 209 110 196 223 194 149 157 157 144 161 134 148 188 22 6 55 82 66 72 72 73 74 75 75 75 75 74 74 75 75 73 73 72 73 70 65 80 62 77 147 139 141 170 205 179 205 230 237 238 207 213 200 187 178 186 180 181 184 169 161 180 129 92 119 238 97 56 179 213 73 133 69 8 68 77 76 76 77 77 80 83 83 74 79 26 210 249 211 225 218 214 233 240 175 60 186 145 182 234 240 235 228 237 221 231 250 244 234 250 236 232 242 235 244 248 204 91 90 248 196 28 84 88 88 85 85 86 87 88 89 92 93 92 90 90 92 92 91 89 88 88 88 89 89 88 87 87 87 86 85 85 84 83 83 82 82 82 83 83 83 83 83 83 83 83 83 84 85 86 86 86 85 83 82 82 82 81 81 77 80 80 80 79 82 83 81 62 73 60 35 63 141 163 179 205 216 200 164 79 72 72 44 65 198 115 147 152 71 170 206 147 165 172 169 84 55 68 74 77 80 79 78 75 74 74 76 77 77 76 74 76 76 73 70 65 70 71 65 78 66 76 70 75 71 72 69 72 71 51 64 50 54 56 51 50 57 57 74 70 71 71 70 70 70 69 69 67 69 70 72 72 71 70 70 69 69 69 69 67 67 67 66 70 65 71 69 72 75 12 2 7 7 31 61 31 42 251 235 203 207 183 203 235 235 246 248 254 255 253 251 246 249 255 253 235 189 153 127 91 43 43 21 32 73 103 100 99 122 104 72 61 61 67 54 88 89 75 86 43 2 7 24 83 196 190 165 207 210 153 156 194 174 195 176 186 165 204 181 8 168 247 201 
142 125 140 245 250 114 152 137 143 146 143 141 131 126 134 131 109 24 156 183 132 1 246 222 199 220 193 73 74 49 54 6 45 114 127 113 23 65 107 37 26 32 45 36 91 61 74 63 66 87 136 225 149 52 2 35 
47 37 62 45 38 60 50 57 61 50 51 64 49 117 253 217 205 214 199 211 219 195 216 101 213 245 232 230 229 231 232 230 232 185 119 179 173 137 142 153 178 166 150 156 154 115 117 105 109 118 105 126 110 187 185 153 144 217 253 188 213 221 241 244 244 248 248 248 249 246 246 253 193 163 190 193 194 201 204 207 211 202 217 197 202 214 155 122 37 136 225 243 249 252 143 104 203 224 209 253 138 74 222 170 126 250 123 118 202 46 170 178 139 188 149 165 185 45 172 106 103 225 182 5 1 73 176 134 112 135 115 162 154 187 182 164 194 157 168 180 179 233 134 59 57 88 57 93 154 78 149 156 141 122 162 150 146 147 143 139 142 134 130 145 128 157 125 92 177 253 250 253 217 113 98 112 177 183 134 157 225 182 176 188 187 168 171 125 232 84 1 34 76 65 69 75 70 67 70 67 72 62 67 75 48 155 108 97 242 166 209 236 96 159 157 135 222 204 213 222 221 219 243 246 237 195 174 151 158 160 170 159 130 140 167 171 6 1 73 73 73 72 73 74 75 75 74 75 75 75 75 74 73 73 72 72 75 67 70 51 85 250 220 218 201 216 175 185 185 161 165 167 175 169 169 181 188 177 168 174 177 184 218 136 69 110 227 101 56 248 247 139 96 128 85 75 76 76 76 76 79 81 84 85 64 140 150 213 254 219 211 201 216 211 214 208 129 213 224 157 220 248 239 236 237 220 245 236 236 251 231 246 246 234 231 235 241 215 76 106 241 253 84 66 85 86 83 84 86 89 90 91 91 93 93 92 92 93 92 90 87 87 87 88 89 89 88 87 87 86 86 85 84 83 83 82 80 81 82 83 84 83 82 81 82 82 82 83 83 84 85 86 86 84 81 79 79 79 79 79 82 85 85 80 78 79 81 79 82 73 69 81 62 37 56 60 89 64 55 46 57 66 66 37 146 219 25 211 243 212 153 197 212 169 155 89 45 72 79 75 78 81 80 77 73 72 74 76 79 77 74 71 75 77 77 75 78 72 71 81 64 76 72 70 73 69 73 68 68 70 71 70 63 69 63 72 72 62 75 69 67 67 66 66 67 68 70 71 67 70 72 73 71 70 70 70 69 69 69 69 68 67 66 67 62 68 66 60 70 43 3 11 7 5 49 51 26 60 251 227 229 248 234 229 242 235 224 227 222 222 224 228 230 235 247 253 251 251 251 255 251 249 246 163 11 42 71 68 71 69 29 36 47 57 62 71 72 80 58 84 41 2 2 1 74 201 183 159 179 205 170 169 178 152 181 192 179 176 205 178 7 148 254 
250 250 252 253 255 218 111 142 143 141 142 143 146 135 126 136 139 102 37 162 220 120 1 254 251 254 254 229 87 62 65 74 49 13 66 147 98 43 76 116 68 32 16 36 43 56 92 78 58 111 125 140 248 141 125 5 58 
76 51 84 73 54 75 52 54 69 53 51 67 15 162 230 202 227 225 197 217 217 211 221 98 211 245 230 226 236 234 220 223 211 183 174 193 191 109 102 177 148 141 155 203 167 127 175 190 204 224 250 254 141 173 162 179 157 241 250 143 177 217 233 239 244 246 244 246 251 250 250 254 188 158 179 180 190 202 204 208 212 227 219 201 221 233 165 114 28 128 238 204 220 167 22 67 221 252 253 224 151 89 225 192 135 255 118 93 206 56 187 193 130 196 152 153 196 56 165 103 110 221 182 16 3 37 146 107 25 33 96 166 151 157 165 131 156 177 173 177 200 188 66 46 46 57 75 97 141 79 108 112 95 132 152 152 139 153 139 139 148 122 146 142 140 150 123 116 137 213 214 217 179 174 111 138 176 179 131 157 227 178 204 204 170 165 196 163 238 69 8 27 71 69 69 69 68 68 69 69 63 68 69 65 67 137 47 122 240 169 168 124 80 192 163 157 235 207 230 228 213 224 228 253 251 158 181 196 200 195 191 174 133 147 159 193 23 48 74 70 71 72 73 74 74 74 73 72 73 74 74 75 75 74 72 70 71 66 70 61 58 209 191 185 194 186 198 186 178 178 161 171 176 170 168 165 176 184 175 172 183 173 181 168 74 96 230 112 42 206 200 69 105 84 69 74 74 75 76 77 79 80 81 81 78 64 30 223 243 233 232 233 229 230 231 215 99 211 212 134 178 248 224 243 222 231 246 236 246 235 248 248 239 235 230 241 244 216 82 141 249 253 131 92 83 84 85 85 88 92 93 90 90 94 95 91 90 93 94 93 87 88 88 88 87 86 85 84 87 84 82 83 83 82 81 81 84 82 81 82 85 85 83 81 82 83 83 82 81 82 85 88 80 79 78 79 81 82 82 82 82 81 80 80 81 81 81 79 80 77 75 75 78 78 73 68 58 62 69 73 74 70 64 60 83 190 151 129 130 125 150 86 95 77 60 58 68 80 80 76 78 77 76 74 73 74 74 74 78 77 74 73 73 73 74 74 75 74 73 73 72 72 72 72 73 73 72 72 71 71 71 69 66 66 67 67 67 68 69 70 70 70 69 69 70 70 70 70 70 70 71 71 72 72 71 71 69 69 68 68 68 68 66 67 72 59 73 62 80 40 3 8 10 2 60 61 27 97 245 226 179 190 245 230 224 235 234 244 238 235 231 233 231 222 226 239 231 233 232 235 228 240 244 249 236 84 94 76 90 123 106 105 32 47 59 64 76 79 55 85 58 2 6 1 94 201 183 164 180 195 187 167 181 135 180 186 177 148 177 197 32 198 244 254 
254 246 254 253 153 125 144 134 149 140 139 132 135 125 133 139 92 2 146 108 8 143 168 80 128 142 39 48 29 63 63 73 21 68 126 107 66 49 23 58 69 28 38 67 71 185 99 133 193 109 113 246 141 103 4 48 
38 21 21 19 34 32 6 33 70 60 44 72 43 119 183 200 225 212 232 219 222 222 197 108 209 245 237 232 225 224 224 232 223 216 243 228 233 130 123 220 187 161 213 169 161 125 194 177 155 174 154 171 131 182 184 171 180 220 249 169 191 201 229 247 244 247 247 248 250 248 248 254 190 163 186 186 191 201 203 209 216 161 156 142 195 237 145 125 29 141 250 124 125 137 120 82 209 243 253 169 142 76 217 192 108 192 138 89 209 45 216 186 99 195 156 136 249 220 167 101 109 228 187 9 3 63 108 38 34 27 6 40 120 145 133 129 158 155 172 178 183 120 87 87 68 78 87 100 116 135 121 131 141 117 145 152 151 138 129 167 157 117 131 141 136 141 123 133 127 113 83 84 106 247 112 131 159 179 135 158 226 175 199 211 139 138 195 205 251 79 0 44 77 71 67 70 70 67 66 68 75 66 70 69 57 65 129 64 217 184 38 16 97 89 99 89 242 224 212 226 236 228 253 251 245 183 149 151 139 152 145 157 135 136 185 51 9 87 72 71 71 72 73 74 74 74 73 73 75 74 73 74 74 74 73 73 73 69 69 62 51 208 203 192 186 187 197 200 191 173 159 158 166 170 172 168 184 181 183 195 174 139 163 221 123 78 238 155 72 50 53 86 106 60 80 66 74 73 74 76 78 79 79 80 87 80 31 222 254 218 235 235 237 234 237 204 58 202 185 115 175 243 226 222 238 221 236 250 239 236 238 231 231 243 239 230 240 206 100 129 251 209 43 87 82 85 85 83 86 89 90 88 89 92 93 90 89 90 92 91 87 87 87 87 87 86 85 84 85 83 81 82 82 80 79 80 81 80 80 81 83 84 82 80 81 82 83 82 82 82 84 85 80 80 79 79 81 82 82 82 82 81 80 80 81 81 80 79 80 79 79 79 78 77 76 75 76 77 79 80 78 74 69 67 51 105 101 74 58 51 60 59 46 58 71 77 76 75 76 79 77 76 75 74 73 73 74 74 76 75 74 73 73 73 74 74 73 73 73 72 72 72 73 73 72 72 71 71 70 70 70 69 68 68 67 68 68 69 69 70 70 70 70 70 70 70 70 70 70 70 71 71 72 71 71 71 69 69 69 68 68 67 66 66 63 64 70 61 68 38 3 15 4 10 29 13 68 165 248 229 197 199 231 225 223 236 231 236 238 235 230 240 240 233 238 235 242 240 235 239 231 241 241 240 252 251 143 136 104 69 56 81 131 33 47 67 64 59 81 73 58 9 3 5 95 200 174 157 185 204 195 170 170 128 171 175 183 156 172 171 76 122 203 221 230 238 212 
161 117 137 136 144 143 143 150 140 132 119 134 150 73 146 151 125 184 132 6 21 31 36 72 44 37 69 73 30 43 64 143 95 88 38 31 40 60 65 65 43 86 193 144 161 186 131 131 241 141 75 5 51 
87 97 86 114 104 140 187 112 73 79 67 71 123 160 170 204 240 232 213 208 227 205 201 95 215 242 232 239 241 241 238 232 219 209 212 212 233 187 114 190 185 199 174 176 152 142 132 183 159 127 137 130 121 178 162 154 163 208 249 230 225 203 227 230 239 244 245 246 247 245 247 255 188 165 193 191 192 201 203 210 228 111 82 130 200 243 154 113 28 120 250 149 114 234 229 90 216 251 253 215 168 73 229 171 152 254 125 120 193 45 248 233 141 181 134 142 253 227 166 77 85 228 175 9 11 36 98 28 44 43 44 11 118 180 173 173 155 146 177 204 203 145 201 200 199 180 166 70 205 251 251 252 249 202 131 166 148 145 156 177 164 141 137 126 107 128 111 107 162 197 164 196 168 95 68 181 135 163 116 141 225 184 197 209 153 148 178 197 228 101 0 38 75 67 65 69 69 66 65 68 67 62 72 68 60 61 87 116 88 131 153 132 86 48 35 47 235 230 225 224 240 247 225 141 250 165 128 161 155 144 160 149 126 188 136 7 79 73 55 71 72 72 73 73 74 74 74 74 76 75 73 72 73 73 73 73 70 77 80 72 37 184 201 187 191 186 178 185 182 170 179 186 185 178 180 182 184 179 191 188 196 168 208 220 148 89 196 146 57 61 101 107 48 78 73 85 74 75 76 77 78 78 79 79 76 73 42 232 247 217 225 219 223 221 235 223 152 183 203 181 233 241 248 251 245 252 237 235 241 238 235 241 236 229 236 235 243 219 146 111 253 88 66 83 85 87 86 87 88 91 90 90 89 91 91 89 88 89 89 88 86 86 86 86 86 85 84 83 83 82 81 81 80 77 78 80 77 78 79 81 81 81 80 79 80 81 82 82 81 81 82 83 81 80 80 80 81 82 82 82 82 81 80 80 81 80 80 79 77 80 82 80 77 76 78 80 77 77 77 77 76 75 73 72 67 56 57 53 62 68 55 66 73 75 77 75 73 73 76 80 75 75 75 74 73 73 73 73 73 73 72 72 72 72 73 73 72 71 71 71 71 72 72 73 70 70 70 70 69 69 69 68 69 68 68 68 69 69 70 70 70 70 70 70 70 70 70 70 70 70 71 71 71 71 71 71 70 70 69 68 68 67 65 65 64 68 64 63 74 49 3 7 6 5 62 47 53 181 245 220 231 227 235 237 230 236 230 230 239 236 229 241 231 222 241 232 235 233 230 236 232 243 242 238 242 245 234 253 246 240 184 142 182 212 22 56 70 68 67 84 45 2 8 2 117 194 187 153 188 191 173 163 178 157 188 178 191 141 159 164 115 108 81 51 
52 61 92 126 135 143 147 131 144 143 145 138 131 121 134 148 121 56 24 173 254 9 30 19 35 52 95 57 79 122 102 69 34 71 169 80 62 28 23 72 52 80 106 162 164 171 189 176 175 115 131 254 158 130 3 49 
178 154 96 95 66 83 144 231 205 221 197 209 243 156 213 184 207 150 207 208 159 188 209 93 209 249 235 234 232 227 233 245 221 210 253 239 246 179 115 195 189 168 172 163 128 124 175 132 129 107 107 118 169 173 163 152 128 245 236 228 222 219 235 246 240 243 244 245 247 244 246 253 187 166 194 194 196 204 205 211 216 202 198 167 203 231 171 90 34 129 254 130 152 248 169 104 203 246 246 219 150 62 239 163 151 238 123 117 203 59 247 254 145 193 161 146 235 128 159 103 100 230 185 9 2 11 98 48 29 53 42 41 154 189 146 171 142 149 172 198 168 140 202 177 193 208 180 94 254 252 237 249 251 218 97 159 137 143 152 137 153 129 124 138 120 138 132 143 111 64 36 32 16 5 33 170 164 192 133 149 235 198 196 203 171 132 188 187 236 68 4 25 65 64 65 66 67 67 67 67 68 61 68 67 64 63 56 71 143 129 112 232 208 137 105 86 243 240 234 249 240 165 177 123 246 161 141 158 161 161 158 149 173 161 25 63 75 71 73 73 72 72 72 73 73 74 75 75 75 74 73 73 73 73 73 72 76 73 70 73 39 171 185 137 184 185 188 193 192 185 183 184 183 182 176 190 194 192 184 169 185 174 162 180 56 52 34 25 45 117 95 50 76 70 70 75 76 76 78 79 78 78 78 78 76 69 63 255 247 251 242 230 234 247 222 234 136 167 183 174 171 205 183 224 198 204 248 252 242 254 254 254 254 254 248 213 253 159 91 73 146 86 71 84 87 87 87 88 90 92 91 90 89 90 90 89 88 88 87 86 86 85 85 85 84 83 83 82 82 81 81 81 79 76 77 80 76 78 80 80 80 79 78 78 79 80 80 80 80 81 82 83 82 81 80 80 81 82 82 81 82 81 80 80 80 80 79 78 77 79 80 79 76 75 77 80 72 72 71 71 72 73 74 74 75 69 65 72 73 70 73 72 78 74 70 72 77 79 75 70 74 74 74 74 73 73 72 72 71 70 69 69 69 69 71 71 71 71 70 70 70 70 71 71 70 70 69 69 69 69 69 68 69 69 69 69 69 70 70 71 70 70 70 70 70 70 70 70 70 70 71 71 71 71 71 71 70 70 69 68 68 67 65 65 67 69 64 64 80 47 3 6 4 14 69 59 16 218 247 218 228 229 225 237 228 231 229 234 238 235 226 240 214 201 240 237 230 228 226 234 232 244 243 240 245 226 246 237 240 248 251 245 241 176 181 17 56 68 66 65 56 2 13 6 118 194 209 160 184 187 173 168 172 152 184 187 188 152 183 181 110 148 111 97 
82 99 110 127 145 149 133 141 145 141 139 136 130 124 133 144 127 58 11 135 247 254 248 254 249 254 190 73 86 107 114 100 84 94 153 96 41 13 141 57 103 111 74 171 198 167 165 181 182 119 129 240 138 85 4 50 
68 57 42 96 19 2 1 9 31 40 28 69 224 60 108 80 223 60 248 215 90 230 212 114 181 242 223 220 225 206 198 211 207 154 184 193 204 157 127 203 183 189 188 207 197 173 159 123 110 111 69 58 196 191 138 137 124 253 236 235 248 247 218 238 246 249 247 248 251 249 249 254 189 168 197 195 199 208 207 207 208 211 228 186 222 228 160 117 39 132 249 125 192 226 59 51 227 254 255 192 141 67 222 156 152 228 138 121 209 47 212 206 78 201 136 163 198 13 165 90 95 223 177 9 1 83 139 26 32 47 59 45 173 160 179 157 138 149 179 204 168 163 205 182 177 188 153 167 254 253 252 243 249 201 107 160 154 143 148 145 160 143 130 141 120 136 134 137 143 107 58 65 105 77 70 165 161 191 135 140 213 182 178 186 188 155 177 191 177 106 69 23 58 65 69 67 65 69 69 65 60 77 71 72 67 56 58 54 56 119 132 148 135 146 151 154 238 228 235 222 234 152 165 108 198 209 129 149 153 154 173 175 141 38 54 66 61 80 69 71 73 73 73 73 73 74 75 75 74 74 74 75 75 74 72 71 66 73 75 77 32 154 222 193 196 188 192 175 171 180 169 173 168 184 163 171 183 200 188 197 193 220 202 186 13 36 55 88 117 96 65 71 66 74 80 74 76 77 79 79 79 79 78 78 83 77 63 246 251 231 236 245 247 251 255 232 19 54 45 42 40 46 40 47 22 60 190 178 184 196 198 210 213 220 237 232 228 56 143 147 91 65 85 88 84 84 85 88 90 90 90 90 89 87 87 87 87 86 84 84 85 84 84 83 82 82 82 81 83 82 82 82 79 76 77 80 77 78 80 80 79 78 77 77 79 78 77 77 79 81 83 85 81 80 79 79 80 81 81 81 82 81 80 79 79 79 78 77 79 79 78 78 77 76 76 77 77 77 76 75 74 74 73 73 68 76 74 77 67 61 74 68 68 71 74 76 76 74 73 72 73 73 73 73 73 72 72 71 69 69 70 70 70 70 70 70 72 71 70 70 69 69 69 69 70 70 70 70 70 69 69 69 70 70 69 69 69 70 70 71 70 70 70 70 70 70 70 70 69 70 70 71 71 71 71 70 70 70 69 68 67 66 65 65 66 66 70 61 72 22 3 13 8 16 60 70 37 241 240 224 227 228 218 235 231 225 224 229 227 232 235 247 209 188 236 242 239 238 233 238 230 240 239 237 245 230 226 239 246 235 235 217 251 115 224 113 27 67 50 66 74 6 1 13 72 189 200 153 195 191 178 175 179 151 180 197 178 149 171 172 112 113 84 59 59 46 80 77 110 121 128 
142 139 141 142 140 128 122 132 148 132 96 63 68 126 209 230 222 206 166 76 113 126 155 137 136 132 118 175 135 54 46 97 185 158 45 88 201 163 173 179 179 175 119 147 248 132 76 5 11 
128 125 67 157 69 3 10 1 2 5 1 86 240 212 230 240 194 189 225 218 169 215 209 108 192 252 233 235 249 231 214 210 245 127 41 55 96 146 147 169 176 193 187 173 183 195 148 132 149 178 158 88 154 180 154 201 252 233 220 236 240 239 221 247 238 240 241 242 245 244 245 252 190 170 195 195 199 208 203 200 211 168 140 201 190 231 167 125 37 141 253 130 171 196 65 57 227 184 154 215 157 70 224 171 142 250 126 120 208 65 190 196 94 200 132 179 189 57 169 107 137 198 176 10 2 199 141 6 48 51 57 43 65 140 145 130 176 144 169 183 163 154 184 177 185 192 161 175 166 58 55 94 251 228 99 155 144 137 154 151 146 144 123 119 107 136 142 117 110 51 8 31 49 23 40 168 152 176 127 138 207 193 192 187 191 125 150 197 171 97 72 0 58 66 71 68 66 69 68 63 73 62 63 56 67 67 37 17 33 17 18 29 54 74 84 142 251 244 240 241 254 255 246 240 253 107 115 152 138 160 117 69 32 68 63 82 76 65 65 69 73 73 74 74 74 74 74 74 73 73 74 75 76 74 72 70 75 71 70 73 35 125 207 169 187 181 191 178 187 219 219 228 235 235 235 233 210 217 199 195 188 163 153 102 52 65 58 47 4 22 56 54 90 70 74 71 76 77 78 79 80 80 80 80 81 75 69 47 42 56 46 83 44 76 84 84 73 60 24 52 60 39 45 44 44 41 26 31 48 26 26 52 53 39 57 85 118 100 125 107 52 85 90 78 85 84 85 89 91 90 90 89 86 85 84 86 86 84 82 82 84 83 82 81 81 81 81 81 84 82 82 82 80 77 77 79 78 78 78 78 78 78 77 77 79 78 77 77 79 81 83 84 80 79 78 79 80 81 81 80 81 80 79 78 78 78 77 76 80 79 77 77 78 78 76 74 76 76 75 75 74 73 73 72 78 65 70 71 74 82 76 76 80 79 77 74 71 71 75 79 73 73 73 73 72 72 72 72 70 71 71 71 71 71 71 71 72 71 70 70 69 69 69 69 70 70 70 70 70 70 70 70 70 70 69 69 69 69 70 70 70 70 70 70 70 70 70 70 69 70 70 71 71 71 70 70 70 71 69 68 67 66 65 66 67 63 70 62 69 17 4 3 5 39 86 62 75 239 220 224 236 233 224 235 239 233 227 229 249 226 213 234 229 224 234 205 237 238 235 239 231 240 241 241 251 210 231 240 230 238 244 252 241 167 120 247 24 49 63 68 66 2 1 9 59 186 196 145 190 179 164 160 179 146 168 192 194 155 179 173 101 81 92 155 253 253 253 253 170 114 139 136 138 138 134 138 128 126 130 
142 128 113 109 56 20 45 35 51 25 86 136 156 144 137 148 146 125 153 173 154 42 148 162 235 177 50 102 173 155 169 177 168 175 109 138 251 183 218 165 151 
126 95 69 138 100 70 22 6 19 7 6 112 246 50 99 140 65 141 180 206 183 201 220 103 193 252 237 231 225 220 234 233 235 240 249 248 236 194 214 203 185 186 181 199 195 209 164 174 186 216 213 234 227 237 216 207 253 226 220 243 231 232 230 248 252 254 254 254 253 248 250 255 192 171 198 195 199 208 203 200 215 104 44 189 188 235 165 115 35 139 249 99 183 200 94 49 255 165 71 254 159 55 231 180 128 209 139 84 211 61 137 180 116 189 92 156 162 8 140 232 199 154 169 5 7 249 100 12 53 39 39 38 110 161 140 172 200 151 174 182 161 160 189 180 182 169 172 112 1 1 7 2 234 245 93 158 141 143 162 142 166 144 117 122 120 128 131 104 158 237 216 249 237 222 69 150 160 174 133 147 204 198 195 173 187 165 173 184 170 87 46 31 63 61 63 67 69 67 66 65 59 69 72 63 62 16 100 224 246 251 240 192 168 129 31 6 73 151 114 124 105 139 166 161 140 29 34 39 60 45 32 54 63 74 74 56 67 73 73 79 73 74 75 75 75 74 73 73 74 74 74 74 74 74 72 70 67 66 70 77 51 127 246 228 230 231 234 220 206 194 162 145 103 71 60 40 42 39 8 10 11 10 13 16 17 38 41 97 95 36 37 19 15 98 74 80 76 78 78 79 80 81 82 82 74 92 71 77 81 42 95 92 69 58 30 15 15 34 51 59 76 90 105 110 82 102 78 28 21 13 20 36 60 83 81 72 52 66 65 102 78 85 75 92 87 85 86 89 91 89 88 89 87 85 84 87 88 85 83 83 83 82 81 80 80 80 80 80 85 82 80 81 80 78 77 78 78 77 75 76 77 79 78 77 79 78 78 79 81 82 81 80 79 78 77 78 79 80 80 80 80 79 78 77 77 76 75 74 78 77 76 77 77 77 75 73 70 70 71 71 71 72 73 73 75 66 77 69 67 72 63 76 68 68 70 73 77 78 75 72 74 74 73 72 72 72 73 73 71 71 72 72 72 72 71 70 71 71 70 70 69 69 70 70 70 70 70 70 70 70 70 70 70 69 69 69 69 69 69 70 70 70 70 70 70 70 70 70 69 69 70 70 71 71 70 70 70 69 69 68 67 66 67 67 69 64 66 66 74 46 31 22 4 84 95 17 97 251 231 235 233 231 232 232 240 233 232 241 232 237 241 235 212 215 235 223 232 233 233 239 230 240 239 239 241 230 240 238 251 231 241 250 246 162 134 195 116 31 57 72 55 2 14 4 77 199 206 159 196 200 194 172 187 143 171 211 201 142 169 168 78 77 147 254 240 186 182 210 242 103 126 144 138 134 127 135 129 131 128 135 
118 110 113 82 83 98 70 83 57 119 132 148 143 140 125 133 129 136 172 157 57 141 249 245 146 139 179 172 168 165 173 158 166 119 135 241 228 232 254 219 
131 96 78 107 66 60 33 2 3 2 1 97 233 164 204 125 105 191 197 208 208 213 234 104 194 244 236 242 232 233 244 214 203 183 131 181 198 180 197 180 192 222 212 210 209 236 230 204 183 158 150 200 149 168 124 157 95 250 241 238 238 245 227 241 239 246 245 237 223 211 212 222 193 176 203 200 203 213 209 207 219 174 175 180 215 244 164 123 34 131 254 137 151 221 121 62 245 190 101 254 153 56 228 174 123 174 126 87 207 28 132 162 113 177 141 163 216 140 193 141 126 106 87 10 70 236 142 14 37 45 44 64 155 135 157 129 151 136 180 192 149 169 202 182 192 170 181 73 3 11 8 94 221 229 121 148 141 131 149 151 166 155 125 113 119 135 133 77 191 249 250 243 252 251 69 176 158 177 152 163 200 193 197 174 169 159 182 146 240 62 1 36 64 53 51 63 71 65 62 68 68 69 57 60 15 186 254 227 151 134 151 162 190 213 248 214 138 101 9 3 9 3 1 4 14 57 66 71 74 67 72 64 68 61 67 73 70 76 72 69 74 74 75 76 75 74 73 72 76 75 73 73 73 73 73 72 74 68 72 77 37 46 108 43 10 8 2 2 1 1 3 3 5 14 14 22 141 117 23 45 34 52 41 57 58 71 106 86 121 170 235 227 19 3 78 82 75 77 78 78 79 80 81 82 80 79 84 54 49 81 107 29 6 12 73 97 118 162 160 189 149 95 164 211 201 173 158 166 122 111 94 42 6 8 9 14 49 68 60 115 101 69 95 80 86 84 83 87 88 85 83 84 89 86 86 90 90 87 85 85 83 82 81 80 79 79 79 80 85 82 79 80 80 78 76 76 77 75 73 74 77 79 79 78 79 79 80 82 83 82 79 77 78 77 76 77 79 80 80 80 79 78 77 76 76 76 74 73 73 74 75 76 75 74 73 72 73 73 72 71 72 73 74 75 69 74 76 71 74 77 74 75 76 77 77 76 75 74 74 74 75 74 73 72 72 72 73 74 70 71 71 72 71 71 70 69 70 70 70 70 70 70 71 71 69 69 69 69 70 70 70 70 70 69 69 68 68 69 69 69 70 70 70 70 70 70 70 70 69 69 70 70 71 70 70 70 70 69 68 68 68 67 67 67 66 69 65 67 67 70 77 78 65 74 104 66 129 255 252 251 252 251 254 238 237 222 222 240 233 242 242 220 205 229 252 240 240 239 236 240 231 236 230 226 227 219 242 240 230 235 236 251 231 161 132 165 167 52 58 74 51 5 5 1 63 204 193 167 189 191 181 155 190 150 175 207 197 143 168 176 76 38 165 207 5 9 4 1 9 126 120 136 132 137 136 142 127 126 128 143 127 102 98 73 
62 69 77 41 48 122 134 157 156 131 134 132 131 116 177 144 38 78 221 244 142 123 177 173 169 180 174 168 169 118 134 240 216 217 214 196 
113 96 93 121 101 84 102 69 78 88 4 116 246 216 243 144 96 177 179 207 190 200 216 103 195 251 232 237 235 236 228 213 221 213 106 108 123 161 130 159 173 156 156 121 159 178 182 136 98 125 107 157 150 193 158 193 85 237 243 238 221 228 166 169 146 241 145 9 39 41 47 135 177 201 195 195 208 210 211 213 224 174 156 159 198 237 171 116 10 119 250 127 162 233 130 66 239 179 105 244 148 53 229 164 94 169 110 73 197 97 177 197 131 183 232 223 197 221 191 77 167 88 36 39 131 213 186 98 129 93 92 150 192 150 188 135 160 141 187 190 169 169 209 191 182 179 143 171 254 253 252 214 76 251 127 131 147 142 152 133 167 138 138 134 101 143 115 71 185 254 227 234 245 243 46 107 164 178 143 162 196 207 186 156 193 144 177 119 217 39 12 19 144 132 6 70 61 70 64 66 64 74 61 17 187 251 130 117 126 106 92 89 76 94 98 108 163 231 179 81 159 114 69 6 1 5 1 2 26 45 71 84 78 75 76 69 73 78 62 73 71 72 73 73 74 74 75 76 75 74 73 72 72 73 74 75 71 70 77 64 78 85 48 51 92 155 131 151 174 163 137 146 194 199 240 141 6 9 8 160 216 203 212 218 210 227 240 49 9 66 141 89 124 58 8 74 96 71 74 83 80 82 82 80 75 86 56 176 140 102 87 136 128 146 181 187 143 101 126 62 79 88 123 71 120 127 85 122 146 127 153 162 158 244 177 136 71 49 5 21 76 64 80 84 87 83 82 86 88 87 87 88 89 90 90 88 87 87 89 91 86 84 83 84 83 81 81 82 83 82 79 78 77 77 76 75 75 75 76 76 76 76 77 77 79 80 81 82 81 79 77 75 77 77 77 77 77 78 78 78 77 77 77 77 76 75 74 73 72 72 72 72 72 72 72 72 71 71 71 72 72 72 72 72 75 75 75 75 74 74 74 74 75 75 74 74 75 74 73 72 72 72 72 72 72 72 72 72 72 72 71 71 70 70 71 71 70 70 70 70 70 70 70 70 71 71 71 71 71 71 71 71 69 69 69 69 69 69 69 69 69 69 69 69 69 69 69 69 68 68 68 68 68 69 69 70 70 69 69 68 68 67 66 67 64 69 68 66 66 63 60 61 71 67 59 37 1 22 64 89 136 211 232 249 251 252 255 253 237 235 194 189 218 222 238 230 244 233 231 239 238 241 246 230 223 211 244 242 233 230 239 250 218 108 207 239 42 51 57 67 60 2 13 2 78 183 184 175 193 186 174 145 192 128 164 213 184 140 170 165 70 12 152 240 125 49 96 90 50 114 127 135 136 141 130 
128 131 130 135 136 114 102 120 49 50 105 71 52 32 118 125 146 149 135 137 127 128 129 167 151 85 102 230 248 155 87 158 180 160 182 177 149 183 120 138 236 225 220 215 223 
115 111 127 140 136 132 132 141 154 54 5 83 196 124 236 223 116 172 184 196 181 210 215 111 182 246 228 232 228 229 226 220 217 192 198 126 122 147 126 157 148 156 147 131 138 147 169 177 178 173 143 187 153 166 205 227 161 248 240 178 185 222 175 206 163 249 167 28 72 131 50 98 222 183 204 207 206 215 208 215 197 32 44 191 205 245 170 86 117 193 246 116 185 205 76 94 239 175 97 236 112 48 225 158 125 211 114 98 237 217 227 203 209 200 143 132 174 186 144 77 151 172 148 5 215 254 177 88 150 106 135 105 156 168 188 138 183 134 177 195 177 175 200 175 179 160 137 199 250 246 249 168 61 239 117 163 139 133 142 143 147 123 145 122 106 135 129 86 219 239 236 225 251 248 48 133 163 184 139 165 179 209 188 186 207 128 178 166 186 100 1 12 150 142 33 51 70 65 71 70 70 36 13 201 233 135 173 183 245 233 201 185 187 123 106 84 126 240 242 233 232 230 225 242 148 32 106 58 1 6 5 4 38 39 62 81 89 71 68 74 72 73 74 74 73 73 74 75 75 75 74 73 73 74 75 76 72 69 86 43 186 243 245 242 232 248 235 248 247 236 203 182 144 194 231 171 105 137 132 195 207 199 201 209 208 187 213 59 14 50 54 102 113 117 61 3 76 92 85 82 81 76 83 84 83 74 54 74 186 109 155 185 155 172 49 51 62 97 62 93 160 69 92 94 141 143 122 133 180 182 108 136 116 146 183 124 161 224 193 145 146 81 83 81 87 85 85 87 89 89 89 90 89 90 90 89 88 87 89 90 86 84 83 84 83 81 81 82 82 81 79 78 78 77 77 76 76 76 76 76 76 76 77 77 76 76 76 76 76 75 75 75 77 77 78 78 78 78 78 78 75 75 76 76 75 74 74 73 73 73 73 73 73 73 73 73 72 73 73 73 73 73 73 74 75 75 74 75 75 74 74 75 74 75 74 74 75 74 73 72 72 72 72 72 72 72 72 72 72 72 71 71 70 71 71 71 70 70 70 70 70 70 70 70 71 71 71 71 71 71 71 71 70 70 70 70 70 70 70 70 70 70 70 70 70 70 70 70 69 69 69 69 69 69 70 70 70 69 69 68 68 67 66 66 63 68 68 65 68 64 60 60 63 27 40 74 26 0 2 3 16 10 15 40 69 126 161 203 248 254 254 246 248 250 237 229 223 235 228 221 231 231 235 254 239 250 252 251 254 249 203 251 137 210 230 17 47 61 65 62 47 8 7 8 62 185 164 150 194 198 175 137 184 123 156 227 192 132 150 167 84 13 194 93 239 250 244 
253 253 125 117 138 138 140 130 128 129 127 137 143 125 115 130 47 90 112 137 84 47 98 110 164 189 146 120 140 115 132 190 179 103 107 229 247 156 112 174 181 162 168 159 165 148 89 123 236 226 222 218 222 
112 110 112 102 101 112 109 106 114 66 69 138 196 156 233 209 130 173 194 209 189 216 223 117 186 251 235 236 231 236 243 249 241 201 178 126 125 130 134 139 159 159 137 134 139 137 164 193 184 184 188 176 154 184 219 206 158 229 252 151 190 247 174 172 151 253 196 41 91 192 149 135 166 193 203 203 214 204 214 214 206 181 186 172 207 222 171 84 193 220 236 113 186 205 80 96 228 131 90 219 119 78 191 210 217 215 215 208 196 164 159 145 160 165 75 81 178 199 155 96 177 195 189 6 104 199 181 61 116 137 152 165 183 179 181 185 171 131 177 192 173 167 174 167 153 165 130 177 253 246 251 163 74 251 121 142 138 159 138 143 151 123 151 126 116 126 124 88 120 107 119 155 155 179 49 134 172 171 139 164 206 207 188 200 171 141 177 149 230 93 1 21 158 123 80 38 71 61 67 64 46 110 227 227 136 234 189 236 182 202 248 249 236 195 212 164 190 234 224 235 234 235 234 232 243 232 248 240 239 205 142 25 2 1 4 2 32 62 84 59 74 74 75 74 73 72 73 73 76 75 74 74 73 74 75 75 80 73 77 31 171 239 215 210 205 229 211 212 225 241 224 232 215 209 225 185 187 208 174 183 200 204 197 184 199 184 215 92 63 88 41 35 89 137 130 32 4 78 88 80 85 80 85 78 81 81 74 155 201 175 162 115 116 123 76 95 112 175 181 212 254 231 209 138 76 112 93 116 132 131 129 161 141 155 151 109 165 206 176 145 186 144 53 89 87 86 86 89 90 89 91 92 89 90 90 90 88 88 88 89 86 84 83 83 82 80 80 82 81 80 78 78 78 78 77 77 76 76 76 76 76 77 77 77 76 76 75 75 75 76 77 78 78 78 78 78 78 78 78 78 73 73 74 74 74 74 74 73 73 73 73 73 73 73 73 73 74 74 74 74 74 75 75 75 74 75 75 74 74 74 74 74 74 75 74 74 75 74 73 72 72 72 72 72 72 72 72 72 72 72 71 71 71 71 71 71 70 70 70 70 70 70 70 70 71 71 71 71 71 71 71 71 70 70 70 70 70 70 70 70 70 70 70 70 70 70 70 70 70 70 69 69 69 70 70 71 69 69 69 68 68 67 67 67 64 67 66 66 70 65 60 60 79 25 1 5 0 1 6 56 175 89 32 37 9 9 6 28 20 51 84 126 191 211 246 251 249 245 253 253 245 254 253 249 212 161 202 199 195 225 234 238 205 164 13 43 72 63 59 65 52 10 0 4 59 189 172 167 195 204 181 131 176 134 169 228 207 140 168 161 122 53 183 4 104 
241 246 239 249 143 113 136 138 141 133 134 132 123 131 141 131 124 90 42 81 139 201 74 28 109 119 148 164 130 112 127 132 125 171 169 97 93 216 245 157 120 166 166 160 164 149 167 169 96 128 237 219 216 222 226 
192 185 182 191 178 178 188 156 158 249 252 247 230 205 213 219 136 179 194 228 202 207 234 120 176 245 226 227 225 225 229 237 239 192 167 152 158 148 123 149 182 165 147 127 156 181 197 180 180 171 162 141 181 207 194 201 152 229 254 146 183 233 178 174 194 248 182 67 123 191 30 160 233 189 210 206 207 211 211 211 225 202 208 182 212 237 163 100 245 199 229 89 159 174 77 57 196 203 215 209 222 196 207 204 174 161 136 178 140 74 107 112 165 189 100 100 177 194 164 83 161 186 180 3 0 42 186 199 207 184 210 199 196 204 214 193 134 124 174 183 176 184 180 190 162 172 167 187 249 243 252 143 40 251 122 140 149 143 152 137 151 115 137 132 122 130 116 90 51 26 96 100 115 106 42 126 160 163 150 164 212 191 178 198 158 136 170 177 192 10 1 1 165 105 129 38 61 69 70 74 66 65 231 167 153 192 199 243 197 218 235 224 221 240 243 235 227 232 226 223 229 217 234 230 226 236 221 224 227 231 246 212 198 215 162 31 7 50 74 75 74 75 75 74 73 72 72 73 75 75 74 73 73 74 74 74 80 71 71 48 136 239 203 210 206 230 220 210 225 232 179 164 202 193 232 198 168 185 178 175 205 191 200 197 197 195 202 48 13 91 132 160 73 70 154 112 16 82 86 74 81 79 83 84 81 63 94 154 181 156 156 172 142 143 246 254 248 253 253 217 239 239 254 182 45 111 89 89 121 104 106 124 108 122 133 113 96 119 127 120 126 149 54 93 87 87 87 88 89 90 91 92 90 90 90 90 89 88 88 88 86 83 82 83 82 80 80 81 79 78 77 78 78 79 78 77 77 77 77 77 77 77 77 77 78 78 78 78 78 78 79 79 78 78 78 78 77 77 77 77 73 73 74 74 74 73 73 73 73 73 73 73 73 73 73 73 74 74 75 75 75 75 75 75 75 75 75 74 74 74 74 74 74 75 74 74 75 74 73 72 72 72 72 72 72 72 72 72 72 72 71 71 71 71 71 71 70 70 70 70 70 70 70 70 71 71 71 71 71 71 71 71 70 70 70 70 70 70 70 70 70 70 70 70 70 70 70 70 70 69 69 69 69 69 70 70 69 69 68 68 68 68 67 67 64 67 65 65 69 66 61 63 58 19 1 2 4 12 8 83 119 232 201 181 139 84 47 58 67 99 73 48 40 35 28 51 95 129 179 216 249 237 136 84 67 72 73 59 78 51 78 202 81 34 64 64 62 57 62 71 58 1 2 8 83 178 170 158 189 196 187 123 175 148 186 213 197 135 168 180 116 45 210 14 28 
253 237 238 254 138 101 141 136 139 134 140 135 116 116 123 90 109 90 41 65 126 120 46 38 139 109 150 165 130 149 110 127 131 177 173 114 127 242 249 171 110 156 171 167 175 162 169 175 95 130 246 219 213 217 213 
173 167 179 197 184 173 176 155 194 242 225 230 237 207 210 202 151 174 189 227 205 204 228 117 184 253 236 240 240 231 223 225 252 195 158 131 134 137 135 160 156 137 128 75 50 98 152 160 157 125 131 133 130 157 176 180 131 224 253 179 206 229 228 254 227 132 87 38 95 183 87 164 233 204 216 207 210 215 210 207 195 83 106 119 195 247 148 52 91 209 189 180 189 220 203 173 213 201 184 183 162 169 184 148 85 90 92 180 170 91 141 230 178 192 96 107 182 189 168 89 168 195 196 12 1 42 205 152 149 172 170 172 159 155 168 140 165 138 176 187 167 182 172 167 182 158 144 178 250 251 251 238 178 247 123 144 144 145 137 143 147 114 135 122 117 126 113 83 165 231 217 234 211 124 74 141 179 187 153 175 212 210 189 204 177 136 171 158 162 132 141 48 216 197 216 64 47 69 67 63 62 40 47 236 139 141 228 227 222 237 241 233 208 224 217 225 226 237 221 227 230 233 228 223 233 218 223 230 225 229 229 232 239 225 247 111 3 61 90 70 73 74 74 74 73 73 73 74 74 74 73 73 73 72 73 73 79 77 82 39 134 248 224 225 222 218 223 222 232 232 152 72 119 224 228 182 180 183 164 164 198 210 201 185 195 190 198 174 204 130 132 149 95 68 147 152 85 83 74 75 83 79 74 85 74 80 68 82 172 184 82 126 125 171 251 215 224 231 230 233 251 221 250 155 56 128 117 130 141 126 111 128 112 115 139 112 110 146 124 103 164 135 53 83 86 87 90 90 90 91 92 91 90 90 89 89 88 88 87 86 85 83 82 82 82 80 79 81 78 77 77 78 79 79 78 78 77 77 77 77 77 77 77 77 77 77 77 78 78 77 76 76 77 77 77 77 77 76 76 76 75 74 74 74 73 73 73 73 74 74 74 74 74 74 74 74 74 74 74 74 75 75 74 74 74 74 74 75 75 74 74 75 74 75 74 74 75 74 73 72 72 72 72 72 72 72 72 72 73 72 72 71 71 71 71 72 71 71 71 71 71 71 71 71 71 71 71 71 71 71 71 71 70 70 70 70 70 70 70 70 70 70 70 70 70 70 70 70 69 69 68 68 68 68 69 69 68 68 68 68 67 67 67 68 66 66 63 64 66 64 62 67 69 5 10 14 0 4 9 82 116 253 242 249 248 252 254 244 141 5 51 67 85 101 102 88 79 45 28 25 41 27 13 41 84 75 71 123 103 104 62 28 41 59 63 67 62 63 61 66 63 1 6 6 90 176 183 160 178 193 187 110 182 144 175 206 191 135 174 185 121 49 209 7 53 
253 231 236 254 138 104 134 136 137 132 139 133 111 104 109 115 99 85 56 57 52 95 58 15 110 150 132 141 193 178 123 130 120 170 182 122 113 223 245 172 68 132 179 158 159 162 162 164 83 121 243 220 218 222 216 
134 134 138 117 125 141 121 124 137 241 231 223 226 129 118 205 163 164 195 221 210 221 215 108 182 250 228 231 234 228 223 232 219 198 181 184 155 183 171 148 153 151 139 112 82 157 159 99 128 111 164 170 178 210 148 175 113 221 247 181 203 214 217 223 199 163 162 5 45 168 181 146 91 184 204 204 211 204 211 216 218 135 162 133 186 237 93 103 1 132 207 203 208 196 187 184 189 171 95 86 90 154 166 174 117 138 203 184 163 111 140 157 170 197 93 102 192 191 157 83 166 196 180 12 6 67 177 161 150 171 129 187 144 178 225 164 178 132 172 200 157 178 187 175 171 191 161 157 219 240 204 224 251 223 120 151 145 148 113 157 148 126 152 112 118 126 123 81 178 251 252 247 229 116 73 146 179 168 137 169 212 176 174 197 181 145 184 152 186 144 118 47 158 125 110 41 61 70 60 72 72 66 26 220 190 113 231 235 219 234 228 231 215 223 235 199 201 231 227 230 226 231 225 231 218 235 229 214 230 223 228 226 235 221 239 64 4 82 69 75 73 73 74 74 73 73 74 74 73 73 73 73 72 72 72 72 69 80 79 40 140 244 206 227 222 226 221 205 219 231 188 148 201 220 222 193 177 200 176 141 220 191 187 195 190 196 201 140 174 25 92 115 73 109 101 132 72 70 78 78 80 83 79 80 74 77 76 103 114 122 182 126 87 171 246 200 206 218 202 232 225 234 253 164 65 130 104 150 141 114 122 132 117 131 134 118 132 133 146 97 197 104 70 88 87 90 93 93 93 93 93 91 90 89 88 87 87 87 86 85 85 83 82 82 81 79 79 81 77 77 77 78 79 79 78 78 78 78 78 78 78 77 77 77 77 77 78 78 77 76 75 74 77 77 76 76 76 75 75 75 75 74 74 73 73 72 73 73 74 74 74 74 74 74 74 74 74 74 74 74 74 74 74 74 74 75 75 75 74 74 75 75 75 75 74 74 75 74 73 72 72 72 72 72 72 72 72 72 73 72 72 71 71 71 72 72 71 71 71 71 71 71 71 71 71 71 71 71 71 71 71 71 70 70 70 70 70 70 70 70 70 70 70 70 70 70 70 70 69 69 68 68 68 68 68 68 68 68 68 68 67 67 67 67 68 66 63 63 64 62 63 71 60 6 11 10 6 4 13 79 171 250 239 245 254 249 245 253 226 7 10 6 7 7 11 11 19 35 75 86 91 117 129 132 107 131 106 108 58 25 31 53 65 73 56 65 57 66 62 63 65 3 5 2 68 181 203 173 173 199 187 105 188 136 154 214 183 140 183 159 106 47 201 37 
31 251 254 244 249 169 108 133 140 140 132 137 131 111 107 110 112 111 67 55 69 21 48 36 53 122 139 166 152 150 170 134 159 126 164 185 126 108 219 249 182 50 119 188 167 164 171 171 177 93 126 239 216 214 220 213 
148 148 144 110 124 158 144 148 132 236 238 225 230 179 167 235 158 168 204 220 214 229 219 107 177 250 226 226 230 228 233 253 127 140 180 188 130 156 126 140 174 141 120 172 148 160 167 150 144 132 164 147 241 243 25 104 128 226 248 147 182 226 233 226 226 253 169 26 35 124 173 94 85 157 203 211 202 214 205 220 217 245 250 232 255 235 252 250 194 196 193 158 119 84 93 138 178 133 104 104 170 182 200 199 117 187 193 176 160 90 137 126 170 211 107 100 189 200 165 89 157 193 198 10 5 71 174 166 155 175 177 174 161 200 195 169 163 150 185 210 158 171 185 186 180 181 184 133 65 2 9 92 250 215 110 143 154 143 139 141 145 124 149 121 133 144 131 88 168 249 214 251 179 87 45 134 172 163 154 182 219 140 171 202 181 156 169 145 164 136 97 75 121 121 143 67 36 76 71 68 70 73 39 76 249 118 198 228 150 227 231 220 229 228 227 213 223 231 231 224 231 228 228 227 238 220 231 223 226 229 225 222 226 221 242 25 4 91 71 74 72 74 74 74 73 73 73 74 74 74 74 73 73 72 72 71 74 83 73 51 127 233 200 232 200 232 226 206 228 237 228 241 243 192 217 192 167 203 186 182 212 199 195 201 197 197 203 102 107 95 40 70 92 66 143 76 59 82 85 76 71 77 85 82 83 50 80 82 57 74 121 165 92 146 252 221 227 236 232 217 252 240 248 212 64 132 106 127 135 117 113 141 120 123 136 121 104 125 144 88 196 99 69 85 86 92 95 95 94 94 93 90 91 89 87 86 86 86 85 84 84 82 81 82 81 79 79 80 76 76 77 78 79 79 78 77 78 78 78 78 78 78 77 77 79 78 77 77 76 76 76 77 76 76 76 75 75 74 74 74 73 73 72 72 72 72 73 73 74 74 74 74 74 74 74 74 74 74 73 74 75 75 75 75 75 75 75 75 76 76 76 75 75 75 74 74 75 74 73 72 72 72 72 72 72 72 72 72 72 72 71 71 71 71 72 72 71 71 71 71 71 71 71 71 71 71 71 71 71 71 71 71 70 70 70 70 70 70 70 70 70 70 70 70 70 70 70 70 70 70 69 69 68 68 69 69 68 68 68 68 67 67 67 67 66 65 64 65 65 61 63 74 45 12 11 2 13 5 33 67 207 248 251 251 238 249 255 248 231 252 238 229 177 134 74 106 111 62 6 3 9 3 6 49 62 80 112 137 166 153 149 94 25 36 73 62 65 62 63 61 61 3 9 8 53 169 196 160 173 197 188 117 177 149 165 214 210 150 164 186 123 48 176 14 95 253 
244 238 216 156 111 142 139 142 135 135 127 110 109 114 114 82 52 60 40 45 46 24 36 74 80 107 119 136 147 123 124 120 167 173 120 126 232 238 171 68 127 168 156 164 165 165 169 97 133 244 220 215 216 209 
146 141 152 162 149 140 147 145 123 205 245 225 235 207 205 230 150 184 202 215 208 219 236 119 170 250 234 236 236 230 234 254 150 181 185 189 155 86 121 148 159 177 148 152 122 131 188 170 144 130 180 145 202 253 97 130 120 210 254 143 179 223 223 226 225 214 227 139 130 167 185 157 112 235 218 209 218 224 209 203 203 170 178 183 123 120 150 186 119 161 178 117 81 90 113 168 200 171 93 156 207 176 187 185 101 189 142 190 146 136 135 116 172 197 104 106 185 196 162 79 177 189 186 29 1 69 182 181 140 115 100 176 172 187 133 122 110 148 172 188 161 174 175 192 178 195 200 144 189 184 190 207 146 100 158 154 139 147 134 139 156 124 135 139 140 150 109 71 176 253 224 250 175 87 8 150 187 183 140 174 212 173 186 178 152 146 190 154 163 82 1 56 140 60 121 85 29 79 63 72 70 64 77 9 169 254 126 223 234 249 242 230 226 243 234 234 229 228 222 229 225 226 224 229 220 232 224 228 223 228 220 221 231 216 230 4 5 87 70 70 73 74 75 74 73 72 73 73 74 74 74 74 74 73 72 72 69 72 81 52 125 238 220 205 193 201 204 203 215 214 208 208 204 180 215 186 155 198 202 168 203 208 198 200 201 191 219 118 13 28 45 100 65 127 118 37 59 74 61 77 87 71 77 81 76 82 74 85 71 72 58 59 66 129 252 233 251 253 254 244 251 252 236 189 84 151 127 108 133 104 107 132 105 118 126 132 92 119 125 163 188 65 71 87 86 91 95 95 94 93 92 89 91 89 86 84 85 85 84 83 84 82 81 82 81 79 79 80 76 76 77 78 79 79 78 77 79 79 78 78 78 78 77 77 78 77 75 74 74 75 76 78 76 75 75 75 74 74 73 73 71 71 70 70 71 72 73 73 75 75 75 75 75 75 75 75 73 74 74 74 75 75 75 75 75 75 75 75 76 76 76 75 75 75 74 74 75 74 73 72 72 72 72 72 72 72 72 72 73 73 71 72 71 72 72 72 71 71 71 71 71 71 71 71 71 71 71 71 71 71 71 71 71 71 71 71 71 71 71 71 71 71 71 71 71 71 71 71 71 70 70 69 69 69 69 69 68 68 68 68 67 67 67 67 64 65 64 65 65 60 63 74 35 4 5 5 6 2 67 56 236 251 240 249 252 243 247 252 229 217 251 252 251 253 251 254 254 254 254 243 200 152 112 70 18 9 33 50 62 84 147 175 162 53 44 69 59 63 62 68 70 2 8 4 49 160 213 188 172 184 187 130 158 172 195 200 200 159 185 179 103 48 146 
179 148 1 8 1 0 99 144 128 131 138 134 132 122 104 104 109 100 91 1 108 146 122 159 58 18 42 58 75 92 111 105 118 124 105 164 191 125 96 209 249 162 116 166 160 143 160 159 165 160 91 125 234 218 230 248 253 
145 142 133 139 149 142 140 157 121 163 248 234 234 211 198 234 145 183 205 217 213 208 234 121 167 252 228 233 228 217 229 238 245 197 181 231 209 195 164 153 146 151 145 148 155 110 162 150 139 122 204 192 207 252 67 29 56 205 254 191 214 215 224 225 221 219 219 121 112 145 172 175 114 175 215 204 211 212 197 216 217 181 152 170 127 133 55 89 93 169 180 145 80 156 241 180 200 141 92 105 98 186 181 90 78 173 139 188 148 130 165 222 179 206 105 85 173 201 162 98 201 176 195 3 0 24 100 129 124 154 141 142 85 115 110 102 117 132 170 190 140 174 176 177 172 184 194 155 149 155 125 106 93 110 166 148 140 147 132 136 140 128 145 136 136 153 125 80 204 250 241 252 177 95 44 161 153 165 114 171 235 201 179 183 163 203 158 135 203 31 2 69 240 192 228 114 37 81 71 71 69 69 62 65 5 173 244 178 108 130 157 141 108 146 141 199 236 229 225 229 218 230 229 223 226 227 226 227 232 230 211 188 229 229 203 4 18 80 66 75 71 74 79 76 69 72 76 73 72 73 74 74 74 73 73 74 73 71 83 47 108 227 209 210 202 207 205 187 163 191 191 209 199 205 207 184 186 214 199 183 205 203 193 202 192 197 215 111 10 60 139 80 125 131 29 110 109 81 109 80 69 83 88 78 80 80 80 80 80 80 78 78 71 36 184 230 174 180 186 99 92 72 68 88 107 75 102 112 112 88 103 107 100 126 133 109 144 116 75 112 195 58 94 83 94 92 92 92 94 93 91 87 87 87 86 86 86 85 84 83 81 82 83 81 79 77 78 79 76 76 77 77 78 78 79 79 78 78 78 78 78 78 78 78 78 77 77 76 77 77 76 75 75 75 74 74 73 73 72 72 73 73 74 74 74 74 73 73 74 74 74 74 75 75 75 75 74 74 74 74 74 75 75 76 74 74 74 73 73 73 73 74 73 73 74 75 74 73 73 72 73 72 72 72 73 73 73 73 73 73 72 71 71 70 69 69 69 70 70 71 71 71 71 71 73 72 71 70 69 69 70 70 70 70 71 71 71 71 70 70 68 68 69 70 71 71 71 71 70 70 71 71 71 70 69 69 67 67 67 67 66 66 67 67 64 63 70 60 64 59 67 80 18 2 8 12 6 0 78 110 251 254 242 254 251 251 250 250 214 216 234 227 229 243 154 218 253 240 254 254 254 252 254 253 222 175 138 109 84 68 68 97 172 172 42 46 63 69 62 67 62 4 8 7 61 163 203 185 192 207 212 195 175 211 208 182 209 151 176 178 124 43 101 231 
72 63 1 2 1 98 148 129 133 140 138 131 128 100 105 116 112 65 20 201 195 1 67 203 226 254 240 225 204 209 126 118 141 118 151 202 131 108 202 251 168 83 136 160 144 154 157 162 159 86 138 239 209 118 112 157 
126 137 150 144 135 144 140 115 134 144 239 233 231 220 198 243 148 191 202 222 221 219 226 122 164 254 235 239 236 228 236 237 235 192 184 229 226 235 206 140 175 147 162 168 160 151 145 101 150 166 184 159 216 252 129 78 90 227 249 165 190 214 228 214 222 226 206 80 104 87 88 211 214 217 205 194 207 219 204 208 211 189 161 184 161 146 85 192 212 182 194 143 89 119 130 152 194 114 120 99 105 184 188 117 91 180 206 205 129 134 162 159 180 205 118 53 170 191 142 78 198 189 190 13 0 42 149 148 224 214 151 75 92 79 126 71 98 111 173 189 143 175 175 177 173 189 196 133 170 172 153 141 127 144 145 138 150 149 130 143 137 119 136 136 139 156 134 104 160 191 175 199 172 111 28 158 159 172 161 173 219 202 170 196 228 243 181 163 222 39 2 41 120 80 88 74 67 75 78 69 60 67 70 67 63 3 106 250 253 224 183 174 126 103 71 176 238 228 215 224 220 222 221 231 229 233 232 228 225 225 222 220 230 212 158 6 26 87 73 75 80 73 70 71 74 78 76 70 73 74 75 74 73 73 73 74 69 73 81 57 106 231 225 235 220 224 239 221 195 228 225 221 224 229 219 212 72 66 34 110 218 193 200 195 208 197 212 141 62 231 180 159 103 64 58 203 140 68 125 76 54 85 78 77 80 80 81 81 81 80 80 79 80 68 62 33 35 54 57 83 110 137 175 198 198 152 164 166 133 155 170 95 120 172 110 121 152 161 151 168 158 65 81 93 94 92 92 93 95 93 90 87 89 88 86 85 84 83 82 81 82 82 82 80 78 77 77 77 76 76 77 77 78 78 78 79 76 76 76 76 76 76 76 76 77 76 76 76 76 76 75 74 75 74 74 74 73 73 72 72 73 73 74 74 74 74 73 73 74 74 74 74 75 75 75 75 74 74 74 74 74 75 75 76 74 74 74 74 74 74 73 73 74 74 74 75 74 73 73 73 73 72 72 72 72 73 73 72 72 72 72 72 71 71 71 71 69 70 70 71 71 71 71 71 71 71 71 70 70 70 70 71 70 70 71 71 71 71 70 70 68 69 69 70 71 71 71 71 70 70 70 70 70 70 69 69 67 67 67 67 66 66 67 67 70 64 65 62 61 56 61 70 8 6 7 9 2 9 87 132 249 244 246 239 244 250 247 252 203 216 245 238 242 235 153 215 251 237 243 240 236 232 244 237 215 239 250 250 247 227 205 128 80 167 160 52 58 59 61 66 64 3 2 4 54 156 197 157 177 198 191 94 166 186 176 194 207 155 187 166 145 28 79 230 114 
46 16 41 148 159 107 140 138 141 136 131 130 103 102 106 110 34 1 168 141 1 11 119 235 211 165 180 184 191 168 146 143 126 146 179 129 118 214 248 166 95 98 150 141 156 164 152 148 89 127 250 220 119 10 3 
152 148 144 136 134 143 132 103 149 130 230 237 222 209 172 219 153 188 209 219 215 213 226 116 152 250 231 233 232 227 232 225 239 203 181 205 195 196 192 138 143 154 126 128 141 153 133 101 136 108 163 205 228 245 237 231 145 221 243 164 204 216 221 227 211 222 230 142 124 76 81 148 193 207 206 214 207 208 196 206 207 188 169 187 169 140 71 175 169 178 182 103 91 129 140 163 203 161 153 101 151 199 185 69 95 157 163 184 157 145 140 155 181 191 85 104 188 194 171 148 192 167 189 39 86 223 151 172 239 186 98 99 86 76 121 104 108 102 184 194 151 183 176 178 189 176 201 139 155 165 169 125 132 144 136 153 138 131 135 141 148 120 133 136 135 146 124 111 158 185 175 179 211 138 8 131 163 175 159 198 209 206 150 203 175 199 206 196 219 32 1 57 66 58 42 57 73 64 77 65 75 75 61 59 73 70 31 7 47 77 96 112 197 234 191 239 236 242 239 238 236 237 230 229 225 224 223 223 225 227 227 226 222 250 94 4 42 89 69 69 73 72 73 77 78 75 73 73 74 75 75 74 73 73 73 73 72 73 82 58 94 229 214 225 219 240 224 236 221 245 232 250 245 246 236 239 8 109 73 66 236 213 215 216 201 213 224 152 80 132 27 17 26 7 13 104 121 104 112 103 74 66 69 80 79 80 81 81 81 81 81 81 80 82 84 91 80 90 73 73 76 66 56 61 88 87 104 91 95 120 91 85 101 86 80 85 86 83 83 96 80 84 93 104 93 93 92 93 94 94 92 88 90 88 86 84 83 83 82 81 85 84 83 82 81 80 79 78 76 77 77 77 77 78 78 78 76 76 76 76 76 76 76 76 76 75 75 75 75 75 74 73 74 74 74 73 73 73 73 72 73 73 74 74 74 74 73 73 74 74 74 74 75 75 75 75 75 75 75 75 75 76 76 77 76 76 77 77 77 76 75 75 75 75 74 73 73 74 74 74 73 72 72 72 72 73 73 72 72 72 72 72 72 72 72 72 69 70 70 71 71 71 71 71 70 70 70 71 71 71 71 71 70 70 70 71 71 70 70 70 69 69 70 70 71 71 70 70 71 70 70 70 69 69 69 70 68 68 67 67 66 66 66 66 68 61 62 68 65 66 69 71 0 6 1 9 6 23 89 180 248 246 255 255 250 243 252 250 207 228 244 232 238 242 183 248 237 234 237 241 237 229 244 227 198 203 207 216 227 208 245 227 80 120 156 71 36 65 72 60 64 5 3 2 38 146 209 160 185 188 202 135 158 133 141 214 186 143 174 180 154 35 65 253 253 249 253 243 254 150 
111 139 131 134 134 131 129 103 103 105 89 63 43 132 142 2 9 128 224 204 239 219 220 219 117 111 169 117 139 198 129 71 183 249 178 95 117 147 157 145 149 153 141 91 118 228 224 129 59 12 
153 154 136 134 159 161 145 146 137 114 210 248 231 223 198 244 159 187 207 221 191 217 234 131 158 252 231 233 232 227 232 227 231 197 158 187 153 132 148 150 150 164 167 180 137 123 133 135 114 152 212 197 182 165 145 198 164 210 249 144 190 208 203 212 222 205 230 116 49 116 147 170 164 196 197 211 209 217 203 215 217 165 168 193 148 119 66 148 128 177 195 121 134 120 107 161 195 146 134 163 207 196 166 35 109 111 123 207 129 93 124 140 177 191 136 201 188 177 182 202 184 180 211 27 32 180 148 215 252 112 48 90 68 52 103 113 121 94 182 187 154 183 177 182 175 186 198 143 164 172 154 128 131 126 121 145 142 139 143 132 144 114 126 132 130 144 120 119 189 167 181 177 193 101 30 170 152 192 144 190 201 213 161 164 204 164 194 179 217 68 1 60 80 86 82 70 68 71 79 79 60 66 68 74 66 45 68 74 98 80 42 40 118 137 2 47 74 105 149 187 213 239 246 246 249 243 242 243 242 237 231 228 220 251 17 40 86 75 68 73 76 79 80 80 78 72 71 76 75 75 75 74 73 72 73 74 64 78 94 58 96 227 204 202 172 139 153 183 163 132 93 54 52 27 24 5 8 43 34 15 100 60 18 27 25 10 12 65 39 51 70 82 102 132 50 140 103 98 126 189 221 38 72 75 80 80 81 82 82 83 83 82 82 82 73 86 75 87 82 80 78 88 91 81 81 69 78 70 76 68 68 82 73 69 83 73 84 75 87 82 76 97 95 94 94 93 93 93 94 93 91 89 88 86 84 83 84 84 85 85 86 84 82 82 82 82 80 78 76 77 77 77 77 77 78 78 76 76 76 76 76 76 76 76 76 75 74 74 75 75 74 73 74 74 73 73 73 73 73 72 73 73 74 74 74 74 73 73 74 74 74 74 75 75 75 75 75 75 75 75 75 76 76 77 76 76 77 78 78 77 75 75 76 76 74 73 73 74 74 75 73 72 72 72 73 74 74 73 72 72 72 72 71 71 71 71 69 70 70 71 71 71 71 71 70 70 71 71 71 71 70 70 70 70 70 71 71 70 70 70 70 70 70 70 70 70 70 70 71 70 70 69 69 69 70 70 68 68 68 67 66 65 66 66 68 66 63 66 59 60 60 53 1 13 7 3 6 43 101 164 234 240 246 249 250 249 251 244 203 233 236 233 234 236 185 240 232 237 240 247 244 235 252 225 204 213 224 218 226 216 234 228 94 89 124 166 43 63 62 70 63 6 5 6 35 150 226 166 186 199 196 121 175 146 176 212 199 150 170 186 146 80 90 250 249 254 240 241 196 104 129 128 128 
132 136 133 127 101 106 110 91 46 25 154 143 1 3 128 232 198 232 219 210 225 119 76 149 107 128 201 126 91 203 243 165 105 148 138 154 149 162 168 139 80 137 242 221 102 30 4 
109 135 136 136 155 149 133 141 142 122 184 248 235 227 214 244 156 215 171 126 105 238 250 132 169 254 231 234 233 226 233 235 245 202 168 224 181 180 196 193 181 198 220 187 176 217 190 155 151 147 196 183 162 250 217 118 150 207 249 191 214 214 200 208 198 210 203 55 48 78 155 152 168 211 202 200 205 221 197 209 217 161 173 184 137 151 102 131 131 181 186 134 117 141 238 187 203 147 148 110 79 192 185 29 109 99 121 182 126 138 212 220 171 180 217 207 182 178 171 177 177 174 211 65 12 195 224 199 151 55 48 59 53 37 101 80 114 89 181 190 156 179 180 189 175 185 198 143 165 171 152 133 130 134 130 125 148 144 138 150 153 124 134 138 138 159 131 135 115 83 93 53 6 2 51 179 154 181 142 179 226 212 200 188 186 144 197 189 214 63 1 60 94 76 84 87 78 77 72 74 72 61 67 43 84 151 179 175 144 139 119 112 111 91 118 90 80 55 48 42 24 21 38 48 73 95 132 172 201 221 235 244 238 246 16 89 81 73 98 82 80 84 77 72 76 76 72 74 75 76 75 74 74 73 74 75 79 66 77 79 53 57 37 26 90 157 143 102 42 178 178 164 247 240 232 239 218 227 187 111 158 198 99 56 49 29 115 112 199 253 245 91 173 251 132 131 125 90 114 153 200 32 87 69 81 80 81 83 83 83 83 82 85 89 79 83 83 82 85 85 84 85 84 82 89 88 94 88 91 85 98 87 88 102 90 91 85 87 95 95 98 101 95 97 93 93 93 93 93 92 90 89 88 87 85 84 84 85 85 85 82 80 79 79 80 80 78 77 77 77 77 77 77 77 77 77 74 74 74 74 74 74 74 74 76 75 74 74 75 75 74 73 73 73 73 73 73 73 73 73 73 73 74 74 74 74 73 73 74 74 74 74 75 75 75 75 75 75 75 75 75 76 76 77 75 76 77 77 77 76 75 74 76 75 74 73 73 73 74 74 75 74 73 73 74 75 74 74 72 72 71 71 70 70 69 69 69 70 70 71 71 71 71 71 71 71 71 72 71 70 69 69 69 70 70 70 70 70 70 69 70 70 70 71 70 70 70 69 71 70 69 69 68 69 69 70 68 68 68 67 66 65 66 66 64 70 65 64 61 61 69 62 13 6 2 4 7 80 123 141 120 127 122 144 169 187 203 234 206 226 233 231 240 213 196 248 241 244 240 239 237 232 250 218 189 204 217 221 209 229 253 215 131 87 102 146 42 59 58 65 64 3 1 10 48 161 224 150 176 191 175 117 166 179 186 186 185 138 179 181 147 124 91 104 145 188 165 140 119 134 140 130 
137 135 136 133 126 102 108 107 95 47 29 127 133 2 5 141 224 210 206 189 195 207 58 53 79 106 123 193 119 106 205 245 177 67 47 114 150 145 150 145 145 60 124 243 217 148 34 2 
138 138 144 156 157 144 137 141 147 133 157 242 236 214 191 208 141 185 175 151 154 188 192 147 169 254 229 233 230 222 232 236 245 193 160 210 160 206 228 190 181 193 189 176 197 207 190 193 160 153 177 182 145 254 206 4 158 230 239 244 225 200 186 193 189 206 131 77 45 18 112 84 153 199 214 204 206 215 185 202 209 170 182 185 141 169 115 146 183 187 187 120 131 140 171 166 191 160 146 139 103 184 169 14 113 157 180 174 249 252 247 242 167 167 204 183 185 179 183 187 172 187 204 25 48 198 180 115 11 26 29 31 31 46 111 80 104 104 188 196 153 165 175 180 190 182 197 131 155 166 171 140 127 132 153 131 137 135 136 154 153 122 127 130 134 163 131 141 131 102 101 118 66 28 54 202 157 154 131 178 216 191 183 218 175 153 189 191 205 37 4 66 95 75 76 93 79 77 74 60 65 78 52 116 173 156 94 235 240 238 227 226 204 195 169 167 144 127 116 92 67 60 69 62 51 40 24 9 5 5 7 9 97 177 1 3 18 17 10 29 40 69 80 74 76 77 72 72 75 76 75 74 74 74 75 75 71 86 75 93 74 47 71 78 60 39 38 40 87 219 161 231 253 244 243 255 249 241 253 213 253 246 252 253 250 253 185 67 149 178 201 2 197 213 135 102 138 120 91 148 183 37 71 84 80 80 82 82 82 82 82 82 82 72 86 92 83 79 95 81 92 90 89 85 87 84 85 85 88 94 76 91 97 82 91 87 97 99 82 93 97 96 89 97 93 93 93 93 92 90 88 87 89 87 85 84 84 84 83 82 81 80 79 79 79 79 78 77 77 77 77 77 77 77 77 77 74 74 74 74 74 74 74 74 76 75 74 74 74 74 74 73 73 73 73 73 73 73 73 73 73 73 74 74 74 74 73 73 74 74 74 74 75 75 75 75 75 75 75 75 75 76 76 77 75 75 76 76 76 75 75 74 75 75 74 74 73 73 73 73 75 74 73 73 74 74 74 74 72 72 71 70 70 69 68 68 69 70 70 71 71 71 71 71 72 72 71 71 71 70 69 69 69 70 70 70 70 70 70 69 70 70 70 71 70 70 70 69 70 70 69 69 69 69 69 69 68 68 67 67 66 66 66 66 60 69 65 62 73 62 75 76 90 85 31 6 9 115 144 170 148 141 132 137 134 120 128 240 226 223 234 218 239 177 209 254 242 244 242 236 235 236 244 208 195 212 219 226 142 148 251 215 98 72 196 146 83 50 70 64 58 2 4 9 50 156 212 156 187 199 207 182 171 180 152 200 211 150 171 174 126 146 114 75 72 69 75 105 130 141 127 139 141 130 
127 127 124 104 108 100 106 92 101 97 129 1 3 143 231 191 124 117 119 178 67 28 45 119 119 196 126 85 168 253 163 87 110 122 121 141 152 142 136 83 114 232 210 87 6 4 
156 140 131 140 151 146 141 150 135 128 136 236 242 221 195 227 194 179 173 163 195 198 194 141 163 255 236 237 234 229 238 237 245 196 150 170 134 189 203 177 215 214 191 197 192 196 201 160 151 186 187 187 166 254 195 15 155 239 240 225 213 237 245 244 250 255 254 254 99 101 132 177 186 182 202 199 207 224 199 213 216 166 181 202 141 151 108 192 191 195 181 122 134 119 145 177 201 90 106 85 120 188 190 231 251 255 219 132 220 234 225 236 166 176 193 204 179 171 184 166 177 243 188 5 173 156 123 74 34 27 16 4 16 37 99 82 97 123 182 185 144 163 188 177 187 204 186 105 163 188 170 157 129 120 143 142 135 143 139 137 130 91 93 102 114 152 123 143 134 132 107 88 65 28 22 156 171 187 163 194 205 208 177 200 112 122 172 191 207 27 4 71 93 85 88 93 76 84 80 69 75 42 106 181 125 104 164 249 251 252 252 249 253 252 249 249 250 253 227 166 157 161 157 140 138 134 126 116 108 99 88 75 68 97 66 74 62 52 42 19 8 55 87 80 76 76 72 72 75 75 76 75 74 74 76 76 78 70 79 66 34 133 196 144 126 164 122 105 76 192 254 236 238 234 238 233 243 225 247 228 241 230 225 232 229 254 146 71 172 173 214 5 180 184 148 130 111 147 92 132 196 35 85 76 81 80 81 82 82 81 81 80 86 88 85 75 85 78 79 92 86 82 84 88 92 96 90 89 87 88 91 89 90 97 97 92 86 97 93 103 94 88 89 97 93 93 94 93 90 88 87 86 87 86 84 83 83 83 82 81 82 83 82 81 79 78 78 78 77 77 77 77 77 77 76 76 76 76 76 76 76 76 76 76 75 74 73 73 73 73 73 72 72 72 73 73 73 73 73 73 73 73 74 74 74 74 73 73 74 74 74 74 75 75 75 75 75 75 75 75 75 76 76 77 76 76 76 76 76 75 75 75 74 74 74 74 73 73 73 73 74 73 72 72 73 73 73 73 72 71 71 71 70 70 69 69 69 70 70 71 71 71 71 71 72 71 71 70 70 70 70 70 69 69 70 70 70 70 69 69 69 70 70 70 71 70 70 70 69 69 70 70 69 69 68 68 67 67 67 67 66 66 66 66 64 68 62 59 75 29 32 34 19 46 41 9 10 113 156 188 161 171 172 173 163 163 178 189 243 247 252 242 251 191 222 240 243 240 244 232 234 242 241 203 188 217 220 204 117 120 238 202 52 59 238 134 116 51 64 59 50 3 10 7 47 146 197 170 171 198 198 121 174 161 140 196 208 142 154 183 132 143 124 113 124 121 123 
131 127 124 136 130 137 127 127 126 119 98 105 98 82 40 69 121 138 11 3 144 221 216 202 182 172 227 63 27 59 121 102 182 142 112 187 248 171 64 136 141 126 137 135 144 136 73 129 233 215 205 242 141 
140 165 146 126 147 149 131 135 156 144 140 231 234 210 188 245 190 174 160 154 118 179 197 143 150 253 237 236 234 231 237 230 247 209 153 164 165 191 180 186 184 197 180 161 157 172 162 165 156 186 174 172 174 252 253 218 167 215 248 212 217 237 232 243 241 237 254 244 254 251 254 254 228 183 210 206 198 211 197 216 214 166 176 189 136 182 111 126 129 174 195 119 121 104 120 180 192 132 196 242 255 159 190 254 226 250 190 136 233 239 232 233 170 172 215 211 184 210 171 55 189 252 132 65 219 152 65 44 51 19 42 43 24 45 62 64 101 139 175 178 149 190 230 208 196 210 178 108 137 187 156 122 113 132 139 144 140 140 133 160 142 95 88 97 109 147 117 144 136 132 137 71 46 30 60 164 158 173 157 191 224 207 181 179 152 147 189 187 204 32 1 75 103 89 100 93 77 86 59 71 67 66 197 126 127 226 178 251 252 249 252 247 254 253 251 251 253 251 199 130 145 156 154 157 148 159 165 160 157 162 168 169 170 162 182 177 172 170 168 50 11 62 88 75 74 82 76 70 75 75 76 75 74 74 76 77 76 78 75 65 134 231 171 202 240 209 217 97 81 184 248 225 238 244 248 248 245 235 240 244 243 241 240 237 242 251 157 51 155 166 217 82 252 251 185 133 118 120 62 153 200 41 81 77 81 80 80 80 81 81 80 80 78 81 84 81 89 87 77 91 91 91 93 90 87 91 89 91 92 90 91 89 97 94 82 102 98 91 98 95 97 94 101 89 92 93 94 93 90 87 86 85 83 82 82 82 83 83 82 81 82 83 82 80 77 75 75 76 77 77 77 77 76 76 76 76 75 75 75 75 75 75 75 75 74 73 72 72 73 72 72 71 72 72 72 72 73 73 73 73 73 73 74 74 74 74 73 73 74 74 74 74 75 75 75 75 75 75 75 75 75 76 76 77 77 77 76 76 75 76 76 76 73 74 74 74 73 72 72 72 73 72 71 71 72 72 72 72 71 71 71 71 71 71 71 71 69 70 70 71 71 71 71 71 71 71 70 70 70 70 71 72 69 69 70 70 70 70 69 69 69 69 70 70 71 70 70 70 69 69 70 70 70 69 68 68 67 67 67 67 66 66 66 66 63 63 60 62 83 11 3 4 6 2 113 137 66 9 16 23 45 83 85 96 128 208 225 14 3 46 78 126 179 204 254 254 252 241 241 219 220 237 237 203 227 226 222 230 229 222 250 197 47 98 225 110 138 82 52 72 51 2 9 7 54 146 180 160 187 190 170 120 165 174 179 181 214 147 165 174 165 138 141 139 121 122 
122 118 121 133 136 139 137 134 139 134 115 89 100 99 100 64 70 107 166 1 4 156 227 216 179 208 187 203 79 2 74 99 87 181 137 108 202 244 166 35 74 149 134 153 146 150 144 75 134 226 211 210 202 225 
151 143 146 118 131 144 164 141 140 155 118 180 244 217 124 245 151 168 142 128 72 197 215 129 156 251 233 230 229 223 226 232 238 210 170 161 171 179 190 194 198 196 201 201 195 187 187 199 184 185 195 199 211 226 210 188 177 209 211 190 197 225 204 201 235 241 253 250 199 180 188 121 97 195 207 200 207 214 189 211 215 165 178 186 146 171 118 138 134 183 175 59 114 141 212 163 182 253 248 254 243 155 187 239 227 244 203 142 224 241 237 231 169 182 132 131 221 245 144 51 222 224 118 107 145 82 50 49 43 40 60 44 13 54 85 29 106 144 175 189 141 90 82 70 75 74 35 71 89 153 161 123 140 134 127 125 144 144 124 139 135 90 97 101 105 145 117 127 130 112 102 110 57 31 66 176 150 168 153 188 220 209 141 200 171 138 184 176 218 49 1 76 110 103 89 80 77 72 65 66 56 166 149 124 246 211 172 253 252 253 252 253 254 253 253 253 254 250 177 130 157 155 143 147 134 151 153 143 144 158 161 154 163 157 155 157 148 153 203 44 12 70 88 77 76 78 84 71 74 74 76 75 75 74 75 74 77 79 72 61 216 111 153 196 209 180 185 77 75 166 251 230 249 244 237 240 227 221 237 236 235 234 238 233 233 252 162 96 167 190 221 64 219 250 140 161 99 123 66 176 199 31 82 79 79 81 83 82 81 80 82 85 85 85 85 85 84 85 86 88 90 91 90 88 88 91 92 91 90 90 89 92 93 94 94 93 96 96 97 96 95 93 91 90 90 90 88 88 87 86 85 83 83 83 83 83 83 82 80 78 81 80 80 79 79 78 78 77 75 75 75 75 76 76 76 76 74 74 74 74 74 74 74 74 74 74 74 73 73 72 72 72 73 72 72 71 71 72 72 73 72 72 72 72 72 72 72 72 72 72 73 73 73 73 73 73 74 74 74 75 76 77 77 77 75 75 75 75 74 74 74 74 72 72 72 72 74 74 74 74 73 73 73 73 73 73 73 73 70 70 70 70 70 70 70 70 68 69 69 69 70 70 71 71 71 71 71 71 71 71 71 71 71 70 69 70 70 71 70 69 70 70 70 70 70 70 70 70 69 69 68 69 69 69 68 67 67 67 67 67 66 66 66 65 68 60 65 67 65 9 8 12 6 3 109 47 135 204 111 84 26 21 36 21 30 36 80 101 112 79 69 62 15 92 193 220 239 253 254 254 251 254 228 216 220 219 210 221 224 237 248 143 114 123 148 131 49 45 69 60 56 5 14 9 27 140 201 182 174 176 201 147 174 169 121 208 221 156 159 165 159 139 129 132 120 120 130 133 
128 132 139 137 135 133 128 131 118 96 95 99 112 55 63 102 177 1 4 154 227 229 155 139 152 221 69 22 45 94 73 174 136 106 186 241 160 34 65 138 129 148 141 141 139 68 91 220 202 208 222 195 
147 146 145 140 141 149 152 143 140 135 131 173 248 166 187 238 131 181 200 222 201 233 231 131 158 253 235 231 230 226 230 236 236 210 194 204 232 220 226 230 234 224 224 229 235 236 225 220 225 228 234 218 208 216 222 226 234 216 202 208 221 223 193 202 228 246 248 250 115 120 159 156 106 219 198 203 205 208 201 213 212 166 180 193 126 126 76 99 131 168 186 238 252 254 252 164 171 252 238 249 239 155 189 242 227 244 203 142 225 239 235 231 169 201 25 94 251 223 140 208 219 202 146 191 140 30 39 44 42 23 34 38 6 76 63 28 107 112 192 197 116 38 22 52 71 40 69 49 120 190 142 143 147 143 136 131 150 156 132 126 136 86 82 97 108 152 103 112 128 100 85 95 99 83 74 195 143 144 123 189 249 196 154 207 151 145 200 180 209 50 5 64 95 89 78 69 68 73 72 68 114 190 142 177 208 114 185 251 252 252 252 252 254 254 253 253 254 248 165 129 153 155 148 151 142 146 147 147 147 145 149 155 155 150 150 148 148 151 167 34 11 68 84 77 79 78 83 79 74 74 75 75 75 75 75 76 75 77 75 76 92 160 142 221 214 238 182 90 104 224 252 242 240 248 234 231 235 215 221 236 230 228 213 231 229 239 197 74 96 230 247 57 186 250 155 170 97 146 68 151 217 36 81 70 76 78 80 80 78 78 80 82 80 81 82 82 83 84 85 87 89 89 89 88 88 91 92 91 90 89 90 92 93 94 94 94 94 95 96 95 93 92 91 91 90 89 89 88 89 88 86 85 83 83 83 84 84 83 82 80 80 80 80 79 79 78 78 77 75 75 75 75 75 76 76 76 75 75 75 74 74 73 73 73 74 74 74 73 73 72 72 72 72 72 72 72 72 72 72 72 73 73 73 73 73 73 73 73 73 73 73 73 73 74 74 74 74 74 75 75 76 76 77 77 75 75 75 75 75 75 74 74 72 72 72 72 74 74 74 74 73 73 73 73 73 73 72 72 71 71 71 71 71 71 71 71 70 70 70 71 71 72 72 72 71 71 71 71 71 71 71 71 71 70 69 70 70 71 70 69 70 70 70 70 70 70 70 70 69 69 68 69 69 69 68 67 68 68 67 67 66 66 66 66 65 63 62 68 45 7 6 12 3 35 126 50 175 249 247 228 200 158 117 79 69 64 37 55 56 75 55 83 100 90 66 62 81 80 93 134 189 233 239 246 252 252 252 244 232 234 245 86 117 146 134 50 56 71 51 68 71 2 1 10 50 156 197 170 175 189 208 122 148 162 96 209 221 146 158 171 148 149 137 134 128 116 120 130 133 136 
138 133 137 137 132 129 111 87 89 96 65 55 77 105 148 8 3 161 222 237 58 0 54 237 45 33 30 84 62 131 154 101 169 252 165 25 59 136 128 122 144 138 135 62 100 238 233 219 180 223 
149 152 145 158 148 149 135 143 137 143 146 171 80 154 188 236 130 195 233 231 227 229 217 128 157 252 233 229 228 226 231 237 238 214 201 209 243 226 229 228 219 220 216 216 216 216 211 204 201 200 206 201 195 203 211 219 213 205 202 204 214 230 209 212 242 246 254 252 138 153 169 116 78 203 196 203 200 213 198 199 206 169 183 175 135 156 185 242 244 159 187 253 244 246 238 154 172 252 237 247 239 155 189 242 227 244 204 144 225 239 235 231 175 164 117 192 220 183 153 234 207 193 156 220 141 64 57 49 36 29 49 44 20 64 65 55 98 100 185 201 119 51 64 73 96 95 84 42 96 204 148 122 121 129 141 138 136 138 133 138 117 110 100 95 112 147 108 124 108 53 75 48 48 24 54 196 158 159 137 175 214 204 147 210 141 126 181 182 198 31 5 85 104 83 67 61 61 68 65 55 103 189 153 201 204 17 219 254 252 252 251 251 253 252 251 251 250 245 149 131 148 152 152 149 130 152 150 144 152 151 144 155 155 149 152 148 156 162 143 29 11 72 84 77 82 79 82 87 75 75 74 74 75 75 76 76 76 73 81 85 38 134 190 182 154 178 82 106 126 158 250 221 240 230 234 227 219 226 252 250 249 192 180 247 250 248 235 92 80 176 219 120 169 164 152 250 129 78 122 185 123 45 79 83 76 77 79 78 77 77 79 80 78 79 80 81 81 82 82 85 86 89 89 87 89 91 92 91 89 89 90 91 93 95 95 94 92 95 97 96 92 90 90 92 89 88 88 88 88 88 87 85 84 83 84 85 85 85 84 82 80 80 80 79 78 78 77 77 75 75 75 75 75 75 75 75 76 75 75 74 73 73 72 72 74 74 73 73 73 72 72 72 72 72 72 72 72 72 72 72 73 73 73 73 73 73 73 73 73 73 73 74 74 74 74 74 74 74 74 74 74 75 75 75 74 74 74 74 74 74 74 74 74 74 74 74 73 73 73 73 73 73 72 72 72 72 71 71 71 71 71 71 71 71 71 71 71 71 72 72 72 73 73 73 71 71 71 71 71 71 71 71 71 70 69 70 70 71 70 69 70 70 70 70 70 70 70 70 69 69 69 69 69 69 68 67 68 68 68 67 66 66 66 66 65 68 65 71 23 6 5 11 6 47 111 75 193 243 210 227 243 244 254 247 210 151 147 106 72 122 100 81 70 50 51 58 56 75 87 63 50 45 41 43 49 94 141 213 213 220 201 91 104 152 74 39 70 50 72 63 54 5 10 1 41 149 203 146 164 219 202 121 156 184 131 205 225 154 161 182 132 131 128 108 120 112 120 133 130 125 
130 135 133 133 127 128 116 100 105 111 91 80 57 116 108 3 3 147 226 235 62 11 67 242 46 24 37 61 49 121 165 55 136 248 168 44 61 91 103 124 133 133 134 72 87 205 234 80 46 104 
149 152 139 156 149 147 132 146 157 144 148 137 83 179 131 249 106 180 219 219 208 213 217 134 160 254 237 233 233 233 237 241 244 228 202 200 228 225 223 217 223 233 229 220 211 213 218 216 219 212 218 222 222 224 218 217 216 209 217 227 226 231 211 220 237 247 249 252 92 101 126 149 147 190 206 197 192 215 186 201 205 163 177 177 244 253 254 250 240 112 185 247 240 244 249 158 177 254 240 249 240 156 189 241 227 244 205 145 226 238 235 232 171 172 208 225 222 160 175 212 183 146 172 199 209 104 72 47 46 56 51 57 53 76 99 89 115 100 176 197 101 38 69 79 102 84 76 61 92 207 144 122 135 127 137 147 141 133 133 135 138 85 86 106 114 130 105 94 68 93 190 174 53 4 43 215 185 201 181 159 178 201 152 208 143 118 175 207 211 22 2 89 116 81 65 73 74 73 63 48 124 185 114 214 234 76 199 253 250 252 251 251 252 252 251 252 254 246 141 140 148 151 152 146 134 148 150 146 150 156 154 151 156 154 152 149 154 170 136 28 14 82 87 77 81 82 80 88 77 76 75 74 75 75 75 75 85 73 86 72 79 57 67 85 163 123 45 19 146 206 171 206 254 249 254 253 252 245 250 239 243 203 219 234 202 150 123 66 69 59 47 85 227 247 180 210 118 22 203 221 35 66 73 65 77 78 79 79 79 79 80 81 80 81 81 82 81 80 81 82 85 87 88 87 88 91 92 91 91 90 90 91 92 93 94 94 92 95 97 95 91 88 88 91 88 87 87 87 87 86 84 84 84 84 84 85 85 85 83 82 80 80 79 79 78 78 77 77 75 75 75 75 75 75 75 75 74 74 74 73 73 73 72 72 73 73 73 73 72 72 72 72 71 72 72 73 73 72 72 71 73 73 73 73 73 73 73 73 74 74 74 74 74 74 75 75 74 74 74 74 74 74 74 74 74 74 74 74 74 75 75 75 74 74 74 74 73 73 73 73 73 72 72 72 71 71 70 70 71 71 71 71 71 71 71 71 72 72 72 72 73 73 73 73 71 71 71 71 71 71 71 71 71 70 69 70 70 71 70 69 70 70 70 70 70 70 70 70 70 69 69 69 70 70 68 67 68 68 68 68 66 66 66 66 66 68 69 66 12 7 9 9 13 74 96 62 232 243 216 214 209 217 214 214 241 246 249 121 21 25 38 58 65 64 77 77 84 80 73 45 63 91 112 121 102 84 40 24 64 128 129 184 121 37 46 81 59 69 64 57 62 7 1 6 54 132 198 126 144 206 192 137 146 179 154 206 211 160 158 186 139 120 132 101 108 110 128 139 129 122 130 135 
132 127 118 124 126 119 121 118 82 72 50 125 128 62 20 159 230 232 38 2 60 218 39 57 42 86 57 100 142 89 92 103 159 52 55 88 103 119 130 142 111 88 49 95 183 53 72 90 
145 146 138 143 151 149 142 148 148 140 127 164 142 189 91 247 104 154 209 234 213 198 223 137 154 251 233 229 231 231 232 236 233 228 197 207 231 240 227 223 229 235 224 219 222 227 232 219 214 210 221 225 222 224 228 237 235 223 225 235 239 244 214 209 235 255 253 242 158 209 236 252 230 177 202 200 203 213 186 208 207 183 185 164 248 241 242 245 232 131 180 254 236 241 253 158 176 254 238 247 240 157 192 244 227 244 206 148 226 238 234 233 175 176 203 204 203 140 223 187 103 149 221 208 190 111 111 101 69 87 54 67 48 76 82 81 125 96 185 181 83 48 58 76 108 79 71 34 99 163 142 117 120 121 138 152 140 131 137 138 126 102 92 83 108 143 86 150 166 186 218 199 246 82 27 202 167 183 169 141 204 199 198 225 175 160 195 214 206 27 2 78 102 79 77 88 90 88 80 65 67 176 114 160 161 83 243 253 250 251 251 251 251 251 252 253 254 245 138 148 151 153 154 144 164 142 148 158 148 151 160 151 156 156 152 154 146 170 131 22 19 89 88 75 77 84 80 85 80 78 75 74 74 74 74 73 62 91 74 87 91 79 76 158 248 254 253 58 14 182 216 195 173 113 88 67 34 8 11 1 5 1 16 24 61 100 67 6 3 51 89 90 249 251 141 121 192 101 172 171 57 66 73 78 78 80 80 80 80 80 81 81 82 83 84 84 83 82 83 83 82 86 87 87 88 91 92 91 92 91 91 91 91 92 92 92 93 95 96 94 89 87 88 90 89 88 87 86 86 85 83 81 84 84 84 84 84 83 82 80 80 80 79 79 78 78 77 77 74 74 74 74 74 74 74 74 73 73 73 73 73 73 73 73 73 73 73 72 72 72 72 72 71 72 72 73 73 72 72 71 73 73 73 73 73 73 73 73 74 74 74 74 74 74 75 75 75 75 75 75 75 75 75 75 74 74 75 75 75 75 76 76 74 74 74 74 73 73 73 73 72 72 72 71 71 71 69 69 71 71 71 71 71 71 71 71 71 72 72 72 72 72 72 72 71 71 71 71 71 71 71 71 71 70 69 70 70 71 70 69 70 70 70 70 70 70 70 70 70 69 69 69 70 70 69 67 68 68 68 68 66 66 66 66 65 63 71 54 9 6 13 6 12 109 64 96 254 210 219 215 220 223 217 222 214 220 214 201 183 140 102 71 91 109 73 53 20 29 60 69 81 69 68 80 80 127 132 148 184 174 178 96 35 65 71 61 45 66 69 58 58 15 23 36 75 146 202 133 156 171 198 149 115 160 147 216 205 154 151 163 143 118 114 91 99 106 128 139 132 132 135 131 134 129 
117 120 122 116 115 108 78 105 54 81 143 137 129 156 230 179 101 64 108 158 83 61 51 83 62 91 157 81 192 93 63 72 57 28 75 111 129 116 104 88 51 65 103 63 58 124 
147 146 146 141 152 148 147 141 149 153 137 101 117 238 191 252 134 120 224 228 206 207 205 135 147 246 228 224 226 227 228 230 227 218 182 211 234 241 220 228 230 236 221 222 228 231 234 213 228 222 228 223 211 208 211 223 220 211 208 215 230 246 220 214 244 231 250 251 244 246 244 249 211 166 202 205 205 205 201 197 214 181 161 158 242 244 230 254 227 131 182 254 236 244 248 154 176 254 238 248 242 158 191 243 228 244 207 149 227 237 234 233 169 173 199 221 112 198 191 134 176 139 119 164 69 67 118 97 99 100 85 70 60 74 67 74 105 97 188 204 120 51 69 99 60 72 66 36 136 153 126 92 73 106 136 143 127 125 138 132 120 90 92 94 99 155 54 144 233 219 227 213 243 83 39 180 154 145 134 124 205 223 199 223 196 185 193 200 188 21 4 82 92 86 85 84 80 84 86 79 68 137 174 93 33 118 253 250 250 252 252 253 251 251 253 253 254 237 135 150 153 152 152 140 167 171 156 145 153 152 148 157 153 156 153 163 150 174 121 20 28 91 85 76 74 85 81 82 81 78 75 74 74 75 74 73 82 69 80 77 65 86 33 70 237 189 106 1 4 3 2 7 15 40 42 56 102 106 80 96 108 63 64 45 26 128 250 216 63 3 18 108 145 247 130 125 166 236 249 210 61 67 86 73 79 79 80 80 81 81 81 81 81 83 84 85 85 85 86 87 82 85 86 86 87 90 90 88 93 92 90 89 90 91 92 92 95 96 95 93 89 87 87 89 91 90 88 87 87 85 83 81 84 84 83 84 84 83 81 79 80 80 79 79 78 77 77 77 74 74 74 74 74 74 74 74 72 72 72 72 73 73 73 73 72 72 72 72 72 72 72 72 72 72 72 72 72 72 72 72 72 72 72 72 72 72 72 72 73 73 73 74 74 74 74 74 75 75 75 75 75 75 75 75 74 74 74 74 75 75 75 75 74 74 74 74 73 73 73 73 72 72 72 72 71 71 70 70 71 71 71 71 71 71 71 71 71 71 71 71 71 71 71 72 71 71 71 71 71 71 71 71 71 70 69 70 70 71 70 69 70 70 70 70 70 70 70 70 70 69 69 69 70 70 69 68 68 68 68 68 67 66 66 66 67 60 73 44 10 8 17 5 29 94 12 112 250 211 208 224 216 223 215 215 208 222 208 190 234 247 251 207 201 249 231 226 193 155 107 63 53 53 53 58 98 81 84 70 48 21 22 28 65 56 63 54 65 66 59 54 65 19 25 1 17 128 205 174 177 175 189 149 127 188 174 198 222 151 153 145 144 124 89 80 82 97 122 133 124 124 132 131 130 130 121 120 
117 111 113 108 74 94 53 96 161 1 10 182 219 114 142 153 121 96 43 49 74 80 52 86 158 80 94 254 245 57 40 53 60 78 97 62 50 86 95 84 74 82 44 86 
149 148 152 146 148 146 148 139 141 145 142 158 136 197 122 250 138 84 204 231 211 226 197 143 155 251 233 228 232 234 235 237 236 223 185 203 232 237 219 228 225 235 221 222 223 220 227 210 221 216 224 225 221 223 225 232 228 206 199 218 229 223 201 228 242 249 252 240 208 236 222 233 199 186 206 199 196 200 206 196 221 176 160 167 241 250 229 249 237 130 198 250 242 249 249 161 179 254 240 250 243 158 189 240 228 244 207 150 228 237 234 234 165 183 204 129 159 201 150 146 188 193 109 55 25 56 128 119 75 53 50 39 74 68 68 63 94 96 185 233 171 25 50 89 81 62 60 53 134 143 77 90 79 111 130 136 132 132 132 110 118 99 83 104 110 131 71 187 198 127 149 176 242 68 31 172 180 155 140 143 193 231 162 202 178 179 186 205 192 17 2 83 104 92 86 91 89 82 79 81 70 61 136 95 77 91 252 254 250 253 253 253 251 252 253 253 255 224 133 147 151 150 151 138 146 179 167 142 152 152 143 155 154 157 156 166 156 179 95 19 45 92 81 82 76 84 80 82 81 78 74 73 75 76 76 76 75 88 79 78 83 57 81 106 68 0 168 252 251 248 250 249 243 244 234 221 212 233 224 226 237 216 251 250 119 68 230 245 236 121 1 103 77 154 201 80 175 217 248 245 50 76 79 75 80 79 79 80 80 80 80 80 80 81 84 85 86 86 87 87 83 84 85 85 87 89 89 87 91 90 89 89 90 92 93 93 95 94 93 90 88 87 89 90 90 89 88 87 86 85 83 82 83 83 83 83 84 83 81 80 80 79 79 78 78 77 77 77 74 74 74 74 74 73 73 73 72 72 72 72 72 72 72 72 72 72 72 72 72 72 72 72 72 72 72 72 72 72 72 72 72 72 72 72 72 72 72 72 73 73 73 73 73 74 74 74 74 74 74 75 75 75 75 75 74 74 74 74 74 74 74 74 75 74 74 74 73 73 73 72 72 72 72 72 71 71 71 71 71 71 71 71 71 71 71 71 72 72 72 72 72 71 71 71 71 71 71 71 71 71 71 71 71 70 69 70 70 71 70 69 70 70 70 70 70 70 70 70 70 70 69 70 70 70 69 68 68 68 68 68 67 67 66 66 69 63 72 38 8 9 16 4 34 105 97 180 254 212 212 221 221 215 216 223 212 213 227 244 254 244 246 206 152 177 186 215 215 229 233 227 225 213 148 94 108 151 110 108 137 150 79 42 62 64 70 52 68 64 52 62 79 16 4 15 41 130 203 173 171 187 178 138 148 198 173 179 221 159 153 165 159 138 109 98 85 97 121 130 117 113 
127 136 128 129 118 114 112 108 111 106 87 75 43 107 155 1 26 251 165 140 119 103 72 88 214 99 64 57 36 60 149 82 23 235 203 17 1 70 63 61 66 80 51 64 68 74 86 58 38 63 
147 144 149 149 142 145 152 147 136 146 126 188 123 207 149 251 140 80 134 241 218 198 196 150 155 251 231 225 227 232 236 235 233 227 190 193 231 238 226 223 230 237 218 221 225 224 234 218 220 219 228 226 218 220 224 233 231 226 212 207 218 227 198 211 243 235 255 242 218 225 228 245 205 180 190 199 210 212 195 202 211 163 170 163 232 248 242 251 224 144 183 254 237 240 254 154 176 255 238 248 241 158 190 240 228 244 208 151 228 237 234 234 175 188 145 131 191 120 175 194 193 217 207 113 6 38 117 62 45 50 35 58 71 54 73 75 88 96 187 194 206 108 79 43 49 56 35 62 133 136 116 81 75 110 132 142 134 124 131 126 119 124 110 125 123 127 96 51 19 51 52 46 122 70 30 170 186 167 154 182 227 217 172 219 179 194 194 204 188 17 2 89 111 88 86 119 130 99 74 80 79 73 70 174 169 107 247 254 250 252 252 253 252 253 254 254 254 220 135 147 153 151 153 140 141 151 169 168 145 144 155 151 157 155 154 156 151 172 62 15 59 93 80 89 80 83 78 83 80 77 73 73 75 77 77 76 78 85 76 76 80 163 191 153 122 254 251 237 238 250 239 226 208 190 208 232 193 195 184 189 192 188 206 239 170 23 147 234 220 201 134 96 76 120 158 29 205 137 150 170 44 80 71 86 81 80 80 81 82 82 81 81 80 83 85 85 85 85 85 85 83 85 86 85 86 88 88 86 90 88 88 88 90 92 94 94 95 93 90 88 87 88 90 91 87 87 86 85 85 84 83 81 83 83 83 84 84 84 82 81 80 79 79 78 78 77 77 76 74 74 74 74 73 73 73 73 73 72 72 72 72 72 71 71 72 72 72 72 72 72 72 72 73 72 72 71 71 72 72 73 71 71 71 71 71 71 71 71 72 72 73 73 73 73 73 73 74 74 74 74 75 75 75 75 74 74 74 73 73 73 73 73 75 75 74 74 73 73 72 72 72 72 72 72 72 72 71 72 72 72 72 72 72 72 72 72 72 72 72 72 72 72 72 72 71 71 71 71 71 71 71 71 71 70 69 70 70 71 70 69 70 70 70 70 70 70 70 70 70 70 69 70 70 70 69 68 69 68 68 68 67 67 67 67 67 63 68 34 4 9 10 5 57 96 68 212 239 213 218 216 218 218 214 218 210 236 170 229 249 219 210 213 196 218 199 202 180 185 179 184 208 253 253 253 252 243 226 199 112 128 177 113 31 59 57 69 56 64 73 54 63 36 1 11 26 106 212 159 165 184 201 140 142 164 117 199 203 171 147 191 164 125 126 101 111 107 119 
132 126 123 132 139 135 129 110 103 103 100 98 88 87 48 7 158 44 2 160 83 65 68 58 44 19 2 38 48 103 105 77 59 130 105 13 118 221 186 17 24 24 78 106 84 64 82 77 55 55 28 33 72 
142 147 146 134 157 153 146 156 146 146 122 163 79 116 171 254 145 85 89 190 166 133 185 153 153 251 236 228 234 241 231 232 234 238 184 193 234 233 227 214 220 241 215 213 223 227 233 212 211 219 221 226 215 218 219 228 223 217 213 207 214 215 209 211 233 236 254 244 215 226 224 244 205 170 198 195 200 219 194 208 216 173 167 161 237 246 231 254 230 135 191 252 236 250 247 163 182 254 235 244 246 161 188 244 231 248 199 148 222 252 243 235 178 184 113 147 157 120 150 168 192 174 159 161 139 156 42 31 46 34 40 39 91 53 96 110 92 99 189 162 175 227 165 83 60 112 126 104 123 111 126 107 106 116 128 132 130 128 125 121 124 101 88 110 127 129 97 2 74 115 106 105 101 45 60 175 184 148 145 169 223 200 178 216 175 173 200 200 193 23 3 95 117 114 123 117 126 93 70 83 82 84 60 81 169 215 252 252 253 252 254 254 254 250 254 249 250 191 92 153 152 155 154 136 144 151 150 169 174 146 148 152 151 154 152 162 157 178 31 12 79 80 81 81 82 83 82 80 79 75 73 75 75 74 75 79 79 78 88 67 84 228 170 152 151 174 214 177 198 238 240 214 204 163 204 193 168 164 172 208 184 198 179 225 202 89 124 241 205 228 116 81 79 39 93 27 133 253 254 96 48 88 73 83 79 78 78 79 81 82 82 82 80 81 82 83 84 86 87 87 85 87 88 88 87 87 88 89 87 87 87 88 89 91 93 94 94 93 92 90 88 88 87 87 88 88 87 85 82 82 82 84 83 84 85 84 82 81 81 81 79 79 78 78 77 77 76 76 77 75 74 73 74 74 73 72 71 72 72 73 73 72 72 71 72 72 72 72 72 72 72 72 72 72 72 72 72 72 72 72 72 72 72 73 73 73 73 73 74 74 73 73 73 73 72 72 72 72 72 72 72 72 72 72 74 74 73 72 72 72 72 72 72 72 71 72 72 73 72 72 71 71 71 71 71 71 71 70 72 72 73 72 70 69 70 70 72 72 72 72 72 72 72 73 73 72 71 71 71 71 72 72 71 71 71 71 70 70 70 70 69 70 70 70 70 70 70 70 72 70 71 70 69 69 68 68 70 70 69 69 67 66 66 67 67 61 61 61 40 9 4 4 69 87 84 247 224 217 213 220 218 216 220 217 220 245 68 118 180 197 200 175 215 215 213 215 216 208 202 187 200 217 176 198 227 231 254 254 243 246 107 181 122 28 65 62 68 66 64 49 67 38 5 5 14 97 186 157 177 180 179 157 127 203 158 196 208 162 147 173 116 107 125 59 48 92 115 
130 116 115 127 132 129 122 114 106 100 103 97 85 71 82 82 164 66 109 36 3 37 7 3 5 52 71 48 32 41 38 54 52 144 103 20 96 252 152 57 78 45 30 41 35 52 42 67 55 55 83 53 115 
156 146 146 132 139 151 142 149 146 156 141 153 100 104 196 232 118 77 97 137 117 154 195 165 133 244 220 212 226 219 234 232 225 238 148 189 230 239 213 233 221 241 226 223 223 222 232 217 222 223 223 234 227 225 220 228 227 215 218 216 211 207 206 221 244 246 254 236 217 231 223 239 206 169 202 202 202 215 187 197 200 169 170 161 237 253 236 249 227 135 193 254 240 249 243 147 173 254 243 250 243 155 184 242 227 240 212 151 220 220 201 167 176 182 150 176 156 146 176 185 172 153 133 135 215 222 142 18 18 33 26 28 79 31 79 108 120 82 189 176 185 165 167 180 175 185 202 132 142 113 137 132 133 130 131 139 142 138 133 134 137 109 103 120 109 137 94 2 4 68 62 78 97 62 78 196 167 146 151 202 206 204 186 230 168 179 196 175 223 26 2 103 123 121 116 123 112 90 86 63 48 64 71 72 49 90 211 223 242 235 240 254 243 254 252 249 249 210 123 156 156 158 159 142 162 134 147 135 155 164 158 157 159 154 150 148 164 203 26 70 85 84 82 79 80 83 85 85 81 79 79 78 75 73 76 81 83 76 77 70 86 193 114 211 253 244 242 210 219 203 234 190 195 171 203 178 163 174 173 184 211 221 198 209 220 118 155 244 216 137 34 56 199 227 121 28 102 251 209 36 76 72 85 76 79 79 79 80 81 82 82 82 81 81 82 83 84 85 85 86 85 87 88 88 88 88 88 89 89 88 88 88 89 90 92 93 94 93 92 90 90 89 89 89 87 87 87 85 84 83 84 84 84 82 81 81 82 82 81 80 79 79 78 78 77 76 76 76 77 76 74 73 73 73 73 72 71 72 72 73 73 72 72 71 72 72 72 72 72 72 72 72 71 71 71 71 71 71 71 71 71 71 71 72 72 72 72 72 73 73 73 73 73 73 73 73 73 73 73 73 73 73 73 73 73 73 73 72 72 72 72 72 72 71 71 72 72 73 73 72 71 71 71 71 71 71 71 71 70 71 71 71 71 71 71 72 71 71 72 72 72 72 72 72 73 73 72 71 70 70 71 71 71 71 70 70 70 70 70 70 70 70 70 70 70 70 71 71 70 70 70 70 70 70 70 70 70 70 69 69 67 67 67 67 66 66 72 79 71 48 24 11 77 19 102 254 214 217 219 206 209 214 216 218 211 231 169 202 209 215 189 170 215 214 205 207 210 212 213 208 234 251 222 232 189 172 197 234 249 252 148 118 197 114 35 61 73 53 57 62 72 42 1 2 40 112 178 157 198 178 162 160 137 202 221 196 211 157 149 169 109 77 72 24 
68 107 119 130 122 124 129 130 128 119 115 110 105 108 105 90 93 41 17 146 211 75 4 36 153 5 6 61 56 61 83 58 43 53 35 35 93 109 41 46 128 59 62 87 89 47 50 28 15 52 28 56 55 79 82 40 
138 144 168 155 137 143 140 148 146 137 148 164 193 89 160 242 79 67 66 157 138 139 200 152 130 238 214 219 229 216 218 221 210 242 158 163 232 242 232 227 221 233 231 230 229 227 240 228 227 222 222 238 235 233 224 229 244 228 212 210 223 205 181 218 239 244 251 230 215 233 224 239 204 164 200 204 199 211 185 195 207 174 175 164 236 253 239 252 226 135 188 252 235 248 254 162 182 254 236 249 243 160 196 254 246 235 197 168 179 166 164 187 179 188 147 168 169 155 163 169 150 138 125 175 188 158 220 54 8 23 18 26 60 34 115 100 94 102 186 166 191 186 167 183 199 205 202 102 148 127 117 131 138 126 126 137 140 129 125 132 129 120 106 131 128 132 70 86 164 185 195 181 5 18 71 177 164 164 144 198 215 209 167 219 163 166 203 213 185 5 2 106 117 101 121 125 93 53 59 121 202 75 59 76 91 41 3 9 13 34 84 86 130 117 155 162 200 116 101 147 155 146 142 141 154 179 171 184 165 178 153 163 159 164 178 175 182 166 73 79 86 86 83 80 79 83 85 85 83 83 83 81 76 73 76 82 80 93 84 79 76 121 145 187 136 102 187 247 240 206 224 242 207 193 208 180 180 204 196 195 210 187 208 251 193 36 92 225 122 46 73 52 151 251 73 49 133 178 70 44 77 87 79 84 80 80 81 81 81 82 82 82 81 82 82 83 83 84 84 84 85 86 88 89 89 89 89 90 90 90 89 88 89 90 91 92 91 91 90 90 89 89 89 90 86 87 87 86 85 84 84 85 85 81 79 79 82 83 81 78 79 78 78 77 77 76 76 76 77 76 74 73 73 73 72 71 71 72 72 72 72 72 72 71 72 72 72 72 72 72 72 72 71 71 71 71 71 71 71 71 70 70 71 71 71 71 71 71 72 72 72 72 73 73 73 74 73 73 73 73 73 73 73 73 73 73 72 72 72 72 72 72 72 71 71 71 73 73 73 72 71 71 71 71 71 72 72 72 69 70 71 71 71 71 71 72 71 71 71 72 72 72 72 72 74 73 72 71 71 70 70 70 70 70 70 70 70 70 70 70 70 70 70 70 70 71 70 70 70 70 70 70 71 71 70 70 70 70 70 69 67 67 67 66 67 66 62 62 69 75 71 62 100 118 201 249 248 255 225 225 220 214 209 213 228 223 221 246 223 222 180 183 225 223 209 209 209 214 210 203 236 248 235 233 241 248 237 229 234 224 179 220 109 168 72 51 62 62 59 56 73 25 1 12 34 104 186 165 170 193 162 167 147 144 187 189 203 169 145 161 141 83 42 40 38 99 
132 143 127 121 121 131 130 117 114 112 106 109 107 86 78 56 22 143 223 151 83 120 122 90 85 66 51 56 58 37 53 43 67 40 59 101 80 93 35 25 61 53 28 38 107 95 57 64 54 75 36 11 32 75 
152 157 163 154 155 159 163 160 149 155 137 129 125 167 131 105 87 96 24 156 95 108 205 151 145 233 201 209 215 216 205 220 216 240 149 179 236 246 226 222 228 229 233 228 225 222 232 220 226 222 218 230 229 232 224 225 227 222 210 203 222 219 179 209 231 231 252 240 211 228 227 240 205 161 196 200 197 213 195 209 215 169 170 168 238 247 234 253 226 140 192 254 235 242 248 155 181 254 244 253 247 178 187 213 173 180 165 172 176 189 178 184 196 197 143 155 189 173 169 141 117 139 200 181 129 173 180 27 30 18 7 26 53 27 130 91 98 102 188 176 177 186 178 170 186 204 186 90 137 144 126 139 131 127 132 142 138 123 122 134 131 128 111 133 148 127 65 202 234 216 243 214 7 53 60 132 182 170 126 159 212 199 168 215 181 155 196 207 198 0 5 98 113 96 111 120 64 100 214 241 206 202 40 82 84 34 84 184 231 241 251 102 74 66 97 175 146 172 177 142 202 117 9 71 192 240 151 205 246 204 203 78 89 124 119 128 147 69 63 84 81 83 83 81 81 82 82 81 84 84 83 80 76 74 76 81 80 87 74 77 77 174 178 248 42 25 185 250 235 252 243 242 228 215 215 198 202 209 188 183 205 210 235 222 117 110 138 80 45 81 72 67 88 183 55 83 53 63 59 88 79 77 77 79 80 80 81 81 81 81 81 81 81 81 81 82 83 83 84 84 84 85 87 89 89 89 89 90 92 91 90 89 89 89 90 91 88 88 88 88 88 88 88 88 86 86 87 86 85 84 84 85 85 83 80 80 81 82 80 79 78 78 78 77 76 76 75 75 77 75 74 73 73 72 72 71 71 72 72 72 72 72 72 71 72 72 72 72 72 72 72 72 71 71 71 71 71 71 71 71 70 70 71 71 71 71 71 71 72 72 72 72 72 73 73 73 73 73 73 73 73 73 73 73 74 73 73 72 71 71 71 71 72 71 71 71 73 73 73 72 71 72 72 72 72 72 72 72 72 71 73 72 70 69 70 70 71 71 71 71 72 72 72 72 73 73 72 72 71 71 70 70 69 69 69 70 70 70 70 70 70 70 70 70 71 71 70 70 70 70 70 70 71 71 71 71 70 70 70 69 68 67 67 67 66 69 67 62 62 68 70 67 49 49 58 75 129 177 222 254 252 247 245 222 236 187 163 228 248 237 190 199 212 208 209 209 211 214 206 202 236 238 232 223 218 235 227 235 252 200 111 236 164 145 159 25 56 68 56 66 73 19 4 13 23 98 192 173 189 173 132 191 162 76 79 214 189 188 161 159 141 89 64 61 75 114 126 125 116 
117 112 118 130 114 110 109 102 106 103 83 106 81 20 120 223 233 217 145 151 120 74 50 56 64 73 82 83 92 35 73 50 61 95 64 40 42 111 71 29 55 95 80 107 75 77 59 77 69 24 68 
149 158 151 145 166 157 169 157 161 160 154 158 91 111 42 26 124 105 91 140 85 75 194 152 144 241 218 225 241 231 239 226 232 253 171 177 251 253 252 253 251 248 253 252 251 250 253 253 252 252 249 249 247 252 252 251 253 253 254 236 237 245 201 229 247 226 255 253 209 223 231 238 208 166 198 200 201 220 203 220 201 157 166 171 241 250 234 248 228 138 187 254 241 247 247 162 182 253 253 237 213 176 176 172 175 174 179 173 187 191 200 193 163 154 156 154 182 185 184 132 142 161 165 147 184 187 20 4 44 22 8 45 79 23 122 123 130 104 181 161 171 150 177 189 186 196 200 117 110 112 136 132 129 130 136 141 137 128 128 136 144 116 118 107 106 115 82 199 208 187 237 160 2 31 81 152 171 151 125 166 209 196 190 213 172 143 180 206 188 0 4 97 108 96 115 118 78 186 240 247 172 170 95 49 28 100 249 251 249 251 248 104 130 93 208 249 226 223 229 201 240 121 4 70 213 244 188 191 229 229 207 24 1 42 59 49 58 69 81 79 78 81 82 81 80 82 82 82 84 83 80 77 75 76 77 77 77 79 96 77 56 194 188 227 127 67 181 249 245 255 255 249 229 220 214 210 217 222 207 208 165 145 108 138 115 100 66 63 77 80 91 73 72 70 74 69 88 78 82 75 82 80 82 73 79 80 80 79 79 79 79 79 79 80 80 81 82 83 84 84 83 84 86 87 88 88 89 90 91 91 90 89 89 89 89 89 88 88 88 88 88 87 87 87 86 86 86 85 84 83 84 84 84 84 84 82 81 80 79 80 78 78 77 77 76 75 75 75 76 75 73 72 72 72 71 71 72 71 71 71 71 71 71 72 71 71 71 71 71 71 71 71 71 71 71 71 71 71 71 71 71 71 71 71 71 71 72 72 72 72 72 72 72 71 71 71 73 73 73 73 73 73 73 73 75 74 73 72 71 70 70 70 71 71 71 71 73 73 73 73 72 72 72 72 72 72 72 72 72 72 73 72 70 69 70 70 71 71 71 71 72 72 72 72 72 72 72 72 72 71 71 71 69 69 70 70 70 70 71 71 70 70 70 70 70 70 70 70 70 70 70 70 71 71 71 71 70 70 70 69 69 69 67 67 67 70 73 72 66 61 58 59 68 54 43 42 21 11 34 52 98 150 214 235 245 154 60 91 103 135 172 231 227 216 218 212 205 209 206 217 246 240 239 232 240 240 231 226 247 174 68 133 173 136 208 82 44 60 68 51 76 29 2 1 37 111 183 160 208 189 147 158 116 164 113 201 175 178 175 182 131 109 152 114 120 138 138 131 122 130 
124 130 123 108 104 104 100 104 102 88 94 70 61 24 33 31 55 63 50 69 60 52 52 69 100 109 97 80 106 73 71 72 84 69 96 68 141 72 57 33 18 50 51 89 77 65 69 81 56 52 
80 89 88 89 96 85 98 89 80 63 73 106 120 69 63 56 97 88 142 122 97 58 167 120 109 221 212 214 241 206 242 191 190 231 146 71 135 124 134 152 161 159 180 159 156 153 159 165 170 176 170 166 162 178 178 176 179 159 139 146 185 181 134 227 255 227 250 251 210 224 233 238 205 172 201 201 207 225 199 214 201 165 176 169 234 252 243 251 228 138 191 254 253 254 246 177 190 198 169 163 173 183 180 166 180 179 192 197 186 172 166 161 113 111 166 162 182 179 169 170 196 168 125 179 173 7 6 15 15 1 7 46 46 10 103 111 121 107 193 200 179 154 173 179 167 178 199 142 133 96 127 121 129 127 127 129 131 130 129 130 142 104 126 85 71 100 81 171 211 184 235 163 1 31 110 155 165 165 127 184 214 205 189 213 174 149 158 208 177 18 2 79 87 83 131 124 81 175 143 246 246 227 116 41 71 215 252 163 208 168 105 20 44 87 203 229 216 216 214 208 243 151 40 23 218 247 122 176 250 231 247 178 99 59 83 91 82 75 88 79 80 83 82 80 79 81 84 86 83 82 79 76 75 77 77 76 82 91 79 89 61 85 128 166 51 29 92 157 132 141 119 123 105 111 107 103 94 81 53 37 37 43 47 65 57 62 71 92 86 81 69 81 81 92 74 92 72 81 65 88 71 77 76 84 79 79 79 79 79 79 79 79 78 79 80 81 82 83 83 84 82 83 84 85 85 86 87 89 89 89 89 90 89 88 88 87 88 89 89 89 89 89 88 88 88 87 86 84 82 81 82 83 83 84 85 84 81 79 79 79 77 77 77 76 76 75 75 74 75 74 72 72 72 72 72 71 72 71 71 71 71 71 71 72 71 71 71 71 71 71 71 71 71 71 71 71 71 71 71 71 71 71 71 71 71 71 72 72 72 72 72 72 71 71 71 70 72 72 72 72 72 72 72 72 75 74 73 72 71 70 70 70 71 71 70 71 73 74 73 73 73 73 73 73 72 72 72 72 70 71 71 71 71 71 71 72 71 71 71 71 71 72 72 72 71 71 72 72 72 72 71 71 70 70 70 70 71 71 71 71 70 70 70 71 70 70 70 70 71 71 70 70 71 71 71 71 70 70 70 69 69 69 68 68 70 65 63 66 68 67 66 69 57 65 65 60 62 73 47 41 27 20 5 39 100 115 104 109 128 108 101 141 155 190 222 223 225 224 217 222 236 232 234 238 235 236 236 231 247 152 145 187 129 149 173 100 60 58 66 64 72 17 4 2 34 112 179 138 177 157 128 137 92 214 121 183 199 165 143 181 146 100 145 117 91 107 124 130 118 122 112 115 121 112 105 102 100 98 95 
88 96 87 70 52 25 16 25 2 50 77 61 78 89 67 55 57 57 66 84 70 61 68 81 80 76 81 64 40 51 28 19 83 81 104 48 84 56 74 105 89 
120 89 85 92 82 107 111 106 135 107 101 142 149 124 222 224 199 208 198 201 200 213 190 66 39 103 88 87 103 83 115 83 94 121 69 60 81 89 76 94 142 145 175 160 183 195 200 208 193 199 194 194 190 203 204 204 200 152 128 148 188 178 125 232 253 231 248 244 212 225 228 242 199 176 203 200 214 230 195 207 209 172 182 168 224 241 240 253 228 144 204 251 233 223 201 161 170 166 174 183 175 192 195 203 220 210 174 149 133 166 165 146 128 144 171 176 188 177 168 189 198 150 191 175 2 5 25 23 18 12 23 54 18 41 108 89 106 112 205 241 174 164 175 160 167 178 182 145 159 123 129 135 129 127 128 131 131 129 128 131 139 108 129 96 85 96 66 184 209 202 232 149 1 43 75 164 191 194 123 171 198 199 189 230 157 182 193 199 189 11 2 85 77 81 125 127 53 109 189 243 203 110 45 53 112 203 243 222 200 131 86 88 138 65 171 238 207 201 195 210 239 140 37 62 216 247 189 181 206 213 251 116 103 85 78 66 93 70 82 83 81 83 84 82 80 81 84 85 83 84 82 77 75 76 77 77 80 75 80 82 49 142 174 157 155 196 131 56 19 19 36 40 47 50 39 45 48 65 77 81 79 85 86 73 79 85 78 77 77 86 77 90 72 66 89 73 78 89 82 84 76 78 85 72 79 79 79 79 79 79 79 79 79 79 80 80 81 82 82 82 81 82 82 82 82 83 86 87 86 87 89 90 90 89 87 86 87 88 89 90 90 90 90 89 89 88 86 83 80 79 80 82 81 82 82 83 83 81 79 78 77 77 77 76 75 75 74 74 74 73 72 71 72 72 72 71 72 71 71 70 70 71 71 72 71 71 71 71 71 71 71 71 71 71 71 71 71 71 71 71 70 70 70 70 70 71 71 71 71 71 71 71 71 71 71 71 72 72 72 72 72 72 72 72 73 73 72 71 71 71 71 71 71 70 70 71 73 74 74 73 74 74 74 73 72 71 71 71 69 70 70 70 70 70 70 71 70 70 70 70 71 71 72 72 71 71 71 71 71 70 69 69 70 70 70 70 70 70 70 70 70 70 71 71 71 71 71 71 72 72 72 72 71 71 71 71 70 70 70 70 69 69 68 68 68 66 67 70 72 68 63 61 66 60 70 69 53 67 60 68 59 68 53 46 31 24 44 46 58 72 95 112 104 101 108 116 150 175 205 239 253 254 251 251 253 234 219 242 241 114 171 219 87 186 194 57 68 64 54 63 65 4 6 8 22 105 194 151 156 152 118 158 122 206 111 192 210 165 124 174 189 125 134 132 119 103 109 120 116 129 116 107 119 119 109 102 101 93 86 87 100 59 
85 74 58 50 56 38 38 71 70 92 88 85 75 30 55 77 102 69 52 21 73 80 63 97 31 61 61 77 36 22 91 84 31 57 48 82 100 65 
59 19 41 56 7 54 52 62 56 48 46 52 69 6 166 255 234 246 254 232 234 235 247 227 239 245 229 241 239 248 236 245 253 251 250 251 251 247 187 95 215 210 232 213 247 254 250 249 244 245 240 244 237 244 239 240 245 188 214 228 204 222 186 220 241 242 255 242 217 223 218 244 196 180 205 200 220 237 197 210 201 161 178 173 221 225 224 246 228 139 183 197 162 158 165 173 185 176 191 190 186 221 193 158 81 98 144 164 189 182 177 150 162 186 159 166 151 164 184 136 159 211 134 14 27 24 26 24 18 25 8 49 35 92 120 110 96 168 173 123 171 185 151 141 181 167 145 108 98 107 115 124 120 123 132 137 131 121 121 129 139 100 118 100 89 90 52 182 209 186 243 136 27 80 63 173 191 183 133 182 185 186 203 228 159 169 179 210 155 24 6 49 88 72 127 127 82 59 134 106 36 56 69 68 33 198 254 247 253 202 170 129 205 142 166 243 210 205 208 211 244 147 4 71 159 243 163 149 189 251 252 145 53 61 79 88 77 86 80 80 77 82 86 85 83 82 81 80 83 87 86 80 74 75 78 79 76 76 94 55 151 251 226 156 155 218 166 191 254 49 84 73 76 78 71 89 81 78 81 80 81 71 79 79 77 84 80 80 82 77 83 72 85 86 80 85 84 81 76 73 88 80 67 83 79 79 79 79 80 80 80 80 80 80 80 80 81 81 81 81 81 81 81 80 80 82 84 87 84 86 88 90 90 89 87 85 85 86 87 88 89 90 90 90 90 89 85 82 79 78 79 81 80 79 79 81 84 84 80 76 77 77 76 76 75 75 74 74 73 72 71 71 72 72 72 72 72 71 71 70 70 71 71 72 71 71 71 71 71 71 71 71 70 70 70 70 70 70 70 70 69 69 69 69 69 70 70 70 70 70 71 71 71 71 72 72 71 71 71 71 71 71 71 71 72 71 71 71 71 72 72 72 71 70 70 71 73 74 74 73 75 75 74 73 72 71 70 70 71 71 72 71 69 68 69 69 69 70 70 70 71 71 71 71 71 72 72 72 71 70 69 68 71 71 71 71 71 70 70 71 71 71 71 71 71 71 71 72 73 73 72 72 71 71 71 70 69 70 70 70 69 69 68 68 65 68 69 65 64 65 68 70 57 72 59 56 63 67 56 65 63 60 59 63 66 66 63 62 52 51 44 36 52 66 75 95 102 107 106 110 119 157 178 205 246 251 253 245 182 73 89 28 97 186 54 44 59 52 70 59 66 11 4 1 32 116 205 191 165 161 102 153 124 184 120 181 203 178 150 172 184 140 134 115 121 101 110 119 104 118 117 118 111 119 109 102 104 93 83 91 82 75 77 74 59 
52 59 41 39 92 75 66 64 95 111 67 84 65 103 56 50 76 67 64 61 51 37 46 33 109 75 40 63 76 56 37 41 50 49 15 
111 80 151 64 24 50 59 66 65 56 58 64 71 4 137 252 227 230 229 224 229 201 226 216 229 254 253 249 254 254 252 254 247 229 233 246 237 251 157 87 199 196 209 204 228 224 230 217 197 213 193 212 206 233 223 224 219 181 206 213 197 200 181 215 239 251 254 234 218 229 225 250 192 170 209 205 203 222 196 197 194 178 168 176 249 254 222 193 189 165 168 160 175 186 190 179 188 187 205 183 181 133 61 69 127 179 187 191 159 171 142 152 158 158 139 151 147 169 147 131 184 115 5 12 29 27 11 20 19 20 8 71 80 75 89 82 150 183 153 151 171 167 164 142 144 79 132 139 50 85 103 101 106 97 110 121 133 126 130 129 139 105 139 120 121 115 52 167 207 165 252 140 47 29 75 181 164 150 136 197 191 187 158 204 197 130 142 202 140 90 22 47 83 68 96 135 107 79 58 49 74 84 65 76 58 30 113 225 250 250 246 133 129 105 187 238 220 201 212 217 235 191 58 127 121 253 215 240 241 236 217 164 217 81 73 93 71 81 84 86 83 83 82 82 83 84 85 86 85 81 81 86 83 75 72 77 77 86 84 47 156 251 202 138 188 183 89 177 210 28 85 63 78 78 76 78 78 77 75 73 77 77 78 79 80 80 80 80 80 80 81 81 82 82 82 83 81 79 79 80 79 76 77 80 81 81 80 78 78 78 78 79 79 79 79 80 81 83 84 85 83 81 81 82 83 83 80 78 79 80 83 86 89 90 88 86 90 87 84 86 89 91 89 86 87 86 85 84 83 81 78 76 80 79 79 78 79 79 78 77 76 76 76 75 75 75 74 74 74 73 72 71 71 70 70 70 71 71 71 71 71 71 71 71 71 71 71 71 71 71 71 71 71 71 71 71 70 70 70 70 70 70 69 69 69 69 69 69 71 69 68 68 69 70 70 69 69 69 69 69 70 70 70 70 73 73 72 71 70 70 71 72 70 71 72 73 73 73 72 72 74 73 74 74 75 75 74 72 71 71 71 71 71 70 69 69 70 70 72 72 72 72 72 72 77 77 75 73 71 71 72 73 71 71 71 71 71 71 71 71 71 72 73 74 73 72 71 70 72 71 71 72 72 70 70 73 70 70 70 70 69 68 66 65 69 69 70 69 69 68 67 65 68 67 65 64 63 63 63 63 63 63 62 62 62 62 61 62 66 65 64 61 57 52 46 43 48 60 81 103 113 107 83 61 56 86 96 185 72 101 97 168 151 64 39 64 62 60 68 56 74 23 2 8 30 103 195 172 146 153 80 116 140 204 128 175 222 171 153 171 112 100 130 116 112 103 107 119 114 103 106 114 112 104 119 99 94 98 76 100 83 70 76 77 69 55 63 45 
48 97 126 94 62 75 68 83 57 84 70 29 44 38 58 67 39 47 40 64 52 81 100 87 56 106 77 76 48 31 106 54 
152 146 132 44 1 49 49 33 36 34 48 43 48 1 137 223 231 231 221 229 242 232 223 237 232 213 217 223 204 232 200 180 210 105 184 186 166 209 163 100 226 210 219 206 243 237 248 229 204 221 220 223 216 248 243 254 236 205 216 207 207 198 177 218 246 244 248 243 230 245 227 235 204 186 213 208 209 227 204 209 212 172 183 181 191 173 154 167 183 189 195 175 185 167 168 187 200 178 140 98 159 173 182 213 203 169 175 145 152 158 155 142 167 166 166 170 165 156 165 192 73 4 27 46 30 48 63 31 20 33 87 143 86 88 63 115 183 179 161 191 197 146 109 78 114 155 123 99 51 121 132 114 84 86 93 98 94 103 118 130 110 116 145 135 140 119 78 93 221 231 253 113 106 53 105 197 180 165 124 195 181 233 143 182 165 73 163 208 140 102 14 49 81 72 110 116 115 92 88 76 60 68 76 74 68 72 27 34 61 107 135 94 96 79 184 246 236 230 236 234 251 240 134 175 168 124 99 90 69 50 13 91 215 90 58 82 86 83 75 87 82 82 82 82 82 83 83 83 81 86 86 80 77 79 79 75 77 68 95 82 57 172 220 183 245 178 101 202 226 41 65 92 80 80 79 79 79 78 76 75 77 77 78 79 80 80 80 80 78 79 79 80 80 81 81 80 80 79 77 79 78 77 78 82 80 81 81 80 79 79 79 79 79 79 79 80 80 81 81 82 80 79 79 81 82 82 81 80 80 80 81 84 87 89 89 89 88 88 88 88 90 90 89 88 84 83 82 82 82 82 81 80 80 79 78 77 77 77 76 76 76 76 76 75 75 74 74 74 73 73 72 71 71 70 70 71 70 70 70 70 70 70 70 70 70 70 70 70 70 70 70 70 71 71 71 70 70 70 70 70 70 70 69 69 69 69 69 69 69 68 67 68 69 69 68 67 69 69 69 69 70 70 70 70 71 71 71 71 70 71 72 73 70 71 72 73 73 74 73 73 75 74 75 75 76 76 75 73 70 71 71 71 71 70 70 69 72 72 73 73 72 72 71 71 75 75 75 73 72 72 71 72 71 71 71 71 71 71 71 71 73 74 75 75 75 74 73 72 72 71 71 72 71 69 69 70 70 72 71 72 71 71 69 69 68 69 69 68 68 66 67 65 68 67 66 64 63 62 63 63 63 63 63 63 62 62 63 61 60 61 62 63 65 64 63 62 60 55 44 35 40 60 86 104 132 137 159 138 141 154 160 111 46 50 66 66 53 59 67 59 71 29 1 3 30 92 185 198 171 214 132 179 93 205 150 182 216 176 152 188 149 95 114 122 118 113 112 114 112 112 113 108 80 82 106 99 101 102 79 100 79 75 75 73 64 60 57 56 23 86 103 
76 95 76 95 69 64 87 36 51 64 51 26 68 62 41 71 76 60 70 74 68 65 49 40 53 79 74 81 128 
118 119 120 56 4 37 46 25 20 27 32 55 51 2 172 252 242 253 253 253 243 249 254 251 252 253 254 249 233 243 208 199 220 140 196 203 198 236 145 79 183 167 166 156 182 180 185 171 181 187 195 176 164 186 175 191 164 149 138 162 150 153 135 228 235 241 254 254 196 190 169 172 191 192 213 209 205 213 195 207 201 172 176 180 174 178 187 177 179 184 183 208 202 215 201 195 172 163 166 195 203 192 180 188 104 110 179 133 149 153 180 177 170 180 154 106 140 158 122 50 22 39 52 50 66 71 91 67 49 60 59 95 88 107 142 163 194 188 138 122 87 65 122 149 179 157 142 67 47 95 112 101 86 86 86 97 86 92 92 98 92 92 121 131 154 125 99 59 54 72 62 71 103 59 136 225 198 161 137 167 177 221 151 231 111 140 212 194 142 92 1 57 78 79 73 117 116 78 77 73 80 71 67 69 77 72 76 76 64 40 49 64 61 41 109 221 182 148 146 175 194 153 33 24 27 37 44 51 62 67 75 75 53 70 88 82 78 84 80 82 83 84 84 84 84 84 84 84 80 86 86 79 75 77 79 78 78 73 71 71 82 44 68 112 140 155 155 177 156 60 67 82 79 80 80 79 79 78 78 78 79 79 80 80 81 81 81 81 78 78 79 79 79 79 80 80 80 78 78 78 78 78 80 83 80 81 82 82 81 81 80 80 78 78 78 78 78 78 77 78 78 78 79 78 79 80 81 82 84 82 81 81 84 87 89 89 88 89 91 91 90 90 89 89 82 81 80 81 82 83 83 83 81 80 79 77 76 76 76 76 76 76 76 75 74 74 73 73 72 72 71 71 70 70 71 71 70 70 70 70 70 70 70 70 70 70 70 70 70 70 70 70 71 71 70 70 70 70 70 70 70 69 69 69 68 68 68 69 68 67 67 67 68 68 67 66 68 68 68 68 68 69 69 69 68 69 69 69 69 70 71 73 69 70 71 72 73 74 74 74 75 75 75 76 76 76 75 74 72 72 72 72 72 72 71 71 72 72 72 72 72 72 72 72 72 73 73 73 73 72 71 70 70 70 70 70 70 70 70 70 72 73 74 74 75 74 73 73 73 72 71 72 72 70 70 71 71 71 71 71 71 71 71 71 68 68 68 68 67 66 66 65 67 66 65 64 64 63 63 63 64 64 64 63 63 62 63 62 59 59 60 62 63 64 64 65 58 64 66 65 61 55 48 41 39 44 73 92 70 42 38 41 59 68 63 54 58 63 62 61 76 8 1 7 23 109 191 142 150 221 150 245 93 204 142 178 215 175 146 181 160 102 123 112 123 117 115 118 118 119 116 106 92 93 109 101 102 101 83 103 68 73 70 77 65 60 47 61 94 63 65 65 78 78 79 54 67 58 68 81 75 
90 58 58 29 17 61 51 75 92 29 44 64 48 38 36 28 58 98 92 
83 85 59 57 55 42 38 59 55 49 90 66 50 16 20 34 16 2 6 31 41 17 40 38 41 29 2 79 124 42 134 247 217 120 208 194 194 213 152 87 126 126 119 127 124 132 126 127 144 140 143 129 128 134 123 132 146 143 126 158 140 148 133 222 248 242 247 243 171 179 182 196 201 201 202 202 211 218 194 201 199 168 175 192 177 174 179 175 186 198 219 182 156 133 177 176 146 156 156 182 191 180 126 97 98 136 188 173 196 185 155 139 148 149 163 160 142 60 40 69 97 109 77 80 98 103 112 89 85 97 118 140 151 180 195 190 133 95 66 53 120 188 175 170 188 135 130 30 96 133 119 115 110 96 89 98 93 95 96 103 78 88 145 148 152 134 125 124 118 91 83 100 84 119 143 210 176 162 154 192 189 213 120 213 133 179 172 183 138 89 3 65 75 62 82 118 114 97 63 94 71 68 79 81 66 72 66 71 70 81 92 77 68 74 52 55 39 34 32 30 30 57 64 95 84 79 74 79 83 76 90 83 77 92 83 74 85 91 86 81 85 85 86 86 86 85 84 84 83 83 84 85 79 73 75 82 78 90 79 85 81 83 76 57 46 54 50 43 54 74 83 79 78 79 80 80 78 78 79 81 81 81 81 81 81 81 81 80 79 80 80 80 80 80 80 80 78 79 79 79 79 79 80 82 81 82 82 82 82 82 82 82 79 79 79 78 77 76 75 74 76 77 78 78 76 77 80 82 85 83 82 80 82 83 85 86 88 88 90 91 91 90 89 88 83 83 82 82 82 83 81 80 83 83 81 79 77 76 76 77 76 76 75 75 74 73 72 72 72 71 71 70 70 70 71 71 70 70 70 70 70 70 70 70 70 70 70 70 70 70 70 70 70 70 70 70 70 69 69 69 69 69 69 68 67 68 68 68 67 67 67 68 68 68 67 67 68 68 68 68 68 68 69 69 67 68 69 69 69 70 71 72 68 68 69 70 72 73 73 74 74 74 75 75 75 75 74 73 72 72 73 73 73 73 72 72 70 70 71 72 74 75 75 76 73 73 73 73 73 73 72 72 71 71 71 71 71 72 72 72 73 73 74 74 75 75 74 74 74 73 73 74 74 72 72 73 72 71 71 71 71 71 72 72 69 69 69 69 68 68 67 66 66 66 65 65 64 63 63 63 64 64 64 64 64 63 63 63 63 63 62 60 60 59 59 59 65 66 65 64 66 68 68 66 67 66 59 47 52 63 74 68 64 66 60 59 61 54 53 66 69 29 6 3 24 112 182 147 146 210 115 181 77 219 151 171 205 167 165 182 141 88 130 111 119 109 112 124 123 113 109 108 111 108 109 97 92 86 79 98 78 79 72 81 61 46 52 59 81 84 89 83 51 61 78 65 65 69 79 74 51 51 85 33 48 18 42 105 77 81 
78 47 57 64 50 49 39 14 42 69 
73 61 37 71 40 21 68 113 87 57 61 39 70 93 41 26 15 37 25 12 44 32 18 31 52 13 14 59 98 51 152 254 209 128 183 233 211 216 254 254 250 253 251 253 251 252 251 252 253 251 249 252 253 250 249 253 252 252 252 250 252 252 247 253 251 252 254 254 181 181 184 194 195 201 199 194 196 209 195 220 190 174 185 191 189 203 206 211 202 166 104 65 108 119 172 185 186 196 186 153 191 120 90 153 193 201 178 149 112 89 99 134 161 159 130 108 129 145 151 159 174 149 161 168 155 152 154 165 159 148 153 182 117 122 114 78 83 80 102 192 223 175 175 195 161 122 96 98 129 122 120 121 135 129 128 115 107 97 97 89 81 108 147 129 126 134 107 107 123 122 89 80 91 122 163 182 185 176 137 171 181 217 119 191 101 163 106 181 150 108 1 74 76 80 73 45 40 25 34 26 46 50 49 60 79 61 83 61 63 73 65 79 82 70 73 65 69 74 76 76 64 72 71 67 76 74 77 75 80 88 76 82 77 77 73 85 90 78 82 91 83 84 84 84 84 83 82 82 84 86 88 89 83 77 77 82 86 84 80 90 87 83 75 82 84 75 72 78 75 80 74 82 76 78 79 78 78 79 82 83 83 83 82 81 80 80 79 79 80 80 80 82 82 81 81 80 79 81 81 81 80 80 79 79 84 83 82 81 81 82 83 84 80 79 79 78 76 75 74 74 75 76 76 75 74 75 77 80 81 81 80 80 80 81 82 84 89 87 86 88 90 91 88 85 82 82 81 83 83 81 78 76 83 83 82 80 77 76 76 77 76 76 75 74 73 73 72 72 71 71 70 70 70 70 70 70 69 69 69 69 69 69 69 69 69 69 69 69 69 69 69 69 70 70 70 69 69 69 69 69 69 68 67 67 67 67 67 68 67 68 68 68 68 67 68 68 67 67 68 68 68 68 68 68 67 68 69 69 69 68 69 70 66 67 67 68 69 71 73 73 73 73 73 72 72 71 71 71 72 73 73 74 74 73 72 72 70 70 71 73 74 75 76 77 76 75 73 72 73 73 74 73 72 72 72 72 72 73 73 73 75 75 76 76 76 77 76 76 73 71 72 73 74 72 73 74 74 73 73 73 72 73 73 73 71 71 71 71 70 69 68 68 66 66 66 65 65 65 64 63 64 64 65 65 64 64 63 64 65 65 64 63 62 62 62 64 63 69 72 68 62 61 64 66 67 60 65 61 73 59 63 63 51 59 62 57 52 57 62 60 75 21 1 5 36 123 184 159 139 194 141 197 94 200 138 187 228 164 153 177 161 108 128 100 112 107 113 122 116 105 106 109 106 108 105 99 94 83 82 100 81 81 71 71 54 52 99 81 50 57 81 61 84 102 67 70 57 67 68 51 49 31 36 58 
68 97 94 65 48 75 54 64 52 57 139 97 108 100 13 19 
57 44 63 32 48 29 35 96 78 85 45 46 63 62 74 72 48 54 60 60 57 56 25 75 65 79 11 91 155 66 176 255 206 79 138 161 162 148 252 244 241 234 235 231 233 220 222 222 223 224 219 227 229 214 217 222 208 209 215 207 214 212 210 196 207 210 205 196 137 140 150 163 152 163 173 170 167 185 169 201 231 229 179 189 203 177 160 80 156 150 118 172 192 201 206 204 150 104 125 119 143 171 204 194 174 133 90 91 98 114 149 146 135 129 118 132 147 148 143 163 156 158 160 148 153 128 129 133 103 82 145 158 91 140 176 155 166 191 165 160 180 180 191 192 103 115 86 111 122 118 126 126 113 122 134 121 131 135 129 97 79 130 144 135 118 126 119 132 132 113 110 104 125 135 156 182 177 173 138 190 201 220 126 204 82 161 85 214 137 84 1 68 75 75 102 96 124 179 172 142 68 50 51 9 33 91 74 84 82 77 77 75 76 62 70 73 71 65 65 78 74 69 75 78 74 80 64 84 87 77 75 82 89 86 78 77 77 83 90 83 85 84 84 84 84 83 83 83 82 93 95 87 82 86 86 79 78 63 88 79 82 81 92 85 87 87 78 80 74 78 74 75 79 78 77 78 79 80 82 83 83 83 80 80 79 79 78 79 79 81 81 81 81 80 80 80 79 82 82 82 81 81 81 79 85 84 83 82 81 82 82 83 79 78 77 76 75 75 75 75 73 75 75 75 75 75 76 77 76 78 78 79 79 80 81 82 87 85 83 85 88 89 87 83 77 78 78 79 80 79 77 74 81 82 82 80 77 74 74 75 75 75 74 74 73 72 72 72 71 71 70 70 69 69 69 70 69 69 69 69 69 69 69 69 69 69 69 69 69 69 69 69 69 69 69 69 69 69 68 68 68 68 67 66 66 67 67 67 68 68 68 67 67 67 68 69 67 67 67 68 68 68 68 68 67 68 69 69 68 68 68 68 67 67 67 67 68 69 71 71 71 71 71 71 70 69 69 70 72 72 72 73 73 73 72 71 72 72 72 73 74 74 75 75 78 76 72 71 72 73 73 72 71 71 71 72 72 72 73 73 74 74 74 74 74 74 74 74 70 69 69 71 71 70 70 72 74 74 74 74 74 74 74 74 72 72 72 72 71 70 69 69 66 66 66 66 65 65 65 64 65 65 65 64 64 64 65 65 65 65 64 63 63 64 65 65 58 61 64 64 66 67 66 65 66 71 60 66 58 71 62 62 72 62 59 55 54 67 70 54 65 15 7 14 22 120 194 169 162 207 164 189 71 214 166 165 222 184 156 176 176 116 134 123 112 117 123 117 108 109 112 110 108 113 104 103 99 84 89 104 76 79 78 71 57 74 129 91 82 97 59 71 68 70 93 100 76 39 52 75 49 
18 86 79 34 23 32 41 42 39 56 99 48 18 86 118 105 110 122 117 
49 28 89 45 32 20 5 42 88 64 20 9 47 68 61 15 5 14 28 38 24 62 66 60 50 60 45 124 115 5 163 243 196 142 191 178 195 206 149 167 160 149 155 150 157 141 146 147 151 151 150 150 149 149 144 153 148 150 137 148 142 144 146 155 166 169 163 178 182 203 202 198 214 204 211 214 218 239 191 201 237 232 176 171 123 45 99 92 184 198 209 222 197 146 177 161 118 136 159 198 213 191 139 113 79 95 124 128 122 114 126 111 111 132 141 153 162 174 165 159 141 124 64 54 86 106 136 116 128 124 159 170 173 198 204 136 154 155 170 191 161 179 209 121 143 77 85 115 115 120 130 118 127 127 123 115 126 140 130 100 143 149 131 138 124 120 108 116 131 118 103 114 111 121 166 173 172 176 141 222 190 213 105 216 136 181 64 205 143 74 1 63 68 90 111 193 227 249 243 154 77 227 219 121 14 96 69 78 78 62 82 70 73 72 62 66 68 78 74 65 67 75 75 64 74 76 79 79 75 86 79 83 74 70 77 85 84 80 81 87 85 85 84 84 84 84 84 84 82 92 93 84 82 88 88 82 91 81 71 79 63 81 73 72 72 81 78 81 77 74 75 84 83 82 80 79 80 82 81 81 82 80 79 78 79 79 78 79 80 81 82 82 81 81 79 79 79 82 83 80 79 82 83 82 83 83 84 84 83 82 81 80 77 76 75 74 73 74 75 76 72 72 73 74 76 77 77 76 78 78 79 78 78 78 80 82 84 82 82 83 86 87 86 84 78 77 76 76 77 77 76 75 80 82 83 81 78 75 74 75 74 74 74 73 73 72 72 72 71 71 70 69 69 69 69 69 69 69 69 69 69 69 69 69 69 69 69 69 69 69 69 69 69 69 69 69 69 68 68 68 67 67 66 66 66 66 67 67 67 68 67 66 65 65 67 69 67 67 67 67 68 68 68 68 66 67 69 69 68 67 67 68 68 68 67 67 67 68 69 70 70 71 71 71 69 68 69 69 69 69 70 70 70 70 70 70 72 72 72 73 73 74 74 75 78 75 72 71 72 72 70 68 69 69 69 70 70 71 71 71 71 71 70 70 70 70 70 70 69 68 68 69 69 67 67 69 71 73 74 75 75 75 75 74 73 73 73 73 72 71 69 69 67 67 67 67 67 65 65 65 64 64 64 64 64 64 64 66 64 64 64 64 63 63 62 63 69 67 65 65 69 70 64 57 64 63 69 65 62 58 69 71 57 54 61 68 65 61 63 63 81 45 1 1 32 142 193 188 167 195 162 207 69 187 165 171 222 189 138 185 191 117 144 123 112 116 122 118 112 114 115 107 109 115 101 102 96 76 86 99 83 74 80 77 65 78 101 81 67 80 82 88 39 62 61 42 80 51 62 39 44 
43 60 101 114 42 73 76 68 73 36 47 115 51 48 65 78 111 86 88 
61 54 15 55 34 47 16 35 73 54 24 28 50 37 93 71 7 55 49 53 37 32 77 55 63 62 33 122 251 125 152 169 172 206 181 187 181 175 159 161 179 182 194 208 209 206 210 222 220 213 211 200 198 216 197 207 190 194 181 175 201 198 208 207 194 201 185 185 195 212 217 222 215 209 223 207 180 189 139 159 204 164 177 167 156 150 194 225 216 213 151 118 120 113 165 171 179 228 215 160 118 76 88 100 116 115 116 104 117 119 127 151 152 152 152 150 147 141 132 125 121 142 121 131 137 113 51 62 58 41 66 52 94 164 101 130 145 139 154 159 177 157 105 135 115 107 108 95 106 129 121 128 119 119 119 131 124 126 110 98 151 135 135 138 124 126 115 126 145 108 119 106 114 115 138 175 159 151 141 188 190 201 103 190 147 139 99 207 124 116 25 13 83 91 119 186 222 230 235 131 76 244 251 101 35 81 90 74 78 80 72 64 63 60 73 57 70 71 68 70 76 68 67 76 77 70 74 84 76 73 86 81 78 81 88 86 89 86 76 82 83 84 82 82 81 83 83 84 84 85 84 85 83 83 84 86 80 82 81 78 80 68 75 80 79 89 81 74 77 79 74 75 86 84 81 80 82 83 82 81 81 80 78 78 77 79 78 80 82 83 83 83 83 83 82 82 80 83 82 78 78 82 85 85 81 83 85 86 85 83 79 77 76 75 73 72 72 73 75 76 71 71 71 74 77 78 78 76 82 82 81 79 77 76 78 80 82 83 84 83 84 84 85 86 82 80 77 76 76 77 77 77 79 83 85 83 80 76 75 76 74 74 73 73 73 72 72 72 72 71 70 69 69 68 68 68 68 68 68 68 68 68 68 68 68 68 68 68 68 68 68 68 69 69 69 69 68 68 68 68 67 67 66 66 66 66 67 67 67 67 66 64 63 64 67 69 67 67 67 67 68 68 68 68 65 67 68 69 68 67 67 68 69 69 68 67 67 67 69 69 69 71 72 71 69 68 68 69 67 67 68 68 69 69 69 68 69 70 71 72 74 75 76 76 76 74 72 72 72 71 68 65 67 68 68 68 69 69 70 70 71 71 70 70 68 69 69 69 71 69 69 69 69 66 66 68 67 68 70 71 72 72 72 71 72 72 72 71 71 71 69 68 66 67 67 67 67 66 65 64 63 63 63 64 64 64 66 65 64 64 65 66 65 66 66 65 59 66 69 68 63 64 66 68 67 59 62 65 66 66 66 56 63 66 60 58 66 66 63 65 68 27 5 7 29 125 189 196 176 206 170 218 97 195 184 183 213 174 134 228 197 78 132 119 108 103 110 121 122 114 108 104 103 114 102 110 104 81 89 100 76 46 56 73 68 81 78 99 92 64 71 61 55 59 69 66 46 47 57 
67 32 66 39 75 85 51 41 69 96 100 32 34 69 107 46 66 77 97 96 80 
58 86 57 64 40 123 86 44 55 57 33 46 67 58 74 64 71 50 57 60 61 66 39 49 51 39 63 50 136 248 252 218 156 147 188 191 199 178 173 165 163 188 127 141 117 104 129 107 102 82 97 105 117 112 146 141 181 168 147 129 108 89 96 95 94 96 145 212 211 65 93 81 67 110 87 92 207 216 212 225 164 164 221 217 215 225 200 143 178 172 118 145 172 199 175 198 221 145 46 3 21 37 75 104 99 95 100 99 93 108 97 108 114 115 129 128 152 156 143 145 139 146 133 123 121 40 18 34 34 53 80 33 58 109 89 180 176 115 50 56 121 119 146 89 69 108 112 100 93 113 118 126 124 124 123 119 127 128 97 140 144 137 129 160 106 124 124 138 135 112 106 107 119 124 153 195 165 155 136 174 185 172 160 129 98 158 89 171 100 71 1 16 82 75 89 86 86 97 97 107 63 178 161 39 48 95 80 78 77 58 62 62 96 114 122 34 64 73 72 67 70 73 73 73 76 76 77 76 76 77 79 81 82 77 83 86 88 87 81 84 81 82 83 84 84 84 84 84 86 91 86 83 89 86 83 89 84 84 84 84 83 81 78 75 75 85 86 80 79 79 78 82 79 84 88 86 82 82 82 80 82 81 79 79 80 82 82 81 81 79 80 82 85 85 83 80 82 83 82 79 80 82 85 87 83 85 86 84 81 78 77 77 76 72 69 68 69 71 74 75 75 71 79 68 77 79 79 75 74 79 70 78 75 78 77 79 80 76 80 82 85 84 77 85 82 79 73 79 80 76 80 81 75 84 81 76 78 76 70 76 72 74 67 76 71 77 68 66 71 70 69 68 68 67 67 66 68 69 69 66 66 69 69 66 68 66 66 67 67 65 67 71 68 65 64 66 65 64 66 70 68 69 69 65 64 66 67 66 63 66 67 67 68 71 70 66 71 63 68 66 70 65 70 65 67 67 67 67 67 68 68 68 67 68 69 68 67 67 69 70 68 70 73 73 70 67 69 73 66 68 67 67 67 69 68 66 68 67 66 67 69 72 72 72 75 76 71 74 72 67 68 62 63 68 67 66 71 73 71 72 75 76 74 68 66 67 68 66 64 68 69 61 65 67 62 74 64 64 70 68 69 74 70 73 73 71 70 71 73 73 70 67 65 66 68 68 67 66 63 62 67 65 63 64 64 63 62 62 66 68 65 64 67 66 64 67 67 67 67 68 68 67 65 64 67 57 58 62 59 64 66 58 66 59 64 58 62 70 60 61 68 36 1 7 28 83 192 202 190 201 153 230 85 183 178 153 229 189 174 228 199 35 105 178 206 188 152 120 107 99 92 99 97 114 97 96 102 74 95 103 76 63 65 85 78 71 39 28 74 79 54 66 74 85 92 75 39 35 99 89 59 56 32 14 56 84 71 61 72 74 51 63 90 
64 86 44 17 42 103 63 
35 67 85 43 23 63 77 60 60 37 75 42 50 30 29 44 60 34 44 41 49 64 43 20 67 59 74 49 9 1 58 198 242 150 134 166 162 198 201 188 193 217 110 100 112 92 119 104 103 110 82 95 102 112 100 221 190 171 181 163 169 183 171 189 181 171 171 188 225 64 27 56 25 1 71 201 242 186 169 171 170 171 209 184 141 104 119 122 170 180 199 189 183 188 220 173 59 13 1 15 11 1 41 68 57 70 65 79 87 99 122 127 124 122 130 179 162 161 132 131 155 141 143 135 116 29 28 39 46 54 92 49 79 149 202 185 78 43 96 133 123 146 114 75 92 84 95 117 102 105 115 120 118 129 115 122 134 110 100 152 150 132 141 133 116 126 128 127 144 119 119 108 108 128 165 187 166 175 152 199 156 146 122 114 94 168 86 113 91 119 32 21 73 69 55 65 73 68 76 70 66 86 86 37 36 55 65 74 60 105 177 196 184 103 137 58 60 70 71 68 71 74 73 74 74 75 75 75 75 77 80 82 85 81 82 78 82 90 85 83 81 84 86 88 87 86 84 83 82 87 83 81 86 85 81 85 83 85 87 86 86 85 84 83 72 74 77 80 82 82 77 72 79 83 84 82 81 82 82 79 75 76 77 77 78 79 80 80 80 80 81 81 81 81 81 80 84 85 86 85 82 80 79 79 78 79 80 79 78 76 76 77 75 75 76 78 77 74 70 67 72 69 83 77 78 71 73 80 78 72 76 81 78 71 77 73 85 74 78 82 82 83 80 89 70 78 75 70 68 75 83 80 76 83 79 74 78 76 70 72 70 72 68 72 65 71 71 78 71 70 69 69 69 70 70 70 66 66 67 67 68 70 70 69 71 69 69 70 69 65 63 64 67 65 66 68 68 65 64 66 62 67 69 70 68 67 66 65 69 69 68 65 65 67 67 64 60 66 68 66 72 65 65 71 66 67 68 68 68 69 70 71 68 69 69 69 68 68 68 69 66 68 68 68 66 68 67 68 68 69 69 68 68 70 69 67 70 69 68 68 69 70 71 71 71 73 68 70 69 64 65 59 65 70 69 65 67 66 63 65 65 64 64 63 63 64 66 67 64 64 68 65 69 71 65 69 64 62 67 67 68 74 67 68 68 68 68 70 72 72 70 68 68 68 67 66 64 64 63 63 58 60 62 67 68 68 67 67 64 68 66 65 67 65 64 68 68 67 66 66 66 66 66 66 63 63 69 68 58 58 65 64 58 58 65 63 62 62 57 59 67 49 9 7 21 117 190 186 183 199 135 226 81 197 171 146 220 201 196 182 206 63 88 94 101 193 136 118 122 90 106 108 104 119 109 100 97 76 91 88 83 76 87 78 80 69 56 42 21 51 105 80 48 60 54 42 33 58 12 29 36 41 39 33 48 65 70 76 71 73 78 53 63 66 
10 52 125 68 12 12 
48 43 39 59 61 93 74 72 47 62 76 58 31 33 25 32 37 13 51 48 19 36 62 37 40 56 30 7 32 33 2 9 41 161 245 240 200 177 171 158 192 219 147 111 118 127 114 136 104 110 124 112 105 131 60 142 239 197 191 172 134 164 153 163 154 161 141 148 238 193 16 68 95 194 234 238 227 195 153 159 149 138 193 143 118 152 164 207 187 189 170 170 218 199 103 52 4 5 4 9 14 19 54 63 54 92 113 121 107 95 118 128 95 121 142 143 138 146 150 135 138 122 141 145 132 32 25 27 15 38 65 54 60 44 71 139 116 166 152 155 104 76 67 93 96 89 82 92 100 106 104 110 115 126 129 122 128 87 130 159 138 126 151 121 127 126 124 118 142 132 142 132 135 137 164 192 182 162 163 184 177 181 179 120 135 169 77 117 86 81 23 46 67 78 69 71 67 57 69 72 55 36 28 89 111 74 52 30 36 64 170 182 203 122 144 85 55 66 71 71 73 74 74 74 73 73 73 72 72 74 77 80 84 83 83 76 81 93 86 80 77 79 82 83 83 82 82 82 83 87 85 84 87 86 82 85 85 87 90 88 87 87 88 87 89 79 74 73 72 75 80 80 82 83 82 81 81 83 82 80 81 83 85 85 83 82 83 84 80 82 83 81 79 79 79 81 81 80 79 78 77 77 78 79 77 76 76 76 76 76 77 78 76 75 75 76 76 75 73 73 83 74 78 70 75 76 77 82 77 72 79 71 77 80 87 75 66 64 76 78 81 95 90 76 71 78 81 78 77 79 77 70 78 80 77 74 79 79 73 72 79 78 72 74 70 73 68 67 69 67 67 67 67 67 68 68 68 67 67 68 68 67 67 68 64 63 63 66 67 67 66 67 67 66 67 69 69 67 66 67 70 64 59 61 65 68 67 66 63 65 64 65 68 70 69 67 68 65 68 72 65 65 68 69 64 66 67 67 65 65 66 68 68 68 69 69 70 70 68 68 67 69 68 66 68 71 71 67 68 69 68 67 67 68 68 65 68 67 67 67 68 69 70 69 71 73 67 71 71 66 67 61 62 68 67 64 66 66 66 69 65 63 62 66 65 63 63 68 73 64 64 62 62 68 62 61 68 63 63 62 64 69 63 65 68 69 70 71 69 67 64 62 61 62 61 62 61 62 61 62 65 65 63 61 59 58 59 59 63 67 66 64 65 63 62 66 66 65 64 63 63 63 64 65 56 58 63 61 51 51 59 62 47 47 47 57 60 57 57 56 67 43 1 10 30 155 179 169 162 214 113 217 78 191 182 138 223 197 138 176 196 62 88 145 104 122 124 122 136 139 106 113 100 104 110 110 102 92 106 102 86 84 88 71 79 96 103 94 94 56 63 43 56 50 31 64 56 21 68 97 69 47 11 137 114 20 39 70 50 74 61 
70 73 45 45 64 84 71 93 123 
46 56 50 50 63 93 70 9 20 52 68 45 31 35 42 68 100 54 15 17 42 43 38 57 47 58 49 23 25 40 29 13 3 6 13 115 227 249 220 134 120 152 116 145 113 132 132 139 125 115 127 123 111 113 161 61 211 224 169 127 155 159 154 152 159 156 152 144 163 215 124 198 239 222 180 222 206 163 131 153 144 134 192 182 190 179 196 186 173 164 170 222 123 33 35 69 27 16 19 22 2 9 76 90 75 87 108 104 89 91 79 90 94 97 114 134 122 154 146 124 162 137 143 174 173 39 2 19 22 94 77 43 83 50 98 133 165 104 127 108 80 109 78 68 87 104 97 87 96 105 105 114 110 114 131 133 106 102 150 129 95 106 131 130 130 129 125 136 126 115 131 132 146 141 160 182 179 171 169 183 160 161 136 91 121 175 69 129 111 67 1 72 72 69 74 67 72 78 65 72 66 111 168 243 254 196 182 203 206 114 106 63 91 81 124 103 58 68 72 71 72 73 72 75 75 76 76 76 75 76 78 79 78 78 82 77 81 88 80 75 78 79 80 81 81 83 86 88 84 86 86 86 87 85 83 85 85 88 89 85 82 83 84 83 86 81 84 85 77 73 79 82 82 82 81 80 79 81 81 82 80 81 82 83 82 81 81 83 79 80 80 79 77 77 78 80 77 77 77 77 77 76 77 79 78 77 76 75 75 75 76 77 75 75 73 72 73 76 76 77 78 78 82 74 76 79 71 63 72 76 80 71 80 80 79 85 92 77 82 81 78 92 92 81 87 74 70 73 76 75 70 75 74 77 75 75 78 79 76 73 72 72 71 73 72 73 70 69 68 68 68 67 66 66 66 67 67 65 66 68 67 64 64 66 73 70 67 67 67 67 67 67 69 67 66 66 67 67 68 69 64 63 63 68 69 66 64 63 63 63 62 62 64 65 66 66 71 69 64 67 65 67 65 68 66 68 69 68 65 64 65 67 67 68 67 69 71 71 69 67 63 66 65 62 63 68 68 63 66 67 66 65 65 68 67 65 67 67 67 67 69 70 70 70 69 71 65 68 69 64 66 60 62 66 64 63 68 72 72 74 80 75 74 78 75 67 65 70 82 67 69 70 68 73 68 62 77 69 68 63 63 67 66 69 66 66 66 65 63 61 60 59 58 59 61 62 62 61 59 58 62 63 63 61 61 62 64 65 57 59 57 56 59 57 54 56 58 58 57 57 56 57 58 59 63 59 56 54 52 52 51 48 42 44 40 56 62 54 63 62 66 42 1 8 41 175 166 136 171 200 168 192 95 182 163 132 211 197 135 173 188 147 93 113 146 122 133 144 130 119 125 117 117 104 109 104 74 67 92 104 84 86 81 75 68 87 71 55 54 51 61 66 57 39 55 84 40 44 61 101 134 101 78 78 130 85 12 29 80 128 61 
30 58 68 123 105 85 83 95 84 
80 55 48 94 83 35 38 18 29 125 60 30 33 70 80 31 76 62 20 12 18 67 61 26 45 51 76 66 5 35 57 7 28 42 16 24 13 91 189 247 203 193 148 149 121 147 133 141 125 105 130 134 123 91 168 45 155 231 178 155 135 155 166 190 171 141 170 166 146 184 252 203 190 126 121 231 182 143 153 142 167 168 177 197 171 198 201 164 200 207 190 75 1 34 60 24 12 28 13 2 36 23 55 54 58 55 61 69 65 81 66 78 93 76 107 84 30 38 46 31 110 146 165 162 119 37 42 89 145 81 47 81 92 170 162 141 121 104 83 75 89 92 101 94 82 83 105 113 95 89 106 113 103 106 111 135 93 131 124 86 85 99 107 130 126 109 118 140 131 101 104 104 133 132 154 177 192 180 158 188 173 168 136 161 123 147 60 190 150 77 5 75 69 59 69 71 70 67 56 73 89 171 243 157 187 221 251 239 233 196 223 62 1 73 67 60 65 72 73 70 71 70 71 75 69 71 73 73 73 73 73 74 75 72 79 78 78 79 73 76 76 78 80 80 80 81 83 86 83 82 84 85 85 85 86 85 83 88 88 84 82 86 87 85 84 82 84 87 83 80 84 89 84 84 84 83 82 81 83 86 82 82 82 83 84 85 86 85 78 78 77 77 77 78 78 79 77 78 81 84 82 77 74 74 77 77 76 75 75 75 76 77 75 77 78 77 77 77 75 71 74 77 83 79 74 79 80 90 72 81 61 53 79 85 39 30 62 48 69 86 78 72 73 80 84 72 78 81 83 81 74 83 73 74 75 74 72 73 73 69 69 71 73 69 66 64 68 71 70 71 71 70 68 68 69 70 64 64 65 67 66 64 65 68 62 63 63 64 65 67 67 67 68 68 66 66 66 66 65 63 64 68 70 66 59 56 62 71 72 69 67 65 65 65 64 64 62 72 65 62 72 66 59 71 67 69 70 69 68 67 68 68 69 69 68 69 70 69 66 64 64 67 68 64 64 67 69 67 67 66 65 64 66 70 70 67 70 69 68 68 69 69 68 67 72 74 68 70 70 65 65 59 66 68 63 62 68 71 68 68 74 68 67 73 70 60 58 65 69 57 67 73 73 76 68 60 65 61 64 61 59 60 57 65 57 58 58 58 58 59 60 62 58 57 56 55 53 52 51 51 49 53 55 54 53 53 51 48 51 52 49 50 56 56 52 52 54 55 57 57 56 55 55 56 65 63 57 55 55 49 37 29 44 49 48 64 67 59 66 66 62 63 11 1 32 177 187 160 184 206 165 205 107 188 173 173 224 194 113 169 205 145 132 115 120 167 174 169 176 157 174 138 125 114 113 86 28 26 72 94 79 79 79 82 77 91 79 72 65 53 75 97 42 49 95 72 32 47 25 41 97 69 101 85 98 92 98 103 44 85 104 47 16 57 61 66 
47 25 54 104 
77 76 9 42 128 68 9 14 35 70 17 28 39 97 49 55 61 9 13 76 8 13 49 20 17 24 55 98 9 2 3 24 69 40 64 79 54 38 14 33 143 229 139 90 139 134 147 145 130 118 130 105 114 125 123 137 196 197 187 205 158 170 159 169 147 134 196 206 177 149 220 166 116 137 153 228 198 168 180 179 187 206 207 201 146 223 228 217 226 174 74 21 38 6 8 0 4 13 4 87 42 34 34 84 74 73 55 67 57 51 57 63 86 71 84 32 40 39 68 71 48 71 66 48 26 43 87 92 106 73 83 97 72 95 115 71 74 82 72 81 84 86 98 94 91 85 95 100 104 98 105 107 103 107 111 104 101 110 94 88 103 101 94 115 122 91 115 132 140 124 99 96 155 108 110 204 176 167 174 192 126 130 134 181 94 155 98 184 132 82 1 75 67 65 67 82 61 32 55 75 57 68 153 241 197 183 235 245 228 204 252 137 3 62 69 68 70 74 72 69 71 70 69 74 69 72 73 74 75 75 75 76 79 74 78 77 75 75 73 81 75 78 82 83 81 80 80 81 84 81 83 85 83 86 91 89 83 86 87 84 86 92 93 89 94 90 81 79 86 86 84 88 86 85 86 87 87 86 87 89 85 85 85 84 83 81 81 80 80 79 78 78 79 79 78 78 79 76 74 75 74 72 74 79 76 77 79 78 77 76 77 79 77 78 76 73 73 77 78 75 84 72 70 76 73 71 62 71 81 78 66 78 89 58 1 16 4 22 69 89 81 76 73 72 65 66 80 71 66 71 65 75 75 74 76 74 68 68 69 64 73 69 71 69 76 72 70 63 67 68 68 67 65 65 66 68 67 69 69 66 63 64 65 65 56 61 66 67 68 68 67 65 67 68 68 67 67 66 62 57 68 66 60 56 55 56 55 52 49 51 57 65 69 68 65 64 68 57 73 72 64 58 71 61 64 64 65 67 67 67 67 66 68 68 67 66 66 64 62 60 65 66 67 66 65 66 68 70 66 65 62 61 64 68 67 64 69 68 66 66 65 63 61 59 70 71 65 67 66 60 60 54 64 65 61 59 64 65 62 60 55 51 53 59 59 53 54 60 63 54 60 62 62 62 56 57 51 51 62 63 61 57 51 57 58 57 56 56 56 58 60 62 59 57 54 52 52 55 58 60 76 75 70 63 61 63 63 59 58 59 57 59 67 68 64 64 61 63 65 65 64 62 62 63 59 65 65 64 63 53 42 37 45 41 39 53 66 66 62 53 68 52 1 1 48 174 152 115 155 189 114 217 119 158 166 159 227 197 163 188 202 141 130 128 99 137 164 140 188 215 182 144 125 126 122 94 33 39 87 96 92 79 85 70 68 66 77 85 87 104 77 67 72 55 31 76 56 27 71 38 53 80 74 88 62 86 127 95 46 69 93 82 25 66 108 87 80 79 87 71 
9 9 21 24 63 35 46 31 45 68 40 37 46 46 49 54 107 49 22 73 47 39 54 46 73 34 4 7 3 6 7 58 71 15 51 53 39 16 14 10 5 108 161 87 112 126 126 141 192 220 181 168 167 187 178 214 146 137 185 166 210 161 147 160 157 136 158 186 177 149 149 220 124 132 155 196 183 180 202 210 201 195 194 212 238 220 207 149 41 1 14 31 2 3 32 31 64 63 44 68 74 34 54 63 90 71 55 65 85 78 101 105 94 93 75 74 51 38 52 66 64 43 27 30 34 41 78 80 57 64 106 106 97 102 70 66 87 84 87 87 76 90 102 104 104 115 106 85 105 112 111 108 107 109 113 81 103 86 89 104 99 93 96 111 123 105 128 137 133 137 115 114 183 107 93 212 153 153 157 191 110 144 107 118 67 149 54 203 115 2 11 70 73 67 60 61 38 32 57 56 68 61 37 66 173 164 179 159 187 236 147 89 79 73 78 68 70 71 69 68 71 70 69 73 77 79 77 77 75 77 77 79 77 74 77 73 72 77 72 75 76 79 81 81 80 79 82 85 84 77 79 79 74 78 85 82 82 85 84 80 82 88 87 80 77 88 82 80 92 85 66 65 80 76 75 80 84 83 80 79 72 77 81 79 73 68 68 69 78 78 79 76 73 71 70 71 74 69 66 68 68 68 72 79 71 76 78 79 74 72 71 74 73 73 69 63 64 71 75 74 74 66 65 75 73 63 19 3 2 62 85 33 10 23 4 1 17 41 75 82 81 83 78 76 81 73 80 66 62 73 72 87 80 75 76 76 70 72 72 63 66 62 66 62 72 70 75 72 66 67 67 64 61 59 60 62 63 68 68 60 58 62 64 62 72 76 77 72 66 63 61 59 66 66 64 63 64 66 65 61 56 59 58 59 62 60 43 23 45 45 49 58 66 71 76 80 69 44 54 49 60 57 72 54 62 61 60 62 63 63 61 58 62 62 63 62 61 60 61 61 60 55 54 58 59 57 58 62 65 63 60 59 61 64 63 60 65 64 63 62 62 60 57 56 58 60 55 59 60 56 57 52 60 65 63 60 62 62 59 60 58 56 57 62 62 59 60 64 67 65 70 68 66 60 53 62 58 57 67 70 69 64 54 58 62 60 57 56 58 59 59 59 61 61 60 60 61 64 67 69 68 66 60 55 58 65 68 64 58 62 62 62 66 65 62 65 60 62 64 63 61 59 60 62 60 68 66 63 65 60 53 57 46 34 29 30 41 50 44 40 53 36 5 2 27 156 160 201 109 121 139 204 172 182 196 182 213 207 147 201 217 148 161 150 146 149 144 140 150 167 169 171 176 151 120 116 80 82 109 93 87 78 92 83 79 69 73 80 90 81 61 33 47 73 57 60 56 46 85 110 100 74 86 49 52 79 75 98 87 65 70 91 76 68 129 97 125 91 76 75 
57 69 61 54 37 40 19 26 81 76 38 42 33 35 29 19 15 32 14 32 37 41 64 75 57 15 8 1 8 27 39 39 22 58 33 19 26 11 13 33 15 9 202 174 77 122 176 190 182 192 183 184 160 195 222 230 207 216 231 195 230 242 231 219 203 236 234 237 218 216 165 204 227 128 137 199 219 224 221 203 227 244 243 230 186 163 68 45 86 103 97 86 102 97 95 78 88 89 74 90 75 74 117 104 73 54 83 70 81 50 58 75 62 46 55 75 47 69 124 38 30 44 37 32 73 78 83 59 60 55 107 83 103 103 123 85 83 83 81 77 99 100 108 103 98 112 128 101 83 86 108 101 106 108 90 90 92 103 94 97 97 101 115 125 122 120 124 128 134 128 135 135 183 148 149 195 159 174 180 168 170 156 116 150 83 132 76 183 116 34 3 70 62 69 86 45 7 36 59 58 69 62 68 46 22 58 29 51 51 63 65 52 57 62 64 63 67 69 66 67 71 70 68 71 67 66 62 59 56 56 58 60 66 68 72 65 67 74 67 61 62 63 62 60 59 63 71 78 77 69 68 66 59 62 69 65 77 79 76 69 69 73 69 59 61 81 74 65 78 70 57 65 68 60 59 65 74 74 67 63 59 69 79 79 72 67 69 73 70 73 74 71 64 59 59 61 67 67 72 78 76 68 64 65 65 71 75 73 67 62 61 63 64 67 66 61 61 64 62 55 56 66 65 62 63 78 39 4 3 6 26 3 5 18 18 20 24 17 37 68 80 64 47 61 53 39 57 66 73 70 48 55 83 75 76 78 75 78 78 66 76 79 80 53 37 29 56 77 70 71 69 65 60 56 56 57 46 55 57 50 50 60 66 63 55 59 58 53 48 53 57 62 66 64 58 55 57 66 70 69 60 69 67 51 40 42 44 42 30 15 2 1 1 14 34 49 49 49 16 2 76 64 48 66 65 62 60 61 62 61 56 52 54 56 58 58 58 59 62 64 65 55 53 59 63 60 60 63 68 66 62 60 62 64 63 59 64 64 63 64 64 63 61 60 62 65 62 68 71 70 73 68 63 70 70 64 62 59 57 60 62 60 60 61 59 55 54 57 53 64 77 80 79 65 48 57 61 55 61 62 62 57 47 51 56 54 53 54 57 60 59 58 49 51 52 54 53 51 48 46 52 55 55 54 56 57 48 37 42 49 50 47 46 42 41 45 46 48 48 46 43 43 45 47 57 57 45 38 43 45 41 48 48 45 46 25 12 19 26 43 45 26 6 1 22 165 138 176 127 147 143 189 134 173 197 188 212 218 167 195 225 150 152 131 155 156 146 159 133 123 129 184 236 163 94 115 111 111 123 97 96 88 85 89 76 80 72 78 64 76 80 59 81 101 98 82 59 68 93 92 103 71 94 83 62 73 112 111 29 109 107 74 61 75 67 32 82 98 108 97 
132 131 99 102 107 119 95 83 93 57 71 91 42 42 62 30 28 19 48 34 33 59 42 36 60 42 57 129 161 155 170 171 171 189 191 164 192 207 189 177 175 153 176 238 222 209 224 172 199 237 224 248 238 247 237 245 249 206 208 236 217 232 246 239 221 240 243 247 254 250 227 213 246 235 223 214 229 226 207 223 144 97 71 88 55 56 80 97 43 24 17 20 10 31 4 17 47 46 80 70 61 17 44 69 110 43 72 90 86 59 37 154 71 28 52 48 61 95 141 54 25 38 60 77 100 99 120 132 98 103 95 92 105 99 108 78 80 87 89 89 96 108 110 105 99 111 107 107 113 91 99 108 112 93 97 107 94 84 96 107 109 130 134 123 119 120 123 131 128 137 145 134 158 150 146 205 196 183 167 168 126 141 118 135 96 177 116 161 101 41 7 45 53 46 26 6 5 27 51 62 55 64 59 58 58 58 59 48 46 43 46 55 61 60 58 59 54 57 56 64 64 60 64 62 67 62 65 79 67 77 74 65 74 69 73 74 86 71 70 73 53 72 81 60 55 75 79 76 78 79 67 62 69 88 78 81 87 83 75 76 81 80 77 79 88 66 74 79 96 82 89 86 89 81 65 78 101 88 69 79 93 83 78 96 86 74 60 67 73 62 65 66 54 73 73 82 77 44 49 77 72 63 69 74 61 69 56 65 67 59 67 53 68 67 65 78 78 66 56 38 64 53 52 64 88 96 31 3 14 10 4 1 11 4 1 8 2 6 2 2 26 17 4 14 1 10 13 18 26 13 3 11 7 4 7 14 17 17 33 53 54 42 35 28 17 6 6 16 52 49 31 24 61 56 35 28 6 23 6 16 18 4 14 14 8 13 8 3 4 6 13 30 28 7 6 16 19 32 51 57 39 36 38 45 42 30 23 23 16 13 28 24 24 20 5 5 7 14 10 16 47 76 57 64 65 42 39 59 63 74 64 49 77 62 61 64 60 71 60 65 59 55 58 66 57 51 59 55 56 52 49 51 55 58 58 58 57 50 51 57 41 78 61 43 53 77 64 63 58 59 47 37 53 48 61 51 53 50 51 62 50 54 46 53 49 47 37 49 44 44 58 59 41 40 47 42 44 36 41 57 44 42 43 48 43 44 49 46 42 51 55 45 43 47 48 48 48 42 39 43 38 45 44 45 50 42 34 39 39 45 47 42 41 43 44 40 39 40 53 38 43 49 51 40 43 49 56 58 57 62 59 48 49 52 49 57 40 33 29 41 38 5 9 11 1 163 154 144 93 152 125 163 160 157 162 132 212 227 160 195 219 158 148 126 111 141 167 167 153 128 117 139 140 127 118 125 101 117 112 100 105 84 95 86 85 88 85 72 71 69 85 72 65 61 61 113 99 79 76 59 61 53 58 87 77 64 146 172 50 124 96 68 60 91 86 68 89 71 79 68 
7 9 14 35 29 37 22 33 85 62 71 73 41 80 79 28 17 29 46 15 10 41 50 27 39 62 77 36 21 135 52 20 30 50 50 69 47 53 25 49 61 45 36 7 176 221 209 191 159 173 152 138 98 87 50 89 135 176 205 195 154 173 181 150 189 141 148 98 44 53 26 17 48 158 164 55 63 31 78 42 2 19 45 61 47 54 61 41 11 34 20 36 30 29 51 72 133 96 90 107 65 98 97 106 94 58 111 137 57 30 50 93 97 47 50 60 47 89 100 105 78 63 78 115 94 95 115 122 82 129 119 108 105 106 102 92 82 99 112 106 94 91 98 105 120 117 115 109 112 119 134 108 85 96 109 113 99 84 99 131 124 130 132 126 124 131 132 120 142 144 140 134 176 149 141 217 205 38 100 192 120 163 143 146 116 224 114 136 81 37 0 28 37 15 5 17 31 34 38 45 54 46 40 51 49 34 36 42 53 64 56 36 38 63 73 63 67 64 55 59 62 60 63 59 38 36 38 48 39 46 44 40 32 29 35 36 46 33 31 32 26 36 49 51 59 69 46 25 48 69 77 71 52 46 26 32 39 28 26 43 60 57 52 57 48 27 22 16 33 40 61 65 71 61 54 49 55 74 61 17 11 9 10 21 21 17 11 13 8 7 7 13 12 30 25 22 1 21 55 17 6 1 23 1 3 7 1 6 10 10 19 15 2 2 30 47 42 29 5 14 22 0 4 0 14 40 33 31 31 29 36 48 41 44 45 39 38 44 59 18 1 7 15 0 7 15 6 2 7 4 3 7 10 7 3 3 5 9 8 3 5 3 5 9 9 3 3 5 3 7 2 3 9 3 2 6 8 13 4 3 6 3 3 6 3 9 8 6 9 5 2 6 6 2 2 5 4 5 6 2 5 3 6 17 22 23 28 36 42 17 3 16 3 1 21 4 4 11 1 6 2 10 9 1 25 20 42 24 13 22 55 58 31 28 38 45 36 42 29 32 34 36 56 53 41 44 45 48 43 52 53 45 45 53 52 43 44 46 45 48 53 28 27 48 48 45 53 34 37 68 44 59 46 59 61 46 54 47 42 71 50 54 52 58 57 54 50 57 60 48 53 67 57 57 61 61 56 58 57 52 45 58 58 44 55 62 60 58 61 57 53 57 54 54 49 49 52 52 53 60 51 57 53 51 55 51 47 51 48 36 38 57 69 63 59 64 64 62 64 59 62 63 66 66 68 58 57 63 62 60 61 61 66 57 49 59 68 73 61 51 23 3 15 1 8 109 105 161 71 162 131 131 172 168 112 69 186 190 178 202 222 148 150 130 130 177 205 192 176 165 149 142 141 124 118 123 104 126 115 101 98 83 94 73 81 85 93 70 78 61 52 43 51 46 16 21 57 105 61 41 58 128 76 40 96 96 90 180 136 94 109 113 91 43 46 52 72 79 57 58 
46 76 52 39 62 19 53 100 36 34 86 72 55 57 81 66 18 34 82 77 86 92 68 63 89 65 5 24 21 56 30 16 10 48 69 47 39 58 56 47 50 35 31 27 41 130 75 39 13 8 14 14 7 20 19 39 61 41 52 30 56 145 60 5 221 86 33 25 9 54 60 130 46 48 66 46 57 73 92 29 41 49 61 72 71 82 34 45 155 159 136 138 165 157 80 55 153 87 82 79 90 112 226 134 132 133 124 133 22 31 32 83 107 57 30 75 95 63 75 65 97 84 75 82 81 100 90 73 89 135 88 66 68 100 98 108 111 104 98 98 102 105 103 100 96 106 121 116 115 119 124 94 75 94 106 116 124 114 114 135 143 121 124 142 139 128 128 130 130 138 134 127 173 121 116 214 158 246 231 205 145 118 162 198 109 198 127 180 69 8 0 16 1 0 1 7 6 2 4 11 7 5 0 6 5 1 1 5 4 11 13 7 6 11 11 4 9 8 3 8 9 3 5 1 2 3 1 4 1 2 1 1 6 2 2 1 1 1 2 5 0 0 2 0 4 11 2 0 6 0 4 11 0 8 5 0 0 4 2 0 4 5 1 0 0 0 4 1 0 2 10 8 0 2 3 2 0 0 1 3 0 0 1 1 3 2 5 1 9 6 1 7 7 5 1 0 8 2 7 9 6 4 8 7 8 7 5 6 5 1 1 1 5 20 7 5 1 4 24 8 9 21 24 11 11 78 254 212 195 197 202 220 202 205 221 243 231 212 254 93 0 7 5 11 6 15 9 2 9 12 9 10 5 8 8 5 5 8 6 3 7 5 6 9 12 12 11 11 6 9 7 11 11 8 4 12 7 8 9 5 9 14 5 10 6 9 6 5 10 8 3 5 8 10 10 8 7 8 5 1 6 1 1 4 5 4 9 17 5 58 145 86 84 108 111 94 96 99 105 85 85 70 74 76 17 7 1 2 1 10 5 5 3 1 5 10 1 8 1 2 10 6 23 5 1 17 20 37 26 15 8 11 14 9 5 5 4 12 2 5 35 6 6 5 32 49 28 38 41 38 39 21 39 22 33 36 20 27 34 27 36 26 22 22 26 35 52 60 53 61 60 55 29 43 56 63 54 53 59 61 63 66 64 52 54 66 63 64 73 60 52 70 58 61 64 69 76 72 67 67 63 71 72 71 77 79 75 74 75 70 67 70 69 65 63 65 68 68 63 72 71 61 56 62 69 59 59 66 66 67 69 70 61 65 69 62 62 64 72 73 82 70 23 1 12 143 85 103 85 183 144 181 153 177 164 233 166 205 147 170 205 144 203 169 148 171 195 203 194 181 173 175 148 126 125 122 100 127 111 103 112 91 100 83 72 36 68 81 70 65 47 43 59 63 46 37 39 76 58 50 54 64 58 74 56 35 31 45 68 66 112 121 39 18 34 56 96 83 50 96 
39 32 41 47 12 19 32 48 54 38 45 61 43 48 63 83 65 18 69 126 141 120 73 103 121 59 10 56 40 4 14 42 24 12 49 51 75 42 52 45 59 64 70 45 37 24 19 29 8 25 73 66 26 32 100 82 68 35 38 59 62 184 54 68 134 145 110 67 27 90 91 81 70 100 88 74 84 90 131 92 68 56 60 64 51 6 11 182 168 158 94 78 113 103 70 58 90 76 87 74 65 103 94 123 113 130 97 87 91 84 46 95 140 21 79 78 82 89 57 45 84 70 85 71 91 106 88 74 100 124 73 66 77 110 97 99 113 106 102 102 103 105 108 115 109 109 103 102 124 116 104 97 107 106 102 113 131 131 119 116 125 131 135 132 130 134 135 127 134 141 144 133 175 118 119 205 179 164 172 160 132 121 166 199 58 165 98 136 51 3 4 0 6 6 4 3 4 5 2 1 1 4 1 1 1 1 4 0 4 2 1 3 2 1 1 2 0 1 1 5 3 1 2 1 2 3 1 1 1 1 1 1 1 1 2 1 1 1 1 1 1 4 8 1 1 2 1 6 1 1 1 5 1 2 1 2 1 6 4 1 1 1 1 1 1 1 1 1 1 1 1 1 3 3 1 1 4 6 2 2 5 3 4 2 2 2 4 2 2 9 1 2 2 1 3 1 2 1 1 4 1 2 1 2 1 1 3 3 3 4 2 6 2 1 2 2 1 2 1 1 3 2 1 10 1 59 237 189 194 191 189 187 175 213 168 101 107 100 187 54 1 14 1 7 2 9 6 3 8 10 5 3 5 5 8 12 9 5 9 17 10 9 7 4 4 6 6 5 7 7 3 10 4 10 7 7 5 5 9 5 7 12 5 6 9 7 3 1 5 7 8 9 3 7 4 1 3 6 7 9 8 5 6 7 5 1 2 8 0 85 240 154 160 224 226 208 194 238 225 222 246 217 213 214 10 0 25 0 21 24 40 23 17 9 3 6 1 9 5 4 8 4 16 7 7 20 15 22 16 12 23 39 34 16 15 30 32 34 23 11 13 11 18 7 1 14 4 8 6 3 11 5 3 5 8 8 0 1 2 6 24 7 7 1 3 1 10 4 2 9 5 4 1 6 3 1 11 2 2 9 18 13 5 1 1 10 11 15 21 10 3 18 21 22 17 20 24 25 23 28 31 33 24 15 15 24 27 28 25 32 37 36 39 47 53 52 46 47 33 47 46 45 47 60 49 52 57 58 58 64 63 55 59 58 61 52 61 61 68 63 61 45 3 12 2 126 100 118 124 167 159 183 185 131 188 166 139 237 151 146 182 171 204 179 143 172 195 203 203 207 204 182 153 128 129 120 93 122 107 108 96 81 90 91 65 12 47 86 76 85 69 62 62 59 65 63 22 27 45 45 50 28 77 105 58 91 124 136 69 50 108 101 83 86 134 101 86 78 66 84 
109 102 96 94 82 74 111 63 119 100 93 88 106 66 75 48 91 180 91 91 69 13 53 71 41 12 20 34 11 10 8 4 17 18 25 23 34 55 77 67 69 52 51 76 69 39 38 34 61 48 57 50 28 58 104 53 6 46 100 53 34 94 94 152 177 126 90 67 67 76 101 66 65 78 78 115 112 73 72 78 119 65 61 53 21 67 219 251 205 253 149 91 192 186 195 12 47 95 74 84 71 69 61 62 134 146 82 87 112 98 92 158 193 10 173 82 41 84 86 88 64 64 127 98 78 99 87 72 113 113 94 101 103 106 93 90 102 106 111 114 108 103 107 117 111 118 122 111 112 93 98 120 117 107 106 110 112 121 130 126 118 133 133 127 133 133 128 132 156 152 153 142 181 148 157 203 136 83 174 192 113 145 90 121 57 142 77 112 24 1 9 2 1 2 1 4 4 1 1 5 3 3 1 7 5 1 2 1 2 3 2 2 2 6 7 3 4 3 1 1 4 5 13 14 21 20 17 17 25 25 23 22 23 22 25 26 19 24 31 32 38 36 37 29 33 45 39 34 36 44 36 38 46 44 24 44 46 28 19 36 47 37 30 41 43 27 22 31 43 53 53 45 42 25 39 50 34 33 44 36 44 38 43 40 47 38 45 48 45 64 62 58 59 64 68 42 52 52 57 42 48 49 66 68 72 72 74 70 66 67 63 66 74 71 79 73 65 70 73 81 57 57 72 58 20 35 229 130 78 146 174 167 176 170 70 52 85 82 127 79 11 1 11 0 20 16 9 5 6 5 4 7 10 5 5 8 8 4 4 6 5 9 11 9 8 9 9 7 4 7 5 8 2 7 8 7 8 11 6 6 3 2 7 5 5 5 7 8 6 5 5 3 6 8 7 8 9 5 2 7 1 1 2 4 2 1 3 8 1 63 197 163 108 101 106 48 190 178 115 82 80 155 130 194 141 2 0 0 2 1 1 2 5 2 1 6 1 4 1 1 1 1 1 2 3 1 1 1 4 2 2 2 3 2 2 1 4 1 4 3 12 2 1 6 5 1 1 1 2 3 1 1 2 0 0 0 0 0 2 0 20 0 0 0 3 0 3 0 4 0 0 4 2 5 2 7 1 5 5 1 0 1 7 9 3 2 7 10 7 4 4 3 5 5 0 1 3 3 2 7 6 7 5 1 0 7 9 3 2 0 0 3 9 6 0 0 3 5 0 3 0 0 0 4 5 9 14 13 9 13 12 5 18 11 18 21 38 33 33 28 1 47 96 69 37 79 115 111 106 143 132 201 164 130 153 189 187 228 101 166 216 161 183 181 195 200 190 185 184 194 206 196 156 123 121 115 93 124 111 115 98 104 100 103 87 70 78 80 75 81 69 71 67 55 58 50 42 53 46 45 33 32 40 26 4 140 170 140 167 117 120 106 130 110 104 65 75 110 55 4 
89 77 86 89 69 115 109 104 96 115 96 118 105 93 111 111 101 108 157 179 118 98 89 95 99 80 92 67 66 69 83 34 29 40 44 50 29 29 32 25 38 27 22 33 57 49 42 39 48 41 41 45 30 55 30 12 52 40 35 53 34 73 7 21 83 78 73 115 67 77 64 93 90 109 92 97 93 79 47 92 114 55 40 41 18 157 228 175 189 195 136 151 203 251 189 7 133 100 95 58 42 84 42 86 79 110 82 25 21 105 44 96 55 38 148 37 36 113 110 79 75 76 113 115 99 107 71 74 127 100 88 96 92 87 92 98 107 100 97 104 111 114 111 109 122 106 116 108 104 105 112 106 105 102 114 118 108 115 132 133 134 122 119 137 146 129 122 141 132 131 135 121 144 134 163 193 194 120 121 212 53 89 94 109 64 122 56 97 33 22 31 68 86 91 92 84 78 80 91 100 88 95 93 93 95 98 101 91 95 106 112 114 121 129 123 110 132 126 116 125 136 137 140 133 144 140 142 140 145 141 141 135 133 132 138 145 132 137 143 146 160 156 153 147 152 167 163 162 171 153 157 168 153 170 174 173 176 163 159 171 179 164 156 162 176 168 170 172 176 178 184 182 197 171 165 179 181 176 177 178 182 173 177 182 184 172 171 176 174 170 182 199 203 191 187 166 189 177 175 184 183 184 187 190 170 182 190 194 196 198 196 189 157 186 188 197 194 189 194 162 199 188 182 178 134 50 254 205 159 197 198 195 212 167 74 119 164 108 128 113 1 0 6 0 7 2 1 1 1 1 2 5 2 5 6 6 6 7 8 7 5 7 7 5 4 5 6 7 7 10 10 13 7 11 6 2 2 4 4 13 9 6 13 7 6 5 9 12 6 7 9 7 6 5 4 9 6 5 3 7 11 10 9 7 6 4 6 10 1 62 192 143 116 74 115 114 133 127 83 64 25 58 36 52 123 130 42 91 83 93 105 79 94 92 88 103 94 93 97 102 90 94 84 86 83 71 77 85 84 65 54 58 64 60 56 57 52 45 64 50 82 50 32 43 50 43 52 39 25 15 18 26 27 10 15 11 4 5 26 9 26 5 1 1 3 1 1 2 1 3 5 1 1 1 2 5 5 4 0 3 3 5 0 1 8 1 1 2 1 2 4 1 2 2 1 1 5 1 1 1 1 1 1 2 1 5 5 1 4 2 1 1 1 1 2 2 1 1 1 2 1 5 2 2 4 1 1 5 2 1 5 8 1 1 6 8 8 3 12 21 5 80 166 135 97 58 86 90 100 63 95 187 192 183 44 207 236 217 132 119 166 169 170 160 199 202 196 206 200 178 177 171 163 122 113 118 104 130 115 114 103 110 96 94 90 99 91 80 84 80 69 77 77 65 64 53 43 59 41 39 37 30 18 27 10 69 135 86 112 113 95 66 33 106 113 133 88 34 13 5 
31 45 39 38 94 62 30 48 57 66 64 78 80 57 72 73 57 28 128 131 89 93 47 40 43 67 122 63 66 93 122 117 115 123 126 127 120 110 119 112 86 97 87 76 75 58 46 47 53 45 29 20 11 22 5 15 11 22 23 19 27 95 70 37 58 59 85 88 100 110 92 76 75 109 100 94 87 67 112 73 109 130 10 47 24 152 245 103 181 189 177 153 183 78 40 111 137 92 127 188 160 96 95 112 96 100 69 68 104 99 109 125 34 10 98 100 52 126 83 52 101 88 74 112 133 108 80 111 114 89 83 93 93 92 93 101 100 98 95 96 99 105 111 115 118 103 114 99 96 108 123 124 115 116 121 122 115 110 111 112 124 118 124 129 127 137 141 125 94 106 110 100 111 104 143 188 171 103 136 227 34 10 49 61 66 68 46 85 76 125 165 156 142 132 115 107 118 133 131 117 126 138 135 132 138 148 152 136 145 144 146 153 159 161 164 167 158 157 153 164 174 169 166 156 157 152 162 158 156 148 151 142 142 145 162 179 159 152 146 143 149 151 160 160 156 158 154 162 169 155 182 188 137 146 163 155 160 167 168 168 168 165 162 165 172 167 170 150 146 142 158 157 141 165 154 130 131 132 131 144 148 139 134 141 135 128 123 129 101 78 109 134 132 117 120 118 88 112 127 152 129 152 146 140 116 135 136 138 137 134 133 114 121 106 133 145 150 149 127 132 144 165 150 159 161 148 246 249 243 233 240 244 237 250 247 228 251 115 123 77 1 6 1 0 0 2 4 4 1 2 3 2 5 2 2 2 2 2 2 3 5 3 2 2 2 2 3 4 6 3 2 3 4 3 3 6 7 3 3 7 4 4 2 3 5 2 2 3 2 2 4 2 5 2 3 3 2 4 9 4 2 2 2 2 1 2 1 2 5 24 199 171 141 31 52 253 231 214 235 209 206 216 212 231 213 224 201 159 161 175 151 182 195 182 166 184 180 177 185 190 189 195 199 198 202 197 187 193 182 185 203 219 208 185 188 210 178 190 203 178 192 179 192 204 216 183 216 217 232 231 180 163 182 212 217 193 201 176 196 215 207 195 185 191 182 162 147 154 140 158 165 144 158 160 149 117 113 139 144 153 115 99 91 124 109 91 77 84 93 91 86 86 77 67 51 46 51 52 50 52 75 61 49 41 33 40 50 49 42 48 47 38 27 27 34 42 42 16 28 13 1 9 4 6 8 1 3 10 6 1 1 1 6 5 1 1 1 3 1 1 1 64 118 80 43 67 81 90 112 58 99 165 199 202 42 203 225 236 157 127 143 103 148 144 164 206 206 199 196 192 192 174 161 125 115 
133 118 132 121 118 113 105 99 98 99 101 94 99 93 86 75 73 66 56 53 44 49 53 52 29 48 44 42 44 28 138 159 134 99 115 109 95 67 84 79 106 62 14 56 43 
86 19 15 29 82 70 32 40 61 55 33 39 36 50 50 51 28 13 49 50 73 76 54 10 6 89 122 87 40 55 46 49 56 70 63 76 82 98 99 82 99 111 99 98 134 106 129 128 131 129 124 120 121 100 102 78 64 72 55 81 66 43 88 71 58 45 65 132 73 101 101 95 55 134 96 73 67 99 95 42 60 113 39 56 60 109 181 88 141 235 131 91 21 11 84 92 97 110 139 192 241 166 81 113 69 70 126 116 99 89 106 127 9 6 97 46 83 100 95 81 83 112 92 73 74 70 101 80 94 91 91 99 95 97 91 104 97 96 96 96 99 103 104 102 99 90 93 91 121 125 111 115 117 120 112 108 113 107 103 115 115 97 117 128 111 124 142 120 98 110 109 108 121 113 146 198 189 172 252 253 195 176 200 247 248 237 229 231 254 236 233 237 224 204 196 210 223 218 210 208 220 215 209 220 226 221 225 225 224 226 228 230 232 236 241 244 243 246 247 253 254 249 253 251 244 240 254 254 248 240 248 239 246 239 240 250 223 222 225 231 246 239 245 246 241 236 237 252 240 246 245 243 241 248 240 254 254 249 244 250 254 247 242 250 251 245 249 228 240 238 243 222 238 231 234 247 250 241 236 239 242 235 221 227 221 227 225 233 200 190 226 218 199 204 220 212 211 203 208 202 179 179 185 172 154 173 162 161 163 169 182 164 156 162 158 155 144 143 155 152 156 117 141 142 127 86 231 148 184 205 197 200 205 195 180 140 241 138 200 181 195 194 200 185 195 200 201 189 178 178 173 160 173 139 116 123 130 120 109 109 99 98 102 114 121 119 115 111 108 96 93 84 87 84 120 159 121 84 86 71 60 66 56 69 64 57 59 59 51 50 51 43 45 42 47 43 33 40 43 26 33 31 31 30 29 25 21 18 5 36 166 130 116 148 70 216 235 231 226 223 250 241 241 255 252 252 255 204 142 137 120 119 161 135 110 133 136 132 131 129 125 121 124 114 129 146 130 138 144 141 141 142 141 140 143 147 138 135 134 147 139 140 150 126 138 140 120 128 120 100 150 147 148 153 166 158 183 164 182 166 167 160 151 167 165 158 155 182 173 190 199 167 177 176 187 175 186 206 189 201 191 211 182 178 204 184 158 162 182 171 157 167 205 194 179 176 182 179 168 162 188 176 175 178 173 175 180 176 161 148 153 171 168 147 143 158 141 116 165 168 165 171 160 156 139 140 142 140 132 123 
104 80 91 99 96 97 89 95 79 67 58 41 63 50 23 60 50 65 55 61 68 130 124 79 112 230 216 241 146 146 179 108 152 163 128 178 191 200 204 194 200 197 147 123 121 148 128 132 128 131 123 108 111 102 105 91 70 73 59 54 54 57 58 62 60 51 39 33 59 48 42 41 40 30 16 62 38 54 139 68 80 122 115 104 131 53 62 58 49 36 
78 80 65 72 59 75 35 31 79 70 46 63 53 59 49 52 59 18 23 27 15 19 20 32 40 114 63 101 88 35 32 44 49 56 40 65 67 50 43 38 43 51 54 37 34 49 54 42 53 59 61 65 86 87 101 85 95 119 123 144 133 116 103 95 96 71 86 89 85 68 71 55 59 107 89 90 41 80 72 44 48 27 24 60 58 64 102 77 81 98 63 89 69 108 96 113 39 21 79 76 103 112 96 85 48 42 43 89 98 65 77 58 10 58 100 57 65 50 44 80 40 79 95 81 111 92 75 78 93 69 79 77 87 90 80 101 92 98 109 107 109 107 92 102 75 86 104 115 116 116 115 110 116 117 114 113 116 113 108 108 124 117 106 116 132 115 119 104 92 100 101 99 114 102 137 189 99 121 252 249 247 252 248 249 236 234 246 227 232 249 223 210 227 245 226 223 228 218 247 228 219 228 224 226 249 251 229 223 226 232 233 233 234 224 217 225 235 235 222 244 239 225 218 222 222 236 232 220 216 217 221 234 223 239 247 245 240 244 242 238 230 233 237 237 230 223 225 232 227 248 253 225 223 243 238 235 231 237 236 234 233 235 239 236 250 252 232 241 249 247 243 245 246 252 250 244 244 246 248 252 252 231 234 232 234 249 248 250 251 253 250 250 253 253 253 253 252 253 251 250 251 251 251 251 248 249 248 253 254 248 254 250 245 251 251 244 245 253 253 245 248 223 234 235 228 212 243 193 218 228 234 221 210 193 210 213 239 249 253 251 239 249 236 234 245 222 218 229 236 225 213 228 249 245 240 254 248 255 242 252 240 250 218 181 172 215 231 227 190 157 211 233 249 250 230 240 231 254 248 248 243 234 253 254 246 227 241 239 241 237 242 233 247 238 249 246 220 219 224 206 213 236 215 231 228 218 226 229 245 245 219 206 225 230 186 183 244 80 80 120 107 100 123 132 112 113 252 145 78 153 104 115 122 156 182 157 137 144 181 185 167 161 176 173 143 157 187 165 148 140 125 149 166 174 138 158 202 188 159 152 167 157 161 140 170 198 190 174 165 105 179 215 211 176 127 134 128 175 178 182 187 184 189 185 183 185 190 213 184 155 154 153 176 166 125 158 163 138 129 164 176 175 174 197 172 180 178 193 204 205 204 181 152 139 188 178 148 177 196 212 196 175 188 183 166 183 186 187 199 142 157 193 187 181 178 173 157 155 169 165 158 159 158 
171 183 169 161 130 143 168 194 160 170 179 168 161 176 163 171 175 166 159 151 148 146 134 110 88 61 24 41 74 83 39 24 189 207 232 121 192 171 139 117 129 164 142 179 195 180 194 194 170 143 130 132 126 141 146 137 119 113 74 75 86 72 70 72 71 82 58 62 68 86 59 57 48 103 78 15 35 42 50 39 72 84 62 81 95 101 82 96 135 117 102 45 41 35 27 25 3 
34 58 101 83 103 82 55 46 66 41 36 45 62 63 63 14 16 23 21 17 30 6 37 63 49 88 101 48 37 45 48 72 30 50 64 56 68 48 34 65 44 54 49 19 9 41 50 30 39 44 14 25 26 6 88 58 7 18 21 54 101 103 83 104 103 98 79 54 115 93 87 98 90 61 71 123 9 45 96 55 52 35 38 66 79 58 68 68 82 76 109 119 80 95 96 85 27 85 25 59 59 101 111 101 161 129 24 34 85 109 92 52 33 130 73 62 139 47 56 51 113 105 94 112 106 131 94 91 112 105 66 84 67 68 83 83 70 85 100 93 90 103 105 103 105 114 118 113 107 107 110 113 115 115 112 111 118 122 124 128 113 111 100 133 132 131 129 91 83 108 105 102 113 114 139 200 93 127 170 139 129 105 112 121 140 161 151 146 181 206 190 159 123 96 157 158 161 156 128 98 153 207 185 140 123 108 127 171 165 159 135 120 136 161 167 163 120 119 157 177 194 161 187 187 191 186 162 146 171 197 174 131 129 149 182 193 157 116 126 166 184 181 165 157 175 192 187 175 136 174 183 175 187 167 143 178 193 181 176 163 165 180 182 191 185 194 182 177 180 191 186 198 188 189 185 184 193 195 190 186 208 195 199 210 196 181 190 201 187 201 203 202 205 205 208 225 220 207 201 213 221 221 217 220 231 235 233 222 219 233 241 246 224 228 231 241 245 229 225 248 248 252 249 249 246 253 254 217 224 209 187 210 226 242 196 191 202 168 173 152 150 170 146 166 152 152 153 171 168 160 141 149 185 174 169 172 169 172 162 169 187 187 162 151 150 154 146 159 163 136 166 182 200 200 198 199 216 205 191 196 201 217 201 191 196 206 225 235 209 205 218 228 221 224 222 221 222 220 221 228 244 246 223 230 235 231 239 244 241 242 247 252 248 255 245 252 235 154 137 114 135 138 122 90 77 157 255 186 165 236 244 252 249 239 246 254 252 254 243 253 254 248 254 254 242 244 251 247 254 251 254 254 247 253 254 253 254 253 253 252 254 253 246 254 254 245 254 247 252 254 245 251 248 254 240 254 246 252 254 253 250 255 252 249 253 254 255 249 254 244 254 254 253 254 254 254 254 255 255 252 255 250 246 246 253 255 255 254 255 254 248 255 254 242 250 250 254 254 242 254 254 245 254 254 254 251 254 254 243 249 252 254 253 247 250 252 243 226 242 254 217 219 217 
222 214 230 201 213 231 227 233 217 211 241 235 209 221 221 225 225 224 223 224 228 231 234 240 246 245 254 250 236 220 201 162 163 241 243 221 152 230 224 209 117 87 153 176 184 193 174 153 140 131 135 121 135 114 103 99 91 90 93 97 97 100 91 74 79 68 59 48 58 68 61 45 68 165 143 104 115 120 129 124 131 161 97 69 53 39 20 62 139 31 39 13 24 22 9 7 7 
79 32 40 80 73 72 48 54 52 8 9 51 61 68 70 9 31 6 19 15 14 25 55 29 7 106 25 54 43 43 69 31 18 56 66 72 65 73 32 47 69 56 55 64 51 61 45 32 44 21 20 52 19 21 42 80 54 37 44 29 35 70 81 74 82 70 70 97 85 62 103 121 97 73 88 65 110 60 132 101 82 78 52 83 56 106 57 94 65 74 95 101 104 41 44 45 42 63 89 91 63 46 112 88 69 112 86 38 29 61 67 63 54 70 50 62 64 129 72 55 102 127 146 113 123 81 110 103 90 70 99 123 140 105 92 93 91 92 88 85 73 67 71 62 91 103 104 102 111 119 120 125 118 121 120 120 124 123 122 125 120 104 120 118 107 121 134 152 122 137 150 135 145 145 121 222 217 207 186 192 149 104 89 107 145 165 182 131 104 142 157 160 150 170 160 167 187 116 142 178 194 168 161 168 199 214 184 178 212 193 201 203 185 193 201 177 209 207 169 201 199 207 176 184 204 184 182 198 201 193 194 203 227 217 198 186 199 219 220 206 207 215 210 205 208 200 194 206 216 196 210 205 183 201 217 203 204 207 197 212 217 203 198 179 192 170 185 220 214 176 148 193 223 203 180 184 210 222 208 191 168 168 175 208 205 175 173 168 224 203 160 163 212 215 172 152 179 213 214 174 159 189 209 202 157 160 193 214 177 150 152 213 200 205 170 139 162 197 200 191 158 178 194 192 192 165 191 201 183 195 196 160 181 119 180 181 189 187 161 175 185 172 189 173 173 177 159 170 163 167 156 157 172 160 163 158 163 160 157 161 158 138 152 185 180 179 180 179 183 170 180 178 179 163 173 167 163 158 165 156 142 189 182 195 179 197 189 194 138 128 135 149 151 140 149 159 151 151 155 152 178 166 148 139 147 149 159 168 165 159 158 162 153 157 160 183 210 215 201 202 190 244 195 163 155 220 254 239 245 243 231 223 233 237 225 222 231 218 233 225 212 228 237 222 229 242 224 217 203 210 214 208 228 213 211 201 193 254 234 191 197 204 197 203 199 203 193 180 193 213 184 192 220 216 190 192 188 190 187 184 196 181 179 199 202 179 177 197 237 221 205 200 194 185 184 188 182 187 189 180 186 172 183 206 244 193 180 180 188 206 201 198 181 197 204 207 223 213 199 225 232 208 198 210 183 183 171 184 248 216 223 214 206 219 223 247 232 218 225 235 228 239 241 
243 252 242 254 246 240 254 242 254 253 242 254 254 251 252 253 254 252 255 255 252 251 255 255 253 254 254 251 250 253 254 253 251 254 254 207 97 230 150 184 254 197 184 165 141 129 115 111 137 118 112 109 127 118 90 128 106 96 101 99 87 94 91 84 94 101 120 107 119 111 122 138 131 111 100 93 101 85 62 46 27 28 15 26 35 37 31 47 79 24 35 23 36 40 35 22 19 
75 77 71 51 71 50 41 34 35 9 55 116 64 53 82 32 21 45 39 31 44 63 61 46 10 99 29 36 32 29 80 63 61 66 61 91 47 40 41 62 58 42 65 98 52 25 9 37 32 36 74 38 37 54 46 83 76 36 36 41 63 81 94 89 77 53 76 78 89 61 61 44 61 84 34 88 118 99 69 56 43 57 55 46 97 60 43 99 46 91 138 98 69 56 112 126 91 101 112 47 23 129 49 62 64 94 95 90 107 89 39 76 134 93 56 33 43 60 94 133 110 97 96 100 71 99 85 84 101 100 82 105 117 89 84 96 70 87 85 90 94 92 107 109 94 89 65 56 79 96 97 100 115 120 120 121 126 127 125 128 116 86 100 110 98 85 89 101 135 122 122 151 155 148 136 134 196 209 205 178 160 148 120 143 199 191 179 155 150 141 136 180 215 216 171 131 157 155 189 224 187 172 159 184 191 190 209 195 173 189 198 200 200 193 193 204 206 201 199 150 159 178 199 152 138 157 190 202 179 167 185 205 182 189 195 196 195 195 197 198 191 197 194 201 211 192 176 189 182 194 177 159 184 208 202 195 154 164 204 211 203 189 158 160 198 213 193 157 165 208 186 152 161 199 227 218 188 169 182 208 235 223 184 166 191 234 245 213 170 191 239 236 177 173 221 241 200 181 184 214 229 211 189 183 224 214 194 179 198 238 220 191 205 187 211 235 214 199 201 193 210 210 186 215 199 195 186 206 233 214 205 168 129 44 188 208 175 176 178 178 199 204 209 192 210 209 186 189 196 205 195 179 193 187 197 195 195 188 183 188 198 177 183 196 184 187 196 188 187 185 193 186 190 184 200 194 183 186 203 184 168 219 213 211 191 217 208 228 181 167 166 170 182 169 179 188 174 175 179 163 190 185 192 173 177 180 184 190 170 182 165 164 169 160 149 180 218 116 123 246 214 154 208 237 185 190 197 180 163 174 203 182 166 153 175 176 194 174 146 153 170 185 207 178 142 122 130 184 193 198 160 109 128 146 189 199 194 119 123 121 112 191 212 193 158 128 166 213 200 178 116 110 145 175 208 166 123 127 159 235 195 149 141 142 192 230 184 165 170 142 145 185 197 161 132 137 201 203 161 124 140 210 212 167 123 161 200 208 196 161 135 155 202 208 197 156 122 152 198 199 187 147 105 108 193 171 104 123 189 173 171 189 168 142 165 183 179 159 128 117 174 156 141 158 109 117 
141 139 153 128 142 172 158 143 119 92 114 143 135 129 131 124 126 137 140 133 131 136 132 141 126 114 117 114 112 126 103 125 111 83 147 93 61 120 122 146 130 150 122 89 127 102 121 138 123 129 176 132 126 100 125 116 136 141 142 141 139 130 131 153 132 119 133 116 103 78 77 51 30 40 36 30 39 46 31 36 36 26 30 38 32 16 33 32 21 19 18 36 29 11 
19 62 82 46 59 47 67 11 5 25 46 67 99 53 64 82 38 97 37 36 59 43 66 54 84 253 67 45 75 64 69 85 74 58 67 69 63 45 46 24 34 28 55 81 42 28 14 46 37 47 27 2 24 32 61 38 36 52 41 51 90 61 53 82 93 69 74 75 87 155 83 54 64 90 56 39 70 91 115 47 59 48 20 89 120 66 68 92 56 113 92 116 112 116 98 33 99 107 59 112 68 69 131 84 69 66 65 80 81 59 52 42 54 70 116 107 37 99 104 62 106 136 71 97 92 89 63 78 60 101 114 95 137 111 86 81 79 125 115 93 97 105 116 119 117 108 81 72 93 103 96 95 85 86 83 84 93 100 106 112 139 204 63 55 88 146 132 96 143 143 145 116 123 149 157 152 136 70 114 145 164 110 91 110 145 138 106 132 130 114 147 130 60 47 69 71 73 61 35 74 128 146 160 140 140 149 127 135 141 147 148 132 122 132 140 128 117 132 137 156 158 150 134 157 167 162 157 154 156 167 155 125 143 128 122 133 133 124 122 132 126 137 129 129 149 154 150 159 154 147 160 171 161 164 171 156 156 159 145 161 170 165 179 173 146 151 152 177 168 151 160 184 177 170 159 159 169 172 168 166 155 155 172 180 172 155 148 167 174 171 169 171 174 175 173 169 174 169 166 167 169 168 166 164 163 175 179 175 176 168 174 165 144 191 193 175 183 172 161 186 196 187 168 152 181 214 206 153 123 189 210 154 181 148 207 205 174 178 191 186 198 197 187 169 165 166 165 165 191 196 188 165 170 169 179 188 182 179 178 195 185 200 191 182 197 191 179 189 199 194 199 192 198 203 207 203 207 203 212 201 200 233 242 232 224 238 225 229 196 173 176 175 184 192 183 176 186 188 182 182 209 206 215 186 187 200 203 201 200 215 190 180 178 167 155 179 183 135 43 170 215 217 206 179 178 200 178 192 213 168 159 157 167 194 171 203 191 202 197 204 183 185 203 193 198 216 197 186 188 165 182 235 244 210 194 170 189 215 236 252 231 179 155 170 203 234 194 179 178 191 234 248 189 176 198 211 247 249 191 167 176 216 253 196 155 172 177 211 242 224 224 190 176 226 239 203 154 181 221 234 190 185 190 183 223 191 168 174 180 194 205 183 148 149 149 188 205 154 136 173 137 169 106 59 57 140 161 162 135 139 156 148 158 155 125 152 134 161 167 177 226 162 133 177 164 164 176 141 
135 142 159 139 119 127 169 170 146 159 153 128 150 166 173 163 158 164 164 156 147 159 137 153 173 166 181 172 94 63 166 137 202 146 137 149 134 154 134 167 194 176 187 186 171 143 125 153 183 216 201 145 144 133 150 142 138 136 137 121 121 93 89 71 65 47 40 44 90 73 41 55 55 51 37 39 41 42 35 37 41 41 27 12 30 21 20 20 4 23 41 29 
71 50 34 78 44 88 102 30 9 18 20 25 69 106 107 68 93 68 48 53 49 26 55 8 54 252 85 37 74 80 80 80 72 75 103 78 70 72 52 60 70 42 43 52 46 55 45 72 30 12 31 30 19 40 57 50 64 44 33 51 66 71 89 73 87 58 77 114 105 106 112 61 132 90 52 105 34 58 85 53 90 67 53 72 84 96 82 72 88 81 81 56 89 75 124 101 120 67 88 154 29 113 61 45 49 86 110 72 51 115 55 72 65 74 108 114 60 70 83 77 89 100 91 83 121 132 110 93 85 124 109 89 89 125 65 110 113 134 112 92 102 105 100 102 94 96 95 102 117 118 113 115 129 126 114 105 101 95 88 88 169 185 13 51 56 247 220 98 143 172 145 137 137 122 154 108 100 125 158 174 141 124 119 104 129 155 125 132 147 133 140 129 139 135 124 137 125 130 148 159 148 166 155 155 155 153 163 154 145 164 150 139 154 150 135 149 154 138 141 139 133 148 152 145 155 153 158 161 155 152 159 166 158 160 156 148 149 154 152 144 148 159 157 153 156 156 172 203 203 194 197 205 188 176 187 186 193 178 188 197 215 222 193 181 200 213 199 204 196 199 206 196 190 196 198 199 199 195 194 200 197 194 200 188 190 197 185 193 195 195 195 193 190 188 188 189 189 186 184 184 184 183 182 182 178 179 172 173 188 179 189 170 177 172 172 173 171 175 181 178 166 163 164 185 141 140 144 166 149 140 106 122 107 131 159 140 137 143 165 106 48 43 74 145 160 150 146 112 121 117 115 108 111 106 117 133 128 127 132 160 131 148 155 160 182 175 168 176 178 191 199 201 187 185 179 185 183 175 176 176 168 161 173 176 187 178 155 154 152 149 160 162 158 165 161 153 157 163 157 149 177 174 179 157 154 164 153 135 145 151 145 159 165 176 178 175 196 229 183 102 203 165 148 228 208 136 189 199 199 192 147 168 200 214 203 173 152 193 190 204 195 160 160 171 179 188 183 186 155 170 178 186 175 183 183 169 186 185 178 162 182 199 172 187 195 167 185 181 172 183 173 165 176 178 162 153 147 141 154 159 150 146 140 141 142 135 136 143 124 115 139 134 116 121 121 122 132 116 128 115 100 106 123 95 119 128 101 98 113 114 120 117 110 101 120 138 121 117 125 106 123 129 145 125 2 2 151 154 143 147 134 141 158 160 157 146 113 149 145 145 140 121 119 153 
175 161 138 82 89 147 138 124 108 131 153 159 142 127 120 139 147 154 139 115 121 158 180 176 169 127 177 184 189 194 145 136 161 175 200 183 168 154 140 163 168 156 169 156 163 152 123 188 223 211 204 182 160 166 145 120 126 132 145 124 125 108 90 71 87 80 60 66 65 56 64 55 68 74 48 48 44 49 39 39 38 40 31 39 38 40 42 42 30 11 11 28 4 4 27 27 
94 86 54 56 56 84 78 54 49 11 8 55 58 66 48 64 70 44 77 68 65 53 37 20 57 165 31 24 55 97 73 85 66 48 66 93 82 92 46 62 74 71 100 110 98 74 36 60 53 55 150 80 17 15 24 32 71 25 48 84 50 59 103 104 90 94 43 99 92 65 121 100 134 113 66 73 61 37 57 89 60 107 109 52 59 86 48 96 68 85 83 53 87 144 94 149 121 92 124 79 97 99 58 87 42 59 88 48 80 43 71 29 95 54 50 77 96 103 66 79 71 133 67 85 85 117 92 100 92 112 68 52 64 63 89 128 116 96 88 93 104 101 89 93 84 83 86 93 94 92 97 108 114 116 115 119 126 125 118 117 220 148 36 77 75 226 161 67 113 105 132 153 112 121 181 152 78 168 128 118 122 203 203 173 118 108 128 127 106 110 161 237 254 146 115 130 116 129 135 115 129 109 120 125 118 118 115 117 121 110 113 123 116 108 113 120 115 112 119 112 121 112 103 114 108 117 119 120 121 119 107 100 114 115 116 116 109 107 113 123 122 114 111 120 120 108 119 148 138 145 137 140 143 136 141 140 137 148 145 146 140 131 139 133 128 129 128 140 133 137 140 147 140 140 136 132 131 131 137 149 140 139 138 141 148 143 138 150 146 161 145 139 163 159 144 160 152 154 158 165 169 170 169 170 173 177 179 179 180 178 184 185 188 183 186 191 189 185 184 184 187 180 184 177 184 194 193 172 194 206 205 205 180 155 184 154 175 199 172 177 156 146 203 223 251 246 252 231 232 236 230 242 253 235 238 232 211 171 159 174 188 170 176 174 169 165 175 168 191 214 199 214 182 165 156 159 158 155 159 180 180 173 161 160 161 153 144 156 172 177 173 171 174 170 177 178 169 174 173 154 145 148 159 160 150 151 128 103 140 129 98 103 114 139 158 164 149 162 172 151 46 161 161 133 155 147 140 139 139 139 166 159 157 146 148 154 174 155 163 145 165 167 170 165 160 163 164 162 164 169 162 159 160 163 147 149 136 146 146 153 151 140 148 131 131 143 141 140 137 137 136 128 123 138 134 148 138 130 142 136 136 146 139 143 142 132 140 142 144 146 142 138 130 113 115 134 117 132 152 138 134 142 152 130 133 135 143 150 149 152 150 131 137 139 156 150 128 134 144 133 141 139 125 163 79 68 130 131 146 128 151 149 132 136 131 134 146 151 128 133 131 154 154 135 147 
164 94 96 145 122 113 144 152 148 140 148 150 181 190 169 177 157 155 176 185 173 169 178 178 180 169 171 165 153 166 121 84 93 74 135 145 157 175 165 164 175 167 158 156 151 144 130 158 143 166 180 191 193 169 140 136 105 105 91 98 87 87 78 80 97 77 37 52 52 48 44 55 56 48 44 38 43 51 41 47 56 41 38 24 27 33 33 40 22 7 33 17 4 16 22 
68 68 73 47 59 64 71 91 97 53 49 41 35 51 57 65 44 38 43 32 38 57 47 53 57 12 54 56 83 68 88 89 73 62 68 63 51 94 103 68 51 59 88 84 79 60 28 50 60 85 97 86 23 7 32 39 26 56 77 87 87 75 45 68 77 120 93 66 78 68 99 46 111 104 95 80 66 17 46 75 81 91 84 84 57 47 67 119 58 112 114 120 104 69 88 109 114 75 101 137 124 82 129 111 91 69 48 32 67 87 44 36 51 66 99 99 67 112 77 85 68 83 83 84 106 79 94 113 54 88 114 110 124 100 99 100 125 107 130 141 134 141 140 141 129 121 126 131 121 107 106 111 103 103 100 102 110 110 104 103 105 117 126 106 104 181 169 99 111 135 106 122 123 129 158 157 154 124 105 97 83 170 213 124 76 87 90 83 79 76 84 104 123 92 84 75 88 84 75 89 84 97 89 90 106 102 99 110 105 99 104 110 109 113 114 105 118 109 110 104 104 119 112 111 113 116 109 106 112 113 114 125 122 118 118 124 128 125 118 113 114 116 120 122 121 122 135 151 138 138 134 144 140 133 146 145 134 134 134 129 132 138 134 131 141 121 123 135 131 135 122 134 132 131 130 131 134 128 124 127 120 133 123 126 130 120 127 132 120 119 120 119 116 117 120 120 120 120 121 123 122 119 116 116 114 113 120 124 115 125 116 130 137 142 135 132 140 139 134 138 136 131 131 133 129 125 119 133 136 131 140 148 129 143 125 132 151 161 152 163 162 169 158 140 134 149 200 205 207 202 161 164 191 174 198 202 201 151 136 145 148 142 147 148 154 147 146 138 156 169 124 165 155 154 157 154 157 161 153 157 147 165 154 167 164 165 165 170 168 169 158 167 161 169 161 159 171 169 162 169 171 165 158 161 148 161 169 169 154 180 163 171 182 170 160 174 168 182 180 225 172 113 202 198 196 179 171 156 183 188 170 174 184 171 176 165 164 160 163 154 152 155 148 153 154 140 135 140 144 121 137 143 129 133 136 140 135 146 137 127 146 139 146 148 156 155 150 163 151 164 178 173 177 168 165 171 162 172 172 168 165 161 164 161 166 172 164 169 165 162 153 161 150 142 151 126 138 142 131 137 133 136 130 144 134 133 137 126 126 136 131 141 139 134 134 137 148 156 150 158 165 161 159 187 180 188 182 183 174 177 176 177 183 186 184 192 191 187 183 198 192 183 192 188 192 
185 203 197 195 183 205 193 180 181 161 171 162 155 156 160 160 162 160 155 150 150 149 147 147 149 151 135 150 145 137 139 125 134 122 125 139 121 128 114 130 136 123 124 128 126 133 123 134 146 96 102 115 129 111 174 163 80 85 102 101 81 88 68 76 64 247 180 85 86 88 84 106 68 55 54 56 53 66 39 77 80 59 57 35 25 24 25 32 36 11 33 30 13 29 41 
32 79 65 33 76 31 91 101 97 68 58 76 66 59 45 30 65 66 72 78 82 87 54 48 73 75 59 59 82 83 81 104 92 97 100 73 53 86 118 100 94 56 44 102 96 76 32 71 60 76 85 93 55 20 75 61 49 45 61 72 62 82 86 106 72 75 39 104 97 96 103 56 43 74 91 106 91 52 79 93 65 63 84 77 59 78 65 91 96 102 46 113 118 112 107 39 73 104 100 87 133 88 125 65 82 38 43 71 62 87 99 56 65 67 66 65 88 108 68 75 100 111 86 98 111 63 52 89 70 96 103 62 95 100 117 93 116 121 111 102 110 113 112 113 119 139 143 153 156 162 153 160 161 153 147 139 127 121 123 123 123 110 106 113 108 91 96 123 146 135 178 92 89 172 144 97 129 247 240 186 180 230 245 138 78 107 111 109 112 106 99 95 91 110 103 108 116 110 111 105 114 114 114 117 113 112 120 117 119 123 120 118 116 115 121 120 125 116 122 121 117 120 118 121 121 123 125 126 126 126 127 129 123 125 126 126 125 124 123 123 124 122 120 124 128 123 156 150 155 154 155 156 154 151 154 158 155 150 159 162 154 160 167 157 155 161 161 161 166 165 160 159 163 159 157 161 163 161 160 161 156 162 167 165 161 159 159 160 159 164 166 162 158 159 162 164 162 165 153 153 159 152 152 155 148 153 159 159 155 149 145 143 154 149 146 147 149 150 150 151 142 133 143 149 138 148 139 137 138 145 126 144 117 84 143 126 137 137 140 144 147 144 141 138 131 129 130 144 152 189 179 162 147 152 151 162 162 152 116 127 124 126 129 136 132 125 137 135 131 129 129 131 133 135 137 138 141 132 133 139 135 129 129 130 130 132 131 128 127 128 127 125 129 123 116 118 123 120 119 126 111 114 106 115 111 110 107 105 110 117 114 97 113 114 107 123 116 116 115 116 123 94 60 122 111 88 96 123 115 112 105 123 116 110 118 123 124 123 121 131 133 133 136 141 144 147 151 155 152 156 159 160 160 162 163 164 166 167 166 167 166 167 166 166 167 167 167 167 166 164 161 158 162 158 154 153 154 153 153 154 147 157 157 152 155 160 159 158 164 159 157 166 159 146 151 156 163 160 158 159 162 166 169 170 173 177 180 180 180 183 187 189 189 191 184 178 177 184 186 184 182 182 179 178 175 172 168 167 165 166 164 162 160 161 157 155 160 152 147 147 144 145 
145 142 139 137 133 138 121 113 104 117 101 119 106 106 114 122 122 123 125 117 134 131 130 128 130 128 130 129 128 128 125 122 125 130 133 131 128 125 122 116 110 105 120 128 127 121 125 128 126 126 114 157 139 103 121 98 103 100 100 97 101 93 96 92 86 65 130 163 91 100 73 64 69 60 66 56 57 49 58 48 46 52 53 70 66 46 63 46 57 45 29 37 23 36 47 53 35 22 
63 94 101 58 43 45 84 67 36 64 100 79 102 95 29 45 62 48 53 82 86 64 69 55 63 64 40 73 104 89 84 94 86 105 84 72 81 84 52 80 103 69 60 77 108 56 62 49 85 86 83 98 66 59 100 116 75 17 42 73 71 50 86 76 89 86 104 94 88 82 69 75 46 45 78 106 64 56 56 56 36 56 81 102 83 92 32 55 90 60 50 80 95 104 59 33 47 66 116 168 56 92 139 51 101 112 86 52 63 71 54 15 37 86 83 84 39 102 91 89 95 117 100 49 77 108 28 58 74 128 104 125 85 93 131 113 93 81 105 104 120 115 96 87 90 100 99 109 112 115 111 123 130 133 144 152 152 156 165 168 146 153 151 147 143 140 138 141 141 178 172 139 91 131 112 130 116 147 132 110 103 115 127 98 96 108 111 112 109 113 124 119 126 118 117 124 129 124 122 135 126 127 133 138 132 126 132 132 139 137 135 137 138 136 142 145 155 146 154 157 156 156 152 158 154 154 154 153 153 154 156 157 157 159 161 161 160 159 159 159 153 156 156 159 156 146 173 168 165 164 164 164 160 155 152 154 158 154 157 157 153 156 160 155 155 158 155 153 158 161 160 162 148 154 156 151 144 143 146 150 149 149 148 148 150 151 148 142 142 148 152 151 151 152 154 155 148 151 145 148 150 146 151 153 155 154 151 147 145 147 153 158 157 153 150 151 151 151 152 154 154 140 156 156 151 155 150 149 156 143 171 167 163 118 152 168 162 160 157 156 156 156 157 158 166 150 155 149 126 191 191 127 114 134 148 164 198 136 105 131 138 137 135 149 146 162 145 167 169 167 165 164 165 165 161 157 162 159 162 165 163 164 165 162 161 164 164 162 161 163 162 160 161 155 154 159 160 157 154 154 157 163 149 145 155 144 129 143 135 123 129 122 121 125 126 117 136 130 126 143 130 139 133 80 144 138 116 151 169 174 183 172 171 167 172 174 173 173 169 178 172 171 168 167 163 160 158 161 162 165 165 162 160 158 157 154 155 155 155 153 151 148 145 144 147 145 143 143 145 149 152 154 147 151 157 162 163 164 169 175 186 186 187 187 187 187 187 186 188 187 188 196 188 174 178 177 179 177 175 174 173 173 173 172 169 166 163 163 162 159 152 146 142 143 139 136 136 143 145 144 129 132 133 134 131 131 129 131 134 133 131 130 132 134 133 130 132 126 129 134 133 
132 130 124 131 123 131 105 94 97 110 103 104 101 107 109 97 110 119 108 124 124 131 128 130 135 138 132 135 129 126 127 128 125 122 120 123 124 126 127 127 124 120 116 118 125 125 122 125 125 122 122 115 116 157 111 113 107 98 100 97 93 95 88 93 88 81 60 154 225 54 50 65 62 55 53 49 55 53 43 45 45 49 46 48 42 49 39 43 35 40 37 39 46 15 39 98 106 112 61 
72 58 75 77 67 34 28 78 65 65 16 22 99 105 55 62 90 90 84 89 81 76 84 63 67 64 72 49 82 100 80 88 100 79 71 79 61 87 55 54 113 85 93 57 37 41 73 57 72 57 60 79 91 42 38 37 56 35 33 41 49 49 66 60 66 76 78 87 82 69 49 54 63 68 68 102 79 25 32 69 60 77 77 77 50 102 71 97 112 51 83 89 102 130 144 124 75 144 106 71 83 116 95 88 106 65 111 58 95 83 79 54 22 86 106 45 66 98 90 85 108 86 54 92 97 63 104 51 63 59 129 133 91 83 88 88 113 118 136 119 108 127 113 107 94 91 84 90 89 88 87 101 100 98 103 108 112 128 153 168 144 148 153 156 161 159 159 167 164 131 202 142 194 158 148 156 144 141 148 151 155 158 153 157 148 148 156 164 154 155 165 151 161 150 159 153 152 161 153 157 163 160 165 176 177 175 172 168 172 168 164 164 162 165 174 184 178 176 177 169 171 183 182 180 176 175 175 175 175 176 175 175 176 177 179 179 179 178 178 178 180 182 177 178 176 174 206 212 205 203 203 206 206 205 205 207 207 206 202 199 199 199 200 206 205 207 203 199 202 203 202 204 200 209 211 202 193 194 199 200 205 204 200 197 196 195 190 185 180 184 186 185 183 182 180 177 178 178 175 178 171 165 172 169 172 169 164 158 155 154 155 156 162 159 158 158 157 155 157 160 147 134 162 145 144 133 126 136 128 143 141 153 149 116 147 140 145 147 149 150 150 150 152 154 156 149 137 138 120 130 106 97 114 144 90 104 115 74 92 73 75 74 81 97 131 147 150 154 159 158 156 155 156 156 148 138 143 145 150 151 150 154 156 150 148 150 148 148 147 149 148 147 154 146 149 156 150 149 150 145 137 136 145 130 91 56 59 31 66 72 78 58 57 77 68 65 35 66 108 139 153 153 172 141 93 143 112 132 174 178 182 180 171 167 169 160 156 153 147 149 149 147 150 152 154 153 157 159 152 155 158 159 160 162 163 163 163 165 169 174 178 180 182 182 181 182 184 188 192 194 195 196 197 192 190 192 192 187 178 172 166 157 160 165 161 160 162 159 153 154 155 158 145 131 134 132 130 131 132 133 133 133 133 133 130 125 125 130 133 129 124 123 127 129 127 126 128 136 138 138 131 136 139 141 139 138 139 142 139 138 136 134 134 136 135 133 136 130 131 134 133 132 132 128 124 118 119 113 
106 112 106 99 101 103 105 98 100 108 114 125 122 122 118 125 124 116 121 133 134 131 128 131 131 127 123 120 117 119 123 125 124 120 113 110 116 122 123 123 125 121 116 117 117 95 144 139 90 106 91 97 93 88 91 85 91 87 81 62 53 56 53 60 60 54 67 64 41 53 48 56 53 48 50 43 47 44 53 67 52 30 31 24 54 53 51 33 77 78 107 100 
82 76 74 46 78 74 35 42 61 53 18 32 102 85 110 84 76 69 89 89 41 83 82 53 78 68 47 39 89 73 90 78 107 103 86 90 80 87 70 101 91 48 64 89 64 74 68 65 67 105 59 74 105 35 56 67 74 52 42 48 64 48 43 81 81 96 98 135 100 83 107 86 86 65 62 94 97 11 37 41 92 50 54 100 92 46 86 87 68 63 133 58 132 110 93 138 56 144 46 9 91 113 92 76 54 88 101 67 53 56 111 106 42 24 61 112 75 61 22 25 114 100 66 106 93 38 111 94 98 107 60 101 124 97 95 110 102 125 104 103 120 113 119 82 101 95 87 86 84 81 82 91 88 89 97 104 105 111 123 128 121 119 120 129 135 133 141 158 157 131 180 177 171 160 162 157 167 164 166 152 150 159 149 145 147 140 135 137 130 127 136 130 117 113 126 124 121 130 124 115 120 123 132 127 115 113 112 111 101 105 114 114 111 109 104 107 113 108 107 101 104 109 104 109 114 115 115 117 119 118 115 112 112 114 115 115 114 114 114 114 114 114 106 106 106 113 142 156 158 156 152 153 159 164 168 170 165 171 168 168 178 182 187 205 191 195 193 192 196 195 191 189 190 189 186 183 183 185 185 184 182 189 194 191 187 188 194 199 194 197 200 202 204 206 205 203 197 196 198 206 200 199 209 203 195 196 197 200 203 205 204 203 204 204 206 206 204 201 202 205 195 180 183 188 169 173 165 171 165 169 153 177 159 190 181 167 159 163 169 170 170 173 175 176 167 176 180 168 130 193 233 241 214 149 180 169 150 145 177 132 198 215 202 217 135 133 166 151 163 165 165 165 167 169 163 153 153 153 158 161 158 160 161 157 163 163 163 162 161 160 160 159 160 150 154 157 146 147 154 151 156 137 131 94 69 160 178 143 119 140 130 135 143 139 30 133 182 163 150 100 132 130 141 188 129 101 118 139 162 172 145 161 156 158 164 162 165 175 175 177 182 182 183 185 186 186 188 190 190 192 192 191 190 191 190 189 193 192 189 186 180 177 173 172 172 173 172 170 166 161 156 152 152 147 144 150 155 155 148 143 153 145 152 157 148 149 156 149 158 160 158 156 143 133 139 137 136 138 140 142 141 142 143 145 141 140 140 143 138 132 134 143 137 138 137 136 139 146 149 149 141 144 147 147 146 145 144 145 150 152 152 149 146 146 146 145 147 141 141 143 141 140 
140 136 128 109 74 73 68 60 56 65 56 67 59 50 53 56 60 84 125 126 113 126 139 137 131 129 126 130 132 132 128 124 126 128 127 128 130 130 127 121 115 111 119 122 123 125 127 121 116 119 118 113 99 168 80 90 88 90 86 83 89 85 91 88 86 71 164 166 68 81 82 81 50 62 138 100 46 60 56 47 52 53 46 55 43 69 58 39 51 53 41 31 35 23 97 120 100 47 
107 79 90 90 74 70 72 64 44 59 63 51 54 119 108 57 76 87 95 102 83 90 67 80 60 75 54 74 106 85 104 89 80 133 102 70 99 100 72 59 87 71 45 62 97 82 88 88 97 44 49 90 52 72 68 87 93 48 75 94 109 76 108 95 72 98 95 69 101 94 90 107 81 95 110 34 82 109 94 25 28 94 90 124 51 51 106 77 86 69 106 21 168 102 97 100 82 30 88 92 98 88 91 124 55 107 128 126 80 46 101 99 93 57 50 84 124 48 55 73 55 72 75 124 92 66 64 124 65 65 78 86 105 87 81 99 102 89 131 93 121 98 68 95 99 97 96 91 89 90 93 92 93 96 108 119 120 119 119 116 109 116 117 112 111 113 117 125 126 144 204 199 140 155 145 139 144 141 138 137 137 138 141 142 140 144 133 134 139 132 132 135 126 118 121 142 141 130 137 135 134 131 136 131 138 160 158 149 154 144 138 125 127 142 142 145 146 136 140 150 152 134 118 131 127 126 126 128 129 130 128 127 129 130 130 130 128 127 127 128 125 128 122 123 122 122 130 137 140 136 130 129 130 133 135 134 122 132 127 127 136 135 142 166 177 183 183 184 189 190 187 187 188 178 173 179 183 182 180 181 174 180 182 174 162 158 162 167 164 165 166 166 169 172 172 170 171 165 162 166 158 152 157 147 152 150 150 153 159 164 168 169 176 179 183 185 182 179 179 182 184 185 185 193 157 135 149 136 177 184 174 187 170 201 218 184 196 199 199 195 194 198 203 207 207 206 198 193 173 250 247 192 193 200 199 188 170 212 183 188 195 248 250 253 237 174 183 197 195 198 200 200 201 204 201 196 200 196 201 208 204 200 201 202 206 205 204 204 203 202 202 202 205 198 203 203 189 191 202 201 197 191 196 166 191 246 176 209 137 139 132 151 182 118 138 143 254 254 246 170 165 196 171 191 202 212 182 191 210 194 198 189 198 196 198 188 186 190 185 183 178 176 175 174 170 167 166 168 160 163 161 160 158 160 158 155 154 153 153 152 152 153 154 155 158 157 156 158 162 167 170 173 175 175 175 170 161 155 155 160 162 162 171 169 157 162 169 160 149 152 151 151 141 132 139 137 141 142 141 139 136 134 135 137 133 131 131 132 126 119 121 129 133 131 129 127 129 134 138 139 143 143 143 145 146 146 144 143 143 150 155 152 147 145 147 149 144 142 148 155 153 
148 144 137 102 36 0 6 11 0 11 0 1 7 17 24 7 8 7 10 62 114 134 124 128 142 143 130 125 129 130 127 123 120 123 124 124 125 126 127 127 126 123 121 119 122 122 123 124 121 116 121 112 116 70 153 102 67 85 81 81 80 88 85 89 86 88 77 91 104 26 73 69 72 60 90 182 112 36 52 57 50 55 50 51 61 43 54 65 68 55 69 52 52 28 30 48 38 58 56 
125 83 76 124 103 117 119 79 86 61 53 78 81 130 87 80 105 123 106 99 118 76 71 90 66 90 82 109 111 125 100 90 98 71 49 69 106 83 107 115 80 79 97 72 57 70 100 65 70 96 78 103 55 64 77 68 49 68 84 57 6 15 112 95 119 102 83 55 59 95 84 49 79 101 84 56 87 79 70 50 18 50 117 66 67 86 79 61 89 114 103 38 112 101 11 98 113 10 104 94 63 123 90 82 71 150 56 57 144 94 115 84 93 46 89 65 78 105 139 155 60 51 79 68 39 94 65 82 67 87 91 87 111 119 106 106 119 123 99 113 126 111 90 101 110 111 116 110 108 108 112 105 106 101 103 108 108 112 117 117 111 117 121 124 123 115 111 117 107 112 173 94 117 120 126 120 121 123 120 131 130 116 118 116 112 126 120 126 138 128 120 122 129 127 117 130 128 119 133 132 131 118 118 109 121 147 138 125 139 132 139 137 146 155 134 126 147 155 159 153 155 148 128 128 126 124 121 121 122 125 127 128 128 128 128 127 126 125 125 125 126 130 125 128 127 125 118 123 129 128 126 126 128 128 127 124 127 131 124 122 127 120 123 145 139 142 139 137 142 145 144 146 150 141 139 147 149 143 144 151 150 152 153 152 153 157 160 161 163 163 160 156 155 156 155 152 159 157 153 160 161 158 163 157 166 163 159 157 157 157 157 156 159 161 163 167 164 162 161 165 150 148 151 138 210 217 70 93 104 63 56 110 162 126 181 146 149 154 156 152 149 152 155 157 158 153 145 126 116 253 243 93 152 235 252 252 252 251 210 123 132 134 253 246 238 114 152 156 156 156 157 157 158 158 157 156 160 155 160 168 164 159 161 165 161 159 160 161 161 160 160 162 168 167 173 173 162 162 167 167 167 160 150 110 219 156 184 254 225 254 252 250 253 252 180 147 148 251 254 202 128 179 160 173 180 157 193 167 146 175 172 159 157 157 159 153 152 159 153 154 150 150 148 149 146 145 144 146 148 150 151 153 156 161 162 161 166 166 165 164 164 164 165 166 170 169 168 167 167 167 167 166 167 166 164 161 157 155 158 163 155 160 166 160 151 156 161 153 143 143 143 148 139 127 129 126 140 140 139 138 137 138 141 142 142 139 140 144 145 141 138 138 138 135 132 130 131 133 135 136 140 138 137 140 145 147 145 142 133 141 146 142 135 133 135 137 135 
132 136 140 136 131 127 122 85 1 1 56 12 4 11 11 18 20 14 12 16 59 46 90 16 83 144 129 120 125 133 133 136 132 126 123 124 124 119 114 116 116 117 119 123 125 124 123 113 117 115 114 115 113 110 112 97 92 75 104 138 56 81 74 81 78 86 82 85 80 82 73 68 136 200 70 67 96 99 101 104 69 40 59 60 53 56 49 54 52 50 40 67 88 38 53 48 53 49 65 39 23 42 100 
127 121 105 141 132 128 124 105 77 94 86 45 80 90 136 131 126 107 117 111 109 95 125 96 116 104 65 124 130 118 96 87 82 79 79 84 104 57 72 101 68 82 92 61 69 69 59 87 69 106 93 64 36 78 98 35 27 46 43 43 30 71 105 92 103 114 77 89 64 97 114 90 100 55 110 110 58 64 48 70 68 38 112 53 60 101 55 85 58 80 94 79 91 73 44 31 23 68 23 78 97 105 14 33 81 94 71 92 102 130 67 121 140 86 70 114 114 96 121 66 86 77 47 93 110 87 112 106 70 70 116 89 106 88 134 101 88 109 94 124 98 117 96 108 112 108 118 115 113 107 114 109 113 110 114 117 115 115 118 118 116 115 119 130 135 124 119 127 117 173 131 125 131 135 134 128 129 131 126 126 126 126 129 124 119 122 115 116 119 120 125 124 122 127 121 114 112 111 113 114 114 114 133 123 117 130 132 143 131 125 144 147 147 146 129 135 127 145 146 129 131 134 118 117 127 127 126 125 125 127 129 131 129 129 129 128 127 126 127 128 126 130 123 127 128 132 121 131 124 126 127 126 129 133 131 128 129 125 121 126 134 130 132 149 149 150 144 138 143 145 144 146 140 135 136 141 142 139 141 146 142 139 135 135 139 143 141 137 138 140 140 139 140 142 144 144 149 152 144 146 147 140 142 141 150 150 151 152 151 150 147 145 148 148 149 150 149 148 149 152 149 151 183 107 160 76 151 135 100 119 164 133 153 149 175 174 151 159 166 165 164 166 165 161 161 171 159 144 134 245 223 119 184 250 240 246 236 252 188 154 169 148 251 251 249 138 158 169 166 161 160 164 165 162 159 162 155 154 158 162 159 157 160 162 163 162 162 164 164 162 163 165 157 158 160 160 159 158 157 154 143 154 137 79 226 136 253 250 254 254 253 254 249 242 149 104 121 254 246 199 105 146 134 154 171 123 133 145 162 156 144 159 155 152 156 154 157 162 157 159 164 163 162 161 159 155 155 157 159 160 159 158 159 162 161 159 159 160 160 161 161 161 161 161 158 160 163 166 168 167 164 162 171 164 158 159 163 164 161 158 157 159 160 157 156 158 158 155 161 157 155 163 154 140 141 138 150 149 150 152 155 159 162 163 162 162 162 162 161 158 153 150 149 146 144 144 143 142 142 142 144 143 142 144 147 148 148 147 149 153 155 150 145 144 146 
147 148 143 143 143 137 133 131 127 84 2 34 74 80 102 90 85 81 86 86 62 74 122 27 83 54 73 137 132 144 139 135 133 137 132 126 123 126 127 122 114 122 119 117 119 123 124 121 118 110 116 115 110 110 109 105 104 93 89 93 80 158 78 85 81 87 81 85 81 85 80 79 68 82 124 146 64 63 83 79 58 68 52 53 55 50 46 57 56 49 49 50 38 60 81 50 62 55 60 59 57 36 58 38 74 
124 144 130 115 123 122 131 107 88 121 104 124 133 121 122 116 115 115 122 111 140 141 123 130 128 111 128 123 122 119 98 123 124 117 109 84 98 74 77 92 65 66 95 81 68 47 90 79 82 68 83 127 81 84 75 63 103 76 89 59 84 133 117 111 94 100 77 86 65 59 97 108 88 74 61 92 59 68 129 116 73 35 56 63 61 87 75 74 21 182 48 32 121 124 29 105 171 113 16 50 106 127 91 107 105 41 79 55 36 163 36 70 111 96 74 77 101 68 61 122 96 69 54 103 88 69 79 111 84 84 107 105 103 106 112 123 128 99 114 121 110 108 102 105 102 93 106 108 108 98 110 110 111 110 116 119 116 117 123 126 121 130 125 116 122 135 130 120 142 177 111 122 129 134 124 131 136 133 133 127 128 130 121 117 124 122 125 130 123 126 134 122 124 118 125 125 125 113 99 119 131 113 125 125 128 135 120 123 107 111 146 151 136 120 109 136 131 133 138 144 147 128 111 129 118 121 124 126 125 123 122 122 125 126 126 125 124 124 125 126 122 128 124 128 126 129 115 127 129 130 128 125 125 126 127 124 132 123 116 122 129 123 121 130 141 143 139 135 138 139 139 140 136 134 132 136 142 146 145 142 142 141 139 139 142 145 145 142 139 141 142 140 139 140 141 140 133 142 135 138 143 136 139 145 142 142 142 141 141 141 141 141 142 139 138 138 137 137 139 143 135 144 140 124 174 152 207 194 102 129 134 154 150 134 136 182 142 149 151 148 147 151 153 150 151 135 141 143 116 254 247 94 154 253 252 249 244 251 192 134 156 160 251 247 250 121 151 149 155 146 144 152 157 153 149 151 150 153 158 157 153 156 160 156 158 155 155 156 156 153 153 155 155 155 151 151 157 157 153 149 147 151 137 96 190 135 247 254 253 252 249 254 254 251 162 118 132 253 254 201 113 150 143 144 173 145 133 141 151 144 163 158 153 148 152 150 151 152 146 147 155 154 154 155 154 153 153 156 156 156 154 153 154 155 155 152 152 154 155 156 155 153 150 148 151 149 147 147 149 151 152 153 146 145 146 148 149 148 148 150 147 146 143 146 152 150 146 149 153 145 142 152 147 135 140 141 139 138 135 136 139 140 140 139 134 140 144 140 135 135 140 143 141 139 139 139 139 136 133 132 130 130 129 128 126 126 126 127 126 129 127 
125 123 127 128 130 125 124 129 133 128 122 117 111 53 32 151 55 97 90 100 98 100 78 104 77 77 150 25 74 61 71 142 120 126 124 129 134 125 127 126 123 123 125 124 120 120 115 112 113 116 116 110 105 113 122 121 113 113 113 108 104 102 114 103 91 159 109 95 96 94 84 86 83 89 84 81 67 73 83 30 65 63 51 43 65 74 39 40 40 46 47 53 45 52 79 78 82 82 73 73 63 89 75 47 82 61 46 36 75 
139 135 134 136 136 130 127 139 138 140 135 137 137 126 126 125 125 123 128 128 127 133 126 121 123 119 138 128 128 120 135 127 138 99 80 80 100 95 92 80 68 73 57 93 78 68 58 68 84 98 66 36 75 101 95 80 73 81 65 84 77 67 112 140 88 109 71 80 103 48 57 89 101 88 87 41 64 48 85 133 134 40 27 41 59 66 44 85 89 137 125 72 124 81 77 78 101 151 135 17 103 140 94 114 113 70 130 59 70 94 89 60 96 92 122 85 46 46 103 130 107 51 55 62 48 59 79 103 127 57 101 78 65 81 110 137 118 125 139 133 117 135 127 118 120 115 123 121 116 106 125 140 144 138 146 147 145 148 146 146 130 152 143 150 153 147 154 128 201 149 152 158 172 170 164 171 159 155 151 155 160 150 137 136 137 134 138 133 151 150 138 150 142 150 129 136 150 149 126 124 139 130 137 118 140 162 130 137 144 158 163 158 149 142 138 140 153 168 161 150 161 141 142 137 137 132 134 136 133 133 138 140 128 141 134 124 142 133 134 133 131 131 141 133 132 139 134 138 135 143 128 140 134 130 133 134 123 143 140 131 144 138 130 166 165 166 166 171 167 159 164 170 170 165 158 153 159 171 173 163 164 171 172 165 166 175 175 162 179 161 163 173 167 170 175 168 165 162 156 158 175 170 149 158 162 162 167 159 163 157 164 163 165 152 151 159 158 153 154 156 152 150 157 163 146 156 121 136 138 144 147 154 154 135 139 181 149 148 161 158 150 161 157 149 147 144 152 146 122 223 250 169 169 245 250 251 252 252 216 165 162 224 252 253 192 119 154 145 145 153 141 146 153 143 143 141 142 140 146 154 149 146 149 151 154 152 146 140 148 150 139 144 144 149 148 138 143 149 141 147 145 138 143 107 152 195 151 253 234 242 253 253 251 244 167 113 188 252 254 136 121 146 145 133 179 146 137 145 148 139 158 157 152 154 153 149 151 148 142 152 147 151 145 148 150 149 157 153 149 157 142 145 145 151 145 148 146 148 138 144 144 139 149 146 143 136 144 135 132 139 139 151 135 140 141 141 138 141 143 143 135 143 136 141 143 150 139 142 141 122 143 148 143 129 135 140 134 130 129 120 125 141 135 128 133 130 134 133 132 130 128 133 133 127 136 131 130 138 131 131 133 133 132 130 129 128 126 124 124 130 
129 125 118 117 126 128 123 123 130 126 117 121 122 110 71 1 65 64 91 89 80 92 95 76 95 70 62 158 39 74 53 84 154 129 134 123 124 130 128 131 126 124 132 130 124 129 126 126 135 122 118 125 116 118 129 119 128 124 120 109 117 113 123 107 109 93 125 129 95 115 102 102 94 88 83 84 79 76 69 74 78 69 65 74 74 68 185 110 102 130 96 42 49 42 62 85 34 73 45 47 34 52 75 66 56 71 54 30 46 107 
150 150 132 144 147 136 141 125 139 135 126 127 125 137 135 136 124 126 124 116 124 131 128 139 134 136 132 142 138 140 136 146 144 94 93 65 105 98 91 83 86 74 91 90 100 94 89 103 106 97 83 96 52 58 129 94 59 54 59 91 51 62 118 127 104 87 121 107 70 108 67 64 79 100 96 77 90 86 69 65 96 140 86 11 49 91 58 86 127 72 130 83 91 132 110 73 106 121 105 49 111 56 100 129 98 68 58 79 74 58 131 106 113 20 59 106 90 56 152 114 111 65 76 111 137 86 104 102 95 62 94 121 108 96 130 144 144 144 133 133 132 119 132 120 140 136 138 139 138 121 145 151 156 147 147 148 148 152 156 157 151 147 156 160 156 154 155 188 196 152 156 125 115 91 105 131 144 152 151 143 142 141 136 132 134 122 137 81 82 151 159 144 152 138 146 157 133 161 161 90 64 76 54 35 69 119 165 172 163 168 164 160 164 166 164 163 166 148 173 158 167 148 170 166 162 167 171 172 168 161 159 160 172 158 169 172 158 150 171 160 169 167 164 171 170 163 164 166 172 153 169 169 146 168 165 164 178 152 152 158 153 154 171 195 195 190 194 186 188 199 189 186 201 186 184 187 181 183 194 200 181 197 195 186 190 190 189 197 190 194 196 190 184 188 191 190 192 196 194 196 189 190 196 176 186 184 174 191 182 189 177 183 180 173 185 181 182 163 174 177 164 174 172 180 167 168 173 157 177 177 170 178 170 160 178 184 192 169 170 178 187 168 178 174 180 168 171 166 143 133 159 187 176 155 139 157 148 161 173 157 163 193 183 155 146 145 172 161 162 161 160 162 156 164 170 153 160 155 156 160 157 159 159 159 152 159 161 159 155 151 153 159 158 156 152 156 158 153 150 156 154 149 157 140 126 159 148 137 117 135 135 130 140 160 68 104 201 175 135 120 135 144 143 134 185 133 148 133 135 151 154 182 172 151 157 173 150 146 170 157 157 155 162 161 160 160 154 157 155 158 149 162 164 161 152 160 154 145 167 154 154 167 146 154 153 154 165 139 138 161 150 148 153 150 147 148 150 152 155 160 155 161 158 150 151 146 147 158 153 139 149 144 145 142 141 135 147 144 137 138 137 134 141 146 139 138 137 134 140 148 143 137 146 138 141 139 134 136 138 142 136 135 134 134 136 137 135 132 133 122 
127 131 135 135 129 141 126 132 127 132 143 129 115 127 115 13 1 13 70 89 91 86 80 88 71 73 106 139 17 72 41 116 159 138 150 149 139 140 130 126 135 136 124 127 139 137 131 131 123 129 132 128 132 126 127 130 123 121 123 126 126 133 114 133 123 104 129 181 94 108 92 98 102 98 92 89 87 86 73 161 231 90 80 76 65 94 131 123 111 149 117 95 82 25 26 40 62 55 55 88 84 84 53 63 71 50 37 58 53 71 
99 108 110 109 95 88 94 80 89 86 86 85 86 84 73 68 78 75 93 96 82 81 76 65 66 95 94 78 100 82 76 100 87 85 117 75 92 118 97 92 77 89 70 75 92 107 31 76 56 84 110 88 44 70 98 110 83 63 48 49 48 54 88 89 111 112 70 95 102 78 84 79 63 69 50 80 55 49 97 82 96 90 74 23 43 88 60 90 100 93 74 73 104 84 44 128 100 43 137 131 131 61 82 120 102 82 82 70 93 67 51 54 53 69 112 56 111 59 89 58 33 80 76 85 73 87 76 73 110 118 73 96 96 99 103 71 47 24 36 42 40 52 54 63 59 60 47 62 72 35 65 47 35 60 79 76 55 50 68 77 75 68 44 72 88 90 99 128 130 104 114 95 81 58 64 87 88 91 86 86 100 110 108 103 83 88 92 91 74 87 107 129 117 111 139 109 88 119 83 54 66 77 75 70 57 78 82 97 117 122 125 131 139 136 126 121 136 149 123 142 133 126 142 158 146 150 149 152 158 156 155 166 161 157 153 157 166 159 165 162 162 163 182 165 162 179 168 176 166 186 166 171 164 144 154 167 164 165 170 171 165 148 150 187 172 179 160 156 154 155 173 166 147 148 149 156 168 172 161 147 163 173 166 160 166 162 158 172 178 160 156 166 167 161 162 169 150 168 156 168 187 168 160 173 164 175 179 170 176 185 183 168 182 186 179 183 171 189 185 182 187 187 184 167 177 176 167 180 171 173 181 203 182 166 187 169 192 202 189 199 181 191 212 211 205 201 200 200 207 194 179 169 157 158 163 174 170 175 167 147 166 165 169 173 196 190 176 185 183 180 185 182 180 183 175 166 178 174 178 182 185 184 184 177 180 181 182 185 180 178 180 177 177 173 169 173 175 176 175 165 165 168 166 171 156 161 160 138 155 153 164 131 127 156 123 154 132 138 149 174 150 178 163 163 188 152 157 164 174 177 173 174 182 182 175 169 173 167 161 177 170 167 162 167 169 168 171 173 175 167 166 170 160 175 178 163 175 172 173 168 170 179 175 174 179 176 171 174 176 174 177 180 178 179 177 174 178 182 178 168 188 169 175 177 185 180 186 172 175 173 185 179 175 166 163 168 165 169 176 167 165 171 167 168 167 169 169 167 162 159 161 166 160 162 160 161 161 164 165 151 161 158 155 154 156 157 157 156 160 154 157 165 155 149 157 155 163 157 156 158 157 156 151 144 142 149 105 41 46 58 41 55 60 55 62 
63 23 62 60 81 121 162 163 174 185 180 168 175 170 163 165 165 159 157 157 148 146 154 160 166 172 169 159 143 151 156 146 145 136 143 135 136 138 121 129 132 126 164 121 126 112 107 99 95 96 96 91 84 143 112 97 76 86 69 72 68 72 130 119 117 108 104 138 70 80 81 87 26 74 91 72 60 68 87 74 81 62 55 66 46 
87 64 109 134 130 123 106 123 122 146 123 96 121 115 117 120 105 106 94 82 95 102 102 122 91 93 100 84 102 80 97 119 132 86 135 128 110 91 93 123 76 69 54 58 46 66 44 73 81 70 93 83 67 51 31 77 113 58 34 83 90 92 98 132 116 77 89 91 95 113 106 99 70 59 89 70 64 64 69 83 102 90 143 98 67 54 94 108 69 127 50 55 113 37 109 114 175 47 70 101 132 109 47 87 115 125 129 104 103 138 45 125 96 115 122 107 83 94 81 78 102 75 94 95 61 67 107 112 106 104 123 109 120 91 177 158 149 194 201 154 123 185 158 162 170 138 171 164 185 186 174 183 168 200 216 202 169 152 161 160 176 188 165 216 250 247 203 173 228 220 223 238 229 229 216 231 231 222 214 222 235 235 231 233 236 212 246 195 144 152 111 170 228 226 177 147 151 195 233 202 172 148 178 227 227 190 151 160 191 211 198 160 154 183 206 210 177 146 156 202 251 222 169 171 224 247 226 180 173 198 224 243 215 191 175 198 234 241 214 168 181 227 244 228 195 188 222 240 249 192 176 194 220 243 234 229 193 187 193 209 237 249 233 220 195 199 234 240 233 215 177 176 229 236 232 200 167 176 209 226 214 177 176 200 213 225 205 154 163 201 215 207 204 189 166 160 200 188 203 166 163 200 181 182 181 169 181 182 186 162 171 184 169 171 161 177 159 172 163 167 133 103 132 143 133 121 118 136 126 120 119 122 114 125 138 107 151 142 120 108 62 55 71 95 118 127 117 114 104 120 123 132 157 166 167 153 141 138 138 152 158 157 145 121 139 173 175 177 181 184 181 178 197 189 168 196 184 177 182 184 187 182 186 183 191 181 192 191 189 198 196 196 200 190 207 210 196 192 195 211 204 205 204 201 206 190 175 208 205 158 164 199 193 179 196 189 188 179 181 191 186 175 188 179 195 188 177 186 184 175 188 181 179 178 194 190 185 191 183 177 180 177 173 182 185 177 177 174 190 179 183 189 183 178 176 184 179 191 179 187 184 172 187 181 176 182 178 194 194 180 187 183 182 183 183 183 181 179 182 186 188 184 185 182 183 173 178 187 166 169 175 172 181 186 180 181 183 168 179 158 160 182 167 177 169 171 167 170 172 171 172 168 166 167 159 166 163 159 167 161 153 155 157 161 161 161 159 160 158 165 160 
161 157 160 172 161 140 144 157 157 142 148 158 151 140 135 127 153 101 139 95 121 117 117 123 119 87 128 162 146 158 164 156 157 152 168 170 153 157 162 149 145 162 159 148 156 149 147 159 105 52 50 72 133 142 137 141 150 136 141 143 139 126 141 128 125 132 136 124 121 125 113 100 97 102 103 95 85 134 131 113 127 116 125 95 68 63 79 102 97 82 16 104 85 79 95 75 40 83 63 62 67 91 71 80 75 58 74 65 68 
189 139 121 108 142 192 156 107 123 134 136 139 107 147 203 154 153 137 135 130 141 183 192 169 157 125 154 204 171 133 129 136 190 189 137 132 132 108 60 137 117 115 87 87 67 82 105 92 88 86 68 107 128 51 54 55 73 104 119 82 70 81 73 72 95 75 103 117 70 109 113 99 55 91 93 35 100 104 52 69 96 108 91 160 68 71 104 54 59 80 100 123 75 67 101 53 121 99 26 43 51 93 124 90 145 103 72 107 128 94 53 107 138 97 35 96 96 122 100 95 67 105 126 143 137 129 146 136 157 161 157 122 134 126 153 162 149 223 211 213 208 218 199 231 232 220 223 216 223 208 221 217 218 209 204 210 214 215 216 209 210 215 215 217 208 205 160 179 217 214 207 213 204 209 203 218 213 214 213 213 212 204 204 214 196 224 215 130 70 85 199 208 136 150 159 205 205 145 136 147 182 193 169 120 134 156 212 189 151 145 159 193 202 171 144 145 176 208 198 172 150 161 220 218 162 155 163 201 225 195 160 160 175 215 210 191 174 151 170 225 210 164 161 172 204 222 191 189 167 185 230 218 195 193 181 171 204 233 222 191 196 193 181 203 222 211 183 188 193 191 214 216 179 207 187 188 230 214 185 215 172 213 209 192 201 191 184 212 212 183 208 229 196 193 209 195 192 230 207 191 173 189 237 211 186 184 197 234 211 185 184 226 243 177 168 201 241 205 189 178 229 248 191 160 198 244 227 156 182 215 240 212 196 218 221 211 177 176 214 177 185 175 170 143 138 149 129 125 135 129 103 108 116 141 149 108 82 93 90 67 76 79 66 47 59 110 127 103 119 119 112 105 123 118 105 138 147 136 140 134 133 124 134 137 117 100 117 95 76 82 70 81 102 99 108 74 84 136 113 75 75 71 87 74 67 61 46 64 62 31 2 82 127 143 152 143 145 152 161 147 133 150 139 158 155 136 136 153 154 145 138 146 159 167 144 150 146 139 164 153 170 143 161 150 160 180 154 169 157 170 173 165 176 170 156 174 177 177 163 151 156 170 172 159 161 149 158 144 148 163 145 147 157 162 165 160 155 160 173 184 150 166 152 161 185 174 144 159 123 128 136 136 131 126 122 135 143 131 131 120 120 131 124 128 121 117 115 132 135 120 115 109 129 135 129 126 117 115 135 134 139 130 127 131 138 132 119 107 114 100 116 107 101 
100 88 129 97 118 112 100 105 109 104 107 94 84 81 56 40 57 63 69 72 76 71 78 92 94 92 90 90 86 104 105 105 112 121 120 113 120 109 100 107 108 111 129 135 110 117 103 85 73 59 87 103 101 108 112 115 100 103 117 107 118 96 102 102 110 98 93 88 88 88 89 88 84 80 76 81 74 72 78 78 71 66 56 72 48 20 56 165 127 113 58 92 85 49 60 56 48 69 80 67 55 71 51 47 88 59 45 
88 133 173 168 106 68 109 154 164 137 107 181 132 78 74 114 161 146 150 161 143 89 69 112 151 142 107 69 98 153 166 132 71 98 110 164 163 123 57 58 67 115 84 90 91 94 110 96 77 72 108 73 83 77 67 76 112 76 110 119 96 87 67 67 107 85 80 102 123 122 108 111 98 88 73 89 83 74 101 79 63 135 57 30 52 72 92 79 63 65 88 65 103 143 125 126 92 122 44 55 86 58 54 52 114 83 87 54 94 57 93 94 108 66 104 148 129 97 97 114 101 63 99 71 75 87 81 121 141 156 155 85 121 124 145 157 193 200 189 182 186 191 191 184 212 211 230 223 220 221 226 234 225 199 197 208 212 210 207 216 210 215 224 239 232 226 216 252 234 231 235 225 236 223 227 229 223 233 233 228 231 232 230 228 211 203 223 152 119 49 142 180 152 144 162 141 159 159 124 148 131 156 157 145 131 145 154 154 158 162 162 164 174 176 165 156 158 158 153 149 136 148 136 144 137 148 148 148 154 153 146 147 155 144 164 192 157 138 151 154 156 153 146 158 160 150 158 162 172 166 158 168 175 144 151 181 177 163 181 175 145 155 177 176 172 166 175 163 167 185 181 188 169 160 176 192 187 188 183 158 190 195 196 180 165 174 193 199 206 210 175 156 191 214 209 215 200 161 174 226 244 192 149 182 220 235 205 163 176 230 226 178 164 211 240 195 177 189 218 210 175 164 186 231 195 148 172 219 187 179 185 177 204 240 236 246 203 163 206 208 240 234 233 243 230 235 241 224 240 239 243 231 226 220 218 228 245 230 224 231 237 227 227 250 239 227 222 205 220 217 223 220 219 227 226 222 221 217 226 216 219 209 216 207 209 192 207 193 189 202 187 198 186 168 184 172 170 182 166 177 171 171 174 174 177 169 169 161 169 190 174 168 166 169 180 190 160 159 158 190 201 191 163 182 182 201 174 146 152 200 226 211 165 148 207 219 206 207 170 162 166 201 203 203 176 156 193 209 242 172 150 159 199 235 221 184 145 148 173 237 234 173 154 161 208 245 206 165 139 158 227 231 208 154 136 185 225 209 169 149 149 195 233 231 170 147 161 197 227 205 165 139 166 226 227 201 153 150 165 230 229 164 148 149 201 227 208 168 145 166 214 226 194 144 129 180 216 198 169 149 149 189 219 196 141 118 154 205 200 225 
142 140 219 230 204 165 133 139 171 207 193 141 122 145 205 225 192 125 185 164 200 176 151 154 156 158 164 153 153 167 170 158 169 170 185 156 148 168 167 156 160 161 144 150 161 152 128 143 139 148 156 159 167 150 147 160 159 152 167 126 109 136 116 101 143 141 146 142 132 126 131 130 129 129 127 122 118 115 98 89 88 87 81 67 69 79 71 71 75 101 96 119 121 42 133 101 56 58 40 57 59 79 74 66 59 68 81 92 64 48 
127 140 134 148 147 134 142 131 120 120 104 143 128 122 110 143 126 109 110 110 119 140 142 134 126 147 138 92 118 104 115 132 124 142 158 104 137 119 134 98 76 104 94 74 77 52 72 93 62 62 78 86 74 47 87 83 95 68 106 119 51 104 107 104 81 89 90 79 108 83 102 89 80 74 71 112 114 84 85 118 92 122 100 72 76 92 73 106 99 125 64 92 123 76 81 130 145 124 131 102 133 106 61 69 115 78 105 142 96 98 106 102 100 82 96 53 40 110 99 113 129 151 79 116 100 112 66 50 123 101 99 107 81 95 120 109 71 117 197 213 190 188 212 220 207 192 146 119 100 113 147 154 178 182 216 214 207 212 203 217 211 200 164 161 171 177 172 156 159 163 174 167 192 174 176 168 185 188 183 179 186 187 177 168 199 197 218 129 155 149 147 141 154 150 168 168 143 125 136 114 104 98 95 94 88 121 73 83 96 115 124 113 97 92 107 131 119 146 150 131 159 125 137 130 153 155 157 161 168 175 177 178 166 172 179 202 190 177 177 182 176 173 181 162 153 159 144 146 147 156 219 190 166 186 178 170 174 163 168 167 157 153 146 147 147 163 161 158 148 142 150 145 158 151 156 146 125 141 157 140 168 156 148 150 160 164 154 137 135 151 144 143 161 146 126 142 139 133 157 149 128 150 164 151 148 139 153 155 165 145 156 165 151 164 162 162 150 174 180 181 171 173 186 177 181 174 174 196 240 221 223 228 236 233 214 219 216 198 212 203 198 206 194 193 205 187 200 193 197 189 203 187 197 208 192 192 224 216 211 204 215 211 201 210 201 202 209 219 207 207 213 222 225 234 236 213 217 220 230 212 225 226 226 195 210 203 199 200 211 215 203 199 218 213 212 209 212 212 205 207 212 216 203 205 224 208 208 203 206 198 213 206 211 196 199 192 193 237 208 188 220 179 237 189 140 161 182 225 215 180 168 176 178 201 160 160 182 184 214 223 202 186 222 201 199 215 169 175 153 140 214 234 181 150 173 195 235 211 152 140 166 204 236 223 168 131 183 218 221 187 127 155 180 224 232 184 145 162 201 222 214 152 126 154 190 223 206 151 130 154 205 229 180 136 127 158 208 208 170 135 140 177 209 201 145 128 126 180 204 171 149 131 151 194 210 163 122 147 189 215 212 154 108 132 190 217 184 142 
200 148 190 191 138 131 139 159 201 178 149 123 132 186 210 182 130 120 116 177 177 153 184 181 145 169 163 155 170 155 147 157 156 167 166 156 174 166 171 162 168 149 162 170 152 157 166 144 125 159 137 123 122 138 171 147 147 153 156 159 159 133 121 136 112 120 147 89 133 129 127 144 134 129 125 123 119 113 109 109 105 97 97 90 98 116 68 153 156 121 93 113 86 46 48 27 100 87 79 63 54 65 65 76 66 48 44 47 64 72 39 69 
252 253 254 249 252 254 252 251 251 254 253 234 246 254 247 254 253 249 251 252 253 253 246 252 253 252 252 253 250 251 251 251 251 253 251 255 254 254 251 251 237 249 172 183 217 211 142 235 251 235 141 110 145 105 121 200 189 107 110 104 197 113 100 217 231 209 151 113 141 137 123 111 132 140 100 117 128 110 119 96 99 124 147 106 51 77 76 77 88 93 109 85 127 114 113 121 170 124 122 92 144 126 114 150 115 129 141 219 50 94 174 97 129 84 46 20 54 110 102 122 101 123 109 116 105 170 144 90 78 114 100 106 130 108 109 79 112 215 202 188 208 227 197 119 87 73 81 78 87 132 115 119 113 139 192 185 192 226 208 198 204 207 183 91 58 95 94 83 77 90 91 84 92 83 88 91 93 92 91 95 96 88 83 87 204 189 205 238 252 247 251 252 249 251 252 247 253 251 253 253 251 251 253 234 253 252 252 253 253 253 252 250 251 251 249 249 250 248 251 248 252 250 253 251 251 251 251 252 249 252 254 252 247 254 251 251 252 252 252 250 252 252 254 253 253 253 248 248 254 247 253 247 254 254 253 253 251 251 252 251 252 252 248 252 252 249 252 251 252 252 249 252 251 254 253 253 254 252 248 253 253 253 251 250 253 252 249 252 250 249 251 248 244 249 251 248 242 235 222 225 232 233 232 216 221 225 216 213 197 203 200 204 209 210 215 214 211 214 213 205 194 203 189 173 190 192 223 194 218 221 227 224 221 225 219 197 181 168 186 178 192 191 202 193 185 207 196 178 191 202 195 193 182 188 199 207 207 208 232 195 197 207 207 217 221 221 200 208 212 211 191 199 214 207 202 192 206 208 206 174 194 210 211 168 183 196 183 196 207 197 199 190 194 211 194 194 200 194 199 189 187 187 195 184 196 198 195 181 188 200 187 186 181 194 195 187 176 210 234 210 188 230 223 233 206 160 168 175 181 184 128 149 175 166 164 131 121 165 182 169 158 150 146 145 161 178 169 156 155 170 185 149 156 170 158 151 135 140 178 157 153 173 147 154 169 158 151 140 144 153 152 153 150 151 154 157 156 153 156 161 147 158 146 130 153 143 134 145 137 140 147 144 133 162 165 156 158 142 152 128 137 164 134 127 138 160 149 144 137 138 155 143 154 137 141 137 135 138 128 129 144 143 146 
151 150 143 138 139 131 133 129 140 136 122 134 139 139 156 157 149 151 153 155 159 149 141 148 139 140 154 187 148 148 163 171 174 158 138 152 151 153 156 156 165 152 134 164 148 163 160 161 154 134 131 138 137 125 132 123 126 135 143 150 139 148 125 135 152 118 128 147 141 136 126 143 153 163 129 103 102 93 102 111 112 100 90 90 97 83 92 84 86 70 94 90 94 95 42 15 65 155 63 71 97 120 74 83 59 50 43 64 19 39 94 66 56 64 59 52 41 
204 179 210 224 199 197 194 204 195 212 215 203 128 143 112 164 137 121 111 132 190 41 110 236 253 192 168 150 135 167 175 181 189 176 233 225 197 215 200 212 184 221 158 152 148 237 58 73 205 156 154 129 100 154 102 75 113 113 159 57 103 191 111 154 109 135 98 123 131 143 128 95 120 72 107 129 107 93 86 111 102 105 125 104 75 70 52 112 77 60 65 44 83 110 99 43 37 101 86 119 144 108 37 93 106 110 153 118 103 127 236 155 178 120 122 54 48 49 30 78 62 79 135 121 86 72 95 151 117 75 108 121 86 95 105 156 221 197 200 220 214 121 77 79 95 99 121 88 85 130 128 127 119 172 196 160 121 149 220 219 209 197 226 231 122 101 130 112 119 113 100 102 88 114 126 116 123 112 119 113 117 122 87 224 227 191 226 254 252 215 168 64 78 47 89 113 113 71 86 141 113 109 155 187 149 175 176 168 159 142 144 106 101 76 96 193 194 186 121 154 171 106 123 133 213 189 177 92 127 159 104 98 119 75 183 231 198 190 102 184 216 227 172 90 96 100 167 214 188 194 241 197 165 221 210 220 148 172 186 185 216 124 99 102 190 250 125 167 228 149 135 156 176 181 175 174 169 164 170 185 241 212 193 205 193 219 204 184 246 205 185 218 247 248 220 250 249 251 250 252 251 245 243 251 247 252 251 250 251 251 249 250 251 246 251 250 251 250 249 251 250 248 251 251 252 252 244 225 196 214 214 226 216 223 226 206 220 169 169 164 133 151 145 133 142 136 141 144 145 154 150 125 181 142 123 115 100 111 127 118 107 117 138 138 165 157 174 123 168 173 167 178 195 175 186 175 180 188 189 170 182 189 184 157 166 162 180 170 162 168 157 161 159 151 162 158 165 175 149 137 166 155 154 140 159 155 159 145 148 161 153 152 166 161 178 171 198 219 212 231 230 220 224 221 201 210 214 183 137 112 153 151 149 133 141 163 165 154 149 147 134 182 153 139 131 156 148 145 149 146 146 142 145 164 154 114 168 191 129 139 138 153 120 138 148 163 147 156 170 147 164 155 200 150 146 166 156 153 143 168 166 154 150 155 175 151 142 208 187 146 151 159 171 157 182 164 150 161 166 147 166 148 159 191 136 134 149 155 157 146 151 131 113 148 146 143 143 108 157 157 64 97 102 92 101 98 99 
137 149 135 135 124 124 142 210 122 93 113 80 102 94 81 115 134 121 124 112 99 170 214 131 128 152 153 158 166 137 146 161 137 145 147 145 143 143 137 134 139 139 151 133 120 132 124 110 123 132 123 113 128 123 123 123 143 127 107 122 136 124 118 119 120 118 110 125 129 139 127 89 116 104 83 103 104 92 66 80 77 66 64 62 60 43 110 100 86 29 14 80 131 110 112 119 89 101 76 81 59 41 57 67 82 108 74 52 59 44 40 42 55 
78 43 174 174 141 82 121 182 93 3 3 130 40 74 37 33 41 2 3 22 2 68 153 2 6 12 1 1 2 158 205 188 198 99 6 111 142 201 196 126 207 208 247 138 18 218 131 133 168 102 136 97 126 101 124 124 72 111 129 78 67 232 219 240 205 70 84 110 93 51 101 141 177 88 74 63 122 100 79 107 136 100 120 69 83 74 78 85 86 79 101 105 67 95 127 112 81 58 73 95 105 94 132 103 55 38 106 117 139 188 112 89 117 87 169 164 133 127 63 33 68 108 84 97 153 49 75 120 127 104 106 102 118 88 154 224 204 198 234 174 82 82 95 102 80 81 91 104 107 140 137 135 133 174 194 177 127 129 121 184 217 215 211 214 236 112 95 118 94 92 125 160 152 108 97 117 112 110 123 121 113 79 171 242 200 173 218 254 177 212 71 3 5 46 64 82 116 90 6 68 22 18 74 82 5 10 63 47 4 6 4 4 4 23 5 5 65 146 98 4 4 25 84 5 117 215 203 4 40 210 3 7 3 4 3 208 190 187 71 210 199 157 115 37 5 4 16 190 208 232 146 5 4 190 162 8 5 181 186 153 115 4 4 17 139 17 4 5 159 100 4 8 29 31 28 6 4 4 4 4 4 4 44 98 82 118 5 51 107 23 3 13 184 173 15 146 209 58 83 61 5 4 43 77 57 2 53 153 12 33 114 104 57 82 18 39 56 58 53 57 55 120 175 138 112 104 252 184 181 212 209 202 212 218 204 184 207 254 254 254 246 251 251 251 251 245 247 248 247 247 238 218 245 203 184 181 165 162 177 184 165 161 165 160 170 153 165 126 183 162 170 156 153 168 144 168 160 154 153 142 143 137 146 149 198 155 160 178 177 154 127 139 186 176 157 135 153 162 135 143 227 166 128 118 144 137 144 146 134 133 148 123 124 137 113 103 244 222 208 213 204 224 220 219 194 245 246 253 253 233 253 253 254 250 252 254 254 254 254 250 249 253 252 253 252 252 237 253 254 248 253 255 254 250 252 251 254 254 247 254 254 248 254 254 254 250 254 253 247 253 246 254 254 252 253 253 248 254 253 254 250 255 255 253 254 254 254 254 251 254 253 251 254 254 254 250 250 251 254 249 249 254 254 253 252 252 250 245 252 254 247 254 252 248 254 253 255 255 245 255 255 243 255 255 247 254 252 255 255 241 255 255 255 255 250 252 255 255 247 254 254 249 254 252 254 253 250 254 249 254 254 166 96 138 134 137 146 124 127 137 137 134 130 132 142 143 134 128 
131 108 112 128 126 123 123 115 140 110 147 192 147 110 127 75 80 107 128 123 119 116 106 111 99 80 93 85 95 111 87 92 100 92 103 75 56 49 75 70 45 57 68 57 45 68 108 71 50 127 123 137 109 108 90 47 72 62 69 61 59 69 74 61 97 78 68 74 66 56 49 55 
59 67 217 159 103 63 178 224 62 2 21 68 71 110 133 66 33 31 48 44 36 200 246 100 51 121 226 138 34 99 170 206 195 172 36 9 135 191 147 129 69 211 209 98 2 159 197 99 98 125 122 115 161 96 114 202 93 194 252 203 104 131 87 72 48 74 77 113 121 81 92 88 113 74 66 72 64 97 125 82 107 100 78 75 100 73 71 76 78 88 82 89 87 92 87 144 56 55 101 142 76 87 83 144 122 10 81 130 110 142 136 110 111 40 76 90 129 170 87 78 106 82 111 96 88 134 90 136 123 87 110 137 103 121 201 187 202 214 137 75 80 98 100 77 116 177 197 219 222 213 218 218 198 214 191 138 128 142 152 128 160 237 213 205 229 206 102 103 112 190 231 252 219 206 135 104 109 115 124 120 100 127 244 222 181 186 251 214 239 146 1 2 6 103 109 102 166 77 68 112 76 50 67 81 11 4 5 42 90 35 52 84 167 91 3 11 48 16 11 119 3 198 77 3 59 181 110 3 6 82 46 22 138 235 58 156 252 120 58 236 200 248 92 2 30 71 54 52 116 49 75 137 60 38 4 3 107 167 70 3 18 61 33 64 100 35 214 39 52 111 2 21 73 30 10 56 69 149 212 108 42 79 23 87 147 104 40 165 180 156 173 120 70 85 56 68 62 14 149 170 151 32 3 5 45 42 135 143 66 4 79 2 2 25 32 31 47 22 12 9 2 2 25 12 2 1 248 93 103 178 161 158 160 148 167 125 205 194 198 199 210 211 198 195 203 210 218 219 213 216 226 236 247 248 254 254 254 254 254 251 254 254 251 254 254 250 254 243 253 251 243 252 250 252 247 253 253 250 253 253 252 242 250 253 252 249 251 248 247 251 251 251 251 248 251 251 249 251 251 251 253 250 254 252 254 248 253 253 253 253 250 251 253 253 247 251 252 252 182 191 203 206 202 203 164 80 252 222 179 203 167 188 167 175 176 174 176 176 170 167 166 169 248 187 170 169 191 175 153 176 193 189 183 189 196 195 192 225 227 173 162 160 181 167 136 135 107 128 146 148 132 119 145 224 170 114 166 167 160 156 156 145 155 153 165 191 199 167 228 217 160 159 133 153 121 141 140 137 125 119 130 157 103 140 238 167 105 111 114 115 125 106 119 107 112 104 98 120 110 170 227 136 131 139 138 156 143 132 136 127 134 128 127 132 124 203 182 156 157 145 160 166 163 160 152 144 151 157 136 154 246 248 82 70 35 73 84 98 104 116 115 108 101 
101 99 83 68 68 92 81 98 107 93 104 117 96 111 90 157 248 204 71 76 48 50 79 101 100 110 121 108 101 100 66 126 107 57 99 105 79 92 91 100 71 58 62 87 77 70 54 64 60 53 56 110 53 74 142 76 57 94 100 117 125 107 87 90 98 86 58 78 92 50 74 80 60 55 60 63 55 
124 27 171 127 32 18 118 244 64 22 22 33 56 73 83 50 36 33 34 3 116 222 185 172 30 224 210 245 44 109 226 98 19 168 243 200 225 126 23 172 7 99 96 3 22 155 33 3 100 102 249 218 129 68 119 248 145 9 124 63 49 3 44 99 191 231 195 65 92 98 59 108 92 56 59 106 84 82 60 90 85 120 96 100 91 101 83 75 88 89 87 102 98 102 142 137 71 109 94 102 95 97 40 95 75 70 78 80 84 68 118 93 69 60 68 67 110 123 89 127 123 109 102 83 98 158 119 129 128 107 98 107 111 183 201 190 227 172 62 81 108 68 98 181 208 212 225 220 237 239 239 237 232 209 210 192 139 129 139 144 108 144 242 209 204 246 190 70 178 166 61 220 91 109 205 98 109 115 122 141 105 208 222 204 166 248 244 233 198 9 54 206 130 45 161 179 110 17 83 119 51 33 58 64 131 64 226 248 115 3 39 104 125 25 206 211 217 121 165 201 61 200 97 43 4 62 167 113 42 76 34 160 251 239 111 134 241 134 111 44 84 54 2 68 50 54 47 2 1 1 44 93 59 49 55 46 236 230 171 94 16 39 27 21 17 87 214 162 44 35 125 11 75 71 4 15 96 197 175 5 38 75 4 40 56 83 37 78 191 237 202 231 143 15 4 13 56 38 181 213 167 66 55 26 6 20 112 160 173 28 36 85 53 120 77 90 106 62 96 155 134 98 10 2 7 81 254 249 230 247 253 254 244 240 222 195 253 149 93 99 55 58 46 26 45 36 26 26 32 29 25 28 63 71 67 56 57 71 81 84 78 75 73 84 83 77 82 73 169 171 92 113 101 100 123 111 116 119 121 124 126 125 122 118 232 157 118 131 146 143 134 149 136 90 77 80 90 122 121 95 120 138 150 131 135 143 154 144 146 156 157 153 134 154 193 240 222 244 139 149 167 163 168 181 91 28 250 190 2 25 19 10 11 16 15 19 25 19 11 18 22 1 63 60 4 9 10 12 21 28 32 36 33 22 19 28 29 38 43 46 57 53 49 44 54 1 1 46 99 158 199 142 46 108 91 62 145 201 174 141 86 107 154 151 190 179 154 156 160 94 89 52 8 2 25 1 5 1 1 2 1 9 37 37 68 59 41 43 58 54 62 46 46 53 48 64 63 64 45 70 70 44 56 57 47 46 47 69 70 74 66 73 68 76 61 73 69 52 67 57 59 68 59 52 47 40 28 24 1 1 131 253 107 25 28 41 73 62 91 74 56 39 30 39 44 38 48 74 70 84 81 71 74 83 83 79 63 77 103 151 156 56 41 13 48 32 40 43 36 44 35 12 24 8 135 94 1 34 24 29 27 16 22 15 15 13 24 13 15 26 19 14 24 
14 18 32 53 55 68 78 74 61 78 89 67 63 81 87 92 78 85 82 57 89 93 59 63 79 90 82 
141 37 31 32 67 66 61 178 27 88 53 15 8 51 17 47 67 32 48 3 155 225 207 226 36 156 156 93 20 148 123 22 14 152 93 43 227 194 98 206 241 173 87 12 210 235 115 28 65 23 166 209 110 102 126 112 61 4 44 119 158 123 202 251 236 173 205 66 80 120 82 106 151 142 76 73 105 64 78 117 122 85 103 108 83 82 84 76 85 96 120 75 68 104 103 94 57 100 128 88 75 124 72 66 58 90 89 85 68 69 74 58 74 90 69 64 86 90 134 120 66 77 118 139 70 130 116 75 107 114 97 81 178 212 201 215 183 110 121 87 70 126 215 217 197 178 221 207 170 159 163 189 216 194 249 236 231 167 123 146 111 61 158 240 205 219 243 129 83 89 61 204 94 86 99 118 118 107 123 109 177 238 207 170 218 248 214 242 86 4 171 241 229 54 99 198 88 28 17 10 46 2 19 49 98 106 112 238 90 127 199 41 4 109 200 107 55 73 252 193 124 248 148 65 60 69 63 37 11 5 4 8 209 207 30 49 106 223 251 31 1 27 98 46 73 47 63 54 28 77 24 19 58 56 59 69 116 208 230 243 93 17 158 99 22 42 202 169 33 49 178 37 43 6 26 36 79 30 10 93 33 45 22 212 166 29 17 23 187 212 161 165 98 10 49 48 39 2 156 252 162 52 57 90 34 44 8 65 112 63 165 104 75 147 141 123 98 70 145 184 200 168 117 84 37 45 234 191 183 193 175 182 177 204 223 221 253 210 35 56 70 89 57 70 71 67 65 73 82 78 69 68 51 54 54 57 59 50 45 53 48 50 47 53 47 44 41 35 41 46 24 40 42 44 39 32 36 36 33 30 32 38 34 27 30 28 33 33 27 29 25 22 32 36 36 32 33 31 24 27 24 25 30 27 32 27 25 16 21 23 22 23 41 19 2 123 254 253 214 233 237 250 237 242 253 250 254 247 43 54 71 64 71 71 65 65 74 73 70 79 86 61 84 120 92 65 57 111 117 111 101 95 95 90 86 91 100 67 78 104 84 77 98 119 67 11 113 134 164 234 223 238 174 203 145 125 125 117 110 77 85 98 112 144 69 77 42 42 36 35 72 30 37 53 117 106 96 135 215 220 232 204 215 188 194 192 195 192 179 190 192 191 191 194 171 176 185 183 179 181 176 194 193 194 201 203 197 191 205 212 205 210 209 222 231 218 206 209 220 226 220 234 230 223 232 233 233 211 224 190 113 196 200 172 215 203 232 208 211 220 194 186 186 199 205 191 180 185 200 200 180 179 200 197 183 192 183 195 180 144 127 117 141 129 127 109 120 124 
116 123 127 121 118 125 114 113 99 93 112 102 112 94 92 91 93 88 89 82 72 68 65 74 60 57 54 45 19 35 71 91 53 59 55 92 9 23 69 70 73 75 81 98 93 88 78 65 83 84 85 83 
12 47 40 55 54 37 34 12 31 49 56 43 3 56 58 55 48 24 25 41 199 194 174 213 122 51 75 51 138 29 2 57 65 149 63 20 140 179 212 218 154 14 52 247 222 226 46 3 7 3 113 169 188 111 32 42 65 108 121 222 193 184 57 135 176 138 88 119 116 145 72 73 153 154 118 41 59 77 76 70 94 95 96 109 99 92 120 80 80 72 85 91 89 148 103 96 109 102 73 120 87 143 153 80 96 85 79 79 65 71 51 74 67 54 62 51 66 83 121 112 94 119 130 130 87 114 152 75 77 131 111 119 221 217 215 208 105 115 143 98 137 239 222 233 181 168 83 61 71 71 74 60 118 200 188 245 228 244 212 76 79 96 65 202 221 205 231 222 86 98 150 218 171 134 96 121 128 107 92 124 238 221 200 177 253 232 236 146 3 7 116 219 198 154 4 23 55 35 68 16 82 106 17 16 47 68 26 73 93 225 248 96 33 66 55 63 66 45 165 142 129 250 78 33 81 52 29 48 50 20 94 62 73 179 104 40 107 134 24 41 33 54 64 32 48 92 69 38 34 106 81 26 57 98 50 39 46 79 122 129 52 24 158 102 58 38 127 65 33 64 71 64 36 35 27 40 66 9 110 100 51 17 50 221 115 15 36 9 40 28 27 4 3 41 159 99 2 77 126 155 49 10 3 40 101 47 29 69 33 10 112 106 45 27 108 118 95 91 166 168 211 182 110 82 67 87 60 47 50 141 94 37 7 57 126 81 119 90 54 77 63 62 68 65 65 70 79 81 73 67 70 77 72 75 74 73 77 75 73 77 74 77 76 76 76 78 77 76 66 70 76 74 75 75 68 75 75 75 73 77 72 74 71 75 68 66 69 71 70 73 76 73 67 70 73 72 68 67 68 70 71 68 69 70 68 64 68 74 65 60 75 71 66 81 58 36 252 246 178 179 178 183 181 186 192 178 225 254 65 52 56 61 60 67 65 60 65 73 72 68 59 61 84 68 69 60 87 100 90 97 92 80 80 91 93 85 99 88 92 86 99 103 100 92 66 52 123 167 60 23 60 53 51 20 35 47 21 29 24 42 66 51 67 118 56 73 112 111 120 164 171 172 176 185 173 155 144 171 165 174 163 145 137 125 157 248 201 206 220 212 197 214 207 213 221 208 210 209 212 214 214 213 205 216 214 207 218 211 211 222 232 226 215 202 203 223 230 231 218 219 209 223 225 223 210 222 224 237 238 254 250 244 250 252 254 236 227 242 219 244 248 251 248 243 245 247 247 248 250 247 242 243 249 251 248 246 252 245 244 247 250 253 250 240 243 250 251 246 249 251 244 250 250 251 250 248 252 248 
236 252 251 249 248 245 243 241 241 233 236 241 213 214 225 219 223 194 91 66 158 192 74 103 185 152 152 124 125 118 115 115 95 110 101 90 80 78 91 89 82 75 
31 32 35 65 76 77 49 39 7 40 62 69 13 33 49 59 57 39 24 96 244 219 167 185 165 27 53 87 147 65 1 2 158 242 182 168 140 152 104 44 49 24 3 112 239 170 15 6 73 45 26 108 73 14 3 86 150 210 105 200 204 188 161 57 4 72 196 194 203 170 160 66 55 82 65 86 113 93 52 52 66 85 53 107 115 89 103 100 90 83 97 195 68 69 137 111 89 66 87 120 96 79 91 91 92 87 95 83 79 79 83 64 83 48 68 59 76 88 79 97 53 101 117 138 104 144 185 127 90 92 89 169 158 181 227 146 114 129 109 149 246 219 243 138 66 150 144 92 110 100 101 86 209 179 36 138 237 231 236 190 75 104 94 100 237 208 219 235 149 82 140 239 190 103 116 129 122 106 101 220 226 192 173 247 244 218 230 6 3 4 135 224 211 205 72 11 49 37 105 71 98 141 85 75 42 26 64 30 92 234 182 82 55 33 71 75 22 1 42 11 112 109 46 36 63 25 0 40 65 33 63 77 48 27 76 28 18 4 30 58 35 56 100 66 29 71 45 31 35 54 73 27 40 99 58 2 3 15 48 87 75 36 119 77 68 65 63 60 52 85 72 53 77 32 34 50 80 57 65 30 33 11 65 246 43 14 2 47 92 78 48 28 22 59 143 60 8 55 92 32 40 14 100 58 53 61 142 158 130 26 106 141 160 66 5 67 71 54 67 107 189 92 58 114 92 155 207 175 42 117 214 133 40 83 159 175 108 18 63 53 64 62 70 76 75 66 68 72 72 78 81 77 73 80 79 72 71 77 76 69 72 70 71 67 72 70 69 72 67 77 71 73 71 66 72 75 66 68 67 77 70 71 66 71 74 66 63 70 71 69 68 61 76 65 65 71 65 66 71 58 66 67 67 66 70 74 69 60 68 75 69 68 62 62 75 38 53 69 11 24 33 23 30 31 34 24 29 43 52 72 67 67 61 66 73 75 73 78 78 72 78 69 69 70 55 96 102 83 95 79 86 103 97 83 83 92 86 98 92 68 98 93 82 105 104 57 84 149 137 116 81 48 48 95 137 144 134 96 68 116 92 63 83 89 237 237 232 215 208 181 163 159 119 124 141 73 69 151 88 108 164 162 155 160 101 233 246 230 217 223 251 245 239 234 242 232 233 238 238 227 230 215 219 241 238 228 235 236 239 231 228 227 227 221 211 223 221 226 225 224 228 234 231 231 254 247 240 235 224 211 201 206 180 151 152 135 156 167 188 185 172 182 188 185 186 189 191 196 192 197 204 201 191 199 206 199 198 206 206 199 202 200 193 198 195 201 202 197 203 206 195 196 201 191 192 196 194 194 194 192 182 187 190 
189 186 186 185 182 172 174 173 175 164 160 184 169 174 171 162 157 164 151 146 133 130 138 133 122 110 125 111 113 97 105 104 100 95 105 97 82 
16 46 55 67 30 40 44 60 48 47 54 53 31 7 48 57 53 33 56 54 54 101 130 96 62 3 59 49 115 36 13 4 109 243 199 190 221 129 3 3 64 56 36 5 20 39 33 34 135 43 17 25 3 94 148 112 203 213 154 227 242 230 175 79 99 178 181 178 203 199 134 91 67 118 139 149 141 128 70 74 105 76 67 82 95 109 91 105 110 119 75 122 77 70 54 98 95 72 73 61 112 103 89 100 91 86 91 90 87 83 93 72 71 71 76 90 81 73 79 73 72 106 156 93 99 161 245 106 87 81 89 219 207 195 196 117 118 120 125 222 218 239 106 73 85 111 246 105 78 98 93 123 240 133 91 70 104 236 233 236 160 71 102 74 163 239 201 232 207 87 89 178 126 96 123 110 110 98 192 225 218 194 206 253 205 246 67 76 221 77 100 238 228 126 32 55 53 41 50 113 223 229 243 106 20 49 46 55 83 107 51 41 34 23 92 20 39 52 81 69 75 130 98 79 59 55 102 21 37 24 57 73 215 94 32 67 54 54 92 78 53 35 31 54 74 59 35 50 66 55 67 76 63 41 165 193 82 10 60 78 85 60 33 53 67 82 34 21 78 85 12 54 70 40 43 64 27 35 36 56 74 14 69 235 3 79 72 3 92 85 34 51 30 38 78 30 39 2 72 78 46 71 148 90 3 17 83 188 109 15 29 119 131 60 15 9 32 56 17 38 63 53 128 230 66 59 221 213 137 14 132 151 64 35 95 146 126 58 68 64 90 92 58 75 71 65 74 77 68 71 78 70 79 70 71 78 75 70 73 78 76 70 74 70 78 69 67 73 69 71 67 69 69 77 67 71 73 75 67 70 67 77 69 65 67 69 69 70 64 63 73 74 63 75 63 62 73 67 61 71 65 68 68 67 63 64 68 74 62 64 64 56 77 64 57 76 62 54 63 74 61 68 68 63 70 64 68 70 72 57 75 74 71 63 72 82 76 74 84 90 90 82 86 79 79 100 95 98 101 86 94 108 101 98 103 101 85 91 91 89 112 121 92 91 94 71 68 120 138 129 175 147 173 151 166 128 147 155 92 80 82 77 73 53 133 238 174 188 182 201 151 146 105 166 212 193 148 141 186 41 90 160 165 168 161 166 243 230 253 250 219 222 242 241 239 246 241 243 253 237 246 251 251 245 247 253 248 250 249 250 240 249 243 253 253 235 246 248 252 230 228 213 195 199 176 141 117 131 115 45 69 132 56 46 63 102 127 116 136 133 157 144 136 145 153 145 143 152 156 147 145 151 151 144 146 155 156 147 149 152 155 146 154 153 154 139 152 155 143 147 151 146 145 157 147 147 152 147 149 145 154 148 144 
147 145 141 139 144 145 145 141 142 145 132 91 123 127 149 148 151 142 154 138 153 149 153 137 159 149 151 144 158 155 150 146 155 146 153 142 129 
28 7 22 70 53 10 6 24 53 16 7 50 50 91 63 46 53 34 74 51 16 24 2 1 18 37 33 60 89 35 25 51 3 222 221 183 210 138 49 96 2 50 49 39 32 26 34 68 232 72 3 62 195 249 241 213 186 209 181 104 3 78 194 21 75 206 170 194 219 174 163 120 63 83 133 171 138 184 130 46 122 100 133 117 117 137 64 104 166 92 122 104 68 80 96 67 69 117 89 85 103 110 95 90 81 113 99 93 107 99 82 85 82 92 89 128 110 90 89 85 109 144 111 132 92 81 156 99 89 68 142 227 204 185 200 144 131 116 190 234 241 123 55 105 100 98 193 215 85 108 91 177 247 94 91 115 63 113 253 214 212 108 95 92 106 228 221 212 241 132 97 95 104 117 116 121 104 130 235 202 196 185 254 212 225 135 3 119 203 221 81 214 124 36 46 88 89 46 35 71 70 105 121 59 7 42 76 45 42 29 47 34 89 53 111 50 50 48 47 31 94 95 84 76 62 30 54 58 56 68 66 98 142 110 84 56 47 57 65 85 69 63 61 67 72 71 65 62 61 63 51 85 82 47 67 74 70 47 74 70 86 89 67 75 93 85 70 57 64 86 63 72 56 58 78 91 76 52 71 58 54 53 45 100 26 22 184 41 56 45 22 52 29 33 74 50 53 25 35 39 11 7 72 20 43 43 49 158 67 35 13 45 65 72 77 58 48 19 56 82 105 199 140 108 165 3 25 4 65 78 73 193 91 23 8 55 78 69 63 66 72 75 74 72 67 70 75 77 77 76 75 77 76 77 76 75 74 74 74 75 75 74 73 72 72 73 74 74 72 72 70 71 71 72 72 73 70 70 70 69 71 71 71 72 71 70 69 69 69 69 67 66 68 68 67 67 67 67 68 68 67 71 67 64 68 70 68 69 67 67 66 66 66 67 68 68 75 75 74 71 68 66 65 65 70 74 70 71 69 68 77 80 74 74 77 83 87 85 83 83 76 79 82 86 86 86 90 95 101 105 99 108 104 105 100 109 81 99 104 91 82 104 100 93 84 102 28 89 132 153 186 201 206 129 156 148 130 146 76 63 64 52 69 50 49 211 212 186 177 206 163 183 212 209 180 184 208 160 229 81 57 80 126 165 189 125 217 244 208 230 109 10 112 161 149 147 89 99 117 35 61 172 155 111 21 153 177 91 43 152 135 149 181 107 86 202 117 145 93 81 101 109 48 109 112 120 76 113 100 119 75 78 80 159 140 163 233 136 39 91 117 70 87 108 97 117 126 104 116 117 89 113 128 69 80 103 91 93 100 95 89 91 109 143 94 110 113 108 101 106 122 128 93 95 101 103 90 105 97 90 89 92 97 90 90 86 94 85 79 84 92 80 80 131 138 
218 154 66 97 79 89 96 74 102 91 92 104 85 74 107 107 72 83 96 89 86 88 105 95 97 
66 31 21 32 49 52 60 45 62 44 11 31 63 80 66 67 52 63 46 65 37 48 43 31 35 168 116 10 2 12 116 237 6 121 228 228 199 121 242 85 8 35 69 44 62 59 9 148 242 36 26 82 101 157 244 226 4 22 88 2 3 55 147 3 6 148 245 158 85 153 231 176 49 93 116 107 66 47 49 78 149 113 192 169 137 77 153 123 98 131 90 124 98 72 104 106 85 117 109 112 78 99 94 99 109 90 94 126 135 129 116 116 110 101 141 117 116 126 126 113 131 161 130 119 120 79 82 87 92 67 196 212 202 189 192 203 188 195 219 229 151 51 102 103 94 85 139 248 164 192 130 207 222 65 105 99 105 69 133 198 235 168 83 94 83 195 228 217 247 170 87 114 112 124 116 113 90 214 211 218 168 244 244 196 214 9 3 6 153 214 2 53 60 72 57 38 61 67 63 67 59 78 18 24 79 28 78 43 75 48 44 72 73 28 72 71 65 81 51 27 67 41 62 82 94 68 75 64 59 68 54 57 49 53 66 65 69 79 70 65 70 66 66 68 69 66 63 62 65 64 56 81 82 63 84 93 96 66 62 54 57 77 80 110 95 72 71 67 64 77 73 87 80 51 60 75 78 74 37 14 9 30 53 1 42 35 121 46 41 55 63 46 28 23 65 77 63 67 4 21 61 89 16 53 105 44 58 39 33 58 6 12 68 85 65 80 78 80 82 85 96 121 159 140 192 52 155 127 13 95 52 87 83 41 56 83 73 68 65 67 72 75 74 69 69 71 73 76 77 78 78 80 78 77 76 75 76 76 76 76 74 73 73 72 71 72 72 73 72 72 72 72 72 72 72 73 70 70 70 69 71 71 71 72 71 70 69 69 69 69 67 66 68 68 67 67 67 67 68 68 69 71 68 66 68 68 66 67 67 67 67 67 68 68 69 69 67 67 68 67 66 66 67 67 69 72 69 73 74 74 80 79 84 80 76 75 74 75 81 88 80 83 85 87 87 88 90 93 95 104 102 94 99 101 98 92 89 104 109 97 85 100 91 87 87 87 48 72 120 139 140 121 181 171 144 138 137 148 149 182 106 85 96 85 22 123 241 176 184 181 185 217 220 204 215 201 191 227 241 254 217 154 67 106 199 146 177 246 115 136 154 130 100 122 139 107 92 122 115 114 111 119 118 120 80 87 100 82 90 103 108 106 129 115 66 131 74 130 82 70 107 127 62 82 63 70 50 35 7 14 86 179 216 221 228 236 236 219 65 166 107 109 99 106 107 131 138 93 125 137 107 95 94 142 89 89 85 92 98 84 79 91 95 97 98 94 85 99 92 96 101 113 134 115 110 111 100 93 85 93 91 91 94 86 90 90 98 85 83 102 84 101 114 166 249 244 170 
76 82 101 87 82 73 79 82 79 87 75 65 71 85 111 98 80 72 70 83 91 70 81 
127 16 21 1 16 35 34 49 44 55 31 29 68 64 68 68 62 64 37 34 56 58 45 50 71 39 117 144 22 2 103 161 20 10 242 252 6 58 253 138 1 18 66 79 54 46 48 50 61 34 30 9 62 31 119 162 50 156 246 2 173 252 250 164 34 79 60 3 22 244 189 22 32 82 91 66 40 18 60 62 206 129 87 147 177 115 205 180 37 141 96 139 123 54 93 82 101 123 107 75 119 129 102 81 82 81 79 83 87 109 104 98 74 8 107 227 180 204 104 127 213 184 221 84 97 103 90 108 88 88 219 205 192 183 130 174 203 188 197 232 135 89 95 74 97 138 119 191 248 199 144 242 172 141 114 80 90 105 149 212 214 214 103 113 87 141 228 214 235 198 84 117 115 109 123 97 177 237 209 189 214 254 202 252 47 2 115 5 56 14 2 6 33 59 39 16 44 29 19 29 46 37 66 133 110 52 52 65 78 41 10 61 65 55 72 70 70 75 46 45 95 65 69 74 79 66 68 65 67 75 67 60 62 63 69 64 68 76 71 68 70 69 69 69 66 62 61 62 62 64 63 76 78 71 79 83 82 73 68 73 61 66 62 81 81 58 70 66 56 60 67 78 60 73 85 76 58 69 42 30 62 68 79 33 42 42 22 32 48 73 91 56 49 45 44 57 54 47 3 122 140 90 57 58 26 66 59 60 74 11 92 83 52 84 80 86 92 120 86 72 51 40 38 46 57 36 109 135 64 99 93 63 81 70 61 72 69 70 68 66 69 74 74 68 73 73 73 74 77 78 79 80 78 78 77 77 77 77 76 76 75 74 73 72 71 71 71 71 72 72 72 72 72 72 72 71 72 71 70 70 70 71 71 71 71 70 69 69 70 70 68 67 67 67 67 67 67 67 67 67 71 69 68 69 69 68 66 67 67 68 68 69 69 69 69 69 69 70 70 69 68 67 67 68 69 72 70 75 79 77 81 77 83 83 83 82 79 77 82 87 84 85 87 88 90 91 93 93 98 105 110 99 112 108 104 93 96 95 91 92 92 105 85 74 102 84 73 38 70 125 162 167 144 188 193 136 158 157 153 171 70 114 91 87 78 31 225 191 183 181 197 242 213 211 225 228 254 250 254 255 252 254 252 159 164 174 144 247 175 130 95 94 78 83 103 92 101 121 121 134 133 115 107 125 153 127 80 108 100 96 89 85 68 77 86 82 111 173 246 65 54 61 75 78 78 86 50 12 82 183 247 237 211 200 225 218 207 248 136 74 139 72 83 117 96 46 132 122 109 87 112 113 89 107 92 111 105 110 118 107 100 117 114 98 120 109 89 96 91 112 105 102 109 100 99 92 98 95 91 97 97 95 97 86 93 98 102 87 88 103 79 87 121 61 50 65 89 95 107 128 
78 70 90 90 94 99 97 84 97 98 74 82 96 80 81 67 89 102 80 81 
6 34 133 34 1 35 59 54 56 66 63 50 70 64 66 47 55 39 46 39 58 63 62 62 35 59 50 94 91 24 1 11 59 39 83 87 3 88 71 37 37 20 1 21 40 77 72 60 47 61 74 41 31 46 39 51 75 40 165 48 151 237 193 227 207 6 8 30 8 134 51 11 39 66 25 10 56 116 43 6 231 220 133 142 132 194 167 170 88 138 138 176 115 63 101 105 144 109 101 104 77 86 111 113 109 94 95 88 64 92 94 48 34 110 162 155 254 199 220 90 182 206 236 164 68 109 96 93 72 124 216 203 207 168 100 122 126 206 242 164 183 246 227 200 133 193 178 108 251 153 170 242 207 175 90 149 192 245 115 152 231 230 117 84 99 100 230 215 221 224 107 106 121 118 111 145 236 225 185 197 254 54 201 199 1 97 176 36 60 68 41 66 42 39 61 22 57 43 3 23 28 78 80 98 4 39 70 65 69 57 41 62 63 65 81 70 59 58 100 100 90 64 71 74 60 58 60 68 68 64 68 70 81 72 69 72 72 69 70 77 71 71 71 69 67 64 64 65 62 64 69 70 70 70 66 65 59 66 67 76 68 66 65 69 70 66 84 69 62 59 65 65 60 82 65 62 67 80 81 65 53 43 70 33 53 42 41 34 51 77 83 59 46 63 52 76 73 56 62 35 19 57 64 54 45 57 59 80 89 23 78 90 36 90 110 29 37 102 82 58 63 71 67 56 75 55 47 49 55 68 81 86 64 45 62 54 69 72 70 65 66 73 75 72 77 75 74 75 77 78 78 77 77 78 77 77 78 77 76 75 74 73 73 72 71 71 71 71 72 72 73 73 73 72 71 70 72 72 70 70 70 71 71 71 71 71 70 70 70 70 68 67 66 67 67 68 68 67 67 66 71 67 69 72 71 69 69 69 68 68 69 70 71 70 70 70 72 72 72 71 69 68 68 69 70 73 70 75 77 74 78 75 79 82 87 89 87 85 84 85 85 86 86 88 91 95 96 95 96 98 105 110 121 111 104 103 102 107 110 107 88 87 78 87 86 87 93 49 82 183 202 161 141 231 225 163 142 172 116 62 30 91 85 166 160 6 114 240 181 190 205 229 213 221 219 251 248 254 254 245 253 245 254 255 200 152 135 210 202 68 102 129 115 132 107 114 157 148 110 101 80 93 104 132 135 135 135 84 74 96 86 125 107 82 129 115 114 126 246 199 13 82 81 76 40 27 66 182 248 228 202 212 223 220 216 212 210 223 245 126 120 50 82 109 60 19 129 118 85 1 114 123 91 112 115 99 110 103 117 116 108 114 115 107 128 110 92 90 91 114 108 95 94 95 103 96 109 101 96 100 102 98 101 87 93 102 104 90 105 80 121 110 108 92 91 96 
96 104 76 113 112 102 107 108 78 104 109 78 84 103 82 81 86 93 99 84 96 91 81 76 
44 78 161 26 24 76 57 78 72 61 58 49 62 69 62 58 42 25 37 70 38 50 68 38 37 42 52 30 21 52 36 41 54 55 25 11 21 245 167 1 57 48 48 18 96 57 67 70 69 71 63 72 31 47 69 69 58 8 177 83 19 159 245 237 218 48 10 56 24 3 211 197 5 54 50 20 71 96 92 64 112 124 188 241 35 110 203 191 59 127 178 195 22 46 74 111 86 78 66 101 118 99 96 119 88 97 119 105 118 111 157 203 43 117 207 65 189 254 225 137 86 200 185 231 137 119 136 99 78 169 237 199 233 152 126 126 135 222 246 138 53 125 185 221 246 246 234 215 161 119 172 245 141 129 199 247 223 90 60 146 249 239 168 85 122 85 213 223 207 241 116 94 124 124 106 220 232 201 170 249 118 77 255 3 23 151 123 6 8 60 83 58 35 36 55 34 28 65 156 63 41 45 2 48 69 62 56 60 68 67 66 73 64 56 70 72 66 84 82 63 97 72 47 67 61 67 64 68 66 58 65 68 67 64 67 79 83 75 74 77 77 75 72 71 70 70 68 65 69 68 71 63 64 73 69 71 67 75 73 65 68 68 81 75 70 78 88 75 80 69 68 74 56 68 65 69 69 50 78 107 56 56 31 53 59 84 66 69 59 64 62 67 70 86 66 56 73 93 81 88 74 85 86 65 78 84 80 94 85 40 50 37 55 85 101 42 45 64 72 74 66 69 84 61 77 66 81 66 68 70 67 78 95 110 105 82 67 73 74 69 70 76 76 72 76 76 76 77 79 80 78 76 77 77 78 78 77 77 76 75 73 73 73 72 72 72 72 72 72 72 73 73 73 72 71 70 72 72 71 71 70 70 71 71 72 71 70 70 70 70 69 69 67 67 68 68 69 69 68 68 72 66 69 73 69 69 70 67 69 70 71 72 71 71 70 70 67 68 69 69 69 69 70 71 70 75 72 74 74 71 78 78 81 80 79 79 80 83 85 85 87 87 87 87 91 97 98 96 97 102 102 113 114 115 109 116 92 95 99 100 82 81 75 92 88 87 81 67 48 125 169 187 92 172 159 145 168 148 135 48 74 149 143 89 133 25 24 235 206 172 220 220 224 219 238 254 254 255 254 247 243 254 254 250 255 166 146 166 249 129 174 167 155 147 122 118 100 116 107 83 108 108 151 108 77 84 126 126 70 120 121 114 127 128 120 94 70 133 183 249 53 56 40 39 86 185 235 229 199 217 222 210 202 220 208 214 216 204 218 189 58 68 85 100 68 102 109 85 130 116 92 92 103 110 107 109 118 106 118 122 115 118 116 110 124 87 85 85 94 96 99 97 95 85 95 98 107 84 79 100 96 91 100 84 88 97 98 89 75 106 123 97 106 96 96 105 97 
104 79 88 92 81 86 84 68 80 101 73 65 88 85 93 105 119 115 120 117 76 81 82 
40 108 115 1 50 102 72 79 59 55 53 45 54 61 55 85 63 38 39 50 63 74 64 40 58 41 52 77 56 38 48 59 75 63 60 34 137 141 50 71 55 3 37 159 110 10 42 51 96 47 58 51 53 62 70 56 32 50 43 45 41 115 133 181 216 44 12 54 40 22 188 252 47 20 60 60 86 72 165 244 105 1 15 184 82 51 137 214 43 113 230 206 128 68 57 2 9 48 104 97 96 117 116 50 62 69 83 108 57 106 84 118 72 155 196 200 178 253 231 226 57 99 191 218 215 115 108 112 71 175 227 188 222 144 129 131 162 231 239 106 90 90 94 108 141 163 220 199 226 250 216 167 204 246 246 146 77 101 101 104 242 232 185 78 98 67 181 235 209 235 101 99 126 91 180 235 199 158 216 250 115 254 92 1 27 102 94 46 74 17 33 47 64 53 67 35 40 66 109 98 73 59 75 88 84 82 53 60 62 60 54 64 60 70 67 65 67 73 69 71 71 57 78 61 59 70 65 60 66 72 75 69 70 75 72 75 76 76 80 76 80 79 76 73 74 75 70 65 67 68 72 68 69 74 71 71 74 81 81 68 74 71 79 67 77 80 79 82 92 77 76 96 80 62 68 63 77 65 61 84 104 86 78 78 81 83 73 72 77 80 83 63 52 49 73 77 72 75 61 70 84 100 91 80 94 79 84 62 62 73 69 71 70 72 65 92 90 55 68 79 73 77 70 77 61 69 75 77 63 63 85 56 64 82 74 74 65 71 76 77 77 77 75 70 73 74 75 78 80 81 80 79 78 78 78 77 77 76 76 75 73 73 74 73 73 72 72 72 72 72 72 72 72 72 72 71 72 72 71 71 70 70 70 71 71 71 70 70 71 71 70 69 68 68 68 69 70 69 69 69 72 67 71 72 65 68 72 63 69 70 70 71 70 71 71 71 68 69 69 69 68 68 69 69 70 75 72 74 74 72 81 83 81 79 74 71 74 79 82 82 89 91 90 88 91 96 97 94 98 110 102 103 100 117 115 120 112 100 97 107 108 113 99 103 83 84 77 95 30 36 84 157 124 90 132 160 177 172 106 161 213 181 159 172 164 91 15 116 233 166 217 242 215 224 254 252 246 245 249 254 254 246 255 241 250 235 225 198 218 198 99 94 115 140 100 113 109 130 148 130 112 110 122 117 136 133 115 153 106 103 88 78 101 86 81 121 166 160 131 141 101 2 86 181 243 226 208 213 217 211 215 214 215 216 210 205 213 216 210 220 74 52 74 95 97 133 95 81 116 103 97 96 105 117 93 106 108 105 113 113 116 128 120 103 125 89 98 86 94 93 98 90 98 89 94 95 99 91 94 112 91 84 97 83 86 93 93 90 88 106 113 106 108 92 100 120 
109 110 111 94 82 88 101 70 77 69 93 75 72 99 85 77 90 115 100 113 110 73 90 87 
47 127 54 25 65 67 103 70 59 68 74 57 51 62 76 79 69 55 64 57 120 125 108 95 48 40 84 78 69 76 55 53 58 56 70 68 46 32 63 105 100 16 74 119 61 23 43 49 72 119 70 71 67 72 80 64 67 59 44 94 91 64 54 33 82 126 24 25 50 63 42 80 41 27 69 70 99 163 26 57 66 30 36 77 63 74 17 20 82 174 229 239 138 54 27 41 95 35 72 134 66 41 39 108 44 29 100 51 79 96 38 31 78 202 158 79 126 107 253 219 206 109 160 177 222 182 85 103 73 178 227 210 230 152 131 132 163 230 230 109 93 122 94 125 195 147 106 187 239 157 236 157 155 250 194 125 98 107 103 105 236 233 198 121 146 128 184 216 220 231 103 113 121 123 246 211 180 154 243 212 231 208 1 16 5 43 60 42 44 48 55 25 58 22 21 60 50 22 28 68 67 57 72 96 63 82 89 50 61 67 70 67 58 72 67 68 69 74 73 79 74 59 79 60 67 74 69 60 68 75 71 70 65 72 70 76 78 74 80 75 81 80 79 77 77 79 74 68 65 69 72 77 75 70 68 66 72 71 73 69 73 79 83 84 91 88 82 94 91 84 87 103 91 76 74 63 73 80 63 63 66 66 90 62 59 72 88 65 70 76 80 63 66 63 71 71 81 79 66 49 92 78 47 61 57 62 76 64 69 69 53 73 63 70 55 73 67 67 80 64 64 67 67 67 82 71 67 74 76 77 72 74 69 56 75 55 69 72 75 77 78 76 74 73 73 75 76 77 78 78 80 81 79 79 78 78 77 77 77 77 74 74 75 74 74 73 72 71 72 72 72 72 72 72 72 73 73 72 71 71 70 70 70 70 72 71 71 71 71 71 70 69 71 70 70 70 70 70 70 71 71 68 73 71 64 73 78 66 69 69 70 70 70 71 72 72 72 72 72 71 70 69 69 69 70 74 70 73 73 72 79 79 74 76 74 70 71 76 80 81 90 93 92 89 91 97 98 95 92 100 95 90 94 106 108 109 113 109 111 118 107 103 88 94 100 93 71 83 64 53 57 70 172 167 202 188 144 67 152 210 94 196 115 35 200 175 56 43 212 195 188 232 204 232 254 250 255 255 252 254 251 251 254 237 255 251 140 134 163 247 69 82 128 131 114 145 137 139 142 82 94 123 93 146 130 97 118 114 89 87 76 70 84 96 127 136 108 37 5 17 96 209 249 235 208 219 220 210 204 206 218 209 214 203 209 220 215 199 214 227 166 32 72 82 81 106 111 90 119 103 106 93 117 121 116 103 104 110 117 111 118 135 128 117 121 93 103 86 86 96 93 76 93 89 91 88 84 95 94 95 96 85 100 88 90 95 89 91 85 99 125 108 104 99 99 100 118 103 105 97 
76 72 101 97 68 73 97 70 66 102 93 89 86 117 101 110 102 85 101 99 
88 86 68 60 58 75 91 89 53 56 66 51 43 84 121 61 34 56 68 112 120 117 141 100 35 75 116 75 57 64 73 90 70 65 66 63 65 45 81 126 88 71 175 105 71 55 57 80 137 195 123 83 87 104 139 109 112 126 98 117 99 91 75 68 49 111 81 66 91 99 42 94 94 58 55 58 76 122 32 41 40 51 44 67 70 50 55 35 21 198 249 219 75 2 12 77 72 41 78 111 96 26 12 210 201 53 75 14 60 120 68 81 84 62 110 68 180 210 222 235 212 236 177 183 198 235 140 75 73 172 232 203 221 96 96 83 134 239 240 111 101 114 89 107 197 249 215 157 246 212 249 171 141 134 161 130 95 115 106 103 231 242 208 143 170 153 196 214 214 232 116 110 96 216 219 197 175 226 210 250 252 1 66 85 44 29 47 15 42 58 58 64 121 77 27 65 27 23 40 64 69 69 49 74 86 56 60 61 65 58 71 67 75 70 67 71 75 66 71 66 72 70 68 72 74 72 72 69 73 70 64 80 79 76 70 84 84 72 81 85 77 79 79 78 79 81 78 73 74 76 73 79 78 70 75 77 78 74 76 84 78 85 77 86 90 87 84 93 73 79 84 81 85 85 65 76 68 66 73 76 76 71 70 70 65 62 76 82 64 78 74 59 55 73 58 70 67 59 59 71 84 74 59 52 57 66 52 62 89 93 55 69 72 55 72 73 66 73 69 70 75 70 81 66 78 72 76 79 72 72 70 75 71 73 62 73 76 73 71 73 74 74 75 78 76 77 77 76 74 75 79 82 81 80 79 78 78 78 78 78 76 76 76 75 74 73 71 71 72 72 71 71 71 72 73 74 73 72 72 71 70 70 70 70 72 71 71 71 71 71 70 69 72 71 70 70 70 70 71 72 69 68 74 72 65 78 86 71 69 69 69 69 70 71 72 72 68 69 70 71 71 71 73 74 71 73 68 72 73 72 76 73 72 73 71 64 62 70 80 86 89 94 93 90 92 98 101 98 96 92 95 94 110 104 106 109 102 97 100 113 112 110 91 89 97 75 72 91 93 50 68 112 152 155 133 94 79 92 206 89 112 164 104 7 159 158 86 90 164 223 164 177 213 230 249 255 251 247 253 241 248 254 253 253 254 255 165 184 146 237 184 73 104 104 141 123 102 111 104 126 96 102 107 119 153 132 108 107 99 91 119 118 120 143 130 50 69 111 123 32 39 197 219 201 216 213 204 217 209 212 214 211 211 223 201 209 203 211 206 214 251 39 61 93 69 89 112 99 114 54 106 109 101 112 103 124 101 110 117 108 111 121 119 124 118 78 86 90 86 93 81 77 99 86 91 110 102 107 99 102 103 87 103 92 94 96 86 88 91 116 123 109 118 95 112 120 
106 120 108 93 84 86 96 82 75 78 102 79 82 106 83 87 103 119 104 115 93 65 69 88 
131 97 60 66 75 101 124 86 63 71 59 56 60 88 125 109 72 64 104 134 130 130 132 125 127 142 111 102 81 98 106 101 74 81 72 72 80 60 55 86 80 230 210 73 56 94 164 108 105 38 63 88 91 122 130 127 125 119 112 86 71 93 103 78 93 85 77 83 81 61 56 76 70 66 68 68 68 82 78 50 58 62 48 54 57 53 80 107 7 48 237 146 26 63 69 77 67 44 67 70 53 69 56 15 122 134 78 55 5 25 12 36 14 3 35 181 253 225 177 252 239 226 191 154 191 201 241 109 69 166 235 203 238 112 93 91 117 252 236 132 89 73 112 231 248 202 147 202 208 214 171 230 248 232 181 143 118 92 97 102 242 237 202 139 157 136 207 211 225 221 89 87 188 228 199 192 220 235 228 253 53 6 75 105 72 36 35 45 31 38 42 4 80 151 72 43 42 52 45 61 74 70 60 67 61 67 62 66 61 61 63 65 67 70 72 74 67 71 74 75 74 73 72 72 78 74 70 68 70 73 74 76 73 77 80 79 80 83 84 83 82 82 83 85 86 84 81 81 85 81 78 77 74 72 73 76 74 76 78 79 78 81 87 91 92 90 86 86 87 81 75 79 87 85 87 89 82 72 73 82 79 73 74 76 70 60 61 71 71 76 73 63 61 68 72 70 65 64 61 64 65 57 66 96 72 65 56 58 67 68 67 73 72 76 78 78 77 77 77 77 76 76 74 73 75 77 76 73 76 75 75 74 73 73 75 76 77 77 76 77 78 78 77 77 77 79 78 75 75 78 79 77 81 81 80 80 79 78 77 77 74 75 74 74 74 74 73 72 69 70 72 73 73 73 72 71 71 70 70 69 69 70 70 71 71 71 70 69 69 69 70 70 70 70 71 71 71 71 70 69 71 70 71 71 71 71 71 71 70 70 70 71 71 72 72 71 69 71 73 73 72 72 74 76 73 73 73 73 73 74 74 74 73 71 70 69 68 73 79 83 79 92 97 92 94 101 95 82 101 98 97 99 102 105 106 108 110 96 97 118 122 110 105 101 96 80 95 86 101 45 68 128 133 146 155 112 85 136 194 163 88 85 108 140 131 120 85 118 72 217 210 170 180 227 253 254 254 255 253 251 248 248 254 247 255 255 153 168 172 157 251 77 107 114 105 112 112 145 141 131 111 110 124 123 124 121 108 119 139 136 147 143 151 144 137 49 205 229 91 124 15 95 244 211 209 209 209 211 212 213 212 211 210 209 208 210 212 211 207 203 235 163 22 79 78 87 100 96 112 58 95 101 107 106 111 114 106 124 113 107 106 117 113 124 108 84 91 87 88 99 80 71 103 86 115 150 98 98 113 97 109 103 98 94 87 88 89 88 85 105 114 113 99 
90 106 118 114 114 125 88 96 89 104 84 84 95 100 71 92 95 69 72 91 90 81 80 101 76 84 89 
88 97 113 132 126 121 125 98 66 64 48 57 57 56 100 132 150 129 135 138 125 127 131 129 132 130 100 120 126 136 115 87 109 120 102 72 59 52 56 77 97 135 105 141 104 92 69 99 103 109 66 55 96 130 126 83 92 110 108 94 100 117 107 85 93 102 101 96 94 85 73 71 67 71 80 84 88 101 104 90 66 48 43 68 81 70 79 102 43 4 28 53 72 65 72 62 60 48 51 58 56 60 63 48 79 149 49 23 3 8 28 22 47 56 52 204 242 201 197 249 251 202 206 135 179 211 234 185 61 144 243 208 241 133 85 97 107 231 246 162 56 172 248 228 152 128 170 251 176 114 195 165 220 223 238 249 241 195 126 113 250 243 174 121 139 147 230 210 227 220 70 131 248 216 202 187 253 195 243 150 2 2 2 39 67 18 48 48 53 72 26 59 57 53 74 76 44 54 37 59 67 67 63 68 62 65 61 67 69 68 68 68 68 70 71 73 73 77 79 78 76 76 75 72 72 71 70 68 70 72 72 71 73 76 78 77 78 82 81 81 81 81 82 86 88 88 86 84 86 81 78 79 81 81 78 79 75 77 79 78 79 82 87 90 92 94 92 92 91 88 86 90 93 90 89 91 87 81 80 83 82 80 77 73 69 66 67 69 68 71 78 82 79 70 65 66 65 70 70 72 73 67 71 87 104 97 81 69 69 69 65 67 72 77 82 82 78 76 76 78 76 76 74 73 76 79 79 77 77 77 77 76 75 75 76 77 77 77 75 76 77 78 79 78 77 79 78 76 76 79 79 78 81 80 80 79 78 78 77 77 75 75 74 74 75 74 74 73 70 71 72 73 73 72 71 71 71 71 70 70 70 70 71 71 70 71 71 72 71 71 70 70 70 70 71 71 71 71 70 70 70 70 71 71 71 71 71 71 70 70 70 71 71 72 72 72 69 71 73 73 72 72 74 76 73 73 73 74 74 74 74 74 74 74 74 73 73 76 80 84 83 89 95 95 95 96 94 91 97 96 95 98 101 104 107 109 105 99 103 115 111 100 99 99 95 93 93 84 86 79 45 84 125 148 179 177 84 140 141 143 157 111 18 116 131 130 175 160 35 161 234 199 153 181 253 254 255 243 255 253 253 246 254 253 253 247 142 180 185 134 248 148 95 129 116 145 145 148 134 131 115 100 92 108 100 118 139 169 171 161 122 124 130 136 137 90 81 224 112 90 87 230 220 208 213 213 213 213 212 212 212 212 213 212 212 212 213 211 208 206 212 250 46 54 71 108 97 82 99 96 94 91 118 117 103 117 103 117 106 105 112 123 115 122 115 86 79 75 83 97 79 60 91 66 155 146 101 103 96 112 106 101 100 94 88 77 79 82 79 112 121 
106 92 97 111 108 107 116 114 80 81 64 93 84 89 88 78 65 83 78 45 43 99 149 134 146 86 70 69 74 
114 119 127 129 121 121 129 131 66 49 57 81 60 63 117 139 124 117 124 128 128 133 130 128 131 133 109 125 121 123 122 122 125 120 113 107 94 78 84 111 116 98 101 99 103 72 68 96 102 122 78 53 73 121 143 80 67 112 120 108 121 125 111 108 97 113 114 106 105 103 89 75 76 82 90 95 101 108 110 107 101 88 87 90 95 104 99 93 98 96 82 64 69 46 56 64 57 62 47 58 67 56 65 71 23 143 107 18 82 183 197 155 62 24 210 253 239 251 251 55 136 250 215 218 118 199 200 237 137 86 245 202 224 168 75 100 79 199 222 173 169 204 152 107 111 198 209 248 144 193 249 144 177 172 86 125 161 208 196 208 218 222 194 229 169 161 221 209 247 165 78 227 221 204 155 240 225 223 219 4 48 62 59 21 81 68 76 43 40 55 69 59 74 47 67 81 46 34 53 61 61 65 66 70 63 62 61 66 68 68 69 69 71 74 75 77 74 80 82 78 76 78 78 73 69 73 75 73 73 74 75 72 76 77 77 77 79 81 81 79 80 80 81 86 91 93 90 86 86 80 76 80 84 84 80 76 76 77 78 79 82 84 85 87 89 97 97 90 90 87 88 95 94 93 91 92 93 92 88 85 88 90 85 74 71 76 76 71 87 89 93 95 87 76 71 71 61 67 68 67 70 68 66 70 78 78 69 60 66 74 74 74 73 79 85 85 81 78 78 80 79 78 75 75 76 79 79 77 75 76 77 77 77 77 77 78 78 77 75 77 77 79 80 80 77 79 78 77 77 79 80 79 80 80 79 78 78 77 76 76 76 76 75 75 75 75 74 74 72 72 72 72 72 71 71 71 72 71 71 71 71 71 71 72 69 71 72 73 73 73 71 70 69 70 70 71 71 71 71 71 71 71 71 72 72 71 71 71 71 71 71 71 72 72 72 72 69 71 72 73 72 72 74 76 73 73 75 75 75 75 75 75 75 76 75 76 77 78 81 84 88 88 91 97 96 90 92 99 93 94 95 97 99 103 106 108 111 110 114 118 116 107 100 99 92 81 75 73 75 95 36 65 105 225 154 158 152 148 138 94 185 134 164 214 178 141 141 198 83 77 244 194 199 163 202 248 250 255 252 254 254 254 250 254 254 209 118 147 191 169 188 244 106 130 139 123 122 129 130 138 144 111 107 140 154 175 182 164 141 166 139 132 134 136 144 128 87 145 167 127 149 156 233 224 214 214 214 213 211 212 213 214 215 215 214 213 212 210 208 207 204 242 165 21 71 114 74 91 97 90 82 93 106 116 113 108 111 122 112 111 119 126 122 133 107 85 76 82 88 88 80 70 98 90 165 144 117 112 89 102 110 94 86 
84 101 90 82 75 102 118 126 126 111 100 113 124 111 122 99 73 92 82 99 74 88 90 77 71 80 74 56 57 140 236 216 202 61 62 71 69 
121 119 124 125 125 119 111 115 129 116 107 93 70 94 134 119 132 131 132 128 130 134 127 129 126 131 110 123 121 117 118 122 107 115 122 122 121 126 128 122 122 115 126 98 95 83 94 110 110 92 110 108 92 120 131 93 84 121 127 115 120 116 110 121 109 110 110 109 110 106 99 94 97 98 97 98 103 102 101 104 92 94 101 79 76 105 106 91 105 83 85 60 65 71 60 49 57 63 57 66 73 58 59 69 14 144 234 37 146 241 209 53 24 46 189 251 202 119 66 1 181 244 202 253 164 127 221 212 222 89 214 217 215 212 78 113 85 148 203 203 148 63 84 106 116 112 196 234 126 204 218 235 128 127 126 97 106 63 119 242 223 234 200 127 202 187 221 204 252 140 164 244 213 176 208 255 211 249 14 10 106 101 88 43 102 66 33 9 12 49 76 52 53 70 68 70 73 50 71 68 65 68 70 71 65 62 62 65 65 66 68 71 74 74 76 77 70 77 80 77 78 82 81 74 70 77 79 78 76 79 78 75 80 81 79 80 82 83 82 80 78 78 80 84 91 94 90 85 89 83 79 80 83 82 77 74 77 76 78 81 85 87 87 87 88 95 93 86 85 85 87 90 91 92 91 90 93 96 93 86 92 94 88 77 73 79 81 76 89 97 97 86 78 79 76 70 68 68 66 67 70 71 70 70 64 69 67 69 78 83 82 82 79 83 86 86 83 81 82 83 82 81 78 75 75 76 76 73 76 78 80 81 80 80 80 80 80 80 78 78 79 80 80 81 78 79 79 79 79 80 80 80 80 79 79 78 77 76 76 75 75 76 75 75 75 75 74 73 73 73 72 71 71 71 71 71 71 71 71 71 71 71 71 71 70 71 72 73 73 73 72 71 70 70 70 71 71 72 72 72 71 71 72 72 72 72 71 71 72 72 72 72 72 72 72 72 69 71 72 72 72 72 74 75 73 73 75 75 75 75 75 75 73 74 74 74 77 78 81 84 89 87 89 92 92 89 92 100 91 93 95 94 96 99 102 104 104 106 110 110 114 111 94 85 94 84 84 83 87 96 69 58 115 146 189 93 147 109 138 150 137 155 201 144 165 125 92 117 123 90 218 198 197 116 95 252 250 254 251 253 248 253 251 253 236 123 120 91 185 178 139 250 126 61 126 95 106 126 130 139 120 123 181 182 170 162 183 163 159 155 147 137 152 140 146 148 139 123 110 142 142 126 199 225 215 213 211 211 213 213 214 214 214 214 213 211 209 208 208 209 213 209 253 72 53 104 86 96 124 98 99 116 125 121 114 115 98 117 120 121 124 119 115 128 108 89 79 93 95 81 84 90 98 82 159 159 102 94 92 102 110 
102 96 83 94 88 97 104 108 138 146 135 123 127 141 138 111 134 119 87 102 106 115 97 94 94 82 78 94 86 72 53 170 224 206 194 63 67 84 84 
122 120 119 115 114 110 107 121 107 129 106 79 100 127 129 122 119 123 124 117 122 130 128 136 124 131 108 117 125 122 117 111 114 118 122 118 114 120 122 112 121 122 118 126 114 115 110 115 112 85 102 114 120 121 103 112 113 117 116 114 116 113 109 112 117 109 106 109 109 107 106 107 106 106 103 101 99 94 96 106 103 94 105 97 89 101 104 108 102 86 73 69 66 65 80 62 56 51 62 63 61 61 55 60 54 65 81 47 203 221 165 8 128 181 95 106 4 23 136 56 150 238 251 201 243 95 167 214 224 163 169 229 213 234 97 102 100 101 245 206 190 91 117 118 116 63 238 217 121 170 111 248 174 75 119 128 116 96 212 238 241 180 199 220 199 217 215 233 200 29 195 224 204 183 248 207 217 125 2 42 117 127 53 9 3 18 1 27 35 61 44 17 27 32 77 67 75 74 59 71 69 70 71 68 68 66 66 66 65 68 71 75 75 76 75 73 70 77 80 79 80 84 81 75 70 75 78 76 75 78 79 77 82 83 81 83 84 83 83 82 80 80 81 84 90 94 91 84 92 87 84 83 83 80 79 78 77 78 80 83 87 89 90 91 90 96 92 85 86 88 88 89 89 93 93 90 90 92 91 85 89 90 87 81 76 75 79 81 78 87 92 87 84 85 82 74 75 68 67 73 76 75 74 73 75 77 79 85 91 88 84 87 88 87 86 86 86 87 86 85 85 84 82 78 77 77 76 74 82 84 85 85 84 82 81 81 85 83 81 80 80 81 81 81 79 79 79 80 80 80 80 81 79 79 78 78 77 76 75 75 75 75 74 74 74 74 73 73 74 73 72 71 70 70 71 71 70 70 70 70 70 70 70 70 71 71 71 71 71 72 72 72 70 70 70 71 71 72 72 72 72 73 74 74 74 74 73 73 73 73 73 73 73 73 73 73 70 71 72 72 72 72 73 74 73 73 73 73 75 75 75 75 72 72 73 73 75 77 82 85 87 86 86 86 86 91 93 94 91 94 95 93 92 95 97 97 99 103 107 101 109 112 91 83 83 90 87 85 75 75 83 14 119 203 217 171 161 167 171 160 158 133 162 182 167 89 100 127 148 83 145 250 208 124 119 138 252 254 243 255 254 252 254 189 48 86 122 106 148 180 107 200 237 50 85 96 102 112 119 133 134 126 186 175 155 153 178 176 177 171 175 135 126 145 145 132 142 138 140 134 148 141 159 239 219 215 210 211 214 217 216 213 212 212 212 210 209 209 210 210 206 196 243 165 1 74 35 19 62 2 69 113 96 81 89 85 83 91 86 80 85 80 86 109 69 54 37 43 48 40 40 44 64 50 175 123 51 75 104 74 106 84 62 48 64 
68 68 57 70 105 117 100 75 71 87 91 101 98 85 62 84 100 83 75 81 72 67 54 59 38 39 28 166 202 199 158 42 56 64 52 
114 118 118 120 121 112 109 113 109 125 119 116 135 137 123 123 123 128 135 129 129 127 117 121 120 134 111 107 113 112 117 120 121 113 115 121 113 105 111 121 115 122 113 108 116 118 124 105 111 103 91 94 110 109 105 116 114 108 113 120 115 110 111 108 113 109 108 106 104 109 110 102 99 102 105 100 87 83 93 107 112 101 104 108 103 97 91 94 91 98 80 68 67 68 83 78 67 52 62 55 47 58 56 57 60 48 31 103 222 232 161 3 192 235 43 17 128 254 254 200 51 1 133 251 234 210 66 200 219 204 185 210 206 233 148 76 100 84 147 242 245 189 69 105 110 177 248 179 166 129 90 164 252 101 113 101 89 192 245 243 216 135 152 158 154 207 206 224 119 147 225 206 165 230 236 240 208 24 90 49 79 5 14 77 51 51 82 93 78 68 72 39 33 3 58 77 57 62 59 71 70 69 71 66 70 69 71 68 64 68 72 78 80 80 79 78 73 76 77 77 78 79 76 72 72 73 75 75 77 78 79 80 82 82 84 85 84 81 81 83 83 85 85 86 90 94 92 85 88 86 85 84 82 79 80 83 79 80 82 84 86 88 90 90 90 92 87 85 89 91 90 91 92 95 95 90 88 89 88 85 87 86 87 86 81 76 79 86 84 83 86 91 90 85 83 84 77 70 74 82 83 81 80 76 78 78 78 85 90 86 84 91 92 89 85 86 88 90 89 86 85 86 85 83 82 83 82 81 86 87 87 86 82 80 78 78 87 85 83 82 82 82 82 81 81 80 80 82 82 80 80 81 80 79 79 78 77 76 76 75 74 74 74 74 74 73 73 72 74 73 72 71 70 70 71 71 69 70 70 70 70 70 70 69 72 72 71 70 71 71 72 73 71 71 71 71 71 72 72 73 72 74 74 74 74 74 74 73 74 74 74 74 73 73 73 73 72 71 71 72 72 72 72 72 72 72 72 73 74 74 74 74 72 73 74 74 75 77 81 84 83 86 84 81 83 90 91 86 89 92 94 91 90 94 95 93 100 106 112 100 106 110 92 94 96 93 80 94 69 68 89 21 101 254 210 212 243 229 233 225 221 210 223 232 216 184 52 87 131 68 60 207 239 182 161 118 90 161 189 215 213 216 144 73 53 68 104 127 153 153 109 144 250 103 67 129 124 127 135 139 165 125 139 170 169 176 165 162 160 169 181 151 110 150 145 133 150 124 142 143 124 133 131 192 224 220 215 214 216 217 215 212 213 213 212 212 212 212 212 212 215 207 217 237 74 113 140 143 137 149 178 123 126 155 162 160 162 154 136 123 133 124 131 150 132 141 141 135 136 137 132 131 141 85 112 177 147 
153 125 149 134 135 143 149 146 151 153 148 139 132 127 143 157 156 154 147 123 122 135 124 117 115 97 121 132 117 127 130 128 106 100 94 144 171 175 143 61 90 91 81 
120 120 108 112 113 108 116 110 119 108 114 122 117 120 124 124 121 116 121 117 116 120 117 123 116 125 102 104 123 116 112 107 101 114 118 112 111 120 122 118 108 116 108 119 112 108 102 109 113 118 111 112 108 105 113 98 105 109 114 116 111 107 108 109 108 106 108 106 101 106 108 97 98 95 100 98 84 83 94 100 98 103 99 102 107 105 101 94 96 85 85 79 76 72 61 76 74 65 60 54 50 53 57 60 55 67 47 34 224 244 97 3 157 204 92 49 249 214 201 241 227 2 53 249 209 245 137 69 214 207 220 205 209 225 218 115 90 102 86 203 236 244 190 97 77 170 251 104 138 130 119 101 214 157 71 97 203 240 239 227 160 146 154 138 206 219 203 209 213 221 220 176 188 253 213 233 64 1 87 110 131 120 5 107 100 21 134 114 46 19 16 42 42 38 19 69 64 57 73 69 68 68 72 65 71 68 71 67 65 68 73 78 81 83 84 84 78 74 73 74 74 72 71 72 76 72 73 78 79 79 79 83 80 82 85 87 84 80 80 83 85 87 87 85 87 92 90 85 85 85 84 85 84 81 81 83 81 83 84 84 84 84 85 87 89 88 85 84 89 89 87 91 92 92 91 89 88 88 88 87 87 87 89 90 87 83 83 86 88 82 79 81 83 81 81 82 85 83 89 93 89 92 91 81 85 89 86 86 87 84 82 86 88 86 84 84 86 87 87 86 84 87 87 86 86 87 87 86 85 86 86 85 83 81 79 79 86 85 84 83 83 83 82 81 82 81 81 83 83 80 79 81 80 80 79 78 77 77 76 76 75 75 74 74 75 74 73 73 73 72 72 71 71 71 71 71 70 70 71 71 71 71 70 70 72 72 72 73 72 72 72 72 72 72 71 71 71 71 72 72 73 74 75 75 75 75 74 74 75 75 75 74 74 73 73 73 73 73 72 72 73 73 72 72 72 72 73 73 73 73 72 72 72 73 75 76 76 76 78 80 79 83 84 82 83 87 88 85 88 91 92 89 90 96 97 93 94 99 106 94 102 107 84 87 101 77 78 87 62 62 72 54 3 226 241 230 210 212 233 211 228 222 221 221 217 248 139 130 147 84 40 151 234 220 71 50 63 35 8 147 177 148 178 209 185 56 28 106 102 125 146 144 214 213 90 106 109 123 130 134 126 117 120 173 167 149 146 155 172 149 143 170 144 142 140 152 141 141 142 136 130 127 141 167 223 222 219 217 214 214 214 213 215 214 212 213 214 214 213 211 202 216 201 246 182 71 132 94 60 53 76 65 62 62 65 77 114 120 132 149 182 179 184 202 203 219 237 231 233 237 229 240 190 72 5 10 137 147 137 115 124 
122 141 183 185 200 199 192 190 213 217 204 189 186 193 186 170 160 163 168 162 164 143 152 152 135 142 159 159 167 131 103 88 67 64 92 90 101 98 92 
109 118 109 115 109 101 118 109 109 112 117 112 115 121 115 114 120 111 116 118 118 121 118 120 115 125 103 104 120 108 110 114 115 108 103 110 117 109 104 108 112 111 116 108 114 101 101 117 106 102 101 102 105 112 114 109 106 113 106 98 107 112 104 100 110 102 106 109 103 104 107 102 105 93 95 97 92 97 104 96 91 100 86 88 96 91 95 94 90 85 91 86 75 86 82 64 67 71 56 60 62 50 58 63 74 60 76 24 107 254 106 2 36 32 37 14 142 239 199 253 164 39 249 191 219 207 248 91 163 209 202 223 215 206 251 188 76 111 100 92 206 242 240 223 96 188 188 143 144 128 130 89 100 163 122 220 245 246 238 165 146 156 143 163 229 214 203 213 203 201 187 174 252 221 234 143 5 53 37 58 115 153 16 91 157 43 41 68 58 100 48 10 74 108 0 22 63 64 64 71 67 68 74 65 70 64 68 63 71 72 74 77 79 80 81 82 83 75 71 73 74 71 73 77 76 70 71 79 82 78 78 83 80 82 87 90 86 80 80 84 84 88 87 84 86 90 89 85 88 87 87 89 88 85 83 82 84 85 86 84 81 80 82 84 89 88 85 87 91 87 85 92 90 87 85 86 89 90 90 90 85 86 88 89 88 87 83 81 85 88 86 81 85 93 91 83 86 88 92 88 81 89 92 78 78 87 88 84 86 88 85 84 84 84 84 85 85 85 85 84 84 88 88 88 87 88 88 86 85 86 87 87 86 86 86 86 84 84 83 83 84 83 82 81 83 81 82 84 83 80 79 81 80 80 79 79 78 77 76 76 76 76 75 76 75 75 74 74 72 72 72 72 71 71 71 71 70 71 71 72 72 71 71 70 72 73 74 75 75 73 72 71 73 72 71 71 71 71 72 72 74 74 75 75 75 75 74 74 75 75 75 74 74 73 73 73 74 73 73 72 73 72 72 71 72 72 72 72 72 73 72 72 71 73 76 76 75 76 75 75 77 82 85 84 83 83 84 86 87 90 89 89 92 98 99 95 94 95 101 93 109 114 79 76 103 84 115 85 69 73 64 72 10 124 249 212 219 212 211 218 225 210 211 216 212 216 233 230 124 99 54 63 245 226 19 49 46 9 226 236 201 209 200 204 224 223 149 76 89 99 176 145 144 254 107 74 116 127 106 108 126 116 90 145 179 161 174 163 153 168 170 184 164 133 140 132 136 142 133 136 145 137 130 149 217 219 220 217 213 211 212 215 215 214 211 212 214 214 212 209 215 206 206 213 217 128 122 93 63 62 57 56 64 75 74 73 100 108 124 139 167 161 172 194 185 177 189 193 208 214 202 228 160 184 229 142 120 157 158 162 
143 128 138 175 151 160 166 174 171 174 172 179 172 159 160 163 150 148 132 133 125 143 144 140 139 139 127 103 60 108 98 98 88 93 88 72 76 59 53 7 
111 110 109 109 110 111 110 111 111 113 112 112 111 111 111 111 118 118 117 117 117 117 117 117 111 113 108 98 113 112 110 108 99 103 106 104 101 101 107 113 108 110 111 109 108 111 111 108 106 103 101 101 103 106 106 106 106 107 109 108 106 104 104 104 107 104 102 102 101 97 95 95 101 104 105 104 100 95 92 91 94 91 90 92 92 88 86 87 94 90 88 88 88 85 81 80 69 73 69 61 60 62 63 67 62 84 61 55 49 109 91 53 56 59 44 38 11 156 251 112 3 95 251 227 249 233 232 223 86 200 195 215 213 201 203 235 147 84 102 95 129 197 244 237 244 224 138 116 110 101 113 125 146 210 222 190 217 247 108 98 169 149 148 202 205 211 217 215 208 191 160 232 249 229 195 9 96 79 57 45 29 56 89 114 50 54 43 39 95 103 86 38 65 125 33 73 68 55 71 68 68 68 70 72 70 68 69 73 75 69 72 78 77 76 79 79 77 76 74 72 71 71 72 74 74 75 77 80 83 84 83 81 81 83 85 86 84 83 81 80 86 86 87 88 88 88 87 87 85 87 90 90 89 87 87 87 87 87 86 85 83 82 82 82 85 84 83 84 85 85 86 86 86 87 87 88 89 90 90 91 89 86 86 86 87 88 88 89 84 88 87 85 87 95 95 92 87 87 87 87 87 87 85 86 84 85 87 88 88 87 85 84 85 85 86 86 86 86 86 86 88 88 88 87 87 87 86 86 85 85 86 86 86 86 86 87 84 82 82 84 85 83 83 83 83 83 82 82 81 81 81 81 82 81 79 78 78 78 77 76 73 74 75 75 75 73 72 71 72 72 72 72 72 71 71 71 69 70 70 71 71 72 72 72 74 73 73 73 72 71 71 71 70 70 70 71 71 71 72 72 74 74 74 74 73 73 73 73 72 71 71 72 73 73 72 71 72 73 73 73 72 71 69 68 74 73 72 72 73 74 73 73 73 74 73 74 74 76 75 74 76 78 86 82 80 84 81 84 83 88 90 90 90 91 92 92 91 98 100 98 99 103 104 100 97 114 97 72 77 83 70 63 43 39 253 213 223 234 223 232 216 216 225 226 225 218 222 247 155 87 79 44 178 246 74 70 2 129 254 204 205 209 220 238 255 247 254 254 239 137 152 138 116 219 211 51 108 105 132 119 130 122 131 132 174 170 170 173 163 158 170 168 158 135 132 122 142 138 138 129 137 139 130 148 169 223 219 216 214 214 218 217 217 213 209 207 210 213 211 209 206 210 209 200 236 170 70 90 96 58 58 71 56 91 81 81 110 110 126 123 165 190 186 204 193 192 195 189 213 211 212 224 136 144 212 209 206 201 201 204 59 26 
148 197 181 158 142 206 202 186 180 189 187 174 172 177 172 167 163 104 72 181 177 157 156 155 180 170 65 25 58 84 78 73 56 39 39 62 72 48 
110 109 109 109 110 110 110 109 106 106 107 109 111 112 113 114 111 111 111 110 110 110 110 110 111 112 107 97 112 110 108 106 107 108 109 109 107 108 111 113 106 108 109 107 107 109 108 106 107 106 105 103 103 103 104 105 103 104 104 103 102 101 102 103 98 98 99 102 103 102 102 103 98 97 96 96 97 99 99 101 97 94 93 94 94 92 90 91 93 89 85 86 86 83 79 78 78 80 73 66 66 67 66 67 79 69 63 74 54 43 40 54 61 69 71 66 41 98 86 47 100 107 152 167 105 221 220 243 143 91 199 200 190 188 190 214 247 110 77 155 159 130 175 219 238 216 246 248 232 216 241 241 248 215 223 229 178 95 104 117 95 134 227 223 222 203 213 219 195 181 207 253 216 213 32 1 59 59 77 131 41 46 65 141 46 23 36 35 45 36 52 59 62 81 50 67 64 64 63 69 69 69 69 72 72 71 71 73 76 71 73 78 76 75 77 77 77 76 76 74 73 73 74 77 78 78 79 81 83 83 82 81 83 84 85 85 84 83 83 83 88 87 87 86 87 87 88 89 85 86 88 88 87 86 86 86 87 87 87 86 85 84 85 86 83 83 83 83 84 86 86 86 87 87 88 88 88 89 88 89 90 88 87 89 89 88 88 89 86 88 87 84 86 91 91 87 87 87 88 88 88 87 87 87 87 87 87 86 85 85 84 84 84 85 85 86 86 86 85 85 87 87 87 87 86 86 86 86 85 86 86 86 85 85 85 86 85 83 83 86 86 84 84 84 84 84 83 83 82 82 82 82 81 80 79 78 78 78 77 77 74 74 75 76 75 74 73 72 71 72 72 72 72 71 71 70 71 71 70 70 71 72 72 73 70 69 69 69 69 69 69 69 71 72 72 72 72 72 73 73 74 74 74 74 74 74 73 73 72 72 72 72 73 73 72 71 72 72 73 73 73 72 71 71 74 73 72 72 73 73 73 73 73 72 73 74 74 75 75 75 76 77 83 79 79 83 79 83 84 83 85 90 92 91 92 97 92 93 97 100 100 98 98 99 110 100 83 75 82 90 82 68 83 15 173 238 215 230 224 211 217 219 215 234 234 240 221 240 211 89 97 58 20 253 181 133 9 212 243 226 212 233 249 254 254 254 243 253 255 237 210 148 115 148 247 84 81 104 127 151 122 122 129 122 154 179 167 147 168 167 141 152 171 140 120 145 135 156 154 133 151 143 123 136 142 214 231 220 227 226 209 214 215 215 214 214 213 213 210 208 212 208 211 203 224 214 59 71 77 69 67 54 60 68 89 51 84 105 82 99 94 98 185 190 188 185 203 203 207 217 198 214 186 189 196 189 181 174 175 159 38 23 105 196 148 
92 105 183 202 229 213 190 186 186 182 173 169 171 164 169 155 168 160 154 153 129 158 134 86 54 46 46 57 33 24 35 45 52 64 65 
110 109 109 109 109 109 108 107 107 106 105 107 110 111 111 110 111 111 111 111 111 110 110 110 109 111 106 96 111 108 106 104 110 108 107 108 109 110 109 107 104 106 107 106 106 106 105 102 105 106 107 105 102 101 102 104 100 99 98 96 94 94 94 95 104 104 105 105 101 97 95 97 104 99 93 90 89 87 83 80 89 88 88 90 91 91 91 92 91 87 84 84 83 80 78 77 82 83 76 71 72 73 69 68 69 70 78 65 62 56 64 57 60 69 49 30 4 150 196 221 230 188 156 73 1 82 253 204 242 84 147 187 207 213 202 206 237 220 164 151 154 152 131 160 194 192 231 244 251 240 243 247 240 223 177 108 93 103 122 112 91 195 235 218 208 213 208 212 181 178 249 191 214 136 2 71 57 21 47 78 72 24 1 20 45 28 70 61 33 25 52 67 64 52 64 69 67 68 66 66 70 68 69 72 74 73 73 74 77 72 74 79 76 74 75 75 79 79 78 76 74 72 72 74 79 79 79 79 81 81 81 80 85 85 85 85 84 84 85 86 88 87 86 85 85 87 88 90 85 86 86 86 85 85 85 86 86 87 87 87 86 87 87 88 82 82 82 83 84 85 86 87 87 87 87 87 87 87 87 87 90 88 88 90 90 89 88 88 86 88 87 84 85 89 90 86 87 87 88 88 88 88 88 87 89 88 86 84 83 83 83 84 84 84 85 85 85 85 85 85 85 85 85 85 86 86 86 86 85 86 86 87 87 86 84 85 85 83 83 86 86 84 84 84 83 83 83 83 82 82 81 81 80 79 79 78 77 77 77 77 75 75 76 76 76 75 73 73 71 72 72 72 72 71 71 70 72 71 71 71 71 72 73 74 70 70 70 70 70 71 71 71 72 72 72 72 72 72 72 72 74 74 74 74 74 74 74 74 73 73 73 73 74 74 74 73 73 73 73 73 74 74 73 73 74 73 73 72 73 73 73 72 74 73 73 74 75 76 75 75 77 76 81 77 78 83 79 80 84 79 80 88 91 88 90 97 94 92 95 102 102 97 97 101 100 79 73 78 78 82 87 84 72 18 71 253 191 217 229 220 209 222 232 207 212 217 226 235 226 85 43 18 2 160 229 116 64 194 254 218 210 251 245 245 246 254 246 254 247 255 246 214 125 103 246 175 59 100 79 134 105 101 117 134 143 166 163 161 156 155 151 153 159 159 124 149 145 123 140 146 141 131 128 117 118 186 228 228 217 205 203 218 215 216 217 216 212 210 210 210 214 205 216 208 211 247 103 47 86 69 64 86 78 77 81 38 66 113 88 152 124 63 179 220 202 192 195 202 204 223 203 205 204 214 208 207 201 190 166 136 129 129 116 83 105 186 154 
212 197 131 157 181 175 185 173 168 160 159 163 165 169 162 148 174 141 118 160 130 90 66 43 50 52 27 27 52 58 45 40 45 
109 108 108 108 109 108 106 105 109 107 106 107 110 111 110 108 113 113 113 113 113 112 112 112 109 110 106 95 109 107 104 102 108 106 104 105 107 107 105 102 104 105 106 106 106 105 103 101 103 104 104 104 102 101 102 103 105 105 103 101 99 98 97 97 91 94 98 100 100 98 99 103 99 97 97 96 95 93 89 86 86 86 86 87 89 89 87 87 88 85 84 85 82 78 76 74 78 81 77 74 75 73 71 72 75 66 70 63 73 65 67 53 58 52 14 10 136 21 38 74 132 211 209 244 89 24 196 233 227 222 75 201 205 208 203 208 215 225 237 166 126 158 134 211 191 188 154 181 185 192 179 167 126 94 104 108 128 131 96 103 208 222 198 211 208 226 218 191 154 250 234 168 210 9 42 52 86 70 2 63 55 23 67 45 48 15 50 80 62 30 45 61 63 60 65 74 72 63 75 61 69 68 68 72 75 74 73 74 76 72 75 79 76 73 75 75 76 76 76 75 74 73 73 75 78 77 77 77 78 79 80 80 83 84 85 85 85 84 85 86 87 86 85 85 85 86 87 88 85 85 85 85 84 85 85 86 86 87 87 87 87 85 85 85 82 82 83 83 83 84 85 86 86 86 86 86 86 86 86 86 87 85 86 88 89 87 86 87 84 86 86 84 85 88 89 87 87 87 88 88 88 88 88 88 88 87 85 83 82 82 83 83 83 83 84 84 84 84 84 84 83 83 83 84 85 85 85 86 85 86 86 87 86 86 84 84 84 82 82 84 85 83 82 82 81 81 81 81 81 80 80 79 80 80 79 78 77 76 76 76 75 75 75 75 75 74 73 73 71 71 72 72 71 71 70 70 71 72 72 72 72 73 73 73 72 72 72 72 72 72 72 72 71 71 71 71 70 71 71 71 74 74 74 74 74 74 74 74 74 74 73 74 75 75 75 74 73 74 73 73 73 74 74 74 74 73 73 72 73 73 72 72 73 73 73 73 75 76 75 75 78 75 80 75 77 82 78 79 83 79 78 83 87 87 88 91 92 91 92 97 98 96 98 101 84 71 68 73 72 70 76 82 70 67 21 213 253 219 222 249 253 226 218 240 242 250 247 253 204 31 47 139 158 101 191 134 74 170 245 208 239 253 255 254 254 250 248 249 247 253 252 254 160 134 143 253 75 62 110 125 123 135 133 124 114 147 182 174 175 163 152 158 171 180 156 134 151 136 133 142 136 128 134 157 157 148 217 224 210 231 207 210 215 215 213 210 207 208 210 213 213 208 218 208 204 235 192 40 83 66 52 44 20 70 80 56 79 59 111 117 107 153 166 179 196 201 196 191 203 212 212 206 205 203 212 201 203 201 170 163 191 190 116 68 96 186 208 
181 155 59 93 184 179 167 185 172 165 170 174 163 161 160 138 150 146 102 108 119 58 51 65 46 54 39 37 41 47 50 52 57 
108 107 107 107 107 106 105 103 106 105 103 105 109 111 110 109 109 109 109 110 109 109 108 108 108 111 106 95 109 106 105 103 105 105 105 105 105 104 103 102 105 105 106 107 106 104 102 101 103 102 100 101 101 102 101 99 102 102 100 100 99 98 96 95 100 100 100 98 93 87 85 87 92 94 97 97 95 94 94 94 91 92 92 92 91 89 86 83 85 84 85 86 84 78 75 73 74 79 78 76 76 72 72 77 77 62 65 71 70 55 54 54 69 56 65 57 241 253 131 44 7 3 17 74 146 206 163 246 213 254 155 95 195 187 203 214 207 214 216 227 191 126 140 224 216 222 130 135 147 135 68 84 108 123 122 105 105 80 151 234 229 207 229 220 209 227 206 158 220 249 188 226 37 3 78 68 56 78 3 18 3 37 72 43 59 29 26 68 84 58 70 69 57 74 62 69 69 66 75 64 68 67 68 72 75 74 73 73 75 71 75 80 76 74 76 77 72 73 75 76 76 78 79 81 80 79 78 78 77 77 78 79 80 82 85 86 85 84 83 83 83 84 84 84 84 85 84 84 86 85 84 84 84 85 85 86 86 86 86 86 83 81 80 80 82 83 83 83 82 82 83 84 83 83 84 84 84 85 85 85 83 81 82 85 86 85 85 85 86 87 88 87 87 88 88 87 86 87 87 87 87 87 87 86 84 84 84 83 83 82 82 82 82 82 83 83 84 84 83 83 81 82 82 83 84 85 85 85 85 86 86 86 86 85 85 84 84 83 83 84 85 83 82 82 81 81 82 82 81 80 80 79 80 80 80 78 76 74 75 75 74 74 74 74 74 73 73 72 71 71 71 71 71 71 70 70 70 71 73 74 74 73 72 71 71 71 71 70 70 70 69 69 71 71 71 71 70 71 71 71 73 74 74 74 74 74 75 75 74 74 74 74 76 76 75 74 74 74 74 74 73 73 73 73 74 73 72 71 73 73 72 72 73 72 71 72 75 76 75 75 78 76 79 75 76 82 77 79 79 81 81 80 83 89 90 87 89 92 91 89 89 93 95 95 81 81 69 66 77 73 62 66 74 61 35 95 250 221 240 204 191 199 253 213 190 150 169 137 97 100 146 154 142 83 170 236 139 80 254 205 247 252 250 251 255 252 255 248 253 255 252 253 222 152 131 247 168 55 100 99 121 137 119 116 113 127 181 169 157 174 150 150 151 126 149 143 142 133 120 146 158 181 167 153 157 130 165 235 226 210 209 217 213 211 209 210 210 211 212 213 211 214 215 205 207 206 241 84 46 59 64 36 32 55 66 77 43 84 155 126 132 166 121 129 136 170 212 192 208 203 205 206 216 200 210 206 225 208 179 165 185 201 135 97 99 84 159 183 185 
180 218 201 195 209 172 171 170 180 162 189 182 169 158 127 57 89 32 60 69 41 64 65 48 49 51 36 37 50 47 48 
107 106 106 106 106 105 104 103 106 104 103 104 105 106 106 104 107 108 109 109 109 108 107 106 107 110 106 95 108 105 104 103 102 103 104 104 103 102 102 102 105 104 105 106 106 103 101 101 105 102 99 99 100 100 98 96 95 95 95 96 97 97 95 94 90 91 93 96 97 96 98 102 95 96 95 92 86 85 86 89 88 90 91 90 90 90 87 83 84 84 85 87 84 79 75 74 74 80 80 79 77 71 72 79 65 65 66 67 63 67 65 58 56 52 77 74 188 181 205 248 87 40 52 184 234 240 233 176 231 216 248 57 159 214 206 207 202 231 220 188 203 208 185 152 208 166 141 156 160 163 113 118 102 100 77 98 139 205 252 222 219 232 211 165 239 202 176 185 253 180 216 104 3 100 74 83 73 30 3 155 70 31 18 33 51 47 21 45 69 63 77 58 57 72 67 63 64 78 70 74 67 66 68 72 74 74 73 74 75 72 76 81 77 74 77 78 77 78 78 78 77 78 79 80 83 83 82 80 78 77 77 78 79 81 84 85 85 83 82 82 81 82 83 84 84 83 83 83 86 85 83 83 84 85 85 85 85 86 86 84 81 79 77 77 82 83 84 82 81 80 82 83 81 81 81 82 81 83 83 83 81 79 79 82 84 84 83 84 87 88 89 88 86 85 84 84 86 86 86 86 86 85 85 84 81 82 82 83 83 82 82 81 81 82 82 83 83 83 83 82 81 81 82 83 83 84 85 85 86 86 85 85 85 85 85 85 86 84 84 86 86 84 83 83 82 83 83 84 83 82 81 80 80 80 80 78 75 73 74 75 74 74 74 73 73 73 72 72 71 71 71 71 71 71 70 70 70 71 72 73 74 73 71 70 71 71 70 70 69 69 68 68 72 72 72 72 72 72 72 72 73 74 74 74 74 75 75 75 74 74 74 74 76 76 75 74 76 75 74 74 72 72 72 72 74 73 72 71 73 73 73 72 72 72 71 72 74 76 76 75 76 75 80 76 76 81 77 79 77 82 83 80 83 91 93 87 90 95 93 87 86 91 93 90 77 93 82 70 79 76 66 70 59 72 57 18 243 244 164 115 123 120 150 131 102 94 122 128 158 157 139 146 115 120 92 209 213 57 92 255 240 254 252 250 247 253 252 254 250 254 246 255 226 150 144 136 255 76 84 112 95 110 99 117 119 105 159 182 172 160 168 145 141 149 159 150 144 147 157 176 141 148 155 137 142 171 172 215 213 219 210 211 210 210 213 215 216 215 213 211 209 216 207 207 215 202 236 174 50 75 65 75 85 64 51 78 93 57 105 106 120 141 131 151 77 117 207 206 210 218 202 205 204 206 204 195 190 154 185 189 191 181 204 154 164 144 141 190 194 
207 200 209 218 184 161 182 189 175 156 170 153 144 106 53 13 21 76 58 50 39 7 22 25 41 61 53 57 65 47 43 
107 106 104 104 104 104 103 103 105 104 104 103 103 102 102 101 107 108 109 110 109 108 107 106 106 109 106 94 106 103 103 102 101 101 101 102 102 102 101 101 103 102 102 104 103 100 99 101 104 102 100 99 98 98 98 98 100 99 98 99 101 101 100 99 100 98 97 97 96 94 94 96 93 93 93 92 92 93 93 93 84 86 86 85 86 88 87 84 84 84 84 85 83 79 76 76 75 79 79 79 79 73 72 78 74 60 59 67 67 59 56 55 64 68 66 24 160 241 242 163 3 13 3 66 98 44 87 68 194 238 220 204 118 195 194 195 201 159 249 179 140 231 224 214 192 164 150 138 140 132 87 95 115 135 165 234 249 231 188 224 244 209 105 194 217 207 173 254 188 175 137 40 108 23 129 158 126 8 130 235 99 29 49 47 55 47 38 69 73 51 63 66 64 68 72 66 64 78 69 76 67 67 70 74 75 73 73 75 76 73 78 83 78 75 78 79 82 81 80 78 75 75 76 78 82 82 82 81 79 78 79 80 80 82 84 84 84 83 82 82 82 82 82 82 83 83 83 83 85 83 82 82 84 84 84 83 83 84 85 84 82 80 78 78 80 82 83 82 80 80 82 84 80 80 80 80 80 80 80 80 82 80 79 82 83 84 83 85 86 87 88 87 85 83 83 84 85 85 85 84 84 83 82 82 81 81 82 82 82 82 81 81 81 81 82 82 82 82 82 82 81 81 82 83 83 84 85 85 86 85 84 84 84 85 86 86 86 84 84 86 86 84 83 83 83 83 84 84 84 83 82 81 78 79 79 78 75 74 75 77 75 75 74 74 73 73 73 73 71 71 71 71 71 70 70 70 71 71 71 71 71 71 71 71 71 71 71 71 70 70 70 70 71 72 72 72 72 72 74 74 73 73 74 74 75 75 75 76 74 74 75 75 76 76 75 74 77 76 75 74 74 74 73 74 73 72 71 71 72 72 73 73 72 72 72 73 74 75 76 75 73 74 80 76 76 80 76 79 77 81 83 82 83 87 89 87 92 93 93 92 90 92 92 92 79 94 91 78 75 76 76 78 71 72 71 41 105 138 101 127 115 114 132 118 153 155 165 158 176 161 98 138 142 151 2 200 198 105 5 153 254 251 247 255 255 248 232 249 255 255 245 255 218 113 192 98 251 172 40 90 110 134 115 111 106 107 143 189 169 151 181 151 131 160 153 148 144 159 149 147 156 150 157 168 166 160 122 40 73 245 210 210 210 212 216 218 216 214 213 212 210 213 207 213 215 209 217 236 69 64 75 90 89 87 55 33 72 94 116 149 155 96 109 83 84 112 173 221 178 209 214 211 215 205 193 207 216 194 204 177 185 184 176 147 202 193 146 190 194 190 
196 180 173 188 177 161 177 155 164 149 137 135 84 46 38 51 49 51 63 17 1 7 110 106 95 59 49 54 37 40 
106 105 103 103 103 104 103 103 100 101 102 103 103 104 105 106 103 104 105 106 105 104 103 102 105 108 105 93 105 102 102 102 103 102 101 101 103 104 103 102 102 99 99 101 101 98 97 100 100 101 101 99 97 98 100 103 98 96 93 92 93 94 93 92 93 91 89 91 92 92 93 95 90 89 90 91 92 90 85 81 93 93 90 85 84 85 85 82 85 84 83 83 81 78 77 78 75 77 76 78 80 75 73 79 70 66 73 65 66 59 64 58 50 56 43 36 64 147 162 93 128 76 25 3 4 86 97 201 211 229 222 244 156 114 203 206 222 94 118 241 251 213 214 215 217 234 226 218 208 215 213 216 238 244 253 227 214 220 237 247 180 57 166 251 199 163 243 246 100 229 8 13 63 39 4 108 44 3 80 125 64 60 79 51 40 49 67 79 63 58 67 63 70 67 70 72 66 65 72 66 67 68 72 75 75 73 74 76 77 74 79 84 79 75 78 79 77 77 76 76 75 76 78 82 77 78 80 80 79 79 81 82 82 83 84 83 82 82 83 84 84 83 82 81 81 83 84 85 83 82 81 82 83 84 83 81 82 83 84 84 83 82 81 80 79 81 83 82 80 80 82 85 80 80 80 79 79 79 78 78 84 82 81 82 84 83 84 86 83 84 85 86 85 83 83 85 84 84 84 83 83 82 81 80 82 81 81 81 81 81 81 81 80 81 81 82 82 82 82 81 81 82 82 83 83 84 85 85 86 85 84 83 83 85 86 87 85 83 83 85 85 82 81 81 82 82 83 84 83 82 81 80 76 78 79 77 75 74 76 78 76 76 75 74 74 74 74 74 70 71 71 71 71 70 70 69 73 72 70 69 69 70 71 73 70 70 70 70 70 70 70 70 70 70 70 71 71 71 73 73 73 73 74 74 75 75 76 76 74 74 74 75 76 76 75 74 77 76 75 75 75 75 75 75 73 72 71 71 72 73 73 73 72 71 71 73 74 75 76 75 71 73 80 76 75 79 76 79 78 79 81 83 82 81 81 84 88 86 88 94 94 89 89 93 97 91 86 77 71 78 79 66 66 62 69 72 44 134 154 123 133 112 87 110 148 139 110 139 173 200 158 162 173 52 10 132 228 223 164 49 236 254 250 246 249 255 247 249 255 250 251 254 227 85 181 135 161 254 86 91 123 127 111 129 129 117 108 176 188 186 137 154 169 158 148 141 141 156 171 156 164 155 161 120 89 58 8 9 59 222 219 214 214 216 219 217 212 210 211 215 215 211 212 217 203 204 208 241 159 36 83 66 60 70 95 74 58 96 162 164 110 51 110 106 128 149 147 230 125 164 224 220 219 208 213 215 203 205 206 200 209 203 209 192 172 206 211 213 206 202 207 195 157 165 
198 180 151 137 124 110 102 73 67 57 49 24 1 9 56 77 70 169 190 169 126 56 36 52 42 50 
99 99 100 100 101 101 101 102 104 104 102 102 102 103 104 103 102 103 104 105 105 104 103 102 104 102 100 92 103 100 102 101 100 99 99 100 104 105 102 100 99 99 99 99 99 99 99 99 101 99 97 96 96 96 96 96 96 97 97 95 93 92 93 95 92 91 90 91 93 94 94 93 88 87 86 86 87 89 91 92 82 83 85 87 88 87 86 86 82 81 79 80 82 82 79 77 78 75 80 76 72 73 72 79 76 70 68 73 74 69 66 68 53 63 57 53 29 65 175 235 244 176 126 28 93 248 226 204 195 190 248 222 250 100 136 197 207 228 70 89 177 225 234 239 225 207 214 224 227 232 242 224 218 211 218 225 253 247 199 130 62 136 247 205 187 204 253 165 176 122 6 10 51 136 65 6 101 216 94 2 40 40 61 67 71 78 70 64 50 58 60 64 69 72 72 70 68 69 71 71 70 70 73 77 78 75 77 80 77 76 77 77 77 75 75 77 80 77 75 77 79 78 78 79 79 79 79 79 80 80 80 80 82 82 81 81 81 81 80 80 81 81 82 83 83 83 82 82 80 80 79 79 80 81 82 82 83 83 83 83 83 82 81 81 81 81 80 81 81 82 82 82 79 78 78 77 77 78 78 78 81 82 83 83 83 83 83 82 85 84 82 82 83 83 82 81 83 83 82 81 81 80 79 79 80 81 81 81 81 82 82 82 79 80 81 82 82 82 82 81 81 81 82 83 85 85 84 83 84 86 86 83 82 85 87 86 83 84 86 86 84 83 83 83 83 82 82 83 83 82 81 79 78 77 77 76 75 75 75 75 74 74 74 74 73 72 71 70 73 72 71 70 69 70 71 72 74 72 71 72 73 73 72 71 71 71 71 70 70 69 69 68 70 71 72 73 73 74 74 74 73 74 74 74 74 74 74 74 75 75 75 76 76 77 77 77 76 76 76 76 77 77 77 77 74 74 73 73 73 73 73 73 72 72 73 74 74 74 75 75 73 74 76 77 78 77 77 77 77 79 82 81 80 79 81 84 87 86 84 86 90 95 93 89 93 95 91 71 71 74 63 76 76 71 62 62 48 59 128 121 98 95 103 123 138 165 136 144 128 103 115 88 40 37 95 74 202 205 247 193 133 253 254 243 251 255 249 255 252 246 243 255 166 100 148 146 111 250 204 41 104 132 113 120 132 108 94 146 181 161 167 149 146 149 128 159 151 150 159 148 136 153 126 53 130 194 195 60 13 115 240 212 217 213 212 210 213 217 218 215 217 212 209 208 208 210 209 208 243 63 59 73 62 95 85 96 73 63 123 81 73 118 149 97 78 129 162 187 212 203 201 226 231 218 227 224 219 221 215 223 215 220 219 213 187 180 201 195 199 195 183 199 182 147 164 183 
86 70 58 65 70 75 90 119 135 127 164 189 184 183 179 172 166 168 177 131 91 55 73 90 
102 102 101 101 100 100 99 99 103 102 102 102 102 102 103 103 101 103 103 104 104 103 102 102 104 102 101 93 104 101 103 102 102 100 99 100 103 104 101 99 98 98 98 98 98 98 98 98 101 99 97 96 96 97 96 96 95 96 95 94 92 91 92 93 93 92 91 91 92 92 90 89 92 91 90 87 86 86 87 87 87 85 82 80 80 81 84 85 85 83 81 81 82 80 76 74 78 75 79 76 71 71 69 75 74 71 70 73 72 67 65 64 66 53 50 46 34 4 82 139 157 237 140 2 15 235 222 189 166 180 226 253 217 202 146 187 209 226 191 65 68 100 154 213 246 246 253 233 233 234 228 225 245 248 253 240 184 123 90 86 103 236 226 184 197 234 220 177 166 61 2 4 38 143 224 142 85 186 137 23 52 61 56 51 62 81 67 63 55 88 78 64 70 71 69 67 67 70 72 74 69 69 71 75 75 73 75 77 76 75 75 76 76 74 75 78 80 77 76 77 78 77 77 80 78 78 78 79 80 81 81 81 83 82 82 82 82 82 81 81 80 81 81 81 82 82 82 81 82 81 81 81 81 82 83 83 82 82 82 82 82 82 82 82 83 83 82 81 81 80 80 80 78 78 77 77 77 78 78 79 81 82 82 83 83 83 83 83 84 83 82 81 82 83 82 81 82 82 82 81 81 80 80 79 80 80 81 81 81 81 81 81 79 80 81 82 82 82 81 81 81 82 82 83 84 84 84 83 84 86 86 83 82 85 87 86 83 85 86 86 85 83 83 83 83 83 83 83 84 83 82 80 78 78 77 76 75 75 75 75 76 76 76 75 74 73 72 71 73 72 71 71 71 71 72 72 73 72 71 71 72 73 72 70 71 71 71 71 71 70 70 70 70 71 72 73 73 74 74 74 74 74 74 74 74 74 75 75 76 76 76 76 76 76 76 76 76 76 76 76 77 77 77 77 74 74 73 73 73 73 73 73 73 73 72 72 72 73 75 75 75 75 75 75 76 76 77 77 77 79 81 81 80 80 82 83 83 84 82 82 87 93 95 94 94 83 82 80 78 78 72 70 72 69 72 70 60 26 118 131 138 126 120 137 146 135 175 82 147 215 217 163 59 70 136 102 135 211 187 222 136 211 254 253 244 254 243 248 248 252 254 213 19 104 128 209 114 175 252 81 97 119 103 127 124 111 119 104 171 154 145 146 149 163 157 164 156 157 144 140 116 118 124 100 143 225 55 125 13 159 242 211 215 215 215 214 213 215 216 215 212 211 212 214 215 214 211 207 230 167 30 74 59 93 68 72 77 68 85 96 77 90 147 137 116 96 94 144 142 192 195 202 220 226 231 223 225 231 224 218 225 218 220 217 204 177 192 194 202 192 173 187 189 163 135 91 
100 150 155 173 168 166 188 184 169 181 157 154 162 166 147 155 163 155 146 162 133 116 114 46 
102 102 102 101 100 100 100 100 101 101 101 102 101 101 101 102 101 101 102 103 103 102 101 100 102 101 100 92 103 101 103 101 102 100 99 99 101 102 101 100 98 98 97 97 98 98 97 96 99 98 97 97 97 97 96 95 94 94 94 92 91 90 90 91 89 89 89 89 90 90 87 86 86 86 85 86 86 84 84 84 82 83 83 83 83 82 81 80 82 82 80 81 83 82 80 77 75 73 78 75 72 71 67 72 74 76 78 78 75 71 68 65 64 68 62 66 78 149 163 199 24 12 2 21 2 73 238 218 234 248 75 211 248 210 253 203 188 186 241 138 77 108 83 82 117 153 168 203 205 217 210 205 190 149 132 109 106 92 113 94 197 236 214 208 240 249 242 148 137 101 4 26 82 179 209 73 3 45 34 32 27 65 58 46 60 69 55 66 57 83 68 62 70 70 67 65 67 71 73 74 69 70 72 74 75 74 74 76 76 75 75 76 75 74 76 78 77 76 76 78 77 76 77 80 77 77 78 79 80 81 82 82 82 82 82 82 81 81 81 81 80 80 80 80 80 80 81 81 82 82 82 81 82 82 82 83 81 81 81 81 81 82 82 83 83 82 82 81 80 80 79 79 78 78 78 78 78 79 79 80 82 82 82 82 82 82 83 83 83 82 81 81 82 82 82 82 81 81 81 81 80 80 80 80 80 80 80 80 80 80 80 80 80 80 81 81 81 81 81 81 82 82 83 83 84 84 83 83 84 86 86 84 83 85 86 86 85 86 86 86 85 83 83 83 83 83 83 84 85 84 83 81 78 78 77 76 75 75 75 75 77 77 76 75 74 73 72 71 72 72 72 72 72 72 73 73 72 72 71 71 72 72 71 70 71 71 71 71 72 72 72 72 71 71 72 73 73 74 74 73 74 74 74 74 74 75 75 75 76 76 76 76 76 76 75 75 76 76 76 76 76 77 77 77 74 74 74 74 73 73 73 73 74 73 71 71 71 72 74 76 76 75 75 74 74 75 77 78 78 78 79 81 81 81 82 83 86 86 84 82 82 88 91 91 98 81 78 86 77 75 82 72 73 66 70 67 76 25 82 139 142 163 143 121 169 163 83 185 253 191 188 221 248 132 136 162 87 171 174 220 211 133 228 255 254 254 255 255 252 250 234 113 68 59 44 141 175 100 248 178 54 127 137 153 118 110 127 100 131 170 166 157 147 156 169 169 188 174 124 123 122 122 129 118 49 186 147 144 145 209 225 218 215 216 217 217 215 213 214 216 211 210 213 215 215 213 209 205 214 233 71 44 66 61 89 92 81 92 75 99 82 88 104 179 119 96 154 167 141 189 198 215 215 235 231 225 230 232 229 220 223 212 223 226 216 171 181 196 185 200 185 170 173 188 171 103 153 
138 161 142 163 143 140 143 136 147 139 143 131 136 151 156 178 177 149 125 92 101 146 64 
101 101 101 101 100 100 101 101 99 100 101 102 102 101 101 100 100 101 101 101 101 100 99 99 99 98 97 90 101 99 101 99 99 98 97 98 100 101 102 102 97 97 97 97 97 97 97 97 97 96 95 96 96 96 95 94 94 93 93 91 90 89 89 90 86 87 88 89 89 89 88 87 83 83 85 85 84 84 83 83 80 82 84 86 86 84 82 80 80 79 80 81 83 83 81 79 73 71 77 75 72 71 67 72 73 78 82 81 77 75 72 69 67 59 64 35 116 251 202 223 176 5 205 253 136 6 1 98 50 80 2 43 250 212 245 175 159 195 196 225 89 110 114 113 101 82 81 83 87 85 97 93 88 84 89 112 108 121 104 148 241 220 193 224 254 239 204 110 87 62 45 9 22 2 7 3 5 68 2 40 51 73 69 59 65 66 57 72 60 66 58 67 69 69 67 65 68 72 73 72 72 73 74 75 76 75 75 76 75 74 74 76 75 75 76 80 76 76 77 78 76 75 76 81 78 78 79 79 80 80 81 81 80 80 80 80 80 80 80 80 81 80 79 79 79 80 80 81 81 81 81 81 81 81 81 81 82 81 81 80 80 81 82 82 81 81 81 81 81 80 80 80 79 79 79 79 80 80 81 82 82 82 81 81 81 82 83 83 82 81 81 81 81 81 82 82 80 80 80 80 80 80 80 80 80 80 79 79 79 79 78 78 80 80 81 81 81 81 81 81 82 83 83 83 83 83 83 84 84 85 85 84 84 85 86 87 85 86 86 86 85 83 83 83 82 82 83 83 84 84 83 82 78 78 77 76 76 75 75 75 75 75 74 74 73 72 72 71 72 72 72 73 73 73 72 72 72 71 71 71 71 71 70 70 71 71 71 71 71 72 72 72 71 71 72 73 73 73 73 73 74 74 74 74 75 75 75 75 76 76 76 76 76 76 76 76 76 76 76 76 76 76 76 76 74 74 74 74 73 73 73 73 73 72 72 71 72 72 73 74 76 75 75 74 75 75 76 76 78 78 78 79 80 82 82 81 85 87 86 83 81 84 88 90 83 87 87 95 85 73 78 66 71 70 69 65 80 59 40 133 118 171 156 146 113 161 130 253 95 17 59 60 170 253 146 202 180 176 166 174 205 150 151 234 242 254 254 242 246 222 218 254 251 238 138 85 179 74 175 252 112 120 110 97 110 137 136 135 132 160 152 157 181 169 162 160 134 149 131 119 131 126 126 122 148 143 182 164 167 134 213 232 218 218 217 218 216 214 214 215 217 214 212 212 210 209 208 206 200 240 149 26 52 50 80 115 106 85 70 109 80 102 76 81 109 114 174 199 204 196 196 202 217 237 226 226 231 221 224 226 213 210 221 226 219 181 175 187 189 188 183 179 163 159 172 162 105 134 126 139 125 129 
135 139 143 157 147 137 152 145 141 138 158 133 84 86 110 126 121 134 
101 101 101 101 101 101 101 101 98 99 100 101 102 101 100 99 99 99 99 99 99 99 98 98 97 97 96 89 100 98 99 97 97 96 96 96 98 99 100 101 97 97 98 98 97 97 97 97 95 94 93 94 94 94 93 92 94 93 91 91 89 89 88 88 85 86 88 89 89 88 87 87 87 87 88 87 86 84 83 82 85 83 81 80 80 82 84 85 82 82 81 81 81 79 77 76 75 73 79 76 72 71 66 72 67 73 77 77 76 75 71 68 76 60 63 42 91 238 202 238 164 180 226 212 251 106 3 75 75 8 60 134 249 252 223 184 180 219 190 237 184 76 116 110 122 113 118 113 110 121 106 123 122 123 122 128 122 95 102 240 222 212 205 204 238 223 189 135 86 194 1 10 2 38 78 3 89 242 74 1 41 46 54 66 63 65 64 61 58 59 62 65 68 69 68 68 71 73 72 69 73 75 76 75 76 76 76 76 74 73 74 75 75 75 77 80 77 77 77 78 77 75 77 80 79 79 79 79 80 80 80 80 79 79 79 79 79 79 79 79 81 81 80 79 79 80 80 81 80 80 80 81 80 80 80 80 82 81 81 80 80 80 81 81 81 81 81 80 80 80 80 80 81 81 81 81 81 82 83 83 82 81 81 80 81 81 82 83 81 81 81 80 80 80 81 82 79 80 80 80 80 80 80 80 79 79 79 79 78 78 78 78 80 80 80 80 80 81 81 81 82 83 84 83 82 82 83 84 84 85 85 85 85 84 85 87 85 85 85 84 84 83 84 83 82 81 82 83 84 83 82 81 79 78 77 76 76 76 75 76 74 74 74 73 73 73 73 73 71 72 72 72 72 72 72 71 71 71 71 71 71 70 70 71 71 71 71 71 71 70 70 70 71 72 72 73 73 73 73 73 74 74 74 74 75 75 75 75 74 74 75 75 76 76 76 76 76 76 76 76 76 76 76 76 75 75 74 74 74 74 72 72 70 71 72 72 72 72 72 72 74 74 75 75 76 75 75 74 77 77 77 78 79 80 81 80 79 83 86 85 85 88 89 90 84 97 83 77 78 73 77 72 68 74 76 73 68 69 34 98 111 128 142 196 221 237 241 238 17 65 78 126 156 245 193 183 195 194 186 129 175 120 202 221 185 195 196 195 215 249 247 254 250 253 253 219 148 131 73 252 152 54 104 108 125 116 105 133 114 156 192 165 154 134 132 119 120 137 145 113 136 144 161 183 178 189 151 153 145 144 174 225 224 220 216 216 216 215 215 216 221 218 214 212 212 211 210 210 201 220 218 40 42 59 59 88 97 98 71 83 88 92 113 88 93 91 69 142 178 167 194 195 211 233 226 225 226 215 220 225 214 217 215 222 211 198 173 169 177 173 171 171 157 145 144 136 93 134 136 156 146 153 
153 149 136 136 140 138 122 115 117 133 106 60 134 142 127 108 111 177 
102 101 101 100 100 99 98 98 98 99 100 100 100 99 98 98 98 98 98 97 97 97 97 97 98 97 97 90 101 98 99 96 97 97 96 96 96 96 96 96 96 96 97 97 97 97 97 97 94 93 92 92 92 92 91 90 92 91 90 89 89 89 88 87 87 88 89 88 87 85 84 84 84 86 85 85 85 84 83 83 84 83 82 81 81 80 80 80 80 80 80 80 79 78 77 77 79 75 80 76 72 71 66 74 68 71 74 76 75 73 71 70 76 74 72 72 44 236 251 166 94 229 200 190 207 240 2 8 236 130 88 201 242 229 229 167 194 193 207 200 246 130 87 116 92 130 105 99 94 97 97 102 112 119 109 109 122 97 204 237 212 196 221 204 223 228 215 183 120 223 43 2 54 182 239 108 162 155 23 20 28 33 55 67 73 58 58 58 65 54 59 64 66 70 71 72 74 75 73 69 73 75 75 74 74 76 75 75 73 73 74 76 76 75 77 80 77 76 76 77 77 76 77 79 80 80 80 80 79 79 79 79 79 79 80 80 80 80 80 80 81 80 80 80 79 79 80 80 80 80 81 81 81 81 81 81 81 81 81 80 80 80 80 80 82 82 81 81 80 79 79 78 82 82 82 82 82 82 83 83 81 81 80 80 81 81 81 82 80 81 81 80 79 79 80 81 79 79 79 79 79 80 80 80 79 79 79 79 79 78 78 78 80 79 79 79 80 81 81 82 82 83 84 83 82 82 84 85 85 84 85 86 85 84 85 87 85 84 83 83 83 83 84 83 82 81 82 82 83 83 81 80 79 78 77 77 76 76 76 76 75 75 74 74 75 75 76 76 72 72 72 72 71 71 71 71 71 72 72 72 71 70 71 71 71 71 71 71 70 70 70 70 71 72 72 73 73 73 73 73 74 74 74 75 75 75 75 75 74 74 74 75 76 76 76 77 76 76 76 76 76 75 75 75 75 75 75 74 74 73 72 72 70 71 72 74 74 73 72 71 72 73 75 76 76 75 75 74 76 76 77 77 78 78 78 79 79 84 86 87 87 88 88 88 88 96 76 63 75 80 77 74 74 67 71 77 62 60 59 39 73 124 249 203 192 216 212 240 4 57 56 68 182 247 222 216 199 189 217 171 152 161 227 229 217 217 196 234 254 251 246 255 252 242 249 254 254 151 71 183 250 61 104 139 151 116 122 135 138 128 163 135 125 154 176 152 146 145 170 157 181 177 157 163 153 159 155 158 173 162 151 226 227 221 215 217 217 216 215 217 215 215 215 214 214 213 211 210 211 195 245 124 31 74 92 77 95 103 94 73 138 98 87 79 108 93 96 132 161 172 193 184 195 224 229 223 221 220 219 215 213 222 220 219 193 195 170 168 182 195 185 162 164 178 160 123 96 110 155 131 130 91 84 89 
130 129 125 133 109 158 182 157 125 188 254 173 123 141 113 143 
100 100 100 99 99 98 97 97 97 98 98 98 98 97 96 95 96 96 96 96 96 96 97 97 97 97 96 89 100 97 97 95 95 96 96 96 95 94 93 93 95 95 95 96 96 96 97 97 95 93 92 91 91 91 91 90 91 89 87 87 87 88 87 86 87 87 88 87 85 84 84 85 81 81 83 84 84 85 84 84 79 82 84 85 84 82 78 75 79 79 79 78 77 77 78 79 79 75 79 74 71 72 69 78 76 74 74 78 78 74 71 73 73 63 68 49 36 152 183 5 99 225 188 193 230 184 6 30 231 208 147 36 182 243 240 205 214 199 187 205 229 242 103 95 119 106 92 137 204 248 235 166 104 112 112 128 91 161 251 210 214 217 204 213 223 247 191 192 145 166 98 25 91 199 207 68 69 71 34 59 53 74 64 88 78 62 59 69 74 63 60 67 65 69 73 74 75 76 75 72 72 75 75 73 72 75 76 75 72 72 74 77 77 75 76 78 78 76 75 76 77 77 77 78 79 79 79 79 80 80 80 80 79 79 79 79 79 80 80 80 79 79 79 79 79 79 78 78 78 79 80 81 81 81 80 80 79 79 80 80 81 81 80 80 81 81 81 80 80 79 79 79 82 82 81 81 81 82 82 82 80 80 80 81 81 81 81 81 80 81 81 80 78 78 79 80 79 79 79 79 79 79 79 79 79 79 79 79 79 79 79 79 79 79 79 79 80 81 82 83 81 83 84 83 82 82 84 87 85 84 84 87 86 84 84 87 84 82 81 81 83 83 84 83 83 82 83 83 84 83 81 80 79 78 78 77 76 76 76 76 75 75 75 74 74 75 76 76 75 74 73 72 71 71 71 72 71 72 73 72 71 70 71 72 71 71 71 71 71 72 72 72 72 72 72 73 73 73 73 72 74 74 75 75 75 75 75 75 74 74 75 75 75 75 76 76 76 76 76 76 75 75 75 75 75 75 75 74 74 73 73 73 71 72 73 73 73 73 73 72 73 73 74 74 75 75 75 75 74 76 77 77 75 75 76 78 82 85 87 87 86 87 87 85 79 81 84 82 88 89 73 62 73 66 70 76 71 62 75 20 166 223 253 210 180 205 190 252 145 23 46 126 204 246 229 248 189 187 167 205 169 166 234 252 211 205 227 254 252 247 254 238 254 249 253 250 254 241 132 83 250 150 82 123 123 115 123 128 155 121 149 183 179 175 165 164 165 157 163 160 158 157 140 143 149 152 157 166 182 151 143 161 225 221 217 219 218 215 215 218 212 213 214 215 215 213 210 209 211 197 217 227 41 84 100 100 81 67 116 111 106 80 82 110 172 124 119 102 122 164 175 171 187 205 224 223 222 225 219 215 217 208 208 204 181 184 171 171 182 176 159 145 151 147 133 134 165 137 57 46 64 100 
150 158 150 171 165 199 173 92 99 131 173 195 205 203 90 114 100 92 
97 97 98 98 99 99 98 98 97 97 97 96 96 95 94 94 96 95 95 95 96 96 97 97 96 95 95 88 98 95 95 93 92 93 94 95 94 94 93 93 92 93 93 95 94 96 96 95 96 94 92 91 91 91 91 90 89 87 85 85 86 87 87 86 84 84 86 85 83 82 84 85 86 87 86 85 84 83 81 81 83 82 81 80 80 82 83 84 83 82 80 78 75 74 75 76 76 72 76 72 71 74 74 83 82 76 74 79 79 73 70 72 67 76 60 67 53 43 56 46 85 193 245 246 208 12 16 44 238 229 192 63 153 253 222 190 197 211 182 209 232 254 215 92 113 100 146 222 120 242 160 164 203 99 122 102 113 246 215 222 217 212 214 205 236 246 208 182 90 189 78 57 78 87 129 127 88 40 60 76 65 69 68 51 55 62 61 63 60 71 65 59 65 70 74 75 75 76 77 76 72 75 76 73 73 75 77 76 70 71 74 76 76 74 75 76 78 75 74 76 78 77 77 77 78 79 79 79 80 80 80 81 77 77 77 78 78 78 78 79 78 78 79 79 79 78 77 76 76 77 78 79 79 79 79 79 78 77 79 81 81 81 81 81 79 79 79 80 80 81 81 81 82 81 81 80 80 81 81 81 79 80 81 81 81 81 81 80 80 81 81 80 78 77 78 80 79 79 79 79 79 79 79 78 78 79 79 79 79 80 80 80 78 78 78 79 80 81 82 83 81 82 84 83 81 82 84 87 85 83 84 87 86 84 84 87 83 81 80 81 82 83 84 82 84 84 83 84 84 84 82 80 79 79 78 77 76 76 76 76 75 75 74 73 73 73 74 74 76 75 74 72 71 71 72 73 72 73 74 73 71 71 71 73 71 71 71 72 72 73 73 74 72 72 73 73 73 73 73 72 75 75 75 75 75 75 75 76 75 75 75 75 75 75 75 75 76 76 76 76 75 75 75 75 75 75 75 74 74 73 73 73 73 73 73 72 72 72 74 74 73 73 73 72 73 74 76 77 73 76 77 76 74 73 75 77 79 81 83 84 85 89 89 88 93 79 89 85 74 81 79 76 63 75 85 81 84 76 71 49 51 208 215 241 179 210 227 207 251 230 203 237 239 218 234 233 209 176 70 157 197 153 175 162 221 213 251 253 253 250 249 255 249 250 254 247 249 254 185 73 182 250 68 93 91 133 123 141 126 154 161 173 166 170 145 161 168 157 137 147 140 169 169 165 158 151 161 151 153 160 149 147 222 220 220 222 218 213 214 219 217 218 217 215 214 213 211 211 208 211 200 246 110 58 57 100 90 99 126 178 125 102 98 139 152 128 69 123 129 157 167 179 190 188 214 226 227 226 217 223 228 186 177 182 184 188 175 165 163 162 152 145 153 144 134 155 114 75 75 141 192 193 180 194 
211 239 212 180 166 108 213 234 229 214 210 186 139 186 254 95 
99 98 97 96 96 96 97 98 97 97 96 96 95 95 95 94 94 94 94 94 94 94 94 94 94 94 90 90 96 96 94 95 95 94 93 92 91 91 91 91 89 90 92 93 94 95 95 95 92 92 91 91 90 90 90 89 89 88 86 86 86 86 85 84 88 87 86 86 84 85 86 87 84 83 84 84 84 84 82 80 81 81 80 80 80 80 79 79 81 80 79 78 78 78 79 79 75 74 73 70 70 70 68 65 71 73 80 83 78 76 74 68 66 70 62 65 57 73 72 44 26 48 55 68 99 170 245 144 15 53 101 240 211 223 222 193 206 205 207 217 222 222 253 170 92 101 125 119 58 194 117 76 141 102 115 98 200 240 217 216 215 222 211 210 214 240 225 174 73 216 62 31 122 152 198 163 98 43 16 27 39 53 68 67 60 59 60 62 62 64 67 69 68 69 70 72 76 79 77 72 72 73 74 75 74 74 73 74 73 76 76 73 75 79 78 73 75 75 75 75 76 76 76 76 76 77 78 79 79 80 79 79 78 78 78 78 78 78 78 78 79 79 77 77 78 77 78 78 77 77 78 78 79 79 80 80 80 77 75 77 81 82 81 78 79 79 79 79 80 80 80 80 81 81 81 80 80 79 79 79 78 79 79 79 79 79 79 78 80 80 79 79 78 78 77 77 79 79 80 80 80 79 78 77 77 77 77 78 78 79 79 79 79 80 80 80 81 81 81 82 81 82 82 82 82 82 82 83 84 84 85 84 85 85 86 86 83 83 84 85 84 83 82 82 82 82 82 82 82 81 81 80 79 77 76 78 78 76 75 76 75 74 73 73 73 74 76 77 76 76 76 76 75 74 72 71 72 72 71 71 70 71 71 71 72 72 72 72 72 72 72 72 72 73 73 73 73 73 73 74 75 75 75 75 75 75 75 75 74 74 74 74 75 75 76 77 75 76 76 76 76 76 76 77 77 77 77 77 76 75 74 74 75 75 75 74 74 74 74 74 73 74 75 76 76 76 75 75 73 74 75 75 75 75 76 77 79 80 84 88 88 86 86 87 85 88 89 87 81 78 77 79 70 71 71 71 69 71 73 75 18 171 195 242 226 219 221 221 207 238 230 246 213 199 213 240 207 142 87 134 224 143 133 121 231 208 254 254 254 247 255 250 250 254 244 251 255 249 219 124 98 252 148 55 95 150 114 112 128 150 152 149 167 156 153 149 142 151 159 158 147 151 165 160 160 132 126 138 146 151 152 146 171 227 217 221 218 209 220 215 215 216 215 216 212 209 210 213 211 204 209 217 202 80 99 61 79 115 120 134 129 76 128 153 133 86 4 20 71 147 167 208 179 171 187 209 218 198 202 222 198 224 178 141 160 170 169 156 145 149 132 166 79 128 153 110 113 176 236 219 215 194 115 166 211 
146 140 169 203 239 234 207 200 186 192 220 235 255 249 164 
98 98 97 96 96 96 97 97 96 96 96 95 95 95 95 94 94 94 94 94 94 94 94 94 94 94 89 88 94 95 93 95 94 94 93 91 90 90 90 90 89 90 91 91 92 92 93 93 91 91 91 90 90 90 90 89 89 88 86 86 86 86 85 84 86 85 84 83 83 84 85 86 84 84 84 84 83 83 81 80 82 82 82 81 82 81 81 81 81 81 79 79 78 78 77 78 75 76 73 70 69 69 68 66 70 71 77 79 74 73 73 68 67 55 58 68 66 62 26 17 2 19 3 60 245 218 242 116 7 4 5 168 225 239 213 196 209 215 219 200 217 225 234 235 107 118 105 114 86 197 123 109 99 119 87 165 246 216 220 221 217 209 218 204 224 238 212 174 146 212 52 9 122 152 155 46 38 38 40 34 20 23 59 100 73 71 66 64 64 65 67 70 70 71 71 73 76 77 75 71 70 71 73 74 74 73 73 74 75 75 74 73 74 77 77 75 75 75 75 76 76 76 76 76 76 77 78 79 79 79 79 79 78 78 78 78 78 78 78 78 78 78 78 77 77 77 77 77 77 78 78 78 79 80 79 79 79 78 77 78 80 81 80 79 79 79 79 79 80 80 80 80 81 81 81 80 80 79 79 79 79 79 79 80 80 79 79 79 79 80 80 80 78 78 78 78 77 78 78 78 78 77 77 76 77 77 77 78 78 79 79 79 79 80 80 80 81 81 81 81 81 82 82 82 82 82 82 83 85 85 85 85 84 85 85 85 86 85 84 83 81 82 82 83 82 82 82 82 82 81 81 81 80 77 76 78 78 76 76 76 76 75 74 73 74 74 76 76 76 75 75 75 74 73 72 71 72 72 71 71 70 71 71 71 72 72 72 72 72 72 72 72 72 73 73 73 73 73 73 74 76 76 76 76 76 76 76 76 77 76 75 75 74 74 74 74 75 76 76 76 76 76 76 77 77 77 77 77 76 75 75 74 75 75 75 75 75 74 74 74 74 74 75 75 75 75 75 75 74 74 74 74 74 74 76 78 78 79 82 86 87 85 84 86 85 87 87 83 79 77 78 81 82 82 80 75 67 63 64 65 34 74 211 203 252 237 224 237 231 237 224 235 226 228 234 246 166 113 124 94 156 192 144 144 187 240 251 250 250 246 254 244 250 243 255 252 245 255 221 151 83 211 252 64 111 114 107 122 137 111 102 108 172 165 149 146 161 173 164 155 147 150 156 137 150 146 141 143 150 150 147 147 140 204 232 209 225 218 216 206 212 215 215 214 213 214 213 211 214 207 197 203 230 103 61 123 84 125 137 148 142 113 145 137 126 121 78 50 25 66 171 210 175 164 158 178 173 171 174 198 196 179 151 144 152 166 156 150 131 115 139 131 119 151 94 166 255 250 218 230 231 229 212 138 141 
179 223 235 223 205 187 182 201 220 238 233 227 234 234 226 
97 97 96 95 95 95 96 96 95 95 95 95 95 95 94 94 93 93 94 94 94 95 95 95 95 94 88 87 92 94 93 95 93 93 92 90 89 88 88 88 89 89 89 89 89 90 90 90 90 90 90 90 90 90 89 89 89 88 86 86 86 86 85 84 84 83 82 82 82 83 83 84 84 84 84 83 81 81 81 81 80 80 81 81 80 80 80 79 79 79 78 77 76 75 74 74 75 77 74 70 68 68 69 68 69 68 71 73 69 69 71 68 62 65 58 60 53 41 41 76 4 213 224 175 207 203 221 74 82 169 65 3 201 254 219 199 205 204 195 189 219 222 208 229 212 83 120 120 185 237 200 135 101 108 120 237 226 220 208 219 217 210 214 206 230 236 208 182 168 177 55 49 49 4 4 3 20 36 46 53 49 35 46 84 68 67 65 64 65 68 70 70 71 72 72 73 75 76 75 71 69 70 72 73 73 73 73 74 77 74 72 73 74 74 76 77 76 76 76 76 76 76 76 76 77 76 78 78 78 78 78 77 78 78 78 78 78 77 78 77 78 78 77 77 77 77 77 77 77 78 78 79 79 79 78 78 78 78 78 78 79 79 79 79 79 79 79 79 79 80 80 80 81 81 81 80 80 80 79 79 79 79 80 80 80 80 79 79 78 79 78 78 78 79 79 79 78 78 79 79 79 78 78 77 77 77 77 78 78 79 79 79 79 79 80 80 80 81 81 81 81 82 82 82 82 82 82 83 86 86 85 85 84 84 84 84 88 86 84 82 80 80 82 83 82 82 82 81 81 81 81 81 80 77 77 78 78 77 76 77 77 76 75 75 74 75 76 76 75 75 74 73 72 72 72 72 72 72 71 71 70 71 71 71 72 72 72 72 72 72 72 72 72 73 73 73 73 73 73 74 76 76 76 76 76 76 76 76 77 76 75 75 74 74 74 74 75 76 76 76 76 76 76 77 76 76 76 76 76 76 75 75 75 75 75 75 75 75 74 74 74 74 74 74 74 74 75 75 75 74 74 73 72 73 76 78 78 78 81 85 84 82 81 82 84 84 82 78 75 74 77 80 84 86 85 78 69 63 64 68 57 7 190 190 229 223 222 234 245 237 235 243 233 219 218 223 175 167 128 81 106 224 148 157 109 132 255 254 249 253 246 254 247 255 255 246 245 255 209 162 138 92 252 158 89 120 118 114 124 130 128 98 139 170 168 165 150 147 143 159 158 133 131 140 148 159 152 149 160 158 145 145 142 179 234 223 216 217 213 229 213 216 216 214 213 215 213 208 204 201 206 205 219 175 93 171 152 119 98 132 149 126 132 128 117 140 147 144 149 91 74 153 164 170 159 149 171 170 165 168 170 157 145 151 143 158 150 123 135 93 134 193 185 37 1 2 110 219 253 209 161 139 179 212 230 232 
220 201 174 163 196 234 234 234 241 229 230 237 229 243 
96 95 95 94 94 94 95 95 94 94 94 94 94 94 94 94 93 93 93 94 94 95 95 95 94 94 89 87 93 94 92 94 92 92 90 89 88 87 87 86 89 89 88 88 88 88 89 90 89 89 89 89 89 89 89 89 89 88 86 86 86 86 85 84 84 83 82 82 81 82 82 82 82 83 83 82 80 80 81 83 79 79 80 79 79 79 79 79 78 78 78 78 77 75 74 73 74 76 74 70 67 68 70 71 69 65 66 68 65 66 69 69 72 53 65 70 35 147 254 161 121 230 226 136 82 227 229 212 241 225 251 35 182 250 222 186 206 205 187 204 203 192 215 222 249 154 97 108 87 252 153 93 117 102 215 226 213 217 218 211 213 221 200 211 218 233 207 190 174 177 67 114 193 164 71 44 14 39 49 44 42 41 44 56 53 58 63 65 67 70 71 72 69 71 72 73 74 76 76 74 70 71 73 74 73 73 73 73 76 72 72 75 76 73 74 78 76 76 76 76 76 76 76 76 77 77 77 76 76 77 77 77 77 77 77 77 76 76 76 77 77 77 77 77 77 77 76 77 78 78 78 79 79 77 77 77 77 78 79 79 78 77 79 80 79 79 79 79 79 79 80 80 81 81 80 80 80 80 79 79 79 79 80 80 80 80 79 79 78 79 78 78 78 78 78 78 79 79 79 79 79 79 78 78 77 77 78 78 78 78 79 79 79 79 80 80 80 81 81 81 81 82 82 82 82 82 82 83 85 85 85 85 84 83 83 83 88 86 84 82 80 81 82 83 82 81 81 81 81 81 81 81 80 78 77 78 79 77 76 77 78 77 76 76 75 75 75 76 76 75 74 73 72 72 72 72 72 72 71 71 70 71 71 71 72 72 72 72 72 72 72 72 72 73 73 73 73 73 73 74 76 76 76 76 76 76 76 76 74 74 74 74 75 75 76 77 75 76 76 76 76 76 76 77 75 76 76 76 76 76 75 75 75 75 75 75 75 75 74 74 75 74 73 73 73 74 74 75 73 74 74 73 73 73 75 76 78 79 81 84 83 79 78 79 81 81 79 75 72 71 74 76 78 79 79 75 70 66 68 71 79 27 79 221 204 235 233 205 226 219 216 226 240 235 232 195 196 195 150 128 121 218 167 167 189 113 218 249 252 253 243 255 243 255 235 255 255 253 180 132 159 63 204 252 54 101 103 115 112 121 118 122 131 174 174 160 148 140 135 135 151 157 141 142 130 144 146 135 130 128 132 142 162 146 218 223 224 213 213 210 216 217 217 215 213 211 209 208 204 217 209 207 210 233 128 101 124 125 120 127 137 143 142 137 143 135 149 167 185 170 106 127 184 155 141 159 164 169 166 163 162 169 153 168 174 172 173 145 177 194 228 238 241 232 107 10 0 16 100 132 171 
213 225 232 217 199 175 173 190 233 255 221 243 230 237 233 225 230 233 235 
95 94 93 92 92 93 93 94 93 93 93 93 93 93 93 93 92 92 93 93 94 94 94 95 93 93 89 89 95 95 91 92 91 90 89 88 87 86 86 86 88 88 87 87 88 88 89 90 88 88 88 88 88 88 87 87 87 86 85 85 86 86 85 84 84 84 83 82 82 81 81 81 81 82 82 81 80 80 81 83 81 81 81 81 80 79 79 79 78 78 79 79 78 77 76 76 73 75 74 70 68 70 72 73 70 64 64 67 64 65 69 69 68 67 61 77 57 70 151 158 106 221 228 178 147 88 4 167 238 235 176 1 193 254 209 209 203 203 194 219 202 187 219 211 225 243 105 114 130 121 131 128 108 174 242 208 225 219 224 212 213 216 204 206 208 233 198 191 147 143 98 121 215 251 251 209 51 66 55 25 25 62 76 60 55 63 70 70 67 68 69 71 69 72 73 73 73 75 75 74 72 73 75 75 74 73 73 73 74 72 73 78 78 74 74 76 77 77 77 77 77 77 77 77 76 77 76 76 77 76 77 77 77 77 77 77 77 77 77 77 77 77 74 74 74 75 76 77 79 78 77 76 76 77 78 77 76 78 79 79 77 76 78 80 78 78 79 79 79 79 79 79 80 80 80 79 79 79 79 79 78 79 79 79 79 79 79 78 78 78 78 78 78 78 78 78 76 76 76 76 76 76 77 77 78 78 78 78 78 78 78 78 79 79 79 80 80 80 81 81 81 82 82 82 82 82 82 83 84 84 84 84 83 84 84 84 85 85 85 84 82 82 82 82 81 81 81 80 80 81 81 82 81 78 77 79 79 78 77 77 78 78 77 76 76 75 75 75 76 75 74 73 73 73 73 73 72 72 71 71 70 71 71 71 72 72 72 72 72 72 72 72 72 73 73 73 73 73 73 74 76 76 76 76 76 76 76 76 74 74 74 74 75 75 76 77 75 76 76 76 76 76 76 77 75 75 76 76 76 75 75 75 75 75 75 75 74 74 74 74 74 74 73 72 72 73 73 74 71 73 74 75 75 74 74 75 76 78 80 83 83 80 79 80 80 80 79 75 73 71 72 73 78 76 74 70 68 66 65 65 64 74 1 224 230 229 245 214 223 242 238 226 228 234 251 191 195 162 96 122 140 157 236 146 186 201 175 255 254 245 254 248 255 248 255 255 251 254 23 56 179 57 70 252 121 66 112 136 126 128 125 138 113 144 186 169 136 140 164 150 155 167 141 154 149 139 138 142 143 153 163 161 151 155 198 227 213 222 215 216 217 215 215 217 213 207 209 214 213 210 206 192 190 210 186 58 91 125 153 134 130 149 142 147 161 157 156 163 144 159 156 120 170 166 173 148 170 159 180 179 180 178 167 171 194 205 225 231 230 237 220 215 220 251 250 198 55 53 149 233 240 225 
222 182 162 181 215 249 243 234 245 232 233 236 235 236 227 224 236 232 
94 93 92 91 91 92 92 93 93 93 92 92 92 92 92 92 92 92 92 92 93 93 93 93 91 92 89 90 95 94 90 90 90 89 88 87 86 86 86 86 88 88 87 87 88 88 89 89 88 88 87 87 87 86 86 86 86 85 84 84 85 85 84 83 84 84 84 83 82 82 81 81 80 81 81 81 80 80 81 82 80 80 80 80 79 79 79 78 75 76 76 76 76 76 76 75 74 75 73 70 70 71 73 73 71 64 65 69 67 66 69 69 63 69 66 59 65 40 30 57 55 136 236 178 74 9 4 24 238 235 8 51 245 255 209 181 198 190 202 206 208 202 198 202 206 223 210 104 128 114 123 112 144 245 220 222 212 225 215 215 222 203 220 203 214 240 196 195 144 143 76 6 3 60 89 13 41 29 17 23 53 92 102 86 61 70 74 69 64 66 70 73 71 74 75 74 72 72 73 73 73 74 75 75 74 73 72 72 72 73 76 78 79 76 75 75 77 77 77 77 77 77 77 77 76 76 75 75 76 76 76 77 75 76 75 76 76 76 76 76 76 76 74 73 73 74 75 77 79 77 75 75 75 76 76 77 76 78 79 78 77 76 77 79 78 78 78 79 79 79 79 79 79 78 78 78 78 78 78 78 78 78 78 79 79 78 78 78 78 78 78 78 78 77 77 77 77 77 76 76 76 77 77 78 78 78 78 78 78 78 78 78 79 79 79 80 80 80 81 81 81 82 82 82 82 82 82 83 83 83 84 84 83 83 83 83 83 84 85 85 84 83 81 80 81 81 80 80 80 81 81 82 81 79 78 79 80 78 77 78 77 77 77 76 76 75 75 75 75 75 74 74 73 73 73 73 72 72 71 71 70 71 71 71 72 72 72 72 72 72 72 72 72 73 73 73 73 73 73 74 76 76 76 76 76 76 76 76 77 76 75 75 74 74 74 74 75 76 76 76 76 76 76 77 76 76 76 76 76 75 74 74 74 74 74 74 74 73 73 73 73 73 73 72 72 72 72 73 70 72 75 76 76 75 75 75 73 74 78 82 83 81 80 82 79 80 78 77 75 73 73 73 82 78 75 72 71 69 67 66 56 80 19 124 254 181 234 239 243 226 215 222 231 232 231 163 186 169 147 122 122 121 206 194 201 162 70 155 243 255 250 250 246 254 245 248 255 67 1 139 166 161 109 244 239 97 127 120 128 118 122 121 100 109 181 156 152 145 174 155 136 125 92 113 165 147 146 153 154 157 151 129 116 135 167 212 219 218 208 225 213 212 213 215 214 210 212 217 211 192 198 175 150 226 136 95 142 106 132 136 140 143 128 151 151 158 161 150 147 143 152 160 133 140 148 136 145 80 111 207 182 184 186 202 221 170 155 249 247 214 228 247 224 217 103 191 234 245 250 236 200 172 184 184 
219 252 250 234 237 242 239 231 227 246 228 228 239 230 231 233 
93 92 91 90 90 91 91 92 93 92 92 92 92 91 91 91 91 91 91 91 91 92 92 92 90 91 87 87 92 92 88 89 88 87 87 86 85 85 85 85 86 87 87 87 86 86 86 85 87 86 86 86 86 86 86 86 85 84 83 83 84 84 83 82 82 82 82 82 82 82 82 81 81 81 80 80 82 81 80 79 77 77 77 77 77 77 77 77 75 75 75 74 74 75 75 75 74 75 73 71 71 73 72 70 72 65 67 73 71 69 70 69 68 64 77 61 66 73 54 23 36 56 104 3 65 190 178 115 72 136 105 183 241 240 206 171 203 182 212 192 199 203 197 227 217 212 242 173 94 152 144 119 220 233 220 217 208 216 215 209 223 199 200 207 219 238 209 199 129 168 58 2 10 1 1 25 56 52 49 66 83 77 67 75 60 67 69 65 64 68 71 71 71 75 76 74 71 71 73 73 72 73 74 75 74 73 72 72 72 76 79 78 77 77 77 76 78 78 78 77 77 77 77 77 77 76 75 74 74 74 76 76 76 76 76 75 76 75 76 76 77 77 74 74 74 74 75 76 77 77 76 75 75 75 76 76 77 77 78 77 77 77 77 77 78 78 78 78 79 79 79 79 77 77 77 77 77 77 77 77 77 77 78 78 78 78 77 77 77 77 77 77 78 78 78 78 78 77 77 77 77 78 78 79 78 78 78 78 78 78 78 78 79 79 79 79 80 80 80 81 81 82 82 82 82 82 82 83 84 84 84 84 83 82 82 82 85 85 86 85 83 82 80 80 81 81 80 79 79 80 82 82 81 79 78 79 80 78 77 78 76 76 76 76 76 75 75 75 74 74 74 74 73 73 72 72 72 72 71 71 70 71 71 71 72 72 72 72 72 72 72 72 72 73 73 73 73 73 73 74 76 76 76 76 76 76 76 76 77 76 75 75 74 74 74 74 75 76 76 76 76 76 76 77 76 76 76 76 75 75 74 73 73 73 73 73 73 73 72 72 72 73 73 73 72 72 72 71 71 72 74 76 76 76 76 77 74 75 78 81 81 79 78 79 78 78 77 76 74 74 74 75 82 80 78 75 73 72 72 72 75 63 52 18 240 195 211 231 198 173 199 222 218 216 208 175 204 235 201 179 182 150 147 207 194 198 193 149 179 251 249 255 254 251 254 255 100 5 86 175 141 168 113 120 249 136 67 124 104 104 146 159 131 95 156 165 127 119 118 99 105 130 117 101 160 167 168 152 132 124 119 115 130 108 165 200 243 227 226 207 208 213 214 212 214 218 216 210 219 195 157 174 205 98 114 242 180 98 139 142 135 150 145 151 152 154 167 153 142 147 124 115 110 146 166 112 13 103 147 72 179 182 177 192 111 29 13 52 219 252 230 141 127 165 213 224 239 220 201 185 173 203 232 238 233 
242 240 235 245 242 232 244 224 239 237 234 234 225 224 237 
92 92 91 90 90 90 91 91 93 92 92 92 91 91 90 90 91 91 91 91 91 91 91 91 90 90 85 84 90 90 87 88 87 87 86 86 85 85 86 86 86 87 87 87 86 85 84 83 87 86 87 87 86 86 85 84 84 83 82 82 83 83 83 82 80 81 81 82 82 82 82 82 83 81 80 81 82 81 79 76 78 78 78 79 79 79 79 79 79 79 78 77 77 77 78 78 76 75 73 71 72 73 71 68 73 66 69 76 74 71 71 69 71 60 66 66 60 59 72 39 16 29 57 24 156 248 235 42 4 123 200 151 240 236 202 182 201 156 189 187 212 222 212 213 211 233 223 247 97 60 60 96 250 206 209 220 210 224 216 210 211 201 158 210 211 223 221 197 89 131 50 2 74 49 50 28 53 73 63 57 76 67 46 53 59 64 67 66 67 71 69 65 69 73 76 73 71 72 74 75 70 72 73 74 73 72 72 73 73 78 80 76 75 78 79 77 78 78 78 78 77 77 77 77 78 77 76 75 75 75 76 76 76 75 75 76 76 76 75 75 76 76 75 74 74 74 74 75 77 77 75 75 75 75 76 76 77 77 77 77 77 77 77 77 78 78 78 78 79 79 79 79 77 77 77 77 77 77 77 77 76 77 77 77 77 77 77 76 76 76 77 77 78 78 79 79 76 76 75 75 75 76 77 78 78 78 78 78 78 78 78 78 78 79 79 79 80 80 80 81 81 82 82 82 82 82 82 83 85 85 84 84 82 82 81 81 86 86 86 85 82 81 80 79 81 80 79 79 79 80 82 83 81 79 78 80 80 78 78 78 76 76 76 76 76 75 75 74 72 73 73 73 73 72 71 71 72 72 71 71 70 71 71 71 72 72 72 72 72 72 72 72 72 73 73 73 73 73 73 74 77 77 77 77 77 77 77 77 74 74 74 74 75 75 76 77 75 76 76 76 76 76 76 77 76 76 76 76 75 74 73 73 73 73 73 72 72 72 72 72 72 72 73 73 73 72 71 70 72 73 74 75 75 76 78 79 78 78 80 82 80 76 73 74 75 75 74 72 72 73 74 75 80 81 79 76 72 69 70 72 70 66 72 14 165 255 194 236 213 191 232 228 212 230 202 168 209 213 212 186 207 155 85 191 205 226 208 203 187 208 208 219 231 217 188 150 172 92 29 126 165 133 183 87 242 232 72 98 122 128 144 138 127 123 134 111 106 106 112 122 115 109 117 111 144 147 124 103 118 138 142 144 133 116 149 194 133 200 208 199 205 214 214 209 214 225 218 200 150 147 156 204 224 252 240 248 231 102 137 134 118 143 147 134 154 163 111 126 112 118 112 110 122 149 110 56 151 85 10 1 68 254 123 12 12 51 45 33 11 87 160 118 201 239 224 226 183 157 146 219 248 240 236 222 242 237 247 235 
228 243 240 236 241 220 236 241 232 234 228 223 
92 91 90 89 89 90 91 91 94 93 93 92 91 90 90 90 92 92 92 92 92 92 92 92 91 86 83 85 88 88 88 88 88 87 86 85 84 85 85 85 86 85 85 85 84 84 83 83 85 85 83 83 83 84 84 85 82 83 83 83 82 82 82 83 82 82 82 82 81 80 79 78 80 80 81 80 79 78 77 76 80 80 79 79 78 77 76 76 76 75 75 76 76 74 74 75 73 74 74 74 74 74 74 74 71 71 70 70 70 70 71 72 74 63 68 65 61 61 55 70 34 20 27 48 51 48 3 78 189 202 187 148 243 228 145 106 156 201 148 198 202 186 218 230 45 117 234 236 176 76 91 97 227 193 202 226 205 200 212 196 204 205 178 174 220 250 200 158 51 110 39 18 151 27 39 24 37 77 75 65 69 77 62 65 63 63 65 68 68 67 67 71 69 72 75 75 74 73 73 73 73 73 73 74 74 74 73 73 76 77 77 77 76 76 76 77 77 77 77 77 77 76 76 74 78 67 77 80 75 75 73 79 76 77 68 78 74 68 81 61 71 82 66 68 78 74 75 76 68 78 83 76 74 79 80 75 76 77 77 77 77 77 77 78 79 79 78 78 78 78 79 79 78 78 78 78 78 78 78 78 79 79 78 78 77 77 77 76 76 77 78 78 78 77 76 75 74 74 76 77 77 77 77 76 77 77 77 77 78 78 78 78 78 78 78 79 80 81 81 81 82 82 82 82 82 82 82 83 83 84 85 85 83 83 83 83 85 86 87 85 82 80 81 81 80 80 79 79 78 78 79 79 81 80 79 78 77 77 77 78 76 77 77 77 77 77 76 76 76 76 75 75 74 73 73 72 73 72 72 71 71 71 71 71 72 72 72 72 72 72 72 72 74 74 74 74 73 73 73 73 75 75 76 76 76 76 77 77 75 75 74 75 75 76 75 75 75 75 75 75 75 75 75 75 78 77 76 76 75 74 73 73 73 73 72 72 71 71 70 70 70 71 73 74 75 75 74 74 70 71 73 75 76 76 76 76 79 77 75 76 77 78 77 76 73 76 77 77 78 79 78 76 79 75 75 75 70 70 73 70 75 54 61 49 28 255 199 208 221 222 248 222 211 216 147 177 238 234 208 234 206 146 126 154 213 199 221 210 176 227 197 177 164 177 185 201 224 218 167 113 166 147 196 158 148 253 126 85 124 133 124 112 108 114 140 113 118 99 105 103 129 139 168 154 158 133 138 145 151 123 145 160 144 127 48 32 9 140 222 218 215 212 216 212 228 223 140 102 130 180 226 238 234 231 218 201 239 173 96 122 125 137 144 131 115 72 51 78 96 99 118 113 82 36 18 14 104 222 111 0 47 252 243 200 58 20 26 37 67 127 231 253 247 208 185 143 173 229 254 225 240 248 233 230 235 240 241 236 234 
237 238 235 237 229 226 232 235 231 223 219 
89 90 90 91 91 91 91 91 92 92 92 91 91 91 91 91 90 90 90 90 90 90 91 91 90 86 83 85 88 88 87 87 87 86 85 85 84 85 85 85 86 86 85 85 84 84 84 82 84 84 83 83 82 82 83 83 82 82 83 83 82 82 82 83 81 81 82 82 81 81 80 80 81 81 82 81 80 79 78 77 78 78 78 78 78 77 76 76 74 73 73 75 74 72 72 73 74 75 74 74 74 74 73 73 71 71 70 70 70 70 70 71 70 65 67 68 65 64 63 70 88 48 23 84 71 2 71 246 246 238 243 213 217 247 105 115 211 150 196 183 174 173 182 105 2 169 241 235 233 145 222 241 199 212 210 204 224 215 200 202 219 228 200 124 225 229 200 189 102 186 51 2 102 6 1 6 23 83 63 50 77 84 47 62 64 64 65 67 68 67 68 71 70 73 75 75 74 72 72 72 72 73 73 74 74 74 74 74 76 77 77 77 76 76 76 77 78 78 78 78 78 77 77 76 74 83 71 70 77 74 74 68 79 75 74 61 75 74 66 81 72 66 80 78 69 75 67 77 89 77 67 70 77 80 80 78 76 77 77 77 77 77 77 78 79 79 78 78 78 78 79 79 77 77 77 77 77 77 77 77 78 78 78 78 77 77 77 77 77 77 78 78 78 77 76 76 74 75 76 77 77 77 76 76 77 77 77 77 78 78 78 78 79 79 79 79 80 80 80 80 81 81 82 82 82 82 82 82 83 84 85 85 83 83 83 83 83 84 86 85 82 80 80 81 80 80 79 79 79 79 79 79 81 81 80 79 78 77 77 77 77 77 77 77 77 76 76 75 75 75 75 74 73 73 72 72 72 72 71 71 71 71 71 72 72 72 72 72 72 72 72 72 73 73 73 74 74 74 74 74 75 75 76 76 76 76 76 77 76 75 74 75 75 76 75 74 74 74 75 75 75 75 76 76 76 76 76 75 75 74 74 74 71 71 71 71 71 71 71 71 72 72 73 73 74 73 72 72 71 71 73 74 75 76 76 75 79 78 78 78 79 79 79 78 79 80 80 81 80 79 77 76 78 78 82 83 77 74 74 71 69 76 58 69 6 143 248 191 249 242 223 231 194 144 128 112 124 127 143 142 167 158 167 143 183 225 188 117 93 242 218 214 211 212 214 230 251 255 253 252 193 142 135 175 123 239 227 52 97 95 109 111 134 102 115 110 92 113 133 162 161 154 171 152 139 148 152 148 126 120 163 123 74 105 74 19 19 65 245 204 219 211 232 216 197 135 87 190 232 242 243 230 217 213 212 207 210 231 105 125 132 134 119 107 93 46 46 47 100 78 83 27 21 22 38 27 6 3 180 194 173 240 239 250 236 128 57 201 243 252 243 131 89 180 186 251 250 254 250 223 224 246 242 232 235 239 241 238 235 235 
237 237 239 231 223 222 226 230 233 235 
88 89 90 92 92 92 91 90 90 90 90 90 89 90 90 90 88 88 88 88 88 88 88 88 89 85 83 85 88 87 85 85 87 86 86 85 85 86 86 86 85 84 84 84 83 83 83 83 84 83 83 82 81 81 81 81 81 82 82 82 81 81 82 82 80 80 81 81 82 82 82 81 80 80 80 80 79 78 77 77 76 76 76 77 77 76 76 76 75 74 74 75 76 74 74 75 74 75 75 74 73 73 73 72 72 71 71 71 71 70 70 69 69 70 66 66 63 59 60 57 55 105 51 89 110 143 104 37 120 82 54 55 247 228 80 200 250 145 158 170 197 184 108 137 49 5 130 207 79 41 197 194 201 178 190 196 198 187 191 191 189 178 162 138 207 229 204 188 150 155 69 3 98 156 196 190 17 71 69 52 81 68 48 70 64 64 65 68 68 67 69 72 70 73 75 75 74 72 71 71 71 72 73 74 75 75 76 76 76 76 77 77 76 76 76 77 77 77 78 78 78 77 77 76 78 73 74 79 72 67 77 82 68 73 73 75 71 78 55 73 77 68 74 78 70 82 75 70 61 64 70 77 76 72 75 80 76 77 77 77 77 77 77 78 78 78 78 78 78 78 78 78 77 77 77 77 77 77 77 77 77 77 77 77 77 77 77 77 77 77 77 77 77 77 76 76 75 76 76 77 77 76 76 76 77 77 77 77 78 78 78 78 79 79 79 79 80 80 80 80 81 81 81 82 82 82 82 82 83 84 85 85 83 83 83 83 82 83 84 84 82 81 81 81 80 80 79 79 79 79 79 79 81 81 81 80 79 78 77 77 77 77 77 77 77 76 75 75 74 74 74 73 73 72 72 72 71 71 71 70 70 71 71 72 72 72 72 72 72 72 72 72 73 73 73 74 74 74 74 75 75 75 76 76 76 76 76 76 76 75 74 75 75 76 75 74 74 74 74 75 75 76 76 76 75 75 75 75 75 75 75 75 70 70 71 71 72 72 72 72 73 73 73 72 72 71 71 70 72 72 73 73 74 75 75 75 76 78 79 80 79 79 79 79 81 78 78 81 79 75 75 76 74 76 82 83 76 73 72 70 67 77 64 70 36 28 255 191 183 155 146 181 142 191 164 84 49 97 91 63 65 136 173 161 159 229 115 71 167 250 222 214 220 234 249 255 255 250 250 254 252 242 142 162 139 163 254 137 137 98 126 110 116 104 120 135 160 194 156 152 140 142 154 151 152 140 124 132 129 142 167 107 40 202 224 212 49 11 169 232 225 225 206 191 157 193 215 235 240 229 216 210 210 212 218 222 213 246 155 94 111 82 96 81 97 73 85 73 83 117 2 5 31 20 16 63 105 208 249 226 105 172 210 81 113 239 252 249 217 131 82 151 231 246 253 249 242 244 240 243 224 238 245 235 233 234 236 237 234 231 
231 234 236 230 224 226 234 237 229 218 
89 89 90 91 91 91 90 90 88 89 89 89 88 89 89 89 87 87 87 87 87 87 87 86 87 84 82 85 87 86 84 83 85 85 85 85 85 85 86 86 84 84 84 84 83 83 83 83 82 82 81 80 80 80 80 80 80 81 82 81 81 80 81 81 80 80 81 81 82 82 81 81 78 78 78 78 77 77 76 75 76 76 76 76 76 76 75 75 76 74 74 75 76 75 75 76 75 75 74 74 73 73 73 73 72 72 72 72 71 70 69 68 67 75 64 65 61 54 55 44 3 44 43 116 150 2 62 161 100 71 91 127 235 194 29 87 182 106 36 118 56 39 148 228 51 26 137 98 99 223 160 147 173 166 174 175 170 167 180 194 180 184 194 134 185 226 201 186 110 52 160 242 230 245 249 181 9 26 74 80 92 54 62 65 65 65 66 67 68 67 69 72 70 72 73 74 74 73 72 72 71 72 73 74 75 76 77 77 76 76 77 76 76 75 76 77 75 76 76 76 76 76 75 75 74 72 79 68 71 84 66 59 71 68 64 72 63 70 87 82 55 47 29 21 10 40 84 83 84 83 78 70 71 78 79 74 76 77 77 77 77 77 77 78 77 77 78 79 79 78 77 77 77 77 77 77 77 77 77 77 77 77 77 77 77 77 77 77 77 77 77 76 76 76 76 76 76 76 76 76 76 76 75 75 77 77 77 77 78 78 78 78 79 79 79 79 80 80 80 80 81 81 81 81 82 82 82 82 83 84 85 85 83 83 83 83 82 82 84 84 83 83 82 82 81 80 80 79 79 79 80 80 80 80 81 81 80 79 78 78 78 78 78 77 77 76 75 74 74 73 73 73 72 72 71 71 71 70 70 70 70 71 72 72 72 72 72 72 72 72 72 72 72 73 73 74 74 75 75 75 75 75 76 76 76 76 76 76 76 75 75 75 75 75 75 74 74 74 74 75 75 76 76 76 74 74 74 75 75 75 75 75 70 70 71 71 71 72 72 72 73 73 72 71 70 70 70 70 73 72 72 73 73 74 74 75 72 75 77 78 77 76 76 77 76 72 72 77 76 70 69 75 71 71 76 76 70 69 71 71 68 68 70 64 77 3 167 238 198 136 130 101 121 129 78 87 137 205 217 198 153 81 165 157 132 224 109 37 108 254 213 223 215 242 254 247 239 237 237 237 250 252 255 159 162 136 237 195 121 123 95 102 134 127 132 127 125 194 160 141 147 158 154 169 153 160 173 171 152 142 140 152 39 170 197 164 120 118 246 225 192 164 127 178 212 236 248 228 214 208 207 215 221 221 218 217 219 201 210 87 119 83 59 76 86 67 40 34 17 170 209 43 6 40 111 205 187 180 139 100 123 70 164 226 254 237 216 208 134 148 242 245 253 253 253 236 238 243 246 255 227 219 239 247 234 230 231 237 236 
230 226 228 230 234 234 227 223 229 236 239 
91 90 89 89 88 89 88 88 87 87 87 87 87 87 87 86 88 88 88 87 87 87 87 87 87 83 81 83 86 85 83 82 83 83 84 84 85 85 85 85 84 84 84 84 84 84 84 83 80 80 80 79 79 80 80 80 80 80 81 80 80 79 80 81 80 80 81 81 81 80 80 79 78 78 78 77 77 76 75 75 77 77 77 77 76 75 75 74 75 73 72 73 74 72 72 74 73 72 73 73 73 73 73 73 72 72 72 72 71 70 69 68 64 72 64 65 64 59 61 48 32 39 41 224 18 54 233 241 163 228 247 233 225 187 153 164 199 64 186 187 72 56 141 189 200 248 152 150 224 212 179 197 214 234 234 236 232 236 238 237 245 238 198 173 216 204 253 232 133 54 112 218 176 202 198 47 53 37 74 91 80 58 69 59 65 65 66 67 68 67 69 72 68 70 72 73 74 74 73 73 71 71 73 74 75 76 76 76 75 76 77 76 76 75 76 76 75 75 75 76 76 75 75 75 74 79 69 64 76 73 67 82 73 67 82 77 91 56 38 6 46 250 82 37 131 31 7 29 40 61 78 78 72 70 74 78 76 77 77 77 77 77 77 78 76 77 78 78 78 78 77 76 77 77 77 77 77 77 77 77 76 76 76 76 76 76 76 76 77 76 77 76 76 76 76 76 77 77 76 76 76 75 75 75 77 77 77 77 78 78 78 78 78 78 79 79 80 80 81 81 81 81 81 81 82 82 82 82 83 84 85 85 83 83 83 83 82 83 84 85 85 84 83 83 81 81 80 80 80 80 80 80 78 79 80 80 81 80 80 79 78 78 78 77 77 76 75 74 73 73 73 72 72 72 71 71 71 71 70 70 71 71 72 72 72 72 72 72 72 72 72 72 72 73 73 74 74 75 76 76 76 76 75 75 75 75 75 75 76 75 75 75 75 75 75 74 75 75 75 75 75 75 75 75 75 75 75 75 74 74 74 73 71 71 71 71 71 71 70 70 72 71 71 70 70 70 70 70 72 72 72 72 73 73 74 74 71 73 76 76 75 74 75 76 74 70 70 74 74 68 67 73 71 70 75 77 73 74 77 74 66 73 67 70 71 39 47 255 240 160 92 67 95 81 67 172 215 108 27 44 156 120 98 167 113 197 173 28 21 196 249 214 232 251 252 237 239 254 255 254 247 255 252 231 130 122 175 253 171 105 135 135 130 131 116 146 126 158 150 132 152 170 157 162 156 158 163 160 162 160 148 161 126 122 199 167 148 175 218 198 179 199 232 236 249 222 212 208 219 218 219 219 219 216 211 207 201 206 239 149 123 159 74 47 29 37 25 20 23 3 66 210 128 200 181 133 114 112 140 152 165 175 136 142 218 222 185 198 238 252 248 243 231 248 248 241 248 250 245 246 240 215 231 244 239 231 
230 237 240 233 226 226 228 230 230 230 232 236 233 228 
91 90 88 87 86 87 86 87 87 87 86 86 85 85 85 85 87 87 87 86 86 86 85 85 85 82 79 82 84 84 82 82 83 83 83 84 85 84 84 83 83 83 83 83 83 83 83 82 80 79 79 79 79 80 80 80 79 79 80 80 79 79 79 80 80 80 80 80 80 79 78 78 78 78 78 78 77 77 76 75 77 77 77 77 76 75 74 73 75 73 72 73 74 73 73 75 72 72 73 73 73 73 74 74 72 72 71 71 71 70 70 69 67 71 66 65 64 62 60 52 86 58 39 59 76 226 200 210 206 161 199 244 245 210 215 254 248 252 249 249 240 230 181 215 252 135 213 254 237 238 229 229 226 235 227 252 242 197 200 217 185 202 194 242 254 234 129 219 102 21 173 248 246 205 85 58 71 70 70 82 56 64 63 65 65 65 66 68 68 67 69 72 68 69 71 73 75 75 74 73 71 71 72 74 74 75 75 75 75 76 76 76 75 75 76 76 75 75 76 76 77 76 76 76 76 72 67 83 69 59 81 67 81 76 48 6 7 9 7 69 171 184 109 136 228 90 8 101 97 80 68 71 77 77 74 75 76 77 77 77 77 77 77 78 77 77 77 77 77 77 77 77 77 77 77 77 77 77 77 77 76 76 76 76 76 76 76 76 76 76 77 76 76 76 76 76 77 77 76 76 75 75 76 76 77 77 77 77 78 78 78 78 78 78 78 79 80 81 81 81 81 81 81 81 81 82 82 82 83 84 85 85 83 83 83 83 83 83 85 86 86 86 84 82 82 81 81 80 80 80 80 81 78 79 79 80 80 80 80 80 77 77 77 77 77 76 75 75 73 73 73 73 72 72 72 72 72 72 71 71 71 71 72 72 72 72 72 72 72 72 72 72 73 73 73 74 75 75 76 76 76 76 75 75 75 75 75 75 76 76 75 75 75 75 74 74 75 75 75 75 75 75 75 75 76 76 75 75 74 73 73 72 72 72 72 71 70 70 69 69 71 71 71 71 71 71 70 70 71 72 72 72 73 73 73 73 73 74 75 76 75 75 75 75 76 73 72 75 74 69 68 72 70 69 75 80 81 82 80 73 69 69 67 69 67 71 5 173 253 238 93 66 109 143 86 243 97 97 151 151 88 191 102 141 127 147 224 69 71 97 246 216 252 255 252 250 254 254 250 246 254 236 219 255 207 227 215 248 135 102 138 105 128 129 116 139 135 125 155 157 158 163 155 141 139 141 138 153 164 157 171 168 152 165 155 152 171 116 221 245 220 253 231 223 209 212 211 219 217 218 217 211 208 209 210 212 210 210 220 172 61 110 48 5 28 16 16 4 1 90 141 174 167 137 138 162 159 172 186 205 217 254 241 175 109 140 197 250 237 229 235 234 224 251 236 251 237 243 244 241 253 226 226 238 241 232 
228 233 237 233 228 227 229 233 238 243 240 223 196 174 
88 88 87 87 86 85 85 85 86 86 85 85 85 84 84 84 86 86 85 85 84 84 84 83 83 79 77 80 83 83 83 83 84 84 84 85 84 84 83 82 82 82 82 82 82 82 82 81 80 80 79 79 79 79 79 80 78 79 79 79 78 78 79 79 79 79 79 79 79 78 77 77 78 78 78 78 77 76 75 75 76 76 76 76 75 74 75 74 76 74 73 74 73 73 74 76 72 72 73 73 73 73 73 73 72 72 70 70 70 70 70 71 71 69 70 66 63 61 55 53 53 53 8 5 231 189 185 218 237 82 231 240 254 222 138 214 235 200 186 117 153 212 213 199 111 153 208 187 240 213 150 169 186 174 46 9 142 195 164 64 47 33 145 124 181 148 188 215 28 17 104 157 83 4 3 61 41 55 58 72 57 64 58 64 65 65 66 69 69 68 69 71 68 69 70 72 75 75 74 72 71 72 72 73 73 74 73 73 75 76 76 76 75 75 75 76 75 75 76 76 76 76 76 76 70 67 78 73 66 78 66 32 6 8 7 51 124 185 169 246 254 252 248 115 103 80 31 105 75 69 71 78 78 71 71 78 76 77 77 77 77 77 77 78 77 77 76 76 76 76 77 77 77 77 77 77 77 77 77 77 76 76 76 76 75 75 75 75 75 75 76 76 77 76 75 75 77 77 76 75 75 75 76 76 77 77 77 77 78 78 78 78 78 78 79 79 80 80 81 81 81 81 81 81 81 81 82 82 83 84 85 85 83 83 83 83 82 82 84 86 86 86 83 81 82 82 81 80 80 80 81 81 80 79 79 78 78 78 78 79 77 77 77 77 77 76 76 75 73 73 73 73 73 73 72 72 73 73 72 72 72 72 72 72 72 72 72 72 72 72 72 72 73 73 74 74 75 75 76 76 76 76 75 75 75 75 75 74 77 76 75 75 75 75 74 73 75 75 75 75 75 75 75 75 76 75 75 74 74 73 73 73 72 72 71 71 70 70 69 69 71 71 72 72 72 71 70 69 70 71 72 73 73 73 73 72 75 74 74 74 75 75 75 74 74 74 73 73 72 71 71 72 72 67 70 77 82 84 80 71 73 64 72 62 75 73 41 53 248 253 183 135 141 158 99 221 63 51 110 149 93 166 121 122 136 116 206 138 55 40 135 246 255 255 249 252 254 251 246 251 254 234 220 245 227 190 83 182 242 93 100 100 128 125 115 146 147 147 175 168 140 134 150 154 148 150 147 162 191 166 162 163 133 154 166 171 138 154 211 107 135 246 213 216 211 222 212 221 216 215 214 213 211 211 212 215 209 228 215 227 54 60 229 49 5 3 49 100 181 202 157 140 152 173 175 159 178 196 238 235 234 213 218 247 198 130 136 235 253 248 253 232 250 236 241 245 247 249 247 242 245 235 225 235 241 233 229 
229 231 232 232 234 230 236 238 224 200 182 180 188 
84 85 86 86 86 86 85 84 85 85 85 84 84 84 84 84 85 84 83 83 82 82 81 81 84 80 77 80 83 84 84 84 84 84 84 85 84 83 82 80 81 80 80 81 80 80 80 80 81 81 80 79 79 79 79 79 78 79 79 79 78 78 78 79 78 78 78 78 78 78 77 77 76 76 76 76 75 75 74 73 74 74 74 74 74 75 74 74 73 71 70 71 71 71 72 75 73 74 74 73 73 72 72 72 72 71 70 70 70 70 71 72 73 66 73 67 63 64 54 58 59 62 13 182 243 173 205 211 243 86 35 8 3 197 124 136 250 184 48 3 2 16 57 70 126 165 112 116 138 78 71 6 5 6 2 34 99 63 93 45 139 55 86 61 35 60 171 121 119 62 4 73 4 85 99 34 81 58 59 58 62 56 67 63 64 64 66 70 69 68 68 71 70 70 70 72 74 75 73 71 72 72 72 73 73 73 72 71 74 75 76 76 75 75 75 76 72 73 73 74 74 74 74 75 76 66 79 56 77 65 37 160 105 113 154 203 250 202 159 166 238 175 249 144 126 129 43 52 70 72 73 72 72 75 78 77 76 77 77 77 77 77 77 78 77 77 76 76 76 76 77 77 76 76 76 76 76 76 76 76 77 76 76 76 75 75 74 74 75 75 76 76 77 76 75 74 77 76 76 75 75 76 76 77 77 77 77 77 78 78 78 78 79 79 79 79 80 80 80 80 80 81 81 81 81 81 81 81 83 84 85 85 83 83 83 83 82 82 83 85 86 85 83 80 82 82 81 81 80 81 81 81 81 80 79 78 77 77 77 77 76 77 77 77 77 77 76 76 73 73 73 73 73 73 73 73 74 73 73 72 72 72 72 72 72 72 72 72 72 72 72 72 73 74 74 74 75 75 75 76 76 76 75 75 75 75 74 74 77 76 75 75 75 75 74 73 74 74 74 75 75 76 76 76 75 75 74 74 74 73 73 73 72 71 71 71 70 70 70 69 71 72 72 73 72 71 69 68 69 70 72 73 74 73 73 72 76 74 72 73 74 75 74 73 69 70 70 69 69 72 72 72 78 68 66 72 79 84 81 72 71 72 73 66 66 65 82 1 176 247 215 183 158 181 115 185 138 4 38 74 131 185 113 120 124 100 127 232 43 11 49 217 251 252 250 250 252 248 248 254 252 254 254 255 185 50 33 73 250 155 107 124 144 145 156 141 139 158 147 143 156 165 168 162 149 151 137 107 166 164 140 170 158 136 145 158 168 243 255 232 195 203 226 217 218 220 229 212 213 207 207 212 215 212 212 216 221 198 208 222 147 33 133 130 123 111 195 185 145 127 154 176 175 165 181 216 243 236 222 223 223 225 224 223 231 246 228 169 203 169 67 100 253 227 250 237 243 238 240 243 241 248 219 213 243 237 231 228 228 232 
238 244 234 215 193 183 184 194 211 224 
87 87 87 86 86 86 85 85 82 83 83 84 84 83 83 82 84 84 84 83 83 84 85 85 81 81 82 82 83 83 82 80 82 82 81 82 81 80 80 80 81 81 80 80 80 80 79 78 78 78 78 78 78 78 78 78 77 78 78 79 78 78 77 76 77 77 77 77 77 77 77 77 74 75 76 77 76 75 74 73 74 72 71 71 72 72 71 69 70 71 70 70 70 71 72 72 72 72 72 72 72 72 72 71 70 69 69 70 70 70 68 66 70 69 68 67 65 64 62 60 56 53 28 215 237 202 191 206 242 190 3 165 12 93 206 179 82 138 49 54 61 35 47 19 13 11 4 29 55 5 32 82 42 33 40 162 164 81 133 122 216 240 212 216 205 79 87 169 244 113 115 249 129 33 111 24 89 71 58 60 64 61 61 64 65 66 67 68 69 69 69 69 69 69 70 74 74 70 70 72 72 72 72 72 71 71 71 71 73 73 72 73 74 74 75 74 77 71 74 77 70 71 75 71 73 66 68 83 70 9 83 245 248 245 242 110 150 104 181 172 101 77 211 120 164 172 75 58 71 72 73 75 75 75 77 77 78 77 77 76 76 76 77 79 77 76 76 75 75 76 76 77 76 76 76 76 76 76 76 76 76 76 76 76 76 76 76 76 77 76 76 76 76 76 76 76 75 75 75 75 76 76 76 76 76 76 77 77 78 78 79 79 77 78 80 81 82 81 79 78 81 81 80 80 80 81 82 82 82 82 82 82 84 85 85 86 80 80 81 81 83 84 84 84 82 81 80 79 79 80 81 82 81 80 78 77 77 77 78 79 76 76 76 76 75 75 75 75 75 74 72 72 71 71 72 72 71 71 71 71 70 70 71 71 70 72 72 72 73 73 73 74 73 73 73 74 74 75 76 77 77 76 76 75 75 76 76 77 75 75 75 75 75 75 75 75 76 76 76 76 76 76 76 76 76 75 75 74 74 73 73 72 71 72 72 71 70 69 71 72 71 71 71 71 71 71 72 72 71 71 71 72 74 74 73 71 74 73 71 70 70 70 69 68 69 67 68 72 73 70 66 65 62 69 75 76 76 76 79 80 78 63 74 73 64 75 69 41 61 251 233 144 161 189 156 144 216 135 77 109 203 138 122 118 114 138 95 186 191 107 150 214 254 253 254 245 252 254 248 251 255 251 248 254 154 109 181 154 171 155 138 171 178 163 151 139 150 168 157 177 189 161 144 131 122 98 128 123 143 190 146 171 172 149 143 154 142 188 254 230 230 171 234 221 221 213 210 208 212 214 215 216 218 215 212 209 213 199 221 223 194 59 43 102 155 163 134 134 153 172 182 165 197 226 238 230 228 219 215 223 224 210 216 237 252 251 214 93 38 38 45 50 246 247 235 235 243 234 245 241 235 254 212 207 235 235 234 
238 246 247 229 206 177 182 195 219 228 235 223 228 
84 84 84 84 84 84 84 84 82 83 83 83 83 83 83 82 84 83 83 82 82 83 83 84 83 81 80 80 81 82 82 82 81 81 80 80 81 80 80 80 79 79 79 78 79 79 78 78 77 77 77 77 77 77 77 77 76 77 77 78 77 77 76 75 76 76 76 77 77 76 76 76 74 75 76 76 76 75 74 74 74 74 73 73 74 73 72 71 68 68 69 69 70 70 70 70 72 72 72 71 72 72 71 71 71 70 70 71 70 70 69 68 72 71 71 69 69 66 63 61 55 65 18 150 253 203 195 191 250 128 3 227 136 4 171 206 120 168 168 92 115 167 130 88 42 29 37 48 14 10 4 21 48 4 61 252 146 51 225 175 199 251 241 201 242 173 225 244 248 92 107 252 226 87 3 75 79 66 58 62 67 66 65 66 65 66 67 68 68 68 68 68 69 70 71 74 75 72 71 73 73 73 73 73 72 71 71 71 72 73 73 74 74 75 75 74 66 88 74 61 80 78 64 73 71 72 70 57 28 73 243 200 190 237 237 173 231 248 237 158 196 105 100 117 125 90 59 72 72 73 73 74 74 75 77 77 75 76 76 75 74 75 76 77 77 76 76 75 75 76 76 77 76 76 76 76 76 76 76 76 75 75 75 75 75 75 75 75 76 76 76 76 76 76 75 75 75 75 75 75 76 76 76 76 76 76 77 77 78 78 78 79 78 79 79 80 80 80 80 79 81 81 80 80 81 81 82 82 81 81 82 82 83 84 84 85 81 81 81 82 84 84 85 85 82 81 80 79 79 80 81 81 81 80 79 78 77 77 77 77 77 77 76 76 75 75 74 74 74 74 72 72 72 72 72 72 73 73 73 73 72 72 73 73 70 71 72 72 73 73 73 74 73 73 73 74 74 75 76 77 76 76 75 75 75 75 76 76 75 75 75 75 75 75 75 75 75 75 75 75 75 75 75 75 75 75 75 74 74 73 73 72 71 72 72 71 70 69 71 72 73 72 72 71 71 71 71 72 72 71 71 72 73 73 72 70 71 71 71 71 72 71 70 68 68 65 65 68 71 71 70 71 73 70 68 71 78 85 88 88 86 84 83 72 68 71 66 65 1 183 230 170 131 192 224 224 162 213 221 235 181 136 164 129 133 136 151 153 229 194 201 147 238 252 242 255 248 245 255 255 252 250 254 254 125 173 254 142 149 151 159 159 151 160 162 146 157 176 162 152 137 118 115 118 115 122 128 126 124 155 168 169 159 148 149 126 129 125 238 244 237 193 190 228 212 212 222 212 216 217 216 216 215 213 210 208 210 217 207 214 236 126 9 72 117 128 151 181 183 172 191 234 237 232 224 220 221 221 218 219 221 253 253 226 156 57 31 52 67 69 64 10 127 248 235 245 240 247 231 250 247 209 208 206 236 
247 251 236 210 191 186 190 185 201 218 170 131 234 227 231 
83 83 83 83 83 83 83 83 83 82 82 82 82 82 82 83 81 81 80 80 81 81 82 82 82 80 79 78 79 80 81 82 80 80 80 79 80 80 78 78 78 78 78 78 77 77 77 77 77 77 77 76 76 76 76 75 75 76 76 76 76 75 75 74 75 75 76 76 76 76 75 75 75 75 76 76 76 75 74 73 72 72 73 73 72 71 70 71 69 70 71 72 72 72 72 71 72 72 72 72 72 72 71 71 72 71 70 70 70 71 70 70 71 71 71 71 69 65 62 59 59 52 48 27 185 246 192 237 184 4 4 145 236 9 4 143 251 234 185 176 28 216 168 54 132 229 160 108 66 53 59 12 5 1 51 242 230 5 108 250 9 60 189 251 153 175 230 206 227 58 53 196 251 163 23 4 64 60 58 61 65 66 65 64 66 66 67 68 68 68 68 67 69 71 72 74 75 73 73 74 74 74 74 74 72 71 72 71 71 72 73 75 75 75 75 74 71 78 75 74 75 65 63 78 69 75 62 40 131 102 190 247 181 247 245 199 129 136 116 83 84 100 91 79 70 48 60 72 71 72 72 72 72 72 74 74 74 74 74 74 73 74 75 76 76 76 76 75 75 76 76 76 76 76 76 76 76 76 76 76 75 75 75 75 75 75 75 75 76 76 76 76 75 75 75 75 75 75 75 75 75 76 76 76 76 77 77 77 77 78 78 78 80 79 79 78 79 79 80 81 80 80 81 81 81 81 81 81 81 81 81 81 83 83 83 84 81 82 83 83 84 85 85 85 82 82 81 80 80 80 81 81 81 81 80 79 78 77 76 76 77 77 77 76 75 74 74 74 74 74 72 71 72 72 72 72 71 71 71 71 70 70 71 71 70 71 72 72 73 73 73 74 74 73 73 74 74 75 76 76 75 75 74 74 74 74 75 75 75 75 75 75 75 75 75 75 75 75 75 75 75 75 75 75 75 75 75 74 73 73 72 72 71 72 72 71 70 70 71 72 73 73 72 71 71 71 72 72 72 71 71 72 72 72 71 70 69 69 70 70 71 70 67 66 67 65 65 68 70 70 70 71 69 70 70 69 68 71 77 83 84 90 81 67 73 71 61 79 20 69 255 221 150 176 195 226 198 191 198 207 195 148 138 133 151 144 149 90 83 73 107 42 76 248 254 244 252 254 251 248 254 253 253 239 154 111 111 185 189 235 166 142 167 179 163 160 149 154 124 101 99 125 126 120 136 132 126 139 120 135 161 124 123 129 138 147 143 128 188 251 235 226 156 227 212 215 219 219 220 218 212 210 210 211 213 215 209 219 206 203 225 204 40 9 13 95 181 153 189 243 255 220 215 220 222 218 209 222 239 247 244 193 105 43 33 62 73 63 46 51 74 69 53 232 230 231 241 246 233 202 209 250 217 193 193 219 220 192 178 193 
206 203 228 235 135 133 198 219 218 224 
82 82 83 83 83 83 83 84 82 82 81 81 81 81 82 82 80 80 80 80 81 81 81 81 82 80 79 79 79 80 81 81 80 79 79 80 80 78 78 78 77 77 77 77 77 77 77 77 76 76 76 75 75 75 74 74 75 75 75 75 75 75 75 74 74 75 76 76 76 76 75 74 75 75 75 76 75 74 73 72 70 72 73 72 70 69 69 70 70 71 72 73 74 73 73 72 71 71 72 72 72 71 70 70 71 70 69 69 69 70 70 70 70 70 69 69 68 66 62 60 58 47 71 42 46 238 250 207 50 69 17 53 224 16 153 115 1 150 213 194 221 202 241 209 230 227 240 243 224 173 73 42 64 85 2 122 138 3 15 122 26 3 134 128 92 190 251 242 232 120 228 161 194 252 154 17 57 59 60 61 62 65 64 61 67 67 67 67 67 67 67 67 69 71 72 74 75 74 74 75 75 75 75 74 73 72 72 71 71 72 74 75 76 76 75 74 81 73 71 68 67 78 78 60 70 78 52 102 241 199 80 232 83 91 85 105 55 89 97 90 74 67 60 62 66 67 79 68 72 73 71 72 72 72 72 73 73 73 74 74 73 73 74 75 76 76 76 75 75 76 76 76 76 76 76 76 76 76 76 76 75 75 75 75 75 75 75 75 76 76 76 75 75 75 75 75 75 75 75 75 75 75 76 76 76 77 77 77 77 77 78 78 79 79 79 78 79 79 80 80 79 80 81 81 82 81 81 80 81 81 81 82 83 83 83 83 82 82 83 84 84 85 85 85 82 82 81 80 80 80 80 81 80 80 80 79 79 78 77 76 77 77 76 76 75 75 74 74 74 73 72 71 72 71 72 72 71 71 71 71 70 70 71 71 70 71 72 72 73 73 73 74 74 74 74 74 74 75 76 76 75 75 75 75 75 75 75 75 75 75 75 75 75 75 75 75 75 75 75 75 75 75 75 75 75 75 74 74 73 73 72 72 72 72 71 71 70 70 71 71 73 72 71 71 71 72 72 73 72 71 71 71 71 71 70 70 69 69 69 69 68 67 65 64 66 66 68 71 71 67 63 62 66 71 76 75 69 66 71 78 73 77 72 68 78 74 60 73 56 0 219 254 190 142 167 187 173 185 195 191 186 158 165 114 86 78 50 71 4 2 123 56 59 160 253 253 245 253 239 253 250 254 241 79 157 155 133 178 241 103 136 189 164 141 117 126 95 109 118 124 113 124 110 106 132 149 144 139 149 141 127 144 155 140 135 146 127 138 135 251 237 238 182 195 235 211 212 220 213 213 211 211 213 215 216 217 212 210 210 200 197 242 132 1 14 46 122 91 71 128 230 254 224 220 211 227 250 254 206 155 72 46 79 120 80 56 51 54 77 100 74 79 22 155 254 237 225 198 220 235 216 194 153 158 197 189 189 200 212 219 226 234 
228 239 236 241 237 218 228 224 
83 84 84 84 84 84 85 85 82 82 81 81 81 81 82 82 80 80 80 80 81 81 80 80 81 80 80 81 80 80 79 78 80 79 79 79 78 78 78 78 78 77 77 77 77 77 77 77 75 75 75 75 74 74 74 74 76 75 75 75 75 75 75 75 74 75 75 76 76 76 76 75 76 75 75 74 73 72 72 71 72 73 74 74 72 71 71 72 69 69 71 72 73 72 71 70 71 72 71 70 70 70 70 70 71 70 69 68 68 69 70 70 72 71 69 69 69 68 67 66 75 59 64 46 54 56 76 56 142 25 24 40 153 78 134 211 52 2 7 93 220 205 118 234 211 208 219 225 239 247 247 198 98 97 98 7 45 156 18 3 187 155 202 7 95 113 4 90 81 26 222 228 9 95 180 77 58 62 63 62 62 66 66 65 67 67 67 67 68 69 69 68 68 70 72 72 73 74 74 74 75 75 75 75 73 72 71 72 71 72 74 75 76 75 75 73 76 75 72 72 71 70 70 74 68 67 51 87 143 145 72 68 90 110 127 133 95 81 72 51 44 87 59 58 49 68 66 70 73 72 73 72 72 71 71 71 72 74 74 74 74 74 74 75 75 75 75 76 76 75 75 75 75 75 75 75 75 75 75 75 75 75 75 75 75 75 75 75 75 75 75 75 75 74 74 74 74 74 75 75 75 75 75 75 77 77 77 77 77 77 77 77 78 78 79 79 80 79 79 79 79 80 80 81 81 81 80 80 81 82 82 83 84 84 83 83 83 83 84 84 84 85 85 85 83 82 82 81 81 80 80 80 78 79 79 79 79 78 78 78 76 76 76 76 75 75 75 75 73 73 71 70 70 70 71 71 72 72 71 71 71 71 72 72 70 71 72 72 73 73 73 74 74 74 74 74 74 75 75 76 75 75 75 75 75 75 75 75 75 75 75 75 75 75 75 75 75 75 75 75 75 75 75 75 75 75 74 74 73 73 72 72 72 72 71 70 71 71 71 71 71 71 70 71 71 72 73 73 71 71 71 70 70 69 70 70 69 68 67 67 67 67 66 65 67 66 67 69 67 62 59 58 64 62 64 70 74 74 72 72 70 65 72 76 75 71 60 61 77 3 123 248 203 154 179 179 188 200 203 190 106 76 42 11 48 29 40 57 86 105 149 175 201 137 121 243 254 252 253 253 248 207 48 32 76 204 160 244 186 59 101 195 104 115 109 137 132 113 115 130 114 111 118 142 153 128 134 134 142 150 138 131 119 114 135 135 140 133 106 188 252 230 234 169 237 212 215 211 206 210 214 219 221 218 212 208 211 209 206 208 209 233 202 65 119 103 97 149 165 105 98 195 247 248 242 245 193 106 44 54 74 76 70 65 64 88 85 85 77 59 49 76 7 15 248 214 235 248 212 156 200 192 166 246 200 201 211 228 233 230 226 229 234 232 254 254 
235 254 218 219 
84 84 84 84 84 84 84 84 81 81 81 80 80 81 81 81 80 80 80 81 82 81 80 80 80 80 81 81 81 80 79 77 79 79 78 78 77 78 76 76 76 76 76 76 76 76 76 76 74 74 74 74 74 74 74 74 76 75 75 74 74 74 74 75 74 75 75 74 75 74 75 74 74 74 73 73 72 72 72 71 71 72 73 72 71 70 70 70 70 70 71 71 72 72 71 71 70 70 70 70 70 70 69 69 69 70 69 69 68 68 69 70 71 70 67 66 67 67 68 67 55 63 64 62 67 79 50 54 78 44 1 55 87 28 112 250 209 174 4 66 249 196 54 204 233 240 241 240 209 197 197 222 216 223 85 5 62 207 94 53 251 227 22 204 240 174 45 56 59 195 250 126 4 39 60 75 58 61 62 61 62 64 67 68 68 68 68 69 69 70 70 70 70 71 73 72 73 74 74 74 74 74 75 74 73 72 71 71 72 73 73 75 74 75 74 73 73 70 78 79 66 64 71 71 84 60 64 76 6 30 247 64 85 80 50 28 58 57 57 46 38 43 24 37 62 78 61 75 73 73 72 73 73 72 71 71 72 74 75 75 75 74 74 75 75 75 75 76 76 75 75 75 75 75 75 75 75 75 75 75 75 75 75 75 75 75 75 75 75 75 75 75 74 74 74 74 74 74 74 75 75 75 75 75 77 77 77 77 77 77 77 77 77 78 79 79 80 79 79 78 79 80 80 80 81 81 81 80 81 82 83 83 84 84 83 83 83 83 83 84 84 84 84 84 83 82 82 82 81 80 80 80 78 78 78 78 78 79 79 79 76 76 76 76 75 75 75 75 73 72 71 70 70 70 71 71 72 72 71 71 71 71 72 72 70 71 72 72 73 73 73 74 74 74 74 74 74 75 75 76 75 75 76 76 76 76 75 75 75 75 75 75 75 75 75 75 75 75 75 75 75 75 75 75 75 75 74 74 73 72 72 72 73 72 70 70 71 71 71 70 69 70 70 71 71 71 72 72 70 70 70 70 68 69 68 70 67 67 66 66 67 68 68 68 67 65 64 63 61 59 60 63 59 58 60 66 68 66 67 70 71 62 73 74 60 56 51 48 48 24 18 245 210 225 190 187 160 106 95 32 18 29 189 46 73 116 152 164 175 206 215 156 126 108 64 84 122 212 167 197 152 98 174 205 247 226 142 225 210 74 57 221 146 92 115 116 149 127 124 133 132 135 138 121 119 131 140 130 124 124 135 132 141 145 139 130 143 134 118 120 249 236 244 195 191 228 219 208 217 216 215 215 214 212 210 208 208 211 210 218 215 207 230 132 69 144 229 235 212 145 111 87 167 219 175 76 24 67 84 79 61 61 64 96 108 74 48 66 66 40 38 28 71 52 113 254 209 120 107 122 128 250 252 225 195 219 232 222 221 235 238 225 243 251 207 148 
127 180 232 234 
83 83 83 83 82 82 82 82 79 79 79 80 80 79 79 79 80 80 80 80 80 80 79 79 82 80 79 78 79 79 78 77 78 78 77 76 75 74 74 74 75 75 75 75 75 75 76 75 74 74 74 74 75 75 75 75 75 74 73 73 72 73 73 74 73 74 72 72 71 73 73 74 74 74 74 73 72 72 72 72 71 71 70 70 71 70 69 68 71 71 71 71 71 71 71 72 70 70 70 70 70 69 70 70 68 69 70 70 70 70 71 71 69 68 66 67 66 66 65 64 76 68 62 64 60 63 64 55 40 77 82 45 55 32 147 239 167 135 50 74 241 233 167 4 33 7 97 100 163 20 116 223 205 227 155 3 56 222 163 57 207 250 116 138 249 132 85 100 138 219 211 2 59 85 91 68 60 60 60 61 60 60 64 67 70 68 68 68 70 70 71 72 71 73 74 72 73 75 75 74 73 74 74 74 72 72 71 71 74 74 73 74 73 73 74 73 74 75 72 60 62 81 72 31 1 27 90 6 6 209 243 21 55 80 90 94 80 34 9 4 2 56 85 83 63 60 78 71 71 72 73 72 73 73 73 73 72 73 75 75 75 74 74 74 74 75 75 76 76 75 75 74 75 75 75 75 75 75 75 75 75 75 75 75 75 75 75 75 75 75 74 74 74 74 74 74 74 74 74 74 75 75 75 75 77 77 77 77 77 77 76 76 79 78 78 78 78 79 79 80 80 80 80 80 80 80 81 81 81 81 82 83 84 83 82 81 83 83 83 83 83 83 84 84 83 83 82 82 81 81 80 80 80 79 78 78 78 78 79 79 78 77 77 76 75 74 74 73 73 72 72 71 69 69 70 71 70 70 69 69 70 70 70 70 71 72 72 72 73 73 73 74 75 74 74 74 74 75 75 75 74 74 75 75 75 75 74 74 75 75 75 75 75 75 75 75 75 75 75 75 75 75 75 75 75 74 74 73 73 72 72 72 73 71 70 70 71 72 71 70 69 69 70 71 71 70 69 69 69 69 70 69 68 67 70 70 70 68 67 68 68 69 67 67 66 63 62 61 59 59 62 66 64 65 68 71 66 60 62 69 66 58 61 57 46 44 38 35 45 33 3 131 203 123 139 85 1 7 23 30 54 113 207 157 168 164 148 174 160 155 131 133 148 164 167 169 116 92 53 120 213 203 237 245 186 155 175 165 253 148 159 198 213 77 107 135 149 136 116 75 60 87 145 137 115 113 133 142 135 139 159 131 126 124 109 128 130 145 139 105 191 253 231 235 165 225 216 215 223 218 213 208 207 209 213 215 210 214 213 214 202 199 227 184 27 109 163 52 14 48 114 117 60 45 49 91 80 73 57 62 83 104 97 75 63 61 65 40 45 63 74 94 63 54 92 186 101 176 224 249 176 192 198 203 230 227 227 230 229 227 233 239 235 113 84 84 80 138 236 213 
83 82 82 82 81 80 80 80 78 79 79 80 81 80 80 79 78 79 79 80 80 79 79 78 81 79 77 76 76 77 78 78 77 77 76 75 74 73 73 72 72 72 72 73 74 74 73 74 74 73 75 74 76 75 77 76 75 73 73 72 72 72 73 73 73 72 70 70 69 71 71 73 73 73 72 72 71 72 72 72 73 72 71 71 73 73 71 69 70 70 69 69 69 69 69 69 70 70 70 70 69 69 70 70 67 69 71 71 71 71 71 71 70 70 68 69 69 68 65 64 63 60 67 67 63 65 58 67 65 63 82 66 61 76 90 232 213 147 33 141 187 171 93 7 42 172 203 179 215 15 46 201 251 254 152 2 118 252 202 129 169 252 164 19 240 54 134 241 128 73 59 33 42 61 62 64 65 63 62 63 62 61 62 66 69 69 68 68 69 70 72 73 72 75 75 74 73 75 76 74 73 73 73 73 72 72 71 71 75 74 73 74 73 74 74 73 72 75 62 72 85 42 17 56 168 25 1 1 121 255 123 3 70 59 55 71 15 1 0 1 8 170 42 30 64 64 68 65 70 71 72 72 73 73 74 74 72 73 74 75 74 74 73 74 74 75 75 76 76 75 75 74 75 75 75 75 75 75 75 75 74 74 74 74 74 74 74 74 74 74 74 74 74 74 74 73 74 74 74 74 75 75 75 75 77 77 77 77 76 76 76 76 80 79 77 76 77 78 80 81 80 80 79 79 79 80 81 81 80 81 82 82 83 82 81 80 83 83 83 83 83 83 83 83 83 83 83 82 82 81 80 79 81 80 79 77 77 77 78 79 79 79 78 76 75 73 72 72 72 72 71 71 69 69 70 70 72 72 71 71 72 72 72 72 71 72 72 72 73 73 73 74 75 74 74 74 74 74 75 75 73 74 74 75 75 74 74 73 75 75 75 75 75 75 75 75 74 74 74 74 74 74 74 74 75 74 74 73 73 72 72 71 73 71 70 70 71 72 71 70 69 70 71 71 71 69 67 65 68 69 69 69 67 68 70 72 73 72 71 71 70 68 65 64 63 62 63 63 62 60 62 64 64 58 57 63 67 63 56 53 60 52 46 41 46 48 32 27 32 13 1 1 72 33 26 21 53 99 127 182 204 166 131 167 175 184 146 139 144 159 172 198 185 165 130 122 136 150 206 254 253 210 203 181 147 175 174 173 202 239 195 168 252 141 97 87 76 88 106 89 70 66 127 121 122 125 140 135 149 138 131 144 127 105 123 142 134 147 156 132 123 255 233 242 187 195 218 222 214 212 212 210 212 214 215 215 214 218 204 203 205 210 210 238 102 97 100 80 52 89 66 76 85 81 82 82 45 81 103 95 82 76 62 64 62 38 68 83 90 82 67 56 94 86 33 120 240 167 217 203 210 227 223 236 232 232 232 231 229 228 228 229 233 229 154 174 251 251 236 240 
82 81 81 81 81 81 81 80 79 79 79 80 80 80 80 80 82 81 80 79 79 78 78 78 79 78 76 75 74 75 76 77 74 74 74 74 74 73 73 74 72 72 73 74 73 73 73 73 74 73 71 72 74 75 75 75 74 74 73 73 73 73 72 72 71 73 73 73 73 72 71 71 72 72 72 72 72 72 72 72 71 71 70 70 70 71 72 73 70 70 70 70 70 70 71 70 71 71 71 71 71 71 71 71 69 70 71 71 71 71 72 71 69 69 68 68 68 68 68 68 65 65 65 64 66 66 67 67 58 69 52 65 99 64 34 74 139 142 43 156 215 80 52 2 9 233 244 246 100 28 30 21 180 171 49 39 128 237 213 92 111 253 104 11 50 84 187 202 220 182 124 77 58 59 62 61 65 65 65 65 64 65 68 70 68 69 70 71 72 73 72 74 74 73 74 74 74 74 74 74 76 75 74 73 73 73 72 73 74 74 73 74 74 73 73 72 70 75 72 63 33 16 80 134 153 6 92 254 251 253 66 2 67 66 61 9 3 45 99 107 182 91 4 15 61 56 57 60 64 73 81 70 31 65 75 73 73 73 73 73 74 74 74 75 75 74 74 73 73 73 73 73 75 75 75 75 75 75 75 75 75 75 75 75 74 74 74 74 75 75 75 75 74 74 74 74 74 74 74 75 75 76 76 76 77 77 77 77 77 77 77 77 79 79 79 79 78 78 78 78 80 80 80 80 80 80 80 81 80 81 81 81 81 81 81 82 82 82 82 82 81 81 80 79 85 85 84 83 82 80 79 77 80 80 80 80 79 78 77 77 78 78 77 76 75 74 73 73 73 73 73 73 71 71 71 71 70 70 69 69 71 71 72 72 73 72 71 71 73 75 78 80 74 75 76 76 76 75 74 73 75 75 75 75 75 75 75 75 75 75 75 75 75 75 75 75 75 74 74 73 73 74 74 74 73 73 74 73 71 70 70 71 72 71 71 71 70 70 70 69 68 69 69 70 69 68 66 65 68 67 66 66 66 67 67 68 66 67 66 63 64 68 70 69 70 62 58 64 69 66 62 61 62 49 56 56 60 63 44 32 43 42 39 27 38 26 19 12 14 1 1 1 29 72 78 142 193 223 196 157 177 140 165 170 161 178 181 164 182 195 170 117 83 130 142 139 186 243 254 216 171 171 170 153 188 181 166 182 162 203 219 157 222 244 27 56 75 79 101 93 72 57 108 162 129 128 137 138 132 133 140 136 132 123 123 121 138 144 155 152 117 212 253 218 252 203 229 215 208 213 213 218 217 213 217 210 207 208 206 208 212 213 216 211 126 133 109 79 85 69 67 82 80 60 63 91 104 89 74 73 78 58 49 58 75 95 96 78 78 65 72 79 51 49 43 97 251 209 162 190 223 233 237 236 236 235 233 243 237 242 241 246 247 251 250 247 247 244 232 
220 
82 81 80 80 80 80 80 80 79 79 79 79 79 79 79 79 79 78 78 77 77 78 78 78 77 76 75 74 73 75 75 76 74 74 73 72 72 73 74 74 72 72 72 72 72 72 72 72 73 72 71 72 73 75 74 74 73 73 73 73 73 72 72 72 73 73 72 73 73 72 72 71 72 72 72 72 72 72 72 72 71 70 70 70 71 71 71 72 70 70 70 70 70 70 71 71 70 70 70 70 70 70 70 70 69 69 70 70 70 70 71 71 70 69 68 69 68 69 69 68 66 66 66 66 66 67 68 67 62 60 61 67 67 61 57 55 57 38 37 58 90 54 59 100 2 40 67 32 53 70 49 44 1 14 42 63 39 19 31 30 66 141 107 24 40 93 88 49 69 63 54 51 55 64 66 63 66 68 68 67 66 67 68 70 70 70 71 71 72 72 71 72 73 73 74 74 74 74 74 74 75 75 74 74 73 73 72 72 74 74 72 73 73 73 72 73 77 63 62 37 215 159 5 27 16 219 254 237 236 254 165 4 58 53 33 103 204 239 238 230 227 81 8 46 91 89 60 64 79 78 37 3 19 61 68 75 73 72 73 73 74 74 74 74 75 74 74 73 73 73 73 73 75 75 75 75 75 75 75 75 74 74 74 74 74 75 75 75 74 74 74 74 74 75 75 75 74 74 74 75 75 76 76 76 76 76 76 77 77 78 78 78 78 78 78 78 79 79 79 79 79 79 80 80 80 80 80 80 80 81 81 81 81 81 81 82 81 81 82 82 81 81 80 80 83 83 83 83 82 81 80 80 80 80 80 80 79 78 78 77 78 78 77 76 75 74 73 73 74 73 73 73 71 71 71 71 71 70 70 70 71 72 72 73 73 73 72 72 73 75 77 78 75 75 76 76 76 75 74 74 75 75 75 75 75 75 75 75 75 75 75 75 75 75 75 75 75 75 74 74 74 75 75 75 73 74 74 73 72 71 71 71 72 71 71 71 70 70 70 69 68 69 68 69 68 67 66 65 66 66 66 66 66 65 65 65 64 65 64 62 62 66 67 65 67 68 68 65 65 65 60 55 46 52 62 59 58 50 34 41 35 25 16 5 1 2 9 6 2 2 23 81 105 141 156 192 212 203 188 146 167 169 160 175 200 188 187 178 159 119 125 153 207 189 191 184 228 219 182 156 194 212 211 219 201 198 199 182 181 193 140 136 189 253 112 25 73 81 62 85 87 73 142 182 130 130 130 127 127 137 139 131 124 150 146 146 148 141 139 119 115 35 212 244 227 86 214 223 218 219 215 207 218 211 209 206 205 206 217 209 212 224 208 207 111 55 79 66 73 72 65 62 70 90 93 76 68 75 74 60 55 69 92 100 87 72 68 68 59 49 30 59 81 82 90 79 191 238 255 255 244 254 244 252 253 245 248 243 238 234 230 210 198 179 170 161 127 107 102 102 
81 81 81 81 80 80 80 80 79 79 78 78 77 77 77 77 76 76 76 76 76 76 77 77 76 75 73 72 71 72 73 74 73 73 72 72 72 72 72 73 72 72 72 72 71 72 72 72 71 71 71 72 73 73 73 72 73 73 73 72 72 72 72 72 72 72 72 71 71 71 71 71 71 71 71 72 72 72 72 72 70 70 70 71 71 71 71 70 70 70 70 70 71 71 71 71 69 69 69 69 69 69 69 69 70 70 70 70 70 69 69 69 70 69 70 69 69 69 70 70 66 67 67 68 68 67 67 68 68 60 69 68 53 62 72 54 61 58 59 60 36 71 47 62 46 51 67 34 55 72 49 63 41 32 64 56 57 55 58 50 60 57 73 76 73 75 58 38 40 47 56 63 67 69 67 64 67 67 68 69 68 69 71 72 72 71 72 72 72 71 71 71 74 74 74 74 74 74 74 74 75 75 75 75 74 74 73 72 72 72 72 73 73 73 72 73 62 77 76 62 84 254 120 13 252 253 222 204 199 253 221 1 52 57 71 214 168 139 162 159 199 215 2 5 59 59 99 89 33 8 2 9 19 67 86 65 73 72 73 73 73 74 74 74 74 74 74 73 73 73 73 74 74 74 74 74 74 74 74 74 72 72 73 73 73 74 74 74 73 73 74 74 74 75 75 75 74 74 74 75 75 76 76 76 75 75 76 77 77 78 79 79 77 77 78 78 79 79 80 80 79 79 79 80 80 80 80 80 80 80 81 81 80 80 81 82 81 81 81 82 81 81 81 80 82 82 82 83 82 82 82 81 79 79 80 80 79 79 78 78 78 78 77 76 75 74 74 73 74 74 73 73 72 72 71 71 71 71 72 71 72 72 73 73 74 73 73 73 73 74 75 75 75 75 75 75 75 75 75 74 75 75 75 75 75 75 75 75 75 75 75 75 75 75 75 75 75 75 74 74 75 75 76 76 74 74 74 74 72 71 72 72 72 71 71 71 70 70 70 69 67 67 67 67 67 67 67 66 63 64 65 66 66 66 65 64 66 66 65 61 61 63 64 64 65 67 67 64 59 57 56 55 47 49 60 50 32 25 18 15 4 2 1 1 6 1 5 32 86 171 182 161 162 142 154 175 175 171 163 116 138 196 190 189 174 163 140 123 149 180 225 254 245 244 254 253 222 211 201 193 195 188 159 172 218 191 217 179 178 203 202 163 86 246 246 34 54 84 89 111 114 95 79 67 145 128 114 124 136 138 134 141 150 141 132 144 144 148 146 55 63 103 155 237 232 12 176 244 218 209 213 221 196 209 213 214 215 216 206 194 211 210 182 200 181 39 119 64 57 73 85 90 89 81 72 66 58 55 68 85 103 86 71 74 80 68 49 41 55 87 106 89 73 71 108 162 213 186 179 150 154 155 143 130 116 105 108 109 89 85 83 67 74 74 78 73 99 111 131 136 
80 80 81 80 79 79 79 79 78 78 77 77 76 76 76 76 75 75 74 74 75 75 76 76 73 72 71 70 70 71 72 73 73 72 72 71 71 72 73 73 73 72 72 72 71 71 71 71 69 69 70 71 71 71 71 70 72 71 71 71 71 71 71 71 73 72 71 71 71 70 71 71 71 71 71 71 72 72 72 72 69 69 70 71 71 70 70 69 70 70 70 70 71 71 71 71 68 68 68 68 68 68 68 68 70 70 70 70 70 69 69 69 71 71 70 70 70 70 70 70 68 67 68 69 69 69 68 68 70 69 67 67 65 62 66 70 56 68 72 67 61 67 75 55 61 85 65 70 54 56 60 78 45 49 68 47 67 64 53 61 59 59 51 67 65 52 64 64 68 69 70 68 64 64 64 67 65 66 68 70 71 72 73 73 72 72 73 72 72 71 71 71 74 74 74 74 74 74 74 74 74 74 75 75 75 74 73 71 72 72 71 72 72 73 73 73 72 54 47 16 223 196 137 241 254 224 245 223 226 243 254 1 45 43 148 231 215 180 193 151 158 204 111 10 62 83 46 10 12 1 1 25 30 65 72 70 72 72 72 73 73 73 74 74 74 74 73 73 73 73 74 74 74 74 74 74 74 74 74 74 73 73 73 73 73 73 74 74 74 74 74 74 74 74 75 75 74 74 74 75 75 76 76 76 76 76 76 77 77 78 78 78 77 78 78 78 79 79 79 80 79 79 79 79 80 80 80 80 79 80 81 81 80 80 81 82 80 81 81 81 82 81 81 81 81 81 82 82 83 82 82 82 79 79 79 80 79 79 79 78 78 78 77 76 75 75 74 74 74 74 74 73 73 72 71 70 70 70 71 71 71 72 72 73 73 73 73 74 74 74 74 74 75 75 75 75 75 75 75 75 75 75 75 75 75 75 75 75 75 75 75 75 75 75 75 75 74 74 74 74 74 75 76 76 74 75 75 74 73 72 72 73 72 71 71 71 70 70 70 69 68 67 66 65 66 66 66 67 64 64 66 66 66 66 65 64 68 66 65 63 63 63 64 64 64 60 59 59 55 49 49 54 49 42 25 7 3 9 8 2 3 1 5 5 47 92 141 139 126 149 175 120 107 187 194 165 173 124 148 189 173 160 174 151 123 145 170 196 244 252 235 214 212 199 150 132 180 164 175 134 146 169 205 169 182 191 185 193 200 189 217 210 72 101 244 99 59 86 103 124 122 109 83 84 97 132 137 130 139 161 148 129 127 124 142 136 122 127 163 96 98 237 105 161 241 251 142 214 227 216 210 210 211 213 203 213 210 199 210 204 187 192 219 199 249 76 61 87 107 98 86 72 68 62 56 60 74 89 96 96 71 79 74 57 43 41 68 107 105 99 76 67 94 103 184 94 13 149 223 198 136 92 102 113 99 130 125 137 123 155 154 172 161 199 208 163 206 185 190 201 
79 80 81 80 77 77 77 78 77 77 76 76 75 75 74 74 74 74 74 72 72 72 72 72 71 71 70 70 70 70 71 71 72 72 71 70 70 71 72 71 71 71 70 70 70 70 71 71 67 68 69 70 69 69 69 68 70 70 70 70 70 70 70 70 71 70 69 69 69 70 71 72 70 70 70 70 70 70 70 70 68 69 70 70 70 69 69 68 69 69 70 70 69 69 69 69 69 69 69 69 69 69 69 69 71 71 71 70 70 70 70 70 71 70 70 69 69 69 69 68 67 68 68 69 69 69 67 68 69 73 65 65 72 62 58 76 69 60 70 63 67 51 57 62 80 76 58 55 59 57 62 63 66 61 54 49 64 63 58 72 69 67 69 58 60 71 65 68 63 62 63 65 66 66 68 70 69 70 71 73 73 73 73 73 72 72 72 72 72 72 72 72 73 73 74 74 74 74 75 75 74 74 75 75 75 74 73 72 72 72 71 72 71 72 73 73 62 103 167 108 239 125 152 252 235 242 231 235 235 248 248 7 1 54 223 187 203 234 214 190 112 165 183 1 72 56 1 2 4 16 31 16 25 67 75 67 72 71 72 72 72 73 73 73 74 74 73 73 73 73 74 74 73 73 73 73 73 73 73 73 73 73 73 73 73 73 72 72 74 74 74 74 74 74 73 73 74 74 74 75 75 76 76 76 77 77 77 77 77 77 77 77 79 79 79 79 78 78 78 78 79 79 79 79 80 80 80 80 79 80 81 81 80 80 81 82 81 81 81 81 82 81 81 81 82 82 82 83 82 82 81 80 79 79 79 80 79 79 79 78 78 78 77 76 76 75 74 74 75 75 74 73 73 72 71 70 69 69 70 70 70 71 71 72 72 72 73 74 74 74 74 74 75 75 75 75 75 75 75 75 75 75 75 75 75 75 75 75 75 75 75 75 75 75 75 75 73 73 73 73 73 74 75 75 74 75 75 74 73 73 73 73 72 71 71 71 70 70 70 69 68 67 67 66 66 66 66 66 66 66 65 65 65 65 65 65 68 67 65 65 64 63 63 64 62 61 58 54 51 47 40 34 12 20 7 1 6 2 1 2 22 72 124 148 159 153 132 107 117 180 204 207 183 208 167 164 148 193 188 167 168 145 146 121 161 203 248 254 254 223 190 167 166 148 112 144 139 142 179 177 163 178 199 184 150 198 196 219 211 184 197 222 60 7 243 200 35 81 90 111 94 83 84 64 102 147 148 129 121 147 139 124 136 141 133 127 135 146 148 131 59 206 105 160 250 214 43 160 220 202 217 208 222 205 217 214 207 200 202 194 227 227 145 7 69 183 74 125 79 62 78 66 62 71 88 99 91 75 73 81 73 59 42 55 93 111 97 83 81 82 78 57 91 60 10 154 142 156 141 106 106 202 127 197 222 212 228 227 142 188 214 171 164 164 129 83 120 104 101 116 
78 79 80 79 76 75 76 77 76 76 76 75 74 73 73 73 73 72 71 70 70 70 70 70 70 69 69 69 69 69 69 69 70 70 69 68 69 69 69 69 69 69 68 68 68 68 69 70 66 67 68 68 67 67 67 68 68 68 68 68 68 68 69 69 68 68 68 68 68 68 70 70 69 69 69 69 69 69 69 69 69 69 69 69 69 69 68 68 68 68 69 69 68 68 68 68 68 68 68 68 68 68 68 68 71 71 71 70 70 70 70 70 69 69 69 69 69 69 69 69 67 67 68 68 69 69 68 68 70 71 72 69 65 66 68 66 69 71 64 69 71 71 59 55 55 59 60 64 65 59 65 59 54 57 63 74 62 69 73 61 69 50 66 72 64 64 62 71 71 69 70 73 74 73 71 71 77 76 76 76 75 74 73 71 72 72 72 72 72 72 73 73 73 73 73 74 74 75 75 75 74 74 74 74 74 74 74 73 72 72 72 73 72 72 73 73 45 123 252 229 142 75 218 249 251 253 251 248 232 233 254 2 2 165 253 217 210 246 235 235 179 129 175 34 32 7 20 134 161 177 170 43 10 57 80 66 72 71 71 72 72 72 73 73 74 73 73 73 73 74 74 74 73 73 73 73 73 73 73 73 74 74 73 73 73 72 72 72 75 75 74 74 74 73 73 73 74 74 74 75 75 76 76 76 78 78 77 77 77 77 76 76 79 79 79 79 78 78 78 78 79 79 79 79 79 80 80 80 79 80 81 81 80 80 81 81 81 81 81 82 81 81 81 80 82 82 82 83 82 82 80 80 79 79 80 80 79 79 78 78 78 78 77 77 76 75 75 75 75 75 74 74 73 72 71 70 69 69 70 69 70 70 71 71 71 72 72 73 74 74 75 75 74 75 75 75 75 75 75 75 75 75 75 75 75 75 75 75 75 75 75 75 75 75 75 75 73 73 72 72 73 73 74 74 74 74 75 74 73 73 73 74 72 71 71 71 70 70 70 69 68 67 67 66 66 66 66 66 67 66 66 66 66 66 67 67 67 65 64 64 63 61 61 61 60 67 64 52 49 48 29 6 7 1 1 7 1 26 94 132 149 170 159 149 106 148 180 206 251 220 233 219 147 134 171 181 149 229 204 130 156 156 177 241 254 255 238 187 168 170 184 173 174 173 183 175 196 154 158 194 167 160 182 134 216 244 249 228 186 171 180 206 72 60 108 253 100 64 55 63 66 103 131 134 156 147 119 116 113 131 128 134 130 140 132 148 123 135 121 133 120 149 154 125 246 250 252 212 213 227 207 210 214 208 193 191 202 199 231 203 91 8 2 19 15 217 95 75 65 57 56 56 88 98 93 74 69 75 64 42 42 75 103 106 96 87 89 98 69 51 47 65 74 65 52 239 235 118 11 49 59 93 31 50 75 66 77 81 61 73 89 76 115 133 141 153 160 183 190 198 
77 79 80 79 76 74 76 77 76 76 75 74 73 73 72 73 70 70 69 69 68 68 69 69 68 68 68 67 67 67 67 67 67 67 66 66 65 66 66 66 67 67 66 66 65 66 67 68 66 66 67 66 65 65 66 67 66 66 66 67 67 67 67 67 66 66 67 67 68 68 67 67 67 67 67 67 67 67 67 67 69 69 68 68 68 68 68 68 68 68 67 67 67 67 67 67 67 67 67 67 67 67 67 67 68 68 69 69 70 70 70 70 68 68 69 69 69 68 68 68 67 67 67 67 68 68 69 69 71 69 73 71 64 69 73 64 63 70 71 60 70 58 79 57 60 68 58 75 61 61 68 61 59 52 61 75 59 61 67 73 70 75 72 76 65 61 78 70 72 69 68 70 71 70 69 72 79 78 76 76 75 74 72 70 73 73 73 72 72 72 72 72 73 73 73 74 74 75 75 75 74 74 74 74 74 74 74 73 74 74 72 73 72 72 73 73 71 45 63 232 195 122 251 151 194 194 156 248 248 254 230 0 28 230 234 223 246 207 219 175 218 240 233 43 2 127 213 155 159 188 184 58 11 61 59 74 72 71 71 71 72 72 73 73 73 73 73 73 73 74 74 75 73 73 73 73 73 73 73 73 73 73 73 73 73 72 72 72 74 74 74 74 74 73 73 73 74 74 74 75 75 76 76 76 77 77 77 77 77 77 77 77 78 78 78 78 79 79 79 79 79 79 79 79 79 79 80 80 79 80 80 80 80 80 80 81 81 81 82 82 81 81 80 80 81 82 82 82 82 81 81 81 80 80 80 80 79 78 78 77 78 78 77 77 76 76 75 75 76 75 75 74 73 72 71 70 69 69 70 70 70 70 71 71 72 72 72 73 73 74 74 75 74 74 75 76 76 76 75 75 75 75 75 75 75 75 75 75 75 75 75 75 75 75 75 75 74 73 73 73 73 73 74 74 73 74 74 74 73 72 73 73 72 71 71 71 70 70 70 69 68 67 68 67 67 67 67 66 65 65 66 67 68 68 67 67 66 63 62 63 62 59 59 61 62 62 58 53 49 40 19 1 1 5 42 100 147 180 186 146 114 113 131 149 127 205 253 242 159 94 200 202 156 161 164 157 129 131 141 143 191 251 254 247 212 186 174 160 163 172 188 181 175 171 163 154 171 184 160 155 177 204 237 83 178 201 192 192 153 122 172 207 137 191 103 229 171 53 84 125 134 147 137 156 139 136 119 126 124 148 136 122 109 106 109 143 108 114 125 126 134 139 112 97 231 249 175 62 148 246 213 206 207 204 186 225 217 214 56 4 5 24 32 62 0 106 160 28 64 93 93 98 82 73 71 72 62 55 75 104 120 106 95 89 82 73 60 46 62 73 97 66 65 65 87 35 21 1 30 129 162 166 173 168 190 176 180 196 207 197 199 206 194 188 183 184 
171 177 165 145 
77 79 80 78 76 75 75 77 76 76 75 74 73 73 72 71 69 69 69 69 68 68 69 68 67 67 66 66 65 65 66 66 65 65 64 64 63 64 64 64 64 65 63 62 63 64 66 67 65 66 66 65 64 64 65 67 65 65 65 66 66 66 66 66 65 65 66 67 67 67 67 66 67 67 67 67 67 67 67 67 70 69 68 67 67 67 68 68 67 67 67 67 67 67 67 67 66 66 66 66 66 66 66 66 67 67 68 68 69 69 69 70 67 68 69 69 69 68 67 67 66 66 66 66 67 68 69 70 68 69 66 68 71 69 67 71 63 36 40 73 63 75 63 62 71 58 75 74 66 71 65 68 62 73 73 56 65 77 63 67 61 71 64 66 76 69 67 74 75 72 71 73 74 74 75 79 76 74 73 73 74 74 72 71 73 73 73 73 72 72 72 72 73 73 73 74 74 75 75 75 75 74 74 73 73 74 75 74 73 73 74 74 74 73 73 73 69 68 43 66 114 249 245 249 185 135 170 254 253 253 146 36 123 244 218 232 176 175 183 40 87 249 159 3 141 150 117 142 187 143 160 109 3 72 67 67 70 71 71 71 72 72 72 73 73 73 73 73 73 74 74 75 73 73 73 73 73 73 73 73 72 72 72 72 73 73 73 73 73 73 73 73 74 74 74 74 74 74 74 75 75 76 76 76 76 76 77 77 77 77 78 78 77 77 78 78 79 79 80 80 78 79 79 79 79 79 79 79 79 80 80 80 80 80 80 81 82 82 82 82 81 81 80 79 79 81 82 82 82 82 82 82 81 80 80 80 79 78 77 77 78 78 77 77 76 76 75 75 76 75 75 74 73 72 71 70 70 70 71 70 71 71 72 72 73 73 72 72 73 73 74 74 73 74 75 76 76 76 75 74 75 75 75 75 75 75 75 75 75 75 75 75 75 75 75 75 75 74 74 74 74 74 74 74 73 73 74 73 72 72 72 73 72 71 71 71 70 70 69 68 68 68 68 68 67 67 67 66 63 63 66 68 69 68 67 65 66 63 62 63 63 60 59 61 67 49 43 53 50 28 10 7 22 158 189 162 164 144 131 153 165 189 206 234 254 183 149 207 176 159 113 154 149 149 129 120 131 208 249 245 227 233 204 166 160 161 184 185 171 172 196 194 176 187 138 96 150 185 191 173 156 229 176 179 185 187 192 203 193 171 166 182 198 164 173 186 228 133 147 150 128 139 152 129 134 136 140 158 126 119 110 117 112 103 93 112 117 95 125 119 137 130 148 145 162 62 1 139 222 223 212 200 211 216 230 139 41 176 24 36 47 39 40 60 46 7 214 98 110 92 75 74 84 61 47 62 92 110 108 100 93 79 74 69 56 59 80 95 81 67 59 78 71 66 29 32 51 93 102 150 182 171 175 187 185 194 180 176 176 177 162 158 147 132 
142 150 169 143 152 166 
76 78 77 78 78 77 76 75 75 74 72 71 70 70 70 70 69 67 67 69 67 65 63 63 63 58 70 70 57 61 67 65 65 64 64 64 65 64 63 63 63 63 63 63 63 63 63 63 64 64 65 65 65 65 65 65 64 64 64 64 65 65 65 66 64 64 65 65 65 65 65 64 66 66 67 68 68 67 66 66 67 66 66 66 66 65 65 65 67 67 67 68 68 68 68 68 66 67 68 68 66 66 67 68 67 67 67 67 66 66 66 66 68 68 68 68 68 68 68 68 66 66 66 67 67 68 69 70 68 68 68 71 72 72 68 64 45 208 138 47 72 67 65 68 68 68 67 67 67 67 68 68 69 70 71 72 72 71 70 69 69 69 69 70 70 70 70 70 71 71 71 71 72 73 74 75 74 74 73 72 72 71 72 72 72 72 72 72 73 74 74 75 74 74 74 74 74 74 75 75 73 73 74 74 72 72 72 74 73 73 73 75 74 74 74 73 76 66 72 20 107 254 229 246 253 254 207 165 171 250 69 129 217 253 233 240 161 200 157 68 219 197 7 108 180 43 89 213 235 194 138 150 12 73 67 73 72 72 72 72 73 73 73 73 74 74 74 74 74 74 74 75 75 75 74 74 74 74 73 73 74 74 74 74 74 74 74 74 73 73 73 73 73 74 74 75 74 74 74 74 75 75 75 75 75 76 76 76 77 77 76 76 77 77 77 77 78 78 78 78 78 78 79 80 81 82 83 84 82 82 82 81 81 81 81 81 81 81 81 81 82 81 80 81 80 80 80 82 81 82 83 83 81 79 79 80 81 81 80 79 78 78 78 79 78 78 78 77 72 73 73 73 72 72 71 71 71 71 71 71 71 71 71 71 72 72 72 73 73 74 74 75 76 76 76 76 76 76 76 75 75 75 76 76 76 76 75 75 75 75 75 74 74 74 74 74 76 75 75 75 76 76 75 74 75 74 74 74 75 75 72 72 71 71 70 69 67 67 68 68 69 69 67 65 65 68 68 66 65 66 67 68 68 66 65 64 65 68 67 61 60 62 63 60 65 45 49 55 37 1 21 1 131 220 165 178 191 135 204 221 224 207 183 188 217 183 158 158 158 152 152 128 98 115 121 216 254 242 234 225 199 169 183 174 186 182 172 183 188 178 179 183 162 179 161 190 227 218 187 200 186 168 194 137 182 195 192 197 197 194 151 175 171 156 165 156 229 169 112 115 128 125 155 138 135 117 133 124 112 114 106 116 126 142 99 122 127 123 150 138 142 152 153 143 151 188 174 238 108 111 236 228 209 138 44 25 6 200 98 27 48 49 44 37 84 1 138 188 49 87 74 51 40 66 89 113 104 92 78 87 76 61 45 70 101 93 73 61 74 83 69 41 37 55 73 80 72 53 110 127 142 154 152 152 166 157 159 161 156 162 166 155 166 
173 173 181 192 180 169 179 
76 77 77 77 77 76 75 73 74 74 72 70 69 68 68 69 71 67 65 63 63 61 61 64 66 64 55 56 59 61 64 61 63 63 64 64 64 63 63 62 63 63 63 63 63 63 63 63 63 63 64 64 65 65 64 64 63 63 64 64 64 65 65 65 63 63 64 65 65 65 65 65 65 65 66 66 66 66 65 65 67 67 66 66 66 66 66 66 66 66 66 67 67 67 67 67 66 66 67 67 66 66 66 67 66 66 66 66 66 67 67 67 67 67 67 67 67 67 67 67 67 67 67 67 67 68 68 69 68 67 67 69 69 68 63 60 108 249 143 30 77 82 59 67 68 67 67 66 68 68 69 69 69 70 70 71 72 71 71 71 70 70 71 71 70 70 71 71 71 71 72 72 73 73 74 75 72 72 72 71 71 71 72 71 72 72 72 72 72 73 73 74 73 73 73 74 74 74 74 74 73 74 74 74 72 72 73 75 75 73 74 74 74 73 73 74 73 74 73 33 228 202 244 227 222 254 248 209 234 211 68 205 246 181 217 240 252 242 93 140 223 37 24 167 132 46 41 104 222 140 130 155 22 70 77 65 72 72 72 72 73 73 73 73 73 73 74 74 74 74 74 74 75 74 74 74 74 74 73 73 74 74 74 74 74 74 74 74 73 73 73 73 73 74 74 75 74 74 74 74 75 75 75 75 75 76 77 77 77 76 76 76 77 77 77 77 78 78 78 78 78 78 79 79 80 81 82 82 81 81 81 81 81 82 82 83 82 82 81 81 82 81 80 79 81 81 80 80 81 81 82 82 81 80 80 80 82 81 80 79 78 78 78 78 79 78 77 77 73 73 73 72 72 72 71 71 71 71 71 71 71 71 71 71 72 72 73 73 73 74 74 74 76 76 76 76 76 76 76 76 75 75 76 76 76 76 75 75 75 75 75 75 75 74 74 74 76 75 74 74 75 75 74 74 75 74 74 74 75 74 72 72 71 70 69 68 68 68 67 67 66 66 65 63 64 66 66 64 67 67 67 67 67 67 67 67 61 64 63 61 62 64 63 58 48 54 45 27 37 9 1 40 206 195 193 132 193 222 176 177 132 167 183 183 203 195 181 167 172 119 90 90 203 253 252 254 220 199 174 155 148 170 188 191 171 184 186 184 166 147 163 187 216 222 228 215 175 141 202 179 190 167 189 165 183 193 189 193 192 210 150 164 190 177 140 178 191 217 131 128 132 133 138 115 102 99 98 104 124 113 126 103 102 113 126 142 159 181 164 157 135 134 117 157 136 170 251 211 53 219 214 106 49 24 43 62 23 135 124 28 68 41 39 31 40 30 17 245 47 36 52 62 92 99 91 84 70 69 64 70 68 90 108 98 70 69 77 54 63 51 53 75 83 70 75 101 93 25 39 123 135 150 159 151 159 167 168 167 172 179 175 170 173 179 
170 162 170 174 164 156 
75 75 75 75 74 73 72 71 73 72 70 68 67 66 65 66 62 62 64 65 65 63 64 66 54 66 58 64 71 63 60 58 60 61 62 62 62 62 62 62 62 62 62 62 62 62 62 62 62 62 63 63 63 63 63 63 63 63 63 63 64 64 65 65 62 63 63 64 65 65 65 65 63 63 64 64 64 64 63 63 67 67 67 66 66 66 66 66 65 65 66 66 66 66 66 66 66 65 65 65 66 66 66 65 66 66 66 66 66 67 67 67 68 68 67 67 67 67 67 67 68 68 67 67 67 67 67 68 70 69 69 70 70 69 65 62 67 55 44 72 72 59 77 71 68 67 67 67 67 67 69 69 69 70 69 70 71 71 72 72 72 72 72 72 72 72 73 73 71 72 72 73 74 74 74 74 71 71 71 71 72 72 71 71 72 72 71 71 71 72 72 73 73 73 73 73 73 74 74 74 73 74 74 74 73 73 74 75 75 74 74 73 72 73 74 75 77 70 37 107 255 197 252 252 248 241 204 173 254 91 131 95 161 109 111 159 230 195 72 208 95 5 122 121 103 23 14 51 114 123 153 133 21 73 70 71 72 72 72 72 72 73 73 73 73 73 73 74 74 74 74 74 74 74 74 74 74 74 73 73 74 74 74 74 74 74 74 74 73 73 73 73 73 74 74 75 75 75 75 75 74 74 74 74 75 76 77 77 76 76 76 76 77 77 77 77 77 78 78 78 79 79 79 79 79 79 80 81 80 80 80 80 81 82 83 83 81 81 81 80 80 79 79 79 80 80 79 79 79 80 81 82 82 81 81 82 82 82 81 80 78 78 77 77 77 77 77 77 74 74 73 72 71 71 72 72 71 71 71 71 72 72 72 72 72 73 73 73 74 74 74 74 76 76 76 76 76 76 76 76 75 75 76 76 76 76 75 75 76 76 76 75 75 75 75 75 76 75 73 73 73 74 74 74 74 73 73 74 74 74 72 72 71 69 68 67 67 67 67 67 65 65 64 62 62 65 65 64 66 65 65 64 64 65 65 65 64 63 61 61 63 65 62 57 51 47 40 24 11 1 5 184 191 195 147 54 127 183 147 160 169 186 190 173 174 174 173 167 173 174 231 252 253 221 195 147 125 158 163 166 153 171 180 178 180 171 149 154 183 212 234 238 208 176 169 147 167 181 214 172 174 161 186 201 193 197 186 186 173 207 233 222 199 146 163 163 65 239 198 105 120 121 125 92 120 102 83 76 106 98 128 115 157 149 162 140 141 168 132 128 127 132 140 139 147 129 161 249 146 121 22 36 57 66 52 68 48 98 160 28 55 42 40 22 24 64 0 144 166 65 111 107 83 90 78 65 61 77 84 91 104 73 52 73 81 55 42 45 67 89 91 75 79 94 90 75 27 31 34 114 105 138 164 153 151 168 159 145 152 157 153 154 152 145 148 152 
142 134 145 164 
74 73 73 71 71 70 69 69 69 69 68 66 65 65 64 63 65 65 64 64 63 59 57 58 64 65 60 55 56 55 54 59 58 59 60 60 61 61 61 61 62 62 62 62 62 62 62 62 61 61 62 62 62 62 62 62 62 62 62 63 63 63 64 64 62 63 63 64 64 64 63 63 63 63 63 63 63 63 63 63 67 66 66 66 66 66 66 66 65 65 66 66 66 66 66 66 67 65 64 65 66 67 66 65 65 65 65 66 66 67 67 67 68 68 67 67 67 67 67 67 67 67 67 67 67 67 67 68 69 69 69 71 72 72 71 69 61 65 62 69 74 70 67 62 67 67 67 67 67 67 69 69 70 70 69 69 70 71 72 73 72 72 72 72 73 73 73 73 72 72 73 74 74 74 74 73 71 70 70 71 72 72 72 72 73 72 72 72 72 72 72 72 72 72 73 73 73 73 73 73 73 74 74 74 73 73 74 75 76 74 74 73 73 73 73 73 65 74 20 215 232 246 238 240 239 242 254 207 182 71 172 6 137 230 214 122 164 111 136 134 4 52 219 196 162 213 62 181 167 75 144 99 33 75 69 74 73 72 72 72 72 72 73 73 73 73 73 73 74 74 74 74 74 74 74 74 74 74 73 73 74 74 74 74 74 74 74 74 73 73 73 73 73 74 74 75 75 75 75 75 74 74 74 74 75 76 77 77 76 76 76 76 77 77 77 77 77 77 78 78 78 78 78 78 79 79 80 80 81 80 80 80 81 82 82 83 80 80 79 78 78 77 77 77 80 80 79 78 78 79 80 81 83 81 82 82 83 83 82 80 79 78 77 76 77 77 77 77 76 75 73 72 71 71 72 73 71 71 71 72 72 72 73 73 73 73 73 74 74 74 75 75 76 76 76 76 76 76 76 75 75 75 75 75 75 75 75 75 76 76 76 76 76 75 75 75 76 74 72 72 72 73 74 74 74 73 73 73 74 73 71 71 71 69 68 67 67 66 66 66 65 66 65 64 64 67 67 66 63 63 63 63 64 64 63 64 69 63 59 60 62 62 58 54 49 40 32 17 6 2 107 220 177 172 72 122 195 195 196 185 192 171 165 163 160 165 191 225 247 254 254 211 175 153 135 128 141 184 178 181 166 164 185 183 153 193 216 223 226 217 192 159 165 185 182 160 162 167 156 168 164 176 192 201 176 185 202 228 238 235 137 129 148 154 157 108 93 155 250 59 83 85 85 78 78 66 74 63 106 162 163 160 137 132 132 120 125 152 152 149 155 138 148 149 160 146 132 176 61 3 78 81 42 70 59 51 61 56 115 46 52 50 36 45 43 40 43 2 253 85 89 83 86 74 53 53 78 99 88 71 60 89 68 35 37 62 86 95 93 76 64 66 62 46 46 63 87 108 56 76 90 124 133 142 144 155 148 136 139 143 144 148 147 139 141 144 143 157 167 
158 
71 71 70 70 68 67 66 66 66 65 65 64 64 63 62 62 68 65 62 61 59 57 58 62 59 50 59 55 53 60 54 56 56 56 58 59 59 60 60 59 60 61 61 61 61 61 62 62 60 60 61 61 62 61 61 61 61 61 62 62 62 63 63 63 64 64 64 64 64 63 63 63 64 64 64 64 64 64 64 63 66 66 66 66 66 66 66 66 66 66 66 66 66 66 67 67 67 66 65 66 67 68 67 65 65 65 65 66 66 67 67 67 68 68 68 68 67 67 67 67 66 66 66 66 67 67 68 68 65 66 67 68 70 70 70 70 78 69 70 70 66 66 70 77 68 67 67 67 67 68 68 69 71 71 70 70 71 71 71 72 71 71 72 72 72 72 72 72 72 73 73 74 74 74 73 72 71 72 72 72 72 73 73 73 74 73 73 72 72 73 73 73 72 72 73 73 73 73 73 73 73 74 74 74 73 73 73 74 74 75 75 76 75 74 72 71 73 52 82 254 198 248 229 224 225 253 220 180 120 119 110 45 9 124 251 252 198 80 147 85 6 162 239 221 204 156 146 248 233 114 156 51 63 70 62 74 71 71 72 72 72 72 72 72 73 73 73 73 74 74 74 74 73 73 73 73 73 73 74 74 74 74 74 74 74 74 74 74 73 73 73 73 73 74 74 75 75 75 75 75 74 74 74 74 74 76 76 77 76 76 76 75 76 76 77 77 77 77 77 77 77 77 77 78 79 79 79 80 81 81 81 80 80 81 81 81 79 79 78 76 75 75 75 75 80 79 79 79 79 79 80 80 83 81 82 82 83 83 81 80 79 79 78 76 77 77 77 76 76 75 74 72 72 72 72 73 71 71 72 72 72 73 73 73 73 73 74 74 74 75 75 75 75 75 75 75 75 75 75 75 75 75 75 75 75 75 75 75 76 76 76 76 76 75 75 75 76 74 72 72 72 73 74 73 73 73 72 73 72 71 71 70 70 68 67 66 66 66 66 66 65 66 66 65 65 67 68 67 63 64 65 66 66 66 65 64 65 60 59 63 64 59 53 49 39 41 34 7 1 18 193 202 200 114 71 156 181 177 189 168 181 161 154 162 198 249 254 249 253 210 168 124 152 162 169 203 179 181 179 174 182 181 196 208 238 241 214 184 172 172 174 164 150 171 152 179 174 177 184 189 184 188 183 205 236 251 224 198 149 211 152 149 147 140 135 125 163 147 215 187 43 81 99 80 73 74 78 63 89 190 153 128 126 120 118 116 122 141 164 168 159 180 151 137 142 144 151 164 166 12 46 61 69 43 51 53 56 45 59 59 56 64 40 47 46 32 66 4 157 148 47 63 50 69 86 85 78 64 62 68 60 34 38 79 96 91 87 69 78 76 52 34 59 95 102 85 100 99 45 35 110 167 157 160 142 146 158 166 161 165 173 173 173 163 166 169 167 
179 184 165 
70 70 69 68 65 65 65 65 63 63 63 63 63 62 62 62 56 55 56 59 60 58 57 58 52 55 61 57 55 57 55 63 55 56 57 58 58 59 58 58 60 60 60 61 61 61 62 62 60 60 60 61 61 61 61 61 60 60 61 61 62 62 62 62 63 64 64 64 63 63 62 62 64 64 64 63 63 64 64 64 65 65 65 65 65 65 66 66 66 66 66 66 66 66 67 67 67 66 66 66 67 67 67 66 65 65 65 66 66 66 66 66 68 68 68 68 67 67 67 67 66 66 66 66 66 67 68 68 66 66 67 67 67 68 68 68 61 65 72 68 69 75 72 66 68 68 67 67 67 68 68 69 71 71 71 71 71 71 71 71 71 71 71 71 71 72 72 72 72 73 73 73 73 72 72 72 72 72 72 72 73 73 73 73 73 73 73 73 73 73 74 74 73 73 73 73 73 74 74 74 73 74 74 74 72 72 72 73 73 74 76 77 75 74 73 71 69 21 211 176 110 211 219 196 171 228 151 206 42 176 47 52 47 2 111 248 164 91 138 103 65 250 249 245 221 117 121 217 49 172 138 31 75 65 61 73 70 71 71 72 72 72 72 72 73 73 73 73 73 74 74 74 73 73 73 73 73 73 74 74 74 74 74 74 74 74 74 74 73 73 73 73 73 74 74 75 75 75 75 75 74 74 74 74 74 76 76 77 76 76 75 75 76 76 76 77 77 77 77 77 77 77 78 78 79 79 80 80 82 81 81 80 80 80 81 80 79 78 77 75 74 73 74 74 78 79 79 79 80 80 80 80 83 81 82 82 83 83 81 79 80 79 78 78 77 77 77 76 76 76 74 73 72 72 72 73 72 72 72 72 73 73 73 73 74 74 74 74 75 75 75 76 75 75 75 75 75 75 75 75 75 75 74 74 74 74 75 75 76 76 76 75 75 75 75 75 75 74 73 72 73 73 73 73 74 73 72 72 71 70 70 68 68 67 66 65 66 66 66 66 64 65 65 64 64 66 67 64 62 63 65 66 66 65 64 63 60 58 62 69 69 59 51 50 56 31 17 1 3 131 204 202 159 65 122 166 181 180 164 170 163 176 220 252 248 235 204 200 142 127 161 193 183 174 158 193 198 153 172 177 220 243 221 225 189 172 155 172 199 191 162 134 157 160 166 193 194 187 183 187 205 241 251 239 221 196 157 143 143 152 163 162 143 142 152 146 142 138 167 246 79 60 81 74 88 91 78 82 79 157 152 142 142 124 142 136 135 147 155 168 145 147 152 156 146 147 146 152 198 65 43 45 26 66 49 41 50 70 63 66 61 67 62 51 47 40 53 23 10 224 57 81 104 85 70 67 77 63 46 35 67 89 99 92 75 67 71 62 55 60 79 106 105 79 75 95 101 73 53 19 68 147 150 156 153 149 165 173 162 162 172 170 170 158 166 175 162 
154 158 157 
69 68 67 65 65 65 65 64 62 63 63 63 62 61 60 59 68 59 49 42 34 24 17 13 7 31 15 32 64 54 49 49 56 56 57 58 58 58 58 58 59 59 59 60 60 60 61 61 59 60 60 61 61 61 61 61 60 60 60 61 61 61 62 62 61 61 62 62 62 62 62 62 63 62 62 61 61 62 62 64 64 64 64 64 64 65 65 65 65 65 65 65 65 66 66 66 65 66 66 66 65 65 66 66 65 65 65 66 66 66 66 66 67 67 67 67 67 67 67 67 67 67 66 66 66 66 67 67 68 68 68 67 67 67 68 69 75 68 69 71 70 68 66 65 68 68 67 67 68 68 69 69 69 69 70 71 72 71 71 71 71 71 71 71 72 72 72 72 73 73 72 72 71 71 71 71 71 71 71 72 72 72 72 72 72 72 72 72 72 73 73 74 73 73 73 74 74 74 74 74 73 74 74 73 71 71 71 71 74 74 75 75 74 74 74 72 67 54 244 31 85 206 179 107 217 117 215 139 38 245 167 71 76 14 4 20 50 110 123 38 201 238 249 149 126 100 229 164 7 115 55 61 67 64 76 64 70 71 71 71 72 72 72 72 73 73 73 73 73 73 74 74 72 73 73 73 73 73 74 74 74 74 74 74 74 74 74 74 73 73 73 73 73 74 74 75 74 74 74 74 75 75 75 75 74 74 75 75 76 76 75 75 76 76 76 76 77 77 77 77 78 78 78 79 79 79 79 79 80 79 80 80 80 81 81 80 80 79 77 75 74 74 74 74 77 78 80 81 82 82 80 80 82 82 81 82 81 81 80 79 80 80 80 79 78 77 77 76 76 76 75 74 73 73 72 72 73 73 73 73 73 73 73 73 74 74 74 75 75 75 76 76 75 75 75 75 75 75 75 75 75 75 74 74 74 74 75 75 75 75 75 75 75 74 74 74 75 74 73 73 74 74 74 73 74 73 72 72 70 69 69 67 66 66 65 65 66 66 66 66 64 65 64 63 65 66 66 62 63 63 63 63 64 64 63 62 63 60 63 68 64 53 50 54 26 26 34 1 50 215 191 189 94 90 171 173 167 142 159 224 238 251 252 210 173 177 139 114 146 186 180 180 152 167 141 162 220 215 250 238 212 196 169 174 180 182 176 179 176 164 164 167 170 164 182 182 198 217 218 251 229 206 178 172 173 182 152 140 167 167 168 189 157 163 132 130 154 185 67 188 176 64 77 87 88 95 101 112 94 121 164 173 147 130 162 155 148 148 139 142 132 150 154 148 144 141 162 154 173 178 5 38 74 61 48 54 48 62 69 74 77 61 67 59 42 0 3 47 68 241 127 61 78 76 72 55 51 46 74 103 93 82 69 84 83 42 37 73 105 112 98 76 74 78 66 47 38 41 89 67 20 71 81 123 143 147 154 153 143 141 142 143 146 149 151 143 139 150 150 
132 
68 68 66 65 65 64 65 65 63 63 63 62 61 60 58 57 52 46 46 59 83 110 134 148 184 162 31 3 51 47 57 58 55 56 57 57 58 58 57 57 58 58 58 59 59 60 60 60 60 60 60 61 61 61 61 61 59 60 60 60 61 61 61 62 59 60 61 62 62 63 63 63 62 62 61 61 61 61 62 63 63 63 63 64 64 64 64 65 64 64 64 64 64 65 65 65 64 65 66 66 64 64 65 66 66 66 66 66 65 65 65 65 66 66 66 66 66 66 66 66 68 68 67 66 66 66 66 66 66 66 66 66 66 67 68 69 67 71 65 66 71 67 67 75 68 68 68 67 68 68 69 69 67 68 70 71 72 72 71 71 71 72 72 72 72 72 72 72 73 72 71 71 70 70 71 71 71 71 71 71 71 71 71 71 71 71 71 71 72 72 73 74 74 74 74 74 74 74 75 75 73 74 74 73 71 70 70 71 75 74 73 73 73 74 75 74 29 132 246 7 134 101 121 193 253 51 232 7 132 252 250 213 137 181 124 38 72 141 71 53 252 189 53 129 238 215 245 227 248 100 46 74 69 70 67 67 70 71 71 71 72 72 72 72 72 73 73 73 73 73 73 73 72 72 73 73 73 73 74 74 74 74 74 74 74 74 74 74 73 73 73 73 73 74 74 75 74 74 74 74 75 75 75 75 74 74 75 75 76 75 75 75 76 76 76 76 77 77 77 77 80 80 79 79 79 79 79 79 79 79 80 80 80 81 82 81 82 80 78 76 75 74 74 75 77 78 80 82 83 83 81 80 82 81 81 82 81 81 80 79 80 80 80 80 79 78 77 77 76 76 75 75 74 73 72 71 73 73 73 73 73 73 73 73 74 74 74 75 75 76 76 76 75 75 75 75 75 75 75 75 75 75 74 74 74 74 75 75 75 75 75 74 74 74 74 74 75 74 74 74 75 75 74 73 75 74 73 72 70 69 68 66 66 65 65 64 65 66 66 66 65 66 64 63 65 67 66 62 67 66 64 64 64 65 65 65 67 61 59 58 51 42 45 54 40 13 1 6 148 198 190 144 75 148 193 156 164 220 253 252 246 211 197 197 187 184 168 202 186 168 169 181 167 180 230 243 242 223 182 174 156 171 192 180 180 194 185 172 164 162 172 175 190 196 204 235 237 242 226 197 177 155 159 181 167 182 163 169 184 169 163 159 151 144 159 137 161 200 52 70 236 116 112 99 88 95 119 88 72 93 157 156 148 132 143 136 132 134 148 147 144 142 165 150 169 165 168 169 162 193 105 6 8 27 52 30 38 57 78 60 71 72 55 2 21 99 180 242 186 119 173 43 58 47 48 59 92 92 82 67 70 73 65 54 59 91 118 105 90 80 79 85 68 38 47 85 84 76 80 68 63 191 145 103 115 138 144 143 148 143 135 137 144 151 162 159 
143 141 154 165 
68 67 64 63 63 63 61 61 61 61 59 58 63 58 56 58 58 34 96 189 201 213 202 192 192 201 176 14 34 52 56 55 54 54 55 56 57 58 59 59 58 58 59 60 60 60 59 58 61 60 60 60 60 60 60 61 59 59 59 60 60 61 61 61 60 60 60 61 61 62 62 62 62 62 62 62 62 62 63 64 64 64 63 63 63 63 64 64 65 65 65 65 65 65 66 66 65 65 65 65 65 65 65 66 65 65 64 64 65 65 66 66 65 65 66 67 68 68 68 68 68 67 67 66 66 66 66 66 67 67 67 67 66 66 66 66 68 68 68 68 68 68 68 69 69 69 69 69 70 70 70 70 70 70 71 71 72 72 71 71 74 72 70 71 73 74 72 70 71 71 70 70 70 70 71 71 72 72 72 72 72 72 72 72 73 73 73 73 73 73 74 74 73 74 74 74 74 74 73 72 75 74 73 72 71 70 70 71 70 74 75 72 72 76 74 70 21 231 203 27 192 71 36 149 158 125 92 7 249 187 242 252 252 220 92 0 55 97 28 195 253 156 36 244 246 237 239 251 199 24 64 77 67 65 72 72 73 73 73 73 73 73 73 73 73 73 73 73 73 73 73 73 72 72 73 73 73 73 74 74 74 74 73 73 73 73 72 72 73 73 73 73 74 74 74 74 74 74 74 74 74 74 74 74 76 75 75 75 75 75 75 76 76 75 74 74 76 77 76 75 77 76 77 79 80 78 78 79 78 79 80 80 82 82 82 81 77 79 80 77 72 70 72 75 78 76 79 81 80 80 81 78 83 83 82 82 82 82 82 82 81 81 81 80 79 79 79 79 76 75 75 75 74 74 73 73 73 73 73 74 74 75 75 75 75 75 76 76 76 76 76 77 77 77 76 75 75 75 76 76 75 75 75 75 75 75 75 75 75 75 75 75 74 74 74 74 75 75 75 75 74 74 74 74 74 74 72 71 70 68 67 66 67 66 66 66 66 66 66 65 65 65 64 65 65 64 64 64 63 62 61 62 63 63 61 58 57 59 57 53 53 39 49 37 44 68 7 80 207 201 179 85 84 160 196 242 254 251 207 196 129 38 178 223 209 165 187 174 162 192 217 234 252 248 212 180 186 188 169 179 192 194 177 181 173 203 195 178 173 185 199 231 237 231 250 214 188 175 182 189 177 164 176 191 202 197 168 170 169 169 158 179 174 148 156 141 127 212 113 41 173 162 60 83 92 101 87 120 124 120 139 163 141 147 160 149 169 158 157 143 175 166 149 144 166 161 165 159 152 174 212 203 2 8 42 131 41 73 74 43 30 58 120 193 231 211 111 23 24 3 156 59 49 86 94 86 65 53 71 65 65 60 77 108 114 93 82 89 70 74 54 45 68 83 84 93 75 88 92 116 135 249 251 250 122 130 134 147 160 147 164 165 172 170 
175 166 169 183 179 183 
66 64 63 63 63 63 61 60 64 59 60 56 51 61 59 65 39 84 207 192 174 181 204 183 142 193 169 3 30 66 58 46 56 56 56 56 56 57 57 57 57 58 59 59 60 60 59 59 60 60 60 59 59 60 60 60 59 59 59 60 60 61 61 61 60 60 60 61 61 62 62 62 62 61 61 61 61 62 62 63 63 63 63 63 63 64 64 65 64 64 64 64 64 64 64 64 64 64 65 65 65 65 65 65 65 65 65 64 64 65 65 66 66 66 67 67 68 68 67 67 68 67 67 66 66 66 66 66 67 67 67 67 66 66 66 66 67 67 68 68 68 68 68 68 69 69 69 69 70 70 70 70 70 71 71 71 71 71 71 71 73 71 70 71 73 73 72 70 71 71 70 70 70 70 71 71 72 72 72 72 72 72 72 72 72 72 72 72 72 73 73 73 74 74 74 74 74 73 73 73 73 73 73 72 71 71 71 73 73 75 74 72 73 75 71 63 63 250 193 81 118 88 26 169 253 242 19 178 242 233 214 222 210 254 208 66 45 46 124 241 218 247 251 250 243 245 253 252 31 42 67 66 77 75 73 67 72 72 72 72 72 72 72 72 73 73 73 73 73 73 73 73 73 73 73 73 73 73 73 73 72 73 73 73 73 73 73 74 73 73 73 73 74 74 74 74 74 74 74 74 74 74 74 74 75 75 75 74 74 75 75 75 76 75 74 74 76 77 76 76 77 76 77 79 79 78 78 79 80 79 79 79 80 81 82 82 79 79 80 79 77 76 76 76 76 76 84 89 82 80 84 87 81 81 81 81 81 81 81 81 81 81 80 80 79 79 79 79 76 76 76 75 75 74 74 74 74 74 74 73 73 72 72 72 75 75 76 76 76 77 77 77 77 77 76 76 76 76 76 76 75 75 75 75 75 75 75 75 75 75 75 75 74 74 74 74 74 74 74 74 74 74 73 73 74 74 73 72 72 71 70 68 66 66 66 66 66 66 66 65 64 65 64 64 64 64 64 63 61 62 61 62 63 62 60 58 62 57 55 49 33 44 53 41 10 46 37 195 190 176 127 109 239 232 250 244 156 144 160 189 75 12 96 210 174 163 181 213 247 251 246 221 189 173 173 177 171 197 179 199 209 171 173 176 190 185 198 205 213 217 252 218 194 163 179 133 102 161 129 165 177 161 173 186 165 167 178 190 175 198 177 188 152 206 178 127 139 148 205 49 85 237 42 72 120 140 124 109 157 130 80 150 159 171 166 148 132 123 103 87 141 168 131 146 138 149 159 165 161 148 146 252 78 0 46 164 114 84 126 187 231 226 213 127 40 16 18 21 66 31 46 165 88 79 45 69 73 51 55 67 94 109 106 82 71 75 66 45 41 73 96 99 88 73 85 117 91 55 29 68 40 56 176 175 129 142 152 151 169 183 168 181 
175 181 182 168 164 172 172 170 
63 62 62 61 63 62 60 59 55 54 62 73 52 64 55 54 32 102 211 180 124 167 196 186 161 195 121 20 49 54 42 64 57 57 56 56 56 56 57 57 58 58 59 60 59 60 59 59 60 60 60 59 59 60 60 60 59 59 59 60 60 60 61 61 60 60 60 61 61 61 62 62 61 61 61 60 61 61 62 62 62 62 62 62 63 64 64 65 64 64 64 63 63 63 63 63 64 64 64 65 65 65 65 65 66 65 65 64 64 64 65 65 66 66 67 67 67 67 66 66 67 67 66 66 66 66 66 66 67 67 67 67 66 66 66 66 67 67 67 68 68 68 68 68 69 69 69 69 69 70 70 70 70 71 71 71 71 71 70 70 72 70 69 70 72 72 71 70 70 70 70 71 71 70 70 70 71 71 71 71 71 71 71 71 71 71 71 71 72 72 72 72 74 74 73 73 73 73 73 73 72 72 72 72 71 72 72 74 72 73 73 72 75 75 69 61 100 252 235 93 66 113 33 165 248 164 65 251 98 104 232 251 220 244 249 245 20 46 237 247 222 212 198 237 251 243 255 101 24 77 71 71 64 69 78 70 72 72 72 72 72 72 72 72 72 72 72 72 72 72 72 72 73 73 73 73 73 73 73 73 71 72 72 73 73 74 74 75 73 73 73 73 74 74 74 74 74 74 74 74 74 74 74 74 75 75 75 74 74 75 75 75 76 75 74 75 76 76 76 76 76 75 76 78 79 77 77 79 81 80 79 78 78 80 81 83 81 80 79 80 81 80 78 76 83 72 71 77 77 77 78 78 80 80 79 79 79 79 79 79 81 80 80 80 79 78 78 78 77 77 76 76 76 75 75 75 75 74 74 74 73 73 73 72 75 75 76 76 76 77 77 77 76 76 76 76 76 76 75 75 75 75 75 75 75 75 75 75 75 75 75 75 74 74 74 74 74 74 74 73 73 73 73 73 72 72 71 71 72 71 69 69 66 66 66 65 66 66 65 65 63 64 64 64 64 64 64 63 63 63 63 64 64 63 61 59 62 59 51 55 44 49 28 14 23 34 128 209 217 142 66 88 205 219 197 124 124 172 171 176 172 97 172 189 217 248 239 237 217 194 181 181 181 179 178 174 186 172 186 172 181 198 198 184 199 216 242 244 204 165 151 171 201 209 184 127 35 194 156 149 163 195 175 151 173 160 180 174 180 187 172 163 141 162 152 165 155 103 217 106 40 182 166 94 133 94 111 104 135 133 104 124 171 147 118 106 93 95 105 124 120 163 158 172 176 164 160 152 109 97 74 172 242 102 108 153 204 183 228 183 102 40 37 36 49 60 51 23 38 94 0 112 59 73 69 49 50 74 95 98 85 71 69 75 63 46 58 88 113 95 77 73 75 69 63 61 50 58 81 83 57 33 91 96 98 136 152 155 161 162 131 154 
150 149 152 162 153 133 134 143 
60 61 61 61 61 61 59 58 65 59 49 81 45 47 58 60 41 69 233 200 183 182 196 186 201 180 60 37 52 54 52 53 55 55 55 56 56 57 58 58 57 58 58 59 59 59 60 60 60 60 59 59 59 59 60 60 59 59 59 59 60 60 60 60 60 60 60 60 61 61 61 61 60 60 60 60 60 61 61 61 63 62 62 62 62 63 64 64 64 64 63 63 63 63 63 63 64 64 64 64 65 65 65 65 66 65 65 64 64 64 64 64 65 66 66 67 67 67 66 66 67 66 66 66 66 66 66 66 67 67 67 67 66 66 66 66 67 67 67 67 68 68 68 68 69 69 69 69 69 69 70 70 70 70 71 71 71 70 70 69 70 70 69 69 71 71 71 70 69 70 70 71 71 70 70 69 70 70 70 70 70 70 70 70 71 71 71 72 72 72 72 72 74 74 73 72 72 72 73 73 73 72 72 72 71 72 72 73 70 72 72 72 75 76 72 68 49 48 71 146 57 26 124 253 207 15 202 198 128 95 182 253 226 244 248 100 14 165 254 223 216 205 182 213 234 254 207 13 73 65 65 79 62 73 72 71 72 72 72 72 72 72 72 72 72 72 72 72 72 72 72 72 74 74 73 73 73 73 72 72 72 72 72 73 73 74 74 74 73 73 73 73 74 74 74 74 74 74 74 74 74 74 74 74 75 75 74 74 74 74 75 75 76 75 75 75 75 76 76 76 76 75 76 78 78 77 77 78 80 80 79 78 78 79 81 82 83 82 81 80 80 79 77 76 70 72 81 85 79 76 81 83 80 80 79 79 79 79 79 79 80 80 80 79 79 78 78 78 77 77 77 77 77 76 76 76 74 74 75 75 76 76 76 76 75 75 76 76 77 77 78 78 76 76 77 77 77 76 75 75 75 75 75 75 75 75 75 75 75 75 75 75 74 74 74 74 74 74 74 74 74 74 73 73 72 72 71 72 71 70 68 68 66 66 66 65 66 66 65 65 63 63 64 64 64 64 63 62 62 63 63 63 63 62 60 58 57 63 48 57 61 39 12 12 3 74 195 189 205 105 81 160 189 177 176 150 188 168 157 183 210 211 249 253 241 208 191 179 190 194 196 193 184 171 172 188 183 186 179 184 197 191 219 245 254 245 153 140 155 202 225 210 171 147 160 176 144 245 253 155 179 154 163 162 179 172 154 148 176 153 173 167 163 163 170 146 139 139 146 176 56 66 235 102 104 103 112 106 113 103 112 119 117 89 86 89 102 91 104 117 82 167 206 157 136 116 106 101 119 103 95 127 237 238 237 206 158 48 20 19 39 66 81 65 60 59 50 53 33 70 48 54 86 36 74 94 113 96 75 79 82 75 57 50 75 109 108 84 67 76 82 66 43 47 71 82 84 78 56 73 75 45 77 150 91 160 164 153 152 156 150 140 149 
145 145 168 163 135 142 156 
61 61 61 60 60 59 57 56 52 58 41 119 75 35 55 47 54 23 64 166 150 148 139 118 132 58 4 22 48 50 61 50 55 55 55 56 56 58 58 58 57 57 58 58 58 59 59 60 60 60 59 59 59 59 60 60 59 59 59 59 59 60 60 60 61 61 61 61 61 62 62 62 61 61 61 61 61 61 62 62 63 63 62 62 62 62 62 62 64 64 64 64 64 64 64 64 65 65 65 65 66 66 66 66 67 66 66 65 65 65 65 65 65 65 66 67 67 67 67 67 66 66 66 65 65 66 66 67 66 66 66 66 67 67 67 67 67 67 67 67 68 68 68 68 68 68 69 69 69 69 69 69 69 70 71 71 71 71 71 70 70 70 70 70 70 70 70 70 69 70 70 71 71 70 70 69 70 71 71 71 70 70 70 70 72 72 72 72 72 73 73 73 74 74 73 72 72 72 73 73 73 73 73 72 71 71 71 73 70 73 74 73 73 74 75 75 73 67 48 94 139 60 196 253 40 177 249 205 140 197 246 222 248 249 235 25 66 251 230 224 217 188 181 231 242 254 28 46 62 62 68 68 70 77 63 74 72 72 72 72 72 72 72 72 72 72 72 72 72 72 72 72 74 74 73 73 73 73 72 72 73 73 73 73 73 73 73 73 73 73 73 73 74 74 74 74 74 74 74 74 74 74 74 74 75 75 74 74 74 74 75 75 75 75 75 75 75 75 76 77 76 75 76 78 78 77 77 78 79 79 79 80 80 80 80 81 82 82 82 80 78 77 79 80 77 75 75 72 70 75 79 76 81 80 80 80 79 79 79 79 80 80 79 79 79 78 78 78 79 79 78 78 77 77 77 77 75 75 75 76 76 77 77 77 76 76 76 76 77 77 77 78 76 76 77 77 77 76 75 75 75 75 75 75 75 75 75 75 75 75 75 75 74 74 74 74 74 74 74 74 74 74 75 75 74 74 73 73 72 70 69 68 66 66 65 65 66 65 65 65 63 63 64 64 64 64 62 62 61 62 62 62 61 59 57 56 56 58 48 50 46 25 42 40 26 149 218 189 161 61 155 212 186 189 171 156 193 184 200 239 252 252 206 192 176 176 192 192 156 189 193 184 183 171 168 191 196 185 190 212 220 251 243 184 160 84 150 245 250 212 165 129 97 129 144 142 184 175 180 161 159 169 152 171 148 136 140 134 160 176 160 157 154 166 164 162 155 171 122 222 85 47 182 156 90 124 107 102 123 106 95 98 103 99 109 109 116 118 126 117 136 129 93 87 102 102 93 133 151 140 172 166 159 194 164 138 91 106 29 58 78 72 59 77 68 57 74 64 55 27 101 18 88 112 125 91 78 79 66 60 45 50 79 113 111 81 69 79 69 52 49 65 86 106 98 67 104 70 48 51 28 26 45 109 122 147 146 141 149 149 168 163 169 
177 169 174 174 170 181 177 
60 60 60 59 59 57 56 56 62 62 28 126 84 23 62 61 43 34 198 217 197 215 202 217 206 227 175 6 53 58 37 54 56 56 56 56 57 57 56 56 58 58 57 58 57 58 59 59 60 59 59 59 59 59 59 60 59 59 59 59 59 59 59 59 61 61 61 61 61 61 61 61 61 61 61 61 61 62 62 62 64 63 62 62 61 61 61 61 63 63 63 63 64 64 64 64 65 65 65 65 65 66 66 66 66 66 65 65 65 65 65 65 64 65 65 66 66 67 67 67 66 66 65 65 65 66 66 67 66 66 66 66 67 67 67 67 67 67 67 67 67 68 68 68 68 68 68 69 69 69 69 69 68 69 70 71 71 71 71 71 70 70 70 70 70 70 70 71 69 70 70 70 70 70 70 69 70 71 71 71 70 70 70 70 72 72 72 72 73 73 73 73 74 73 73 72 72 72 72 73 74 73 73 72 71 71 71 72 72 75 76 74 72 72 74 76 83 56 79 39 90 152 100 127 64 251 206 234 228 198 219 254 179 177 145 7 169 247 230 227 208 195 225 235 255 107 5 72 69 81 72 64 69 68 71 77 72 72 72 72 72 72 72 72 72 72 72 72 72 72 72 72 73 73 73 73 73 73 73 73 74 74 74 73 73 72 72 72 73 73 73 73 74 74 74 74 74 74 74 74 74 74 74 74 75 74 74 74 74 74 74 75 75 75 76 75 75 75 76 77 76 75 76 78 79 77 77 79 78 79 80 80 80 80 79 79 80 81 81 80 78 78 80 82 67 67 73 79 82 87 87 80 81 81 81 80 80 80 79 79 79 79 79 79 79 78 78 78 79 79 78 78 78 78 78 78 76 76 76 75 75 75 74 74 76 76 77 77 77 77 77 77 76 76 76 76 76 76 75 75 75 75 75 75 75 75 75 75 75 75 75 75 74 74 74 74 74 74 74 75 75 75 75 75 74 74 73 72 70 69 67 66 66 66 65 65 66 65 65 65 63 63 63 64 64 63 62 62 63 65 65 64 62 60 59 58 61 45 52 51 30 24 57 35 89 187 187 191 92 113 192 182 183 167 170 223 242 254 249 219 183 162 177 167 198 149 157 171 147 180 184 180 197 201 190 196 204 213 243 245 223 198 123 109 127 146 160 188 164 108 92 144 132 144 156 133 168 167 99 97 46 118 139 119 120 113 183 199 215 186 161 171 142 155 161 147 166 159 134 192 173 38 80 221 86 99 118 115 111 108 111 124 121 119 116 126 109 128 139 150 126 138 99 77 109 123 121 146 142 139 183 173 179 166 149 195 99 238 205 20 53 70 74 81 81 61 74 65 61 21 75 68 43 96 58 72 69 46 39 66 99 102 89 67 64 74 67 47 64 76 101 106 80 65 75 85 87 36 31 47 68 93 75 75 130 134 163 156 161 159 163 175 163 
167 164 167 169 168 164 155 
59 59 60 60 57 56 57 58 55 58 32 139 105 24 54 55 39 61 223 115 63 92 124 122 134 197 213 23 41 52 61 57 54 55 55 56 57 57 57 57 58 58 57 57 57 57 58 59 60 59 59 59 59 59 59 60 59 59 59 59 59 59 59 59 61 61 61 61 61 61 61 61 62 62 61 61 61 62 62 63 63 63 62 61 61 61 61 61 61 62 62 62 63 64 64 64 65 65 65 65 65 65 66 66 65 65 65 65 65 65 65 66 64 65 66 66 67 67 66 66 65 65 65 65 65 66 66 67 66 66 66 66 67 67 67 67 67 67 67 67 67 67 68 68 68 68 68 68 69 69 69 69 67 68 70 70 71 71 71 71 69 70 71 71 71 71 71 71 70 70 69 69 69 69 70 70 71 72 72 72 72 72 71 71 71 71 71 72 72 72 72 72 73 73 73 73 73 72 72 72 73 72 72 72 71 72 72 72 73 74 74 74 73 72 73 74 73 83 74 68 66 47 43 15 231 234 218 222 206 207 228 251 126 28 8 90 241 238 212 196 221 234 228 247 222 27 48 72 69 70 65 74 70 70 78 69 72 72 72 72 72 72 72 72 73 73 73 73 73 73 73 73 73 73 73 73 73 73 73 73 74 74 74 73 73 72 72 72 73 73 73 73 74 74 74 74 74 74 74 74 74 74 74 74 75 74 74 74 74 74 74 75 75 75 76 75 75 75 76 77 77 76 77 79 79 78 78 79 79 79 79 79 79 79 79 80 79 79 79 79 80 79 76 74 53 57 73 85 80 72 74 80 81 81 81 80 80 79 79 79 79 79 79 79 78 78 78 78 78 78 78 78 78 78 78 78 77 77 76 76 75 75 75 75 77 77 77 77 77 77 77 77 77 77 76 76 76 76 76 76 75 75 75 75 75 75 75 75 75 75 75 75 74 74 74 74 74 74 74 74 74 74 75 75 72 72 71 70 68 67 65 65 66 65 65 65 65 65 65 65 63 63 63 64 64 63 62 62 64 67 67 66 63 61 60 59 59 38 56 50 23 18 31 46 170 201 209 131 90 124 185 168 190 232 246 234 208 186 171 197 159 186 190 188 207 170 173 143 140 178 202 195 190 203 220 231 247 241 200 150 112 139 195 206 187 164 171 170 143 188 142 149 120 131 171 151 169 120 108 175 89 45 129 117 147 162 175 165 122 147 177 168 164 162 159 154 137 155 134 121 231 74 22 165 157 97 106 115 128 124 127 134 119 118 129 166 145 142 134 141 133 133 137 109 143 164 131 194 160 132 175 182 156 152 148 179 149 126 247 64 67 66 80 53 59 65 74 75 55 51 46 110 15 85 55 44 61 85 95 87 71 64 68 68 45 29 61 113 116 98 86 86 78 63 42 28 40 96 85 81 88 102 104 58 72 131 171 144 145 167 158 149 
157 148 153 161 164 156 142 139 
58 59 59 59 58 57 57 59 59 57 35 133 102 21 48 55 50 33 155 198 176 170 160 151 131 231 202 14 52 56 53 51 53 53 54 55 57 58 59 59 59 58 57 57 56 57 58 58 59 59 59 58 58 59 59 59 59 59 59 59 59 59 59 59 60 61 60 61 60 61 60 61 61 62 61 62 61 62 62 62 62 62 61 61 61 61 62 62 60 60 61 61 62 63 63 64 64 65 65 65 65 65 65 65 65 65 64 64 65 65 66 66 65 66 66 66 67 66 65 65 65 65 65 65 65 66 66 67 66 66 66 66 67 67 67 67 66 67 67 67 67 67 67 67 68 68 68 68 69 69 69 69 67 67 69 70 71 71 71 71 69 70 71 71 71 71 71 72 70 70 69 69 69 69 70 70 71 72 72 72 72 72 71 71 70 70 71 71 71 71 71 71 72 73 73 73 73 73 72 71 71 71 71 72 71 73 73 74 73 71 72 74 75 74 73 72 74 68 74 68 76 73 49 86 245 186 220 212 240 242 241 249 253 121 8 245 251 202 231 218 211 234 251 241 244 153 40 70 68 71 73 71 67 80 70 74 71 71 71 71 71 71 71 71 73 73 73 73 73 73 73 73 72 72 73 73 73 73 74 74 74 74 73 73 73 73 72 72 73 73 73 73 74 74 74 74 74 74 74 74 74 74 74 74 74 74 74 73 73 74 74 74 74 76 76 76 74 74 76 78 77 76 77 79 80 78 78 79 81 80 78 77 77 78 79 81 81 79 78 79 79 77 70 64 182 123 76 70 77 80 80 80 82 82 80 80 79 79 78 78 79 79 79 79 78 78 78 78 77 77 77 77 77 78 78 78 76 76 77 77 77 78 78 78 78 78 78 77 77 77 76 76 77 77 76 75 75 75 76 76 75 75 75 75 75 75 75 75 75 75 75 75 74 74 74 74 73 73 73 73 74 74 74 74 72 72 72 71 69 68 67 66 66 65 65 65 65 65 65 63 62 63 63 63 63 63 62 61 61 63 64 64 61 59 56 56 52 42 56 39 10 2 6 107 194 207 181 84 124 133 199 254 250 198 188 164 183 182 187 201 163 156 181 169 183 175 152 155 181 183 200 213 224 246 242 205 191 183 199 186 212 231 216 207 225 194 206 208 210 205 134 133 121 104 85 153 164 93 68 68 98 152 210 226 176 143 152 155 166 155 182 169 158 167 151 148 157 147 144 110 160 210 105 79 219 91 105 134 124 103 140 114 102 96 117 142 143 141 137 121 117 98 132 128 145 198 54 120 190 121 165 160 143 174 172 154 177 102 243 216 28 86 56 82 97 63 52 65 66 51 20 65 51 37 75 92 106 76 74 78 66 54 37 41 80 116 108 77 65 73 69 51 41 54 81 101 81 72 71 87 77 76 36 40 55 113 118 132 149 154 155 168 
163 159 163 152 157 168 156 150 
57 72 50 56 52 57 26 20 24 13 6 102 70 13 12 14 12 7 145 131 165 186 183 208 197 199 61 30 56 54 53 53 56 57 57 57 56 56 56 56 58 58 58 58 58 58 58 58 58 58 58 59 59 60 60 60 58 58 58 58 59 59 59 59 59 59 60 59 61 60 61 60 61 60 61 60 61 60 61 61 60 60 60 60 61 61 61 61 61 67 61 58 58 61 67 61 62 63 64 63 63 62 63 64 63 63 64 64 64 64 63 62 65 65 65 65 66 66 66 66 67 66 66 65 66 66 67 67 66 66 67 67 67 67 67 66 67 67 67 68 68 69 69 69 69 69 69 69 69 69 69 69 66 67 68 68 68 68 69 70 68 69 69 69 69 69 68 68 70 70 69 69 69 69 70 70 69 69 70 70 70 70 71 71 71 71 71 71 71 71 71 71 72 72 72 72 72 72 72 72 72 72 72 72 72 72 72 72 73 73 73 73 73 73 73 73 70 76 73 71 62 73 33 132 199 177 238 241 236 236 191 236 255 82 105 246 251 236 197 151 157 210 247 207 123 56 69 67 71 71 71 71 71 72 72 72 73 72 72 72 72 72 72 71 71 71 71 72 72 73 73 73 73 73 73 73 73 73 73 73 73 73 73 73 73 73 73 74 74 74 74 75 75 74 74 74 74 74 74 74 74 74 74 74 75 75 75 75 74 74 74 74 75 75 75 75 75 75 75 76 78 78 78 79 79 79 79 79 77 78 79 79 79 78 77 77 78 83 82 79 81 82 74 61 109 90 76 77 79 77 78 86 80 80 80 80 80 80 80 80 80 79 78 78 78 78 78 79 78 78 78 78 77 77 77 77 77 77 77 77 77 77 77 77 76 77 78 78 77 77 77 78 77 77 77 77 76 76 75 74 76 76 76 76 76 76 76 76 75 75 74 73 73 73 73 73 73 74 74 74 75 74 74 74 73 72 71 70 68 67 67 66 65 65 64 64 64 64 63 64 63 62 62 62 62 62 63 62 62 59 64 65 62 53 45 57 48 40 26 21 13 2 43 210 195 164 120 141 109 139 155 200 140 153 207 202 181 159 175 176 174 168 142 150 168 175 181 182 210 245 241 242 224 190 196 187 206 205 216 218 210 226 194 177 211 193 208 204 180 195 164 127 135 106 102 75 63 121 140 179 224 219 135 161 169 151 184 164 166 162 161 167 163 150 173 156 149 143 112 114 97 155 109 70 181 127 103 122 114 118 99 108 137 119 107 111 111 114 122 112 99 172 194 183 97 182 118 115 152 153 159 138 127 173 152 152 166 161 115 86 42 75 70 75 79 62 57 56 72 49 23 18 98 10 98 75 74 67 68 49 39 62 87 105 94 69 65 66 56 44 41 65 99 111 92 65 74 83 72 45 31 43 71 96 70 73 149 124 130 141 147 142 150 
150 167 162 171 167 141 172 
64 55 61 63 68 36 154 213 147 130 145 193 130 135 135 146 148 148 210 93 140 138 66 120 132 16 16 46 49 54 54 58 56 56 56 56 56 57 57 57 57 57 58 58 58 58 58 58 58 58 58 59 59 60 60 60 58 58 58 58 59 59 59 59 59 59 60 60 60 60 60 60 60 60 61 61 61 61 61 61 61 61 61 60 60 60 60 60 61 61 59 68 69 60 62 61 62 63 64 63 62 62 63 63 62 63 63 64 64 64 64 63 65 65 65 65 66 66 66 66 66 66 66 66 66 67 67 67 65 65 66 67 67 67 67 67 67 67 67 68 68 69 69 69 68 68 68 68 68 68 68 68 67 67 68 68 68 68 69 69 68 68 69 69 69 69 68 68 70 70 69 69 69 69 70 70 70 70 70 70 70 70 70 70 71 71 71 71 71 71 71 71 71 71 71 71 71 71 71 71 72 72 72 72 72 72 72 72 73 73 73 73 73 73 73 73 68 78 68 69 79 57 49 210 221 234 216 225 227 227 187 169 221 121 25 126 245 249 239 154 140 246 185 10 33 61 60 78 71 71 71 71 71 72 72 72 73 72 72 72 72 72 72 71 72 72 72 72 72 72 72 72 72 72 72 72 72 72 72 72 72 72 73 73 73 73 73 73 73 74 74 74 74 74 74 73 73 73 74 74 74 74 75 75 74 74 74 74 75 75 75 75 74 74 75 75 75 75 75 75 77 77 77 78 78 78 78 78 77 78 78 79 79 78 78 77 79 81 80 78 79 81 76 68 84 76 74 79 81 78 78 83 79 79 79 79 79 79 79 79 80 79 78 78 78 78 78 79 78 78 78 78 77 77 77 77 77 77 77 77 77 77 77 77 76 77 78 77 76 76 76 77 77 77 77 77 76 76 75 74 76 76 76 76 76 76 76 76 75 75 74 73 73 73 73 73 74 74 75 75 74 74 73 73 73 72 70 69 67 67 66 66 66 66 65 64 64 64 65 65 64 64 63 63 63 63 63 62 63 62 65 58 58 65 59 58 43 44 27 4 4 14 171 192 216 142 95 119 100 138 152 180 170 186 186 187 164 193 156 209 202 169 164 134 176 212 226 244 230 190 207 211 202 199 210 200 186 226 216 219 206 200 192 200 203 213 203 199 189 170 190 150 121 86 57 95 163 232 238 199 130 112 133 170 175 195 196 195 180 184 195 162 153 162 149 124 140 147 143 118 97 88 79 79 75 212 105 107 112 107 114 106 159 88 89 130 138 148 193 170 119 155 147 119 118 131 141 166 155 164 123 115 137 143 150 147 153 158 131 46 40 67 72 70 61 84 75 51 50 57 37 22 87 45 47 79 57 28 49 70 100 91 76 73 64 49 49 49 62 96 117 105 83 76 75 72 49 38 42 73 105 102 79 66 99 54 120 108 141 158 166 
160 192 168 183 201 180 161 160 159 
55 62 54 59 53 29 209 158 101 239 245 194 120 111 154 199 90 82 112 163 162 211 165 215 154 3 55 58 50 53 47 54 56 56 56 56 56 57 57 57 57 57 57 58 58 58 58 58 58 58 58 59 59 59 60 60 58 58 58 58 59 59 59 59 59 59 59 59 59 60 60 60 60 60 60 61 61 61 61 61 61 61 61 60 60 60 59 59 58 65 60 59 59 60 65 58 62 63 63 63 62 62 62 63 61 62 63 64 64 64 64 64 65 65 65 65 65 66 66 66 66 66 66 66 66 66 67 67 65 66 66 67 67 67 67 66 67 67 67 68 68 68 69 69 68 68 68 68 68 68 68 68 67 68 69 68 68 67 68 69 69 69 68 68 68 68 69 69 70 69 69 69 69 69 69 70 70 70 70 70 70 70 70 70 70 70 70 71 71 71 71 72 71 71 71 71 71 71 71 71 71 71 72 72 72 72 73 73 73 73 73 73 73 73 73 73 76 78 62 73 77 31 173 243 221 229 228 199 209 225 237 249 104 195 241 9 28 221 243 249 248 246 30 39 72 81 65 68 71 71 70 71 72 71 72 72 73 72 72 72 72 72 72 71 72 72 72 72 72 72 72 72 72 72 72 72 72 72 72 72 72 72 72 73 73 73 73 73 73 73 73 74 74 73 73 73 72 73 73 73 74 75 75 75 73 73 73 74 75 75 76 76 74 74 74 75 75 75 75 75 76 76 76 77 77 77 77 77 77 77 78 78 78 78 78 77 80 79 78 78 79 78 77 76 73 75 79 83 82 79 78 80 79 79 79 79 79 79 79 79 79 79 78 78 78 78 78 78 78 78 78 78 77 77 77 77 77 77 77 77 77 77 77 77 76 77 77 77 75 75 75 76 76 76 76 76 76 75 75 74 76 76 76 76 76 76 76 76 75 75 74 73 73 73 73 73 75 75 75 75 74 73 73 72 73 72 70 69 67 67 65 65 65 65 65 65 65 65 66 65 65 65 64 64 63 63 63 63 66 61 66 58 57 68 63 55 57 48 45 48 10 72 208 183 182 102 106 102 151 235 221 179 187 218 155 142 194 179 178 172 172 156 198 221 230 181 165 196 188 177 207 204 214 191 179 193 198 198 202 208 191 201 207 214 192 175 180 182 199 157 182 174 142 138 186 235 213 164 126 164 150 195 185 166 178 197 195 195 184 193 181 161 153 143 152 146 154 150 134 108 130 110 92 64 37 197 130 105 135 99 92 84 101 140 174 166 189 168 127 90 45 68 68 66 100 112 118 120 114 125 100 120 154 168 159 148 160 164 139 113 30 63 80 73 73 68 71 67 67 44 58 88 98 107 10 84 65 93 111 92 77 74 60 51 41 46 80 107 108 82 68 74 72 53 41 44 69 91 96 83 81 86 81 71 43 40 84 135 128 145 140 142 
190 202 183 154 136 169 203 160 
61 53 53 57 50 15 121 74 6 92 100 164 135 88 156 162 74 86 56 18 18 30 141 250 87 5 58 41 50 52 57 53 54 55 55 56 56 57 57 57 57 57 57 57 58 58 58 58 58 58 58 58 59 59 59 60 58 58 58 58 59 59 59 59 59 59 59 59 60 60 60 60 60 60 60 60 61 61 61 61 61 61 60 60 60 60 60 60 59 66 61 59 59 61 66 59 62 62 63 63 62 62 62 63 62 62 63 63 63 64 64 64 65 65 65 65 65 65 66 66 66 66 66 66 66 66 67 67 67 67 67 67 66 66 65 65 67 67 67 67 68 68 68 68 68 68 68 68 68 68 68 68 68 68 69 68 68 67 68 68 69 69 68 68 68 68 69 69 70 69 69 69 69 69 69 70 71 71 70 70 70 70 69 69 69 70 70 70 71 71 72 72 71 71 71 71 71 71 71 71 71 71 71 72 72 73 73 73 73 73 73 73 73 73 73 73 72 74 81 68 71 69 101 233 253 228 212 222 221 219 241 208 48 115 139 147 151 77 167 250 247 100 32 77 66 61 78 68 71 71 70 71 72 72 72 72 73 72 72 72 72 72 72 71 72 72 72 72 72 72 72 72 72 72 72 72 72 72 72 72 72 72 72 72 73 73 73 73 72 72 73 73 73 73 72 72 73 73 73 73 74 74 75 75 72 73 73 74 74 75 76 76 74 74 74 74 75 75 75 75 76 76 76 76 77 77 77 77 77 77 77 78 78 78 78 78 80 78 77 80 80 77 78 81 77 80 82 81 79 78 79 79 79 79 79 79 79 79 79 79 79 79 78 78 78 78 78 78 78 78 78 78 77 77 77 77 77 77 77 77 77 77 77 77 76 77 77 76 75 74 74 75 76 76 76 76 76 75 75 74 76 76 76 76 76 76 76 76 75 75 74 74 73 73 74 74 74 74 75 75 74 74 73 73 74 71 69 68 67 67 65 64 66 66 66 66 65 65 66 66 65 65 64 64 63 63 63 62 67 57 64 64 58 57 52 51 36 40 53 19 16 178 194 178 119 108 104 144 181 210 211 146 199 202 192 162 151 179 180 218 119 163 239 208 183 204 179 202 224 213 220 215 209 200 211 203 200 208 202 207 195 178 210 188 180 174 188 149 155 155 193 190 221 248 155 69 69 127 145 110 158 177 139 167 196 170 168 166 159 160 136 154 170 147 152 149 136 145 127 113 112 97 91 76 28 74 203 105 114 114 137 182 196 150 162 117 56 27 23 47 101 48 70 100 106 132 110 117 139 127 132 141 126 96 129 146 175 180 135 131 80 39 75 71 78 66 64 80 71 77 97 111 61 107 9 56 114 84 60 71 74 51 32 53 86 98 93 75 66 79 75 49 36 53 83 103 95 83 74 76 75 57 44 46 78 93 59 127 120 141 147 134 155 217 184 
158 182 181 167 156 
57 49 58 55 41 106 213 149 29 170 171 224 74 21 110 217 130 56 70 155 122 31 123 252 78 8 58 55 52 47 64 48 54 55 55 56 56 57 57 57 57 57 57 57 58 58 58 58 57 58 58 58 59 59 59 59 58 58 58 58 59 59 59 59 60 60 60 60 61 61 61 61 60 60 60 60 61 61 61 61 59 59 60 60 60 60 60 60 64 57 58 79 79 58 57 64 61 62 62 62 61 61 62 62 63 63 63 63 63 63 63 63 64 64 65 65 65 65 65 65 66 66 65 65 66 66 67 67 65 66 66 66 66 66 66 65 67 67 67 67 67 68 68 68 68 68 68 68 68 68 68 68 68 68 69 68 68 67 68 68 69 69 68 68 68 68 69 69 69 69 69 68 68 69 69 69 71 71 70 70 70 70 69 69 69 69 70 70 71 71 71 72 71 71 71 71 71 71 71 71 71 71 71 72 72 73 73 73 73 73 73 73 73 73 73 73 70 73 72 74 66 77 52 28 115 229 251 236 230 212 249 62 167 113 98 207 127 116 96 121 178 10 63 67 78 67 71 80 71 71 71 70 71 72 72 72 73 72 72 72 72 72 72 71 71 71 71 72 72 73 73 73 72 72 72 72 72 72 72 72 72 72 72 72 73 73 73 73 72 72 72 73 73 72 72 72 73 73 73 73 73 73 73 73 73 73 74 74 74 74 74 75 74 74 74 74 75 75 75 75 76 76 76 76 77 77 77 77 77 77 77 77 77 78 78 78 80 78 78 82 81 76 77 81 76 78 77 75 76 79 80 79 78 78 78 78 78 78 78 78 78 78 78 78 78 78 77 77 78 78 78 78 77 77 77 77 77 77 77 77 77 77 77 77 76 76 77 76 75 74 74 75 75 76 76 76 76 75 75 75 76 76 76 76 76 76 76 76 75 75 74 74 74 74 74 74 73 73 74 74 75 75 74 74 73 70 69 68 68 68 66 64 66 66 66 66 67 66 66 66 65 64 64 63 62 62 62 62 63 57 65 61 53 49 46 51 42 27 30 1 111 212 173 137 96 109 117 169 178 211 174 175 199 194 187 172 191 234 143 228 204 204 188 192 202 208 201 171 196 211 211 214 205 202 190 186 196 134 195 207 209 200 202 176 181 186 186 178 178 197 238 219 102 183 165 82 102 112 134 115 138 93 146 206 185 166 169 150 144 151 152 143 155 161 146 155 162 134 104 112 98 82 78 67 73 25 156 178 163 210 132 121 94 64 13 5 32 43 30 64 89 15 50 55 71 109 115 122 110 126 132 134 137 94 166 149 152 174 149 166 109 40 59 68 78 79 65 89 56 106 115 88 76 78 60 4 114 77 57 39 40 66 88 100 86 65 65 69 39 35 44 73 104 111 88 63 75 68 50 35 41 62 87 107 78 87 59 76 127 118 157 151 155 161 185 203 
194 190 190 171 
48 58 58 48 32 219 254 207 35 140 75 67 68 28 126 200 158 209 249 250 184 17 130 252 109 6 52 48 49 52 57 58 54 55 55 56 56 56 56 56 57 57 57 57 57 58 58 58 57 57 58 58 58 59 59 59 58 58 58 58 59 59 59 59 60 60 60 61 61 61 61 61 60 60 60 60 60 61 61 61 59 59 59 60 60 60 61 61 64 59 58 74 74 58 59 64 61 62 62 62 61 61 61 62 64 63 63 62 62 62 63 63 64 64 64 65 65 65 65 65 66 65 65 65 65 66 66 67 63 63 64 66 67 67 68 68 67 67 67 67 67 67 67 67 68 68 68 68 68 68 68 68 67 68 69 68 68 67 68 69 69 69 68 68 68 68 69 69 69 69 69 68 68 69 69 69 70 70 70 70 70 70 70 70 69 70 70 70 70 71 71 71 71 71 71 71 71 71 71 71 71 71 72 72 72 72 73 73 73 73 73 73 73 73 73 73 82 63 70 67 82 58 79 71 38 44 147 223 254 252 172 22 113 168 249 219 37 139 147 179 61 63 72 71 64 72 72 63 71 71 71 70 71 71 72 72 73 72 72 72 72 72 72 71 71 71 71 72 72 73 73 73 72 72 72 72 72 72 72 72 72 72 72 72 72 73 73 73 72 72 73 73 73 73 72 72 74 74 73 73 73 73 73 73 74 74 74 74 74 74 74 74 74 74 74 74 74 75 75 75 76 76 76 76 76 77 77 77 77 77 76 77 77 78 78 79 80 78 78 81 81 77 77 79 77 77 76 76 78 80 79 76 78 78 78 78 78 78 78 78 78 78 78 78 78 78 77 77 78 78 78 78 77 77 77 77 77 77 77 77 77 77 77 77 76 76 77 76 75 74 75 75 75 75 75 76 76 75 75 75 76 76 76 76 76 76 76 76 75 75 74 74 74 74 74 75 72 73 73 74 75 75 75 75 73 70 69 68 70 69 67 65 66 66 66 66 66 66 66 66 64 64 63 63 62 62 63 63 58 64 65 52 47 48 42 48 18 37 18 47 192 192 187 102 120 97 161 152 190 222 150 211 205 222 246 253 250 228 195 170 212 205 215 193 199 194 199 187 190 208 197 186 191 203 170 200 181 116 139 184 230 181 186 184 169 165 179 209 200 212 211 219 156 164 184 80 109 95 108 128 118 143 184 181 183 178 156 155 149 169 155 141 143 153 155 162 159 136 129 121 104 84 86 67 68 62 17 217 189 74 70 39 5 67 37 36 33 39 57 59 26 49 90 55 31 35 70 94 96 107 76 93 113 140 154 146 150 134 164 176 140 59 55 70 76 73 80 78 57 72 117 101 108 101 98 1 70 67 41 86 106 90 68 67 72 65 56 40 55 84 106 96 69 55 59 68 39 43 55 79 99 96 82 76 89 59 55 41 122 131 141 151 159 159 164 149 143 152 
151 154 
59 50 59 50 53 141 104 234 120 160 40 12 88 42 108 245 245 254 254 250 212 20 119 254 131 5 62 48 57 62 46 55 54 55 55 56 56 56 56 56 57 57 57 57 57 57 58 58 58 58 58 59 58 59 59 59 58 58 58 58 59 59 59 59 60 60 60 60 60 60 61 61 60 60 60 60 60 60 61 61 60 60 60 61 60 60 60 60 60 66 60 58 58 60 66 60 61 61 62 62 61 60 61 62 63 63 62 62 62 62 63 64 64 64 64 64 65 65 65 65 66 65 65 65 65 66 66 67 63 64 65 66 66 67 67 67 67 67 67 67 67 67 67 67 68 68 68 68 68 68 68 68 67 67 68 68 68 68 69 69 68 68 69 69 69 69 68 68 69 69 68 68 68 68 69 69 70 70 70 70 70 70 70 70 70 70 70 70 70 70 70 70 71 71 71 71 71 71 71 71 72 72 72 72 72 72 72 72 72 72 73 73 73 73 73 73 68 76 71 70 74 81 71 69 73 66 37 45 115 253 70 67 57 91 102 201 247 217 187 104 43 73 70 69 68 75 79 73 71 70 70 70 71 72 72 72 73 72 72 72 72 72 72 71 71 71 72 72 72 72 73 73 72 72 72 72 72 72 72 72 72 72 72 72 72 72 73 73 72 73 73 73 73 73 73 72 73 73 73 73 73 73 73 73 74 74 74 74 74 74 74 74 74 74 74 74 74 74 75 75 75 75 75 75 75 76 76 76 77 76 76 76 77 77 79 80 79 78 78 78 79 78 78 78 81 79 79 80 80 78 77 76 78 78 78 78 78 78 78 78 77 78 78 78 78 78 77 76 78 78 78 78 77 77 77 77 77 77 77 77 77 77 77 77 76 76 77 76 75 75 75 76 74 75 75 76 76 75 75 75 76 76 76 76 76 76 76 76 75 75 74 74 74 74 75 75 73 73 74 74 75 75 74 74 73 70 69 69 71 71 68 66 66 66 65 65 66 66 66 66 65 64 64 63 63 63 63 64 60 64 58 47 51 42 23 30 2 10 10 139 208 157 155 153 108 116 160 190 238 178 190 246 249 253 235 212 194 199 204 204 183 193 205 211 208 176 199 185 209 188 187 190 185 215 198 160 118 221 198 94 169 199 169 175 197 222 222 214 185 202 178 205 206 199 188 88 80 93 125 111 111 109 132 156 156 151 170 138 153 161 123 137 152 151 151 132 137 135 141 116 113 101 89 68 66 71 31 3 6 6 84 121 50 49 33 80 57 28 70 95 37 67 56 54 47 41 44 57 85 77 78 139 127 160 115 154 166 154 120 146 155 119 33 70 66 78 90 60 61 48 108 110 80 83 90 36 18 131 111 88 60 77 78 65 41 40 78 110 107 69 49 62 65 47 40 50 79 95 96 84 83 87 77 62 25 32 64 68 83 137 120 156 151 143 156 166 161 155 149 157 
55 59 59 52 56 12 137 244 65 63 181 37 79 34 152 173 254 240 247 252 242 114 146 253 152 3 64 53 52 50 52 56 56 56 56 56 55 55 55 55 56 57 57 57 57 57 57 57 58 58 58 59 58 59 59 59 58 58 58 58 59 59 59 59 58 59 59 59 60 60 60 60 59 60 60 60 60 60 60 60 61 61 61 61 59 59 59 59 60 62 58 63 63 58 62 60 60 61 62 61 61 60 61 62 62 62 61 61 62 63 64 65 64 64 64 64 65 65 65 65 65 65 65 65 65 66 66 66 66 66 66 66 66 65 64 64 67 67 67 67 67 67 67 67 67 67 67 67 67 67 67 67 66 67 68 68 68 68 69 70 68 68 69 69 69 69 68 68 69 69 68 68 68 68 69 69 69 69 70 70 70 70 71 71 70 70 70 70 70 70 70 70 70 70 70 70 70 70 70 70 72 72 72 72 72 72 72 72 72 72 73 73 73 73 73 73 76 68 75 70 70 70 74 73 75 73 70 65 41 101 69 92 70 69 38 147 132 248 174 50 61 74 68 81 73 66 73 70 70 71 70 70 71 72 73 72 73 72 72 72 72 72 72 71 72 72 72 72 72 72 72 72 71 71 71 71 71 71 71 71 71 72 72 72 72 72 72 72 73 73 73 74 74 73 73 73 72 72 72 73 73 74 74 74 73 73 73 73 74 74 74 74 73 74 74 74 74 74 74 74 74 74 74 74 74 75 75 75 77 76 76 76 76 77 79 80 79 78 77 76 77 79 79 78 79 77 77 79 78 76 78 82 77 77 77 77 77 77 77 77 77 78 78 78 78 78 77 76 78 78 78 78 77 77 77 77 77 77 77 77 77 77 77 77 75 76 77 76 76 76 76 77 74 75 75 75 76 75 75 75 76 76 76 76 76 76 76 76 75 75 74 74 74 74 75 75 74 74 74 75 74 74 74 73 74 70 69 69 71 72 69 67 65 65 65 65 66 66 65 65 65 65 64 64 64 64 64 65 64 59 48 48 58 31 0 9 7 27 86 206 192 163 86 139 84 154 138 203 228 174 211 208 211 205 200 212 226 206 184 204 215 184 170 175 166 166 178 191 190 213 205 204 202 215 215 146 116 191 164 121 164 183 203 223 228 254 188 208 207 192 163 165 177 185 244 184 112 156 138 140 138 140 143 151 146 117 147 164 160 162 147 132 125 142 140 146 137 137 133 116 110 99 76 86 77 53 77 58 35 89 32 83 88 29 17 52 74 70 56 32 40 76 66 48 62 78 80 66 57 61 85 120 111 142 137 123 154 165 162 150 177 129 65 38 77 84 58 76 75 57 68 96 87 87 97 76 1 95 97 65 69 53 38 60 92 100 84 56 40 42 35 25 35 65 91 100 94 79 77 87 70 32 31 63 84 89 77 61 23 114 104 134 149 149 149 154 160 153 148 156 
57 62 46 59 60 21 134 195 34 2 140 40 82 59 140 125 250 254 253 244 250 159 148 254 153 13 63 44 61 55 47 60 56 57 57 57 57 57 57 57 58 58 58 58 57 57 57 57 57 57 58 58 58 58 57 58 56 57 58 60 60 60 59 58 58 59 59 59 60 60 60 60 60 59 59 59 59 59 60 61 60 60 60 60 60 60 60 60 59 59 60 60 60 60 60 60 62 62 62 62 62 62 62 62 62 62 63 64 64 64 63 63 64 64 64 64 65 65 65 65 65 65 65 65 66 66 66 66 64 64 65 65 66 66 67 67 67 67 67 67 67 67 67 68 68 69 69 69 67 66 66 66 69 68 67 68 69 69 69 69 67 68 69 69 68 68 69 70 68 68 68 68 69 69 69 69 69 69 69 69 69 69 69 69 70 70 70 70 70 70 70 70 71 71 71 71 70 70 70 70 71 71 71 71 72 72 72 72 72 72 72 73 73 73 73 73 73 73 73 73 73 73 73 74 77 73 77 71 75 62 91 82 71 51 125 121 20 68 68 55 72 72 72 72 72 72 72 72 72 72 71 72 72 72 73 73 70 71 71 72 72 72 72 72 72 72 72 72 72 72 72 72 72 72 72 72 72 72 72 72 71 71 72 73 73 73 72 72 73 73 73 73 73 73 73 73 72 72 73 73 74 74 73 73 74 74 73 73 73 73 74 74 74 73 72 73 75 76 75 74 74 75 75 75 76 76 76 77 77 76 76 77 77 78 78 77 78 78 78 77 77 76 76 75 78 78 78 78 78 78 78 78 78 78 77 77 76 76 77 77 77 77 77 77 77 77 77 78 77 76 75 76 78 79 79 78 77 77 76 76 76 76 75 75 76 75 75 75 76 76 76 75 76 76 76 76 75 75 75 75 75 75 75 76 75 75 74 74 75 75 75 75 74 74 74 74 75 74 73 73 74 74 72 71 71 68 68 69 69 66 66 69 68 67 66 66 67 68 66 64 60 62 64 64 62 62 62 64 59 65 54 53 58 28 15 188 71 84 170 215 206 116 125 139 133 151 186 222 171 204 217 200 180 204 230 215 217 192 210 187 169 187 173 167 196 174 178 193 201 207 209 209 202 190 184 166 180 72 82 194 236 219 211 204 198 236 198 214 180 116 192 182 154 101 145 142 102 161 122 164 147 140 135 148 129 132 115 171 184 97 137 162 126 147 140 144 132 122 137 106 101 102 85 84 76 55 69 68 30 56 82 50 61 67 61 59 71 105 93 29 91 87 66 70 42 60 66 48 45 49 74 90 125 100 113 87 139 142 159 173 170 156 103 26 77 66 73 68 74 67 52 95 88 88 108 104 25 22 110 34 40 83 108 90 68 56 28 44 35 14 21 69 106 102 82 73 73 71 52 32 44 80 95 87 73 68 76 74 10 112 106 117 153 169 150 152 165 155 155 163 
51 56 59 51 53 45 101 144 76 45 85 39 107 130 186 116 225 202 200 170 61 166 137 253 181 10 48 57 54 50 54 47 56 57 57 57 57 57 57 57 58 58 58 58 57 57 57 57 57 58 59 59 58 58 57 58 56 57 59 60 60 59 59 58 58 59 59 59 60 60 60 60 59 59 59 59 59 60 60 60 60 60 60 60 60 60 60 60 59 60 60 61 61 61 60 60 61 61 62 62 62 62 62 62 62 62 62 62 63 63 63 64 64 64 64 64 65 65 65 65 65 65 65 65 66 66 66 66 64 64 65 65 66 66 66 67 66 66 67 67 67 67 67 67 67 68 69 69 67 66 66 67 69 68 67 67 68 69 69 69 68 69 69 69 68 68 68 69 68 68 68 68 69 69 69 69 69 69 69 69 69 69 69 69 70 70 70 70 70 70 70 70 71 71 71 71 70 70 70 70 71 71 71 71 72 72 72 72 71 71 71 72 72 72 72 72 72 72 73 73 73 73 73 73 78 75 72 74 77 73 83 69 58 85 66 62 72 75 63 76 72 72 72 72 72 72 72 71 72 72 72 72 72 72 73 73 72 71 72 72 72 72 72 71 71 72 72 72 72 73 73 73 72 72 72 72 72 72 72 72 71 71 72 72 72 72 72 72 73 73 73 73 73 73 73 73 72 73 73 73 73 73 73 73 74 74 73 73 73 73 74 74 74 73 73 73 75 75 74 73 74 74 75 75 76 76 77 77 77 76 76 77 77 78 77 77 78 78 78 77 77 77 76 76 78 78 78 78 78 78 78 78 78 77 77 76 76 77 77 77 77 77 77 77 77 77 76 76 77 76 76 76 78 78 77 76 77 76 76 76 76 76 75 75 76 75 75 75 76 76 76 75 76 76 76 76 75 75 75 75 75 75 75 76 75 75 74 74 75 75 75 75 74 74 74 74 75 75 75 75 75 75 72 71 72 69 69 70 70 68 68 71 66 66 67 68 68 67 65 64 61 63 64 65 63 62 62 62 63 53 51 32 60 1 52 253 144 64 192 222 130 126 191 143 166 188 179 192 175 199 200 217 222 204 189 221 209 197 184 185 181 199 195 199 211 197 201 201 200 198 209 226 217 183 102 98 204 213 233 220 198 195 202 223 192 152 181 182 185 115 150 189 186 148 116 141 91 116 129 141 135 122 146 101 135 69 6 49 84 4 7 54 155 152 143 142 135 130 120 120 111 80 89 88 67 64 32 21 54 44 20 26 27 25 83 70 56 49 85 54 89 82 57 76 44 21 35 38 57 57 103 122 90 95 123 146 138 148 160 161 171 181 136 61 55 70 74 75 70 65 68 63 96 96 100 85 38 1 84 129 81 78 51 62 63 30 37 21 37 79 105 95 79 77 71 56 46 57 84 110 106 80 63 64 61 50 19 18 28 84 129 100 152 151 161 151 164 160 160 158 
62 54 63 53 53 40 172 163 97 99 106 121 249 186 158 163 166 111 174 157 77 184 97 253 180 12 49 68 54 52 62 51 56 57 57 57 57 57 57 57 57 57 57 57 58 58 58 58 57 58 60 59 58 58 57 58 57 58 59 59 60 59 57 58 58 59 59 59 60 60 60 60 59 59 59 60 60 60 60 60 60 60 60 60 59 59 59 59 60 60 60 61 61 61 61 61 60 60 61 61 61 61 62 62 63 62 61 61 61 62 63 64 64 64 64 64 65 65 65 65 65 65 65 65 65 66 66 66 64 65 65 65 65 66 66 66 66 66 66 66 67 67 67 67 66 67 68 68 67 67 67 67 69 68 67 67 68 68 68 68 69 69 69 69 68 67 67 68 68 68 68 68 69 69 69 69 69 69 69 69 69 69 69 69 70 70 70 70 70 70 70 70 71 71 71 71 70 70 70 70 71 71 71 71 71 72 72 72 72 72 72 72 72 72 72 72 72 72 72 73 73 73 73 73 77 77 70 77 74 79 78 66 83 80 61 72 82 64 82 64 72 72 72 71 72 72 71 71 72 72 71 72 72 73 73 73 72 72 72 72 72 72 71 71 71 71 72 72 73 73 74 74 72 72 72 72 72 72 72 72 72 71 71 71 72 72 72 73 73 73 73 73 73 73 73 73 73 73 73 73 73 73 72 72 74 74 73 73 73 73 74 74 75 74 73 73 74 74 74 73 73 74 74 75 75 76 77 77 76 76 76 77 77 77 77 77 78 78 78 78 78 77 77 77 78 78 78 78 78 78 78 78 77 77 76 76 76 77 77 78 76 76 77 77 77 76 75 74 78 77 76 76 77 77 76 75 76 76 76 76 76 76 75 75 76 75 75 75 76 76 76 75 76 76 76 75 75 75 75 75 75 75 75 76 75 75 74 74 75 75 75 75 74 74 74 74 73 73 73 74 74 73 70 68 70 69 69 70 70 69 70 72 66 67 69 69 67 65 64 63 62 63 65 65 63 62 61 62 56 49 43 60 46 2 81 203 87 186 206 180 130 216 119 135 166 130 194 186 177 187 213 208 214 212 204 202 183 178 173 173 193 185 173 195 199 205 215 211 214 208 206 196 149 182 186 223 232 216 186 186 217 225 212 208 187 179 175 191 208 174 132 173 195 166 117 100 120 106 142 136 143 146 162 119 118 6 10 23 104 45 27 7 63 147 132 126 141 137 126 101 94 81 65 43 60 97 56 37 42 93 65 48 92 53 9 8 55 51 89 82 84 72 84 89 18 11 62 37 63 53 55 74 79 126 146 160 153 165 150 153 165 176 163 99 30 66 79 65 47 67 51 71 107 80 32 30 25 14 20 150 33 38 43 30 23 29 63 83 91 70 61 67 60 43 48 70 99 99 94 85 81 78 64 48 24 41 49 82 95 47 104 112 116 139 159 148 157 162 162 155 
48 51 51 56 49 32 230 237 159 133 172 224 216 197 149 213 227 188 228 121 132 180 90 254 143 14 59 54 47 46 51 56 56 57 57 57 57 57 57 57 57 57 57 57 58 58 58 58 58 59 60 60 59 58 57 58 58 58 59 59 59 59 57 58 58 59 59 59 60 60 60 60 58 59 60 60 60 60 60 59 60 60 60 60 59 59 59 59 60 60 61 61 61 61 61 61 59 59 60 60 61 61 61 62 62 61 61 61 61 61 62 63 64 64 64 64 65 65 65 65 65 65 65 65 65 65 66 66 64 65 65 65 65 65 66 66 66 66 66 66 66 67 67 67 65 67 68 68 67 67 67 68 69 68 67 67 67 68 67 67 68 68 69 69 68 67 68 69 68 68 68 68 69 69 69 69 69 69 69 69 69 69 69 69 70 70 70 70 70 70 70 70 71 71 71 71 70 70 70 70 71 71 71 71 71 71 72 72 72 72 72 72 72 72 72 72 72 72 72 72 73 73 73 73 72 77 74 72 68 75 77 75 77 66 76 72 77 65 73 71 72 72 71 71 72 71 72 71 72 71 72 72 73 73 73 73 72 72 72 72 72 71 71 70 72 72 72 73 73 73 74 74 72 72 72 72 72 72 72 72 72 72 71 71 71 72 72 73 72 72 72 72 72 72 72 72 73 73 73 73 73 72 72 71 74 74 73 73 73 73 74 74 75 74 74 74 74 73 73 72 73 73 74 74 75 76 76 77 76 76 77 76 76 76 76 77 77 77 77 78 78 78 78 78 77 77 77 77 77 77 77 77 76 76 76 76 76 77 77 78 75 76 77 77 77 75 74 73 77 76 76 76 76 76 76 76 76 76 76 76 76 76 75 75 76 75 75 75 76 76 76 75 76 76 75 75 75 75 75 75 75 75 75 76 75 75 74 74 75 75 75 75 74 74 74 74 72 73 73 74 74 73 69 67 68 68 68 68 69 69 70 71 67 68 70 69 65 63 63 63 64 64 65 65 63 62 61 60 67 45 45 47 24 1 104 88 93 178 200 147 125 145 100 118 162 153 167 144 214 213 201 198 205 208 225 215 201 176 175 171 172 190 194 226 208 198 204 221 218 182 170 226 215 228 216 197 180 197 188 206 217 211 212 188 177 193 203 202 180 188 221 213 211 206 186 148 178 157 86 158 174 155 152 131 94 28 33 33 56 23 31 34 34 154 128 124 133 125 127 119 120 98 69 49 35 55 59 42 42 35 31 35 78 116 69 27 21 34 16 57 65 12 26 74 100 91 72 40 49 112 67 36 62 50 94 171 164 167 133 154 154 149 182 135 59 49 49 64 59 59 65 56 54 56 47 39 29 45 4 128 114 0 16 68 101 81 83 65 59 60 49 37 55 91 104 94 88 79 73 68 51 33 35 50 79 87 86 81 69 46 70 121 104 156 166 162 163 170 173 168 
63 60 44 59 60 44 62 58 57 112 96 33 27 179 166 245 226 218 228 148 194 242 120 250 106 6 66 54 63 62 55 57 57 57 57 57 57 57 57 57 57 57 57 57 58 58 58 58 58 59 59 59 59 58 57 58 58 59 59 59 58 58 57 58 59 60 60 60 59 59 59 59 58 59 60 60 60 60 60 59 60 60 60 60 59 59 59 59 60 60 60 61 61 61 61 61 59 59 60 60 60 61 61 61 60 60 61 62 62 62 61 61 64 64 64 64 65 65 65 65 64 64 65 65 65 65 65 65 65 65 65 65 65 65 65 65 65 65 65 66 66 66 66 66 65 66 67 68 67 67 67 68 69 68 67 67 67 67 67 66 66 67 68 68 68 68 69 70 68 68 68 68 69 69 69 69 69 69 69 69 69 69 69 69 69 69 70 70 70 70 71 71 70 70 70 70 71 71 71 71 70 70 71 71 71 71 71 71 72 72 72 72 72 72 72 72 72 72 72 72 73 73 73 73 71 74 77 69 72 72 76 76 78 72 78 64 76 77 63 78 72 72 72 72 72 72 72 71 72 72 72 72 72 73 73 73 72 72 72 72 72 71 71 70 73 73 73 73 73 73 73 73 72 72 72 72 72 72 72 72 72 71 71 70 71 71 72 73 72 72 72 72 72 72 72 72 73 73 73 73 73 72 72 71 74 74 73 73 73 73 74 74 75 75 74 74 73 72 72 72 73 73 73 74 75 75 77 77 76 77 78 77 76 76 75 76 77 77 77 77 78 78 78 78 77 77 77 77 77 77 77 77 76 76 76 76 76 77 77 78 75 76 76 77 76 75 74 73 75 76 76 76 76 76 76 76 75 75 75 75 75 75 76 76 76 75 75 75 76 76 76 75 75 75 75 75 75 75 74 74 75 75 75 76 75 75 74 74 74 74 74 74 75 75 75 75 75 75 76 77 77 75 72 71 68 68 68 68 68 70 71 71 70 70 69 67 63 62 63 64 65 65 64 63 63 61 59 58 57 43 44 30 5 1 69 72 196 190 175 98 161 139 116 82 179 179 141 157 171 203 217 202 211 207 206 211 216 209 196 173 188 216 191 205 205 211 202 212 218 220 213 225 200 175 175 195 192 209 205 200 204 209 213 212 186 212 201 201 220 207 217 201 211 240 218 241 207 170 160 90 171 186 140 126 110 34 25 29 25 42 29 16 36 118 133 129 129 152 127 111 115 107 111 60 47 27 19 30 37 54 34 9 44 85 83 76 45 17 20 21 55 9 11 9 57 97 65 56 62 83 76 72 70 58 123 148 145 144 141 172 165 160 180 140 126 247 67 57 63 71 52 71 65 54 54 30 35 43 14 15 216 68 81 89 66 54 62 53 43 42 68 109 117 88 66 66 70 51 31 31 55 81 92 89 82 76 68 55 39 53 42 113 78 84 107 105 102 103 107 106 
47 51 58 53 51 56 40 51 23 96 79 22 36 144 127 131 146 130 123 131 158 189 84 252 149 29 66 48 45 54 55 55 56 57 57 57 57 57 57 57 57 57 57 57 58 58 58 58 57 58 59 58 58 58 57 58 58 58 58 58 58 58 58 59 59 60 60 60 59 59 59 59 59 59 59 60 60 60 60 60 60 60 60 60 59 59 59 59 59 59 60 60 61 60 60 60 60 60 60 60 61 61 61 61 60 60 62 63 63 62 61 61 64 64 64 64 65 65 65 65 64 64 64 65 65 65 65 65 65 65 65 65 65 65 65 65 65 65 65 65 66 66 66 66 65 66 67 67 67 67 67 68 68 67 66 66 67 67 67 67 65 66 67 68 68 68 69 70 68 68 68 68 69 69 69 69 69 69 69 69 69 69 69 69 69 69 69 70 70 71 71 71 70 70 70 70 71 71 71 71 70 70 70 71 71 71 71 71 72 72 72 72 72 72 72 72 72 72 72 72 72 73 73 73 74 71 75 69 78 77 71 73 77 69 77 80 71 74 76 68 72 72 72 72 71 71 71 72 72 72 72 72 72 72 72 72 71 72 72 72 72 72 71 71 72 72 72 72 72 72 72 72 72 72 72 72 72 72 72 72 71 71 71 71 71 71 72 72 71 71 71 71 71 71 71 71 72 72 73 73 73 72 72 71 74 74 73 73 73 73 74 74 74 74 75 74 73 72 72 73 73 73 73 74 74 74 76 76 76 77 78 77 76 75 75 76 76 76 77 77 77 77 78 78 76 76 76 76 76 76 76 76 76 76 76 76 76 76 77 77 75 76 76 76 76 75 74 74 74 75 76 76 75 75 76 77 75 75 75 75 75 75 76 76 76 75 75 75 76 76 76 75 75 75 75 75 75 74 74 74 75 75 75 76 75 75 74 74 74 74 74 74 75 75 75 75 76 75 75 76 76 75 72 71 70 71 71 69 69 71 72 71 71 70 68 65 62 62 63 64 66 65 63 63 62 60 58 56 38 50 43 31 5 1 22 141 202 185 73 109 166 190 96 9 174 166 168 190 176 171 173 221 198 201 215 203 210 156 139 89 150 223 211 201 202 215 203 208 224 195 190 168 177 200 197 201 189 189 205 203 223 220 186 220 200 198 86 106 215 218 218 198 226 248 205 176 165 171 210 152 115 172 161 155 155 15 28 19 24 25 26 27 39 70 103 143 132 138 138 129 102 61 67 75 21 38 38 79 35 82 70 62 76 44 44 73 42 82 45 62 67 45 85 49 35 49 41 66 68 45 50 92 72 35 65 137 153 148 162 155 151 173 165 141 140 58 43 65 71 87 75 63 61 66 53 56 33 38 54 0 166 140 32 72 49 57 42 58 94 106 101 77 65 67 58 40 22 46 82 104 93 72 70 83 72 48 33 48 70 78 58 93 114 46 88 90 89 89 92 94 
56 56 60 53 54 52 66 53 38 115 89 55 29 112 101 3 25 31 24 30 30 41 25 164 74 24 53 64 57 64 56 51 56 57 57 57 57 57 57 57 56 57 57 57 58 58 58 59 56 57 58 58 58 58 57 58 58 58 58 58 57 58 58 60 59 60 60 60 59 59 59 59 59 59 59 59 59 60 60 60 59 59 59 59 60 60 60 60 58 59 59 60 61 61 61 60 61 61 61 61 61 61 61 61 61 61 62 62 62 62 62 62 64 64 64 64 65 65 65 65 64 64 64 64 65 65 65 65 65 65 65 65 65 65 64 64 65 65 65 65 65 65 66 66 65 66 67 67 67 66 67 67 67 66 66 66 67 67 67 67 66 67 67 68 67 68 69 69 68 68 68 68 69 69 69 69 69 69 69 69 69 69 69 69 69 69 69 70 70 71 71 71 70 70 70 70 71 71 71 71 70 70 70 70 71 71 71 71 72 72 72 72 72 72 72 72 72 72 72 72 72 72 72 73 74 73 71 72 74 78 65 79 66 65 68 72 77 73 71 72 73 73 73 72 72 72 72 72 72 72 73 72 72 72 72 72 71 71 72 72 72 72 72 71 71 71 71 71 71 71 72 72 72 72 72 72 72 72 72 72 70 70 71 71 72 72 71 71 71 71 71 71 71 71 71 71 71 72 72 73 73 72 72 72 74 74 73 73 73 73 74 74 73 74 75 74 72 72 72 73 73 74 74 74 74 74 74 74 75 77 78 77 75 74 75 77 76 76 76 76 76 76 77 77 76 76 77 77 77 77 77 77 77 76 76 76 76 76 76 76 76 76 76 76 76 76 76 75 75 76 76 76 74 74 75 76 74 75 75 75 75 75 76 76 76 75 75 75 76 76 76 75 75 75 75 75 74 74 74 74 75 75 75 76 75 75 74 74 74 74 74 74 75 75 75 75 75 74 73 73 73 72 71 69 71 72 72 69 69 71 71 69 69 67 66 65 64 65 65 64 66 65 62 62 61 59 56 54 49 46 33 2 7 2 81 184 174 150 162 135 119 225 149 88 176 159 187 197 214 172 158 203 215 197 212 198 209 122 170 167 139 221 216 201 209 225 213 204 172 143 172 184 191 199 192 190 203 209 214 199 206 213 194 202 194 223 122 99 236 220 207 212 181 202 171 153 117 136 157 184 144 117 153 131 115 23 30 40 33 22 29 31 16 90 126 139 136 117 134 122 130 118 65 38 55 49 28 34 48 23 45 131 86 62 65 21 59 74 65 36 57 84 71 36 54 64 45 38 53 59 66 71 23 40 84 100 143 167 159 126 135 164 166 168 153 72 26 74 77 62 83 68 61 71 52 71 32 41 38 8 16 215 40 40 47 67 93 93 88 66 58 63 51 32 44 74 107 105 90 71 74 84 70 43 48 78 83 78 80 69 60 46 123 70 74 98 102 105 102 104 
48 64 46 55 58 60 48 56 54 65 61 45 49 83 143 30 60 62 50 61 57 49 52 32 34 57 57 61 48 54 50 62 57 57 57 57 57 57 57 57 56 56 57 57 58 58 59 59 56 56 57 57 58 58 57 58 58 58 58 58 58 59 60 60 59 60 60 60 59 59 59 59 60 59 59 59 59 59 60 60 59 59 59 59 60 60 60 60 58 58 59 59 60 60 60 60 61 61 61 61 61 61 61 61 63 62 61 61 61 62 63 64 64 64 64 64 65 65 65 65 64 64 64 64 65 65 65 65 65 65 65 65 64 64 64 64 64 66 65 66 66 66 66 66 66 66 67 67 67 66 66 67 67 66 65 65 67 67 67 67 66 67 68 68 67 67 68 68 68 68 68 68 69 69 69 69 69 69 69 69 69 69 69 69 69 69 69 70 70 71 71 71 70 70 70 70 71 71 71 71 70 70 70 70 71 71 71 71 71 71 71 71 71 71 71 71 71 72 72 72 72 72 72 72 71 75 70 77 64 75 64 94 112 71 81 72 74 79 74 71 73 73 73 73 72 72 72 72 72 73 72 72 72 72 72 72 70 71 71 72 72 72 72 72 69 70 70 71 71 72 72 72 72 72 72 72 72 72 72 72 70 70 71 72 72 72 71 71 71 71 71 71 71 71 71 71 71 71 72 72 73 73 72 72 74 74 73 73 73 73 74 74 73 74 75 74 72 71 72 73 74 74 74 75 73 73 73 73 75 76 78 77 75 74 75 77 76 76 76 76 76 76 76 76 76 76 77 77 77 77 77 77 77 77 76 76 75 75 76 76 76 76 76 76 76 76 76 77 75 76 77 76 74 73 73 74 74 74 75 75 75 75 76 76 76 75 75 75 76 76 76 75 75 75 75 75 74 74 74 74 75 75 75 76 75 75 74 74 74 74 74 74 75 75 75 75 76 75 74 74 74 73 71 70 70 72 71 68 67 70 70 67 66 65 64 65 67 67 66 64 66 64 62 61 60 59 55 53 46 38 1 5 1 43 175 164 174 150 185 156 113 78 200 181 138 175 162 178 186 167 213 195 196 206 205 207 206 156 201 193 94 194 230 230 212 192 172 161 175 197 191 183 194 193 192 186 196 204 205 225 212 208 234 206 195 206 236 241 223 251 180 174 178 196 203 108 134 184 143 180 164 122 149 166 114 32 23 25 31 22 17 44 22 51 124 128 143 134 132 124 128 114 95 71 65 90 86 46 60 66 73 69 60 32 34 12 13 48 25 55 77 61 28 58 64 44 70 61 49 38 32 83 58 38 64 35 64 153 151 150 179 172 176 178 169 142 14 32 65 74 64 79 79 58 49 29 27 49 31 50 0 178 136 44 102 99 69 65 62 60 45 35 55 90 102 92 70 74 80 74 49 34 55 87 79 81 69 71 67 50 41 24 87 112 48 96 102 106 92 96 
54 54 55 55 56 56 55 55 49 54 46 58 53 48 165 52 51 52 52 54 55 56 57 57 56 56 56 55 55 54 55 54 57 57 57 57 57 57 57 57 57 57 58 58 58 58 57 57 58 58 58 58 59 59 59 59 59 58 58 59 58 56 57 59 58 59 60 60 59 59 59 59 59 59 59 59 59 59 59 59 59 60 59 60 60 60 60 60 60 61 61 61 61 61 61 62 59 60 61 61 63 62 62 61 62 62 62 62 62 62 62 62 62 62 62 62 63 63 63 63 64 64 63 63 63 63 64 64 65 65 64 64 64 64 65 65 64 64 64 64 65 65 65 65 68 68 67 67 67 67 68 68 68 67 66 67 67 68 67 66 67 67 67 67 67 68 69 69 68 68 68 68 68 68 68 69 70 69 69 69 68 69 69 69 68 68 68 69 69 69 70 70 71 71 71 71 71 71 71 71 71 71 71 71 72 72 72 71 72 72 72 72 71 71 71 71 71 71 71 71 72 72 72 72 73 68 68 75 73 68 72 84 189 157 53 69 76 75 67 77 73 73 73 73 73 73 72 72 71 71 71 71 71 71 71 71 72 72 72 72 71 71 71 71 71 71 71 71 71 71 71 71 72 72 72 72 71 71 71 71 72 72 72 72 72 72 72 72 72 72 72 72 72 72 72 72 73 73 73 73 73 73 73 73 73 73 73 73 73 73 73 73 71 70 70 71 72 73 73 73 74 73 72 73 72 74 75 76 76 77 77 77 75 76 76 78 74 75 76 76 77 77 76 76 79 79 79 78 78 78 77 77 77 77 77 76 76 75 74 74 76 76 76 76 76 76 76 76 76 76 76 76 76 76 76 76 76 76 76 76 76 76 76 76 76 75 75 75 75 75 75 75 74 74 74 74 74 75 76 76 75 75 75 75 75 75 75 75 74 75 75 75 75 75 75 76 74 77 77 75 74 76 73 70 67 68 69 70 69 68 67 66 67 66 65 68 68 67 67 68 64 66 68 57 63 53 50 46 40 21 8 1 6 148 188 189 150 89 135 142 66 124 225 218 155 183 218 179 121 175 193 207 211 212 207 191 212 170 106 164 206 233 205 193 208 193 185 180 191 206 184 182 212 217 211 217 205 209 195 210 207 210 221 202 203 188 213 189 39 139 205 151 174 202 201 184 188 182 181 151 138 114 111 137 73 27 22 35 28 28 24 40 27 39 124 120 125 132 154 132 107 82 81 78 54 41 73 48 60 83 77 12 40 84 38 39 22 86 74 89 89 59 36 51 50 17 26 33 36 41 18 49 84 74 46 87 96 96 138 123 131 162 161 152 183 152 146 101 32 69 62 70 51 53 45 55 49 27 32 34 18 22 243 60 63 59 61 54 28 46 78 101 98 79 72 78 66 62 52 50 72 94 87 63 59 63 65 48 23 33 68 89 70 119 58 63 90 94 100 82 
54 54 55 55 56 56 56 56 56 56 52 50 56 48 84 53 53 53 53 54 55 56 56 56 56 56 56 56 56 56 56 56 57 57 57 57 57 57 57 57 57 57 58 58 58 58 57 57 58 58 58 58 59 59 59 59 59 58 59 60 59 57 58 60 58 59 60 60 59 59 59 59 59 59 59 59 59 59 59 59 60 60 60 60 60 60 60 60 60 61 61 61 61 61 61 62 59 60 61 61 62 62 62 61 62 62 62 62 62 62 62 62 62 62 62 62 63 63 63 63 64 64 63 63 63 63 64 64 65 65 64 64 64 64 65 65 64 64 64 64 66 66 66 66 67 67 67 68 68 68 68 68 68 67 66 67 67 68 67 66 67 67 67 67 67 68 68 69 67 67 68 68 68 68 68 68 69 69 69 68 68 69 69 69 69 69 69 70 70 71 71 71 71 71 71 71 71 71 71 71 71 71 71 71 72 72 72 72 72 72 72 72 71 71 71 71 71 71 71 71 72 72 72 73 73 74 73 74 71 67 62 60 185 150 62 70 73 74 66 73 72 72 73 73 73 73 72 72 71 71 71 71 71 71 71 71 72 72 72 72 71 71 71 71 71 71 71 71 71 71 71 71 72 72 72 72 71 71 71 71 71 71 71 71 71 71 71 71 72 72 72 72 72 72 72 72 72 72 72 72 72 72 72 72 73 73 73 73 73 73 73 73 72 71 71 71 72 72 72 72 73 73 72 72 73 74 75 76 76 76 76 76 75 76 76 78 75 75 76 77 77 77 77 76 78 78 78 78 77 77 76 76 75 76 76 76 76 75 75 74 76 76 76 76 76 76 76 76 76 76 76 76 76 76 76 76 75 75 75 75 75 75 75 75 75 75 75 75 75 75 74 74 74 74 74 75 75 75 75 75 75 75 75 75 75 75 75 75 74 75 75 75 75 75 75 76 76 78 77 75 74 75 72 69 69 69 68 68 67 67 67 66 69 67 66 67 67 65 64 65 64 64 62 62 57 53 45 38 22 23 2 5 69 181 163 155 117 94 175 162 129 151 175 218 170 204 199 171 212 217 185 181 196 214 206 199 187 219 207 196 183 110 140 144 105 146 182 193 202 201 182 184 202 211 218 222 224 217 196 200 186 205 218 204 196 196 202 134 50 129 232 174 182 201 194 188 174 165 177 152 133 62 164 179 84 12 26 33 33 28 29 38 26 33 115 132 128 120 85 117 101 109 75 62 42 25 16 51 29 70 70 37 34 76 78 80 43 27 96 85 120 99 38 60 57 97 6 23 68 58 49 53 33 75 98 108 145 135 150 155 153 162 155 152 171 162 89 244 154 16 71 43 52 61 64 67 47 36 37 26 51 0 185 116 13 46 40 49 81 84 78 66 70 79 69 48 40 56 77 87 81 74 81 94 66 40 39 65 85 89 86 79 75 89 101 61 85 95 106 99 
54 54 55 55 55 56 56 55 55 56 56 51 57 54 38 58 53 54 54 54 55 55 55 56 56 56 56 56 56 57 57 57 57 57 57 57 57 57 57 57 57 57 58 58 58 58 57 57 58 58 58 58 59 59 59 59 59 58 59 60 59 57 58 60 58 59 60 60 59 59 59 59 59 59 59 59 59 59 59 59 60 60 60 60 60 60 60 60 60 61 61 61 61 61 61 62 59 60 60 61 62 62 62 61 62 62 62 62 62 62 62 62 62 62 62 62 63 63 63 63 64 64 63 63 63 63 64 64 65 64 64 64 64 64 64 65 64 64 64 64 65 65 66 66 66 66 67 68 68 68 68 67 68 67 66 67 67 68 67 66 67 67 67 67 67 67 67 68 67 67 67 67 68 68 68 68 69 69 68 68 68 68 69 69 69 69 69 70 70 70 71 71 71 71 71 71 71 71 71 71 71 71 71 71 71 72 72 72 72 72 72 71 71 71 71 71 72 72 72 72 71 71 71 72 71 75 75 71 72 75 68 55 110 91 57 66 73 74 71 74 72 72 72 73 73 72 72 72 71 71 71 71 71 71 71 71 72 72 72 72 71 71 71 71 71 71 71 71 71 71 71 71 72 72 72 72 71 71 71 71 71 71 71 71 71 71 71 71 72 72 72 72 72 72 72 72 72 72 72 72 72 72 72 72 73 73 73 73 73 73 73 73 74 73 71 71 72 72 71 71 71 72 72 73 73 74 75 75 76 75 74 75 75 76 76 76 76 76 77 77 77 77 77 76 78 77 77 77 76 76 76 76 74 74 75 75 75 75 75 75 76 76 76 76 76 76 76 76 76 76 76 76 76 76 76 76 75 75 75 75 75 75 75 75 75 75 75 75 75 74 74 74 74 75 75 75 75 75 74 73 75 75 75 75 75 75 75 75 74 75 75 75 75 75 75 76 75 77 76 75 74 74 72 70 70 69 67 65 66 66 67 68 69 67 66 66 66 64 63 64 64 63 60 69 55 60 46 31 16 24 1 5 176 156 188 145 141 180 200 170 168 210 173 116 177 189 162 199 220 215 221 221 202 179 172 235 219 217 224 196 103 108 130 70 78 187 187 216 185 184 187 202 208 206 205 195 202 212 220 229 188 206 216 213 202 208 198 193 186 211 254 187 168 199 195 202 191 173 176 158 160 148 138 207 155 62 21 30 33 28 23 33 42 34 88 124 127 119 101 148 154 127 94 63 46 45 32 43 25 19 123 74 59 60 52 90 104 59 38 70 55 81 57 54 81 107 25 8 32 37 42 72 65 78 84 148 152 150 143 152 142 152 165 183 168 174 56 164 248 10 28 58 77 76 52 50 55 62 45 37 40 35 29 221 40 66 97 85 68 65 69 71 55 36 43 66 90 92 85 75 77 80 61 35 54 82 103 93 72 70 67 57 29 34 87 71 77 100 108 101 
54 54 55 56 56 56 55 55 50 55 55 59 54 57 53 56 54 54 54 54 55 55 55 55 56 56 56 56 56 57 57 57 57 57 57 57 57 57 57 57 57 57 58 58 58 58 57 57 58 58 58 58 59 59 59 59 59 58 59 60 59 57 58 60 58 59 60 60 59 59 59 59 59 59 59 59 59 59 59 59 60 60 60 60 60 60 60 60 60 61 61 61 61 61 61 62 60 60 60 61 62 62 62 62 62 62 62 62 62 62 62 62 62 62 62 62 63 63 63 63 64 64 63 63 63 63 64 64 65 64 64 64 64 64 64 65 64 64 64 64 65 65 66 65 65 66 67 68 69 68 68 67 68 67 66 67 67 68 67 66 68 67 67 66 66 66 66 67 67 67 67 67 67 68 68 68 68 68 68 68 68 68 69 69 67 68 68 68 69 69 69 70 71 71 71 71 71 71 71 71 71 71 71 71 71 71 72 71 71 71 71 71 71 71 71 71 72 72 72 72 71 71 71 72 71 74 72 69 72 79 76 67 66 64 71 76 74 72 70 72 72 72 72 73 73 72 72 72 71 71 71 71 71 71 71 71 72 72 72 72 71 71 71 71 71 71 71 71 71 71 71 71 72 72 72 72 71 71 71 71 71 71 71 71 71 71 71 71 72 72 72 72 72 72 72 72 72 72 72 72 72 72 72 72 73 73 73 73 73 73 73 73 73 73 71 71 72 72 71 72 70 70 72 72 72 74 74 74 76 74 74 73 75 76 75 74 76 77 77 77 77 77 76 76 78 78 77 77 77 76 76 76 72 73 74 74 75 76 76 76 76 76 76 76 76 76 76 76 76 76 76 76 76 76 76 76 75 75 75 75 75 75 75 75 75 75 75 75 74 74 74 74 73 74 75 76 76 75 74 73 75 75 75 75 75 75 75 75 74 75 75 75 75 75 75 76 74 75 75 75 75 75 73 72 69 69 67 66 67 68 69 69 67 65 64 65 65 64 64 65 68 65 66 68 58 66 49 17 3 4 1 85 168 155 166 201 147 173 194 164 207 204 202 180 133 11 65 217 210 222 222 182 149 209 219 202 189 209 215 130 56 180 106 80 148 193 200 211 181 183 183 193 200 201 205 199 205 195 197 212 171 194 190 183 212 215 187 204 218 200 223 223 162 185 181 182 194 174 167 167 176 157 138 181 176 234 31 25 27 23 32 39 25 24 106 127 148 150 144 149 158 66 36 48 22 38 63 76 90 46 47 60 47 67 61 37 74 82 67 73 52 52 34 38 28 44 42 50 37 45 34 42 46 70 73 139 169 171 166 164 168 179 167 161 172 168 147 27 247 176 43 77 73 76 59 65 65 61 41 53 19 55 1 172 154 64 74 66 78 61 43 41 59 80 86 81 73 74 72 59 39 36 62 94 94 82 78 76 63 47 43 47 89 87 64 96 63 84 99 93 
53 54 55 56 56 56 55 54 55 54 54 56 53 53 62 51 54 54 54 54 55 55 55 55 57 57 57 57 57 56 56 56 57 57 57 57 57 57 57 57 58 58 57 57 57 57 58 58 58 58 58 58 59 59 59 59 59 58 59 60 59 58 58 60 58 59 60 60 59 59 59 59 59 59 59 59 59 59 59 59 61 61 61 61 61 61 61 61 60 61 61 61 61 61 61 62 60 60 60 60 61 62 62 62 62 62 62 62 62 62 62 62 62 62 62 62 63 63 63 63 64 64 63 63 63 63 64 64 64 64 64 63 63 64 64 64 64 64 64 64 65 65 65 65 64 65 67 68 68 68 67 67 68 67 66 67 67 68 67 66 68 67 67 66 66 66 66 66 66 66 66 67 67 67 67 67 68 67 67 67 67 68 69 69 67 67 68 68 68 69 69 69 69 69 69 69 69 69 69 69 69 69 70 70 70 70 70 70 71 71 71 71 71 71 71 71 72 72 72 72 71 71 71 72 73 73 70 70 70 73 73 72 72 68 83 76 70 69 72 73 71 72 72 72 72 72 72 71 71 71 71 71 71 71 71 71 72 72 72 72 71 71 71 71 72 72 72 72 72 72 72 72 72 72 72 72 71 71 71 71 71 71 71 71 71 71 71 71 72 72 72 72 72 72 72 72 72 72 72 72 72 72 72 72 72 72 72 72 72 72 72 72 73 72 72 72 72 72 72 72 70 70 72 71 73 73 74 74 76 74 72 73 75 76 75 75 78 77 77 77 77 76 76 75 78 78 78 77 77 77 76 76 72 72 73 74 75 76 76 76 75 75 75 75 75 75 75 75 75 75 75 75 75 75 75 75 75 75 75 75 75 75 75 75 75 75 75 75 74 74 74 74 72 73 74 76 76 76 75 74 75 75 75 75 75 75 75 75 74 75 75 75 75 75 75 76 76 76 75 75 75 73 71 70 68 68 68 68 69 69 70 70 67 65 64 65 64 63 63 65 69 66 71 61 62 66 53 9 2 0 23 188 156 165 135 177 186 189 128 205 210 183 197 223 171 1 119 227 200 204 193 196 201 213 205 195 206 216 197 149 143 189 152 162 188 210 204 203 182 193 182 182 197 205 212 217 214 199 201 220 178 196 196 198 218 218 196 171 195 180 214 253 191 164 175 181 195 172 163 165 164 152 190 206 161 144 179 21 31 34 25 31 35 19 110 175 154 143 148 155 150 139 101 57 56 59 96 87 56 51 63 81 100 54 70 41 72 81 25 73 104 37 33 44 41 35 60 107 56 37 50 60 34 67 75 60 128 152 190 167 160 167 166 181 175 161 183 112 129 106 46 69 72 70 75 81 59 63 49 11 60 134 23 27 185 43 60 46 25 43 73 91 86 72 71 80 74 41 23 47 87 104 93 77 80 75 57 43 51 73 93 102 81 81 31 93 78 68 87 88 
53 54 55 55 56 56 54 54 61 53 56 47 60 53 49 58 54 54 54 54 55 55 55 55 57 57 57 57 57 56 56 56 57 57 57 57 57 57 57 57 58 58 57 57 57 57 58 58 58 58 58 58 59 59 59 59 59 59 59 60 60 58 58 61 58 59 60 60 59 59 59 59 59 59 59 59 59 59 59 59 61 61 61 61 61 61 61 61 60 61 61 61 61 61 61 62 61 60 60 60 61 62 62 63 62 62 62 62 62 62 62 62 62 62 62 62 63 63 63 63 64 64 63 63 63 63 64 64 64 64 64 63 63 64 64 64 64 64 64 64 65 65 65 65 65 66 67 67 68 68 67 67 68 67 66 67 67 68 67 66 67 67 66 66 65 65 66 66 66 66 66 66 67 67 67 67 67 67 67 67 67 68 68 69 68 68 69 69 70 70 70 70 69 69 69 69 69 69 69 69 69 69 69 70 70 70 70 70 70 70 70 71 71 71 71 71 72 72 72 72 71 71 71 72 73 71 71 74 73 69 69 72 71 65 69 68 69 76 76 73 71 72 72 72 72 72 72 71 71 71 71 71 71 71 71 71 72 72 72 72 71 71 71 71 72 72 72 72 72 72 72 72 72 72 72 72 71 71 71 71 71 71 71 71 71 71 71 71 72 72 72 72 72 72 72 72 72 72 72 72 72 72 72 72 72 72 72 72 72 72 72 72 73 72 71 72 72 73 72 72 71 71 71 71 71 72 74 74 75 74 73 73 74 75 77 76 78 77 77 77 76 75 75 74 78 78 78 78 77 77 77 76 73 73 74 75 76 76 76 76 75 75 75 75 75 75 75 75 75 75 75 75 75 75 75 75 75 75 75 75 75 75 75 75 75 75 75 74 74 74 74 74 72 73 74 75 76 76 75 75 75 75 75 75 75 75 75 75 74 75 75 75 75 75 75 76 78 77 76 76 74 71 68 68 69 69 68 68 69 69 69 69 69 66 65 65 63 62 62 64 62 61 68 58 67 70 63 29 32 11 96 176 174 135 184 172 194 165 163 200 210 224 183 189 172 133 190 224 217 227 206 219 222 204 206 220 210 222 194 201 199 183 176 194 184 190 183 175 180 194 186 189 204 202 199 201 187 194 209 231 186 188 197 207 207 208 192 183 192 202 190 210 228 160 174 203 196 177 177 164 138 113 214 230 158 76 131 134 11 25 30 27 40 22 107 185 144 170 149 142 171 148 70 63 79 84 78 40 56 46 79 24 34 67 85 107 91 70 45 68 68 65 32 53 52 74 60 69 61 38 36 54 59 58 58 51 56 84 163 171 176 172 158 170 158 175 159 166 104 36 66 65 71 80 69 82 78 37 66 135 163 140 86 1 175 101 21 59 91 94 90 75 67 62 47 28 31 64 94 98 89 84 79 74 40 50 61 76 92 92 78 72 66 54 41 61 89 57 85 106 
54 54 54 54 56 56 54 54 57 53 55 50 61 54 49 60 54 55 55 55 56 56 55 55 57 57 57 57 57 57 57 57 57 57 57 57 57 57 57 57 58 58 57 57 57 57 58 58 57 57 57 57 59 59 59 59 60 59 59 61 59 57 58 61 58 59 60 60 59 59 59 59 59 59 59 59 59 59 59 59 61 61 61 61 61 61 61 61 60 61 61 61 61 61 61 62 61 60 60 60 61 61 62 63 62 62 62 62 62 62 62 62 62 62 62 62 63 63 63 63 64 64 63 63 63 63 64 64 64 64 63 63 63 63 64 64 64 64 64 64 65 65 65 65 66 66 66 67 67 67 67 67 68 67 66 67 67 68 67 66 66 66 66 65 65 65 66 66 66 66 66 66 66 66 67 67 66 66 66 66 67 68 68 69 68 68 69 69 69 70 70 70 69 69 69 69 69 69 69 69 69 69 69 69 70 70 70 70 70 70 70 70 71 71 71 71 71 71 71 71 72 72 72 73 71 70 71 73 75 72 73 74 74 74 69 73 74 76 72 69 71 71 72 72 72 72 71 71 71 71 71 71 71 71 71 71 72 72 72 72 71 71 71 71 72 72 72 72 72 72 72 72 72 72 72 72 71 71 71 71 71 71 71 71 71 71 71 71 73 73 73 73 73 73 73 73 73 73 73 73 73 73 73 73 72 72 72 72 72 72 72 72 74 73 72 72 73 73 71 71 72 72 70 70 70 71 73 75 75 74 75 74 74 75 77 78 78 77 76 76 75 75 74 73 78 78 77 77 76 76 76 76 75 76 76 77 77 77 77 76 76 76 76 76 76 76 76 76 76 76 76 76 76 76 76 76 76 76 76 76 76 76 76 76 75 75 74 74 74 74 74 74 74 74 74 74 75 75 75 75 75 75 75 75 75 75 75 75 74 75 75 75 75 75 75 76 78 76 75 76 75 71 68 69 71 70 68 66 65 65 66 66 69 66 65 65 64 62 63 65 59 60 62 62 66 67 65 57 4 40 197 194 183 151 189 206 221 150 197 217 124 170 213 193 186 246 224 221 204 219 215 211 203 196 200 199 198 227 184 190 205 167 188 183 182 183 147 192 193 189 185 195 197 187 188 188 210 208 198 208 183 187 196 188 205 214 202 205 167 196 174 183 235 188 160 190 177 177 186 167 170 101 122 246 103 101 46 80 196 33 12 42 40 13 98 188 160 162 168 159 139 62 61 108 49 16 55 78 75 86 82 55 95 68 70 84 58 74 90 71 83 105 67 34 61 64 70 56 45 65 45 40 80 65 64 67 79 108 170 182 163 155 158 177 168 170 188 190 174 52 23 69 78 69 75 74 50 75 182 188 141 133 107 19 40 216 78 80 77 66 64 62 45 30 49 84 104 87 76 76 70 55 45 45 71 101 104 82 78 82 72 59 44 40 70 62 90 70 71 94 
54 54 54 54 56 55 54 54 50 57 51 59 52 50 63 49 55 55 55 55 56 56 55 55 56 56 56 57 57 58 58 59 57 57 57 57 57 57 57 57 58 58 57 57 57 57 58 58 57 57 57 57 59 59 59 59 60 59 59 61 59 57 58 60 58 59 60 60 59 59 59 59 59 59 59 59 59 59 59 59 61 61 61 61 61 61 61 61 60 61 61 61 61 61 61 62 61 60 60 59 61 61 62 63 62 62 62 62 62 62 62 62 62 62 62 62 63 63 63 63 64 64 63 63 63 63 64 64 64 64 63 63 63 63 64 64 64 64 64 64 65 65 65 65 67 67 66 66 66 66 66 67 68 67 66 67 67 68 67 66 66 66 65 65 65 65 66 66 65 66 66 66 66 66 66 66 66 66 66 66 67 67 68 69 67 67 67 68 68 68 69 69 69 69 69 69 69 69 69 69 69 69 69 69 70 70 70 70 70 70 70 70 71 71 71 71 71 71 71 71 72 72 72 73 73 72 69 68 70 73 73 72 69 78 67 72 68 68 70 75 71 71 72 72 72 72 71 71 71 71 71 71 71 71 71 71 72 72 72 72 71 71 71 71 72 72 72 72 72 72 72 72 72 72 72 72 71 71 71 71 70 70 70 70 70 70 70 70 73 73 73 73 73 73 73 73 72 72 72 72 72 72 72 72 72 72 72 72 72 72 72 72 75 74 73 72 73 72 70 70 73 72 70 68 69 71 73 74 74 76 76 75 74 75 77 79 77 76 76 76 75 74 73 72 77 77 76 76 76 75 75 75 76 77 77 77 77 77 76 76 76 76 76 76 76 76 76 76 76 76 76 76 76 76 76 76 75 75 75 75 75 75 75 75 74 74 74 74 74 74 74 73 75 75 75 74 74 74 74 75 75 75 75 75 75 75 75 75 74 75 75 75 75 75 75 76 75 74 73 76 75 72 70 73 73 71 67 64 62 62 63 64 67 64 64 65 64 64 65 68 64 65 58 66 59 56 53 67 25 127 202 206 157 155 173 209 184 170 214 176 214 170 132 154 215 211 225 222 206 208 214 199 200 201 208 188 200 192 166 215 177 176 182 174 161 170 190 194 198 179 187 212 203 187 190 182 204 212 195 195 177 180 198 184 166 188 211 202 173 200 200 169 207 227 163 185 182 191 182 154 179 129 88 124 70 118 65 12 108 25 32 25 39 21 79 199 159 161 175 159 116 122 174 139 77 52 54 92 98 96 63 60 93 70 13 113 119 146 55 17 97 69 58 63 61 57 20 73 58 55 59 60 74 70 118 101 107 124 152 174 159 167 172 171 185 180 156 187 150 79 74 44 71 74 70 78 70 45 131 159 147 140 154 73 2 175 105 47 69 54 41 45 70 94 95 83 64 75 74 54 40 55 86 108 97 83 73 82 79 50 40 60 88 87 93 71 59 78 59 86 
53 55 54 53 54 55 54 52 53 55 55 53 52 54 55 55 55 55 56 56 56 56 55 55 55 56 57 57 56 56 57 58 56 56 56 56 56 56 56 56 54 55 56 56 57 57 57 58 57 58 59 58 58 57 59 60 59 59 58 58 58 58 58 58 59 59 59 59 58 58 59 60 59 59 58 58 58 58 58 59 61 59 59 61 61 59 59 61 59 60 61 61 61 60 60 61 60 59 59 60 62 62 61 60 62 64 62 61 63 62 60 62 63 62 62 62 63 63 63 62 63 63 63 63 63 63 63 63 62 63 63 63 62 62 64 65 65 64 64 66 66 65 65 66 65 66 67 66 66 65 66 67 66 67 67 66 66 67 67 66 67 65 65 66 66 64 64 66 65 64 64 67 67 66 65 67 66 67 67 67 67 67 67 68 68 68 68 68 68 69 70 70 70 70 69 69 69 69 70 70 68 68 69 69 70 70 71 71 70 71 71 69 68 70 71 71 71 72 72 71 70 70 71 72 70 71 70 70 72 72 71 72 71 72 72 71 73 72 70 68 73 73 72 72 72 72 71 71 72 72 72 72 72 72 72 72 71 73 73 71 71 72 72 70 71 71 71 71 72 72 73 72 72 72 72 72 71 71 71 71 69 70 71 71 71 71 72 73 71 73 73 71 71 72 73 73 72 73 73 72 71 73 74 74 71 71 71 70 71 71 72 72 71 74 75 73 71 71 72 71 77 65 68 62 46 65 70 77 73 73 73 74 74 76 77 76 76 76 76 74 74 75 75 74 77 76 74 74 75 76 76 76 76 77 78 77 75 75 76 78 76 76 76 77 76 76 75 75 74 75 75 76 76 76 76 75 75 76 76 76 75 75 75 76 74 74 74 75 74 74 73 73 73 73 73 74 74 74 74 73 74 74 75 75 75 75 74 74 74 74 75 75 75 75 74 74 75 76 76 74 73 71 69 70 69 67 65 66 67 68 67 65 65 65 65 64 62 61 62 63 61 64 66 57 47 55 62 53 44 189 203 160 104 119 197 205 119 152 195 198 215 160 149 202 211 207 214 216 209 199 191 198 204 210 190 182 196 150 187 206 166 199 177 166 160 165 206 205 185 186 196 197 200 181 181 190 188 189 200 196 187 184 192 201 186 136 195 219 187 196 187 162 177 239 170 172 211 208 191 172 170 137 154 83 112 178 99 14 28 27 27 27 37 20 22 161 161 154 147 171 173 159 160 141 155 109 27 47 46 49 60 63 22 59 22 42 94 118 69 52 99 54 29 80 81 35 62 76 45 58 56 72 45 95 116 163 149 157 169 159 158 168 172 167 167 181 164 165 182 122 242 113 29 73 72 65 63 55 57 188 179 135 37 30 23 58 180 17 30 66 91 94 92 75 63 71 55 50 55 79 99 94 81 79 70 75 57 44 53 78 95 89 75 67 101 75 53 83 56 69 
53 55 54 53 54 55 54 52 53 55 55 53 52 54 55 56 54 55 56 56 56 56 55 55 55 56 57 57 56 56 57 58 56 56 56 56 56 56 56 56 54 55 56 56 57 57 57 58 57 58 59 58 58 57 59 60 59 59 58 58 58 58 58 58 60 59 59 59 58 58 59 60 59 59 58 58 58 58 59 59 61 59 59 61 61 59 59 61 59 60 61 61 61 60 61 61 60 59 59 60 62 62 61 60 62 64 62 61 63 62 60 62 63 62 62 62 63 63 63 62 63 63 63 63 63 63 63 63 62 63 63 63 62 62 64 65 65 64 64 66 66 65 65 66 65 66 67 66 66 65 66 67 66 67 67 66 66 67 67 66 67 65 65 66 66 64 64 66 65 64 64 67 67 66 65 67 66 67 67 67 67 67 67 68 68 68 68 68 68 69 70 70 70 70 69 69 69 69 70 70 69 69 69 69 70 70 70 70 70 71 71 69 68 70 71 71 71 72 72 71 70 70 71 72 70 71 70 70 72 72 71 72 72 72 72 71 72 71 69 69 72 72 72 72 72 72 72 72 72 72 72 72 72 72 72 72 71 73 73 71 71 72 72 70 71 71 71 71 72 72 73 73 72 72 72 72 71 71 71 71 69 70 71 71 71 71 72 73 70 73 73 71 71 72 73 73 72 73 73 72 72 72 73 73 71 71 71 70 71 71 72 72 70 73 74 72 71 72 72 71 70 81 51 65 70 64 74 75 73 72 72 73 74 76 77 76 76 76 76 74 74 75 75 74 76 75 74 74 75 76 77 77 76 77 78 77 75 75 76 77 76 76 76 77 76 76 75 75 75 75 75 76 76 76 76 76 75 76 76 76 75 75 75 76 74 74 74 75 74 74 73 73 73 73 73 74 74 74 74 73 74 74 75 75 75 75 74 74 74 74 75 75 75 75 74 74 74 75 75 74 73 71 71 71 68 66 65 66 67 67 66 64 65 65 66 64 62 62 63 64 61 57 60 64 68 71 53 21 1 171 218 139 101 146 182 204 190 144 171 176 67 126 226 232 212 208 210 210 209 195 182 189 187 195 184 178 191 133 162 199 178 189 169 176 188 189 199 183 190 187 188 182 185 173 181 192 177 166 160 185 193 184 180 188 211 178 193 210 195 195 199 187 175 201 203 164 192 217 192 180 164 159 157 69 78 110 157 9 31 31 29 26 39 24 91 188 160 161 162 173 170 158 161 159 150 101 30 48 69 67 87 81 34 42 65 31 30 59 52 92 94 62 52 98 94 84 79 82 81 71 93 61 64 79 126 164 186 176 173 163 149 156 161 174 181 189 169 177 187 154 189 228 38 63 68 68 65 58 53 119 95 11 32 24 51 4 179 121 84 88 77 68 74 66 49 47 57 94 105 81 70 78 78 68 50 52 67 99 104 78 68 73 71 64 39 40 81 98 52 50 
53 54 54 53 54 55 55 54 54 56 56 54 52 54 55 56 54 55 56 56 56 56 55 55 54 55 57 57 56 56 56 58 56 56 56 56 56 56 56 56 54 55 56 56 57 57 57 58 57 58 59 58 58 57 59 60 59 59 58 58 58 58 59 58 60 59 59 59 58 58 59 60 58 58 58 58 58 59 59 60 61 59 59 61 61 59 59 61 59 60 61 61 61 60 61 61 60 59 59 60 62 62 61 60 62 64 62 61 63 62 60 62 62 62 61 62 63 64 63 63 63 63 63 63 63 63 63 63 62 63 63 63 62 62 64 65 65 64 64 66 66 65 65 66 65 66 67 66 66 65 66 67 66 67 67 66 66 67 67 66 67 65 65 66 66 64 64 66 65 64 64 67 67 66 65 67 66 67 67 67 67 67 67 68 68 68 68 68 68 69 70 70 69 69 69 69 69 69 69 69 69 69 69 69 70 70 70 70 70 71 71 69 68 70 71 71 71 72 72 71 70 70 71 72 70 69 69 71 73 73 71 71 73 73 70 70 71 71 70 70 72 72 72 72 72 72 72 72 72 72 72 72 72 72 72 72 71 73 72 71 71 72 72 70 71 71 71 71 73 73 73 73 72 72 72 72 71 71 71 71 69 70 71 71 71 71 72 73 70 72 73 71 71 72 73 72 72 72 72 72 72 72 73 73 71 71 71 70 71 71 72 72 70 72 73 72 71 72 73 72 73 69 54 209 238 87 49 82 73 72 73 74 74 76 77 77 76 76 76 74 74 75 75 74 76 75 74 74 75 77 77 77 76 77 78 77 76 75 76 77 76 76 76 77 76 76 75 75 75 75 76 76 76 76 76 76 75 76 76 76 75 75 75 76 74 74 74 75 74 74 73 73 72 73 73 74 74 74 74 74 74 74 75 75 75 75 74 74 74 74 75 75 75 75 74 74 74 74 75 74 73 72 71 71 68 66 65 65 66 66 65 63 65 65 65 64 63 63 65 66 70 62 59 57 58 67 65 44 16 47 195 178 74 133 182 181 169 133 141 116 136 118 190 198 213 213 210 206 211 197 176 188 180 187 182 167 173 94 103 163 185 182 169 177 191 190 189 183 175 179 184 178 183 175 182 190 185 174 157 218 229 188 156 159 201 195 175 194 201 187 197 194 179 176 236 163 171 214 194 175 193 177 128 153 70 105 215 82 31 36 28 24 38 28 162 207 159 163 169 167 167 160 157 173 163 119 61 61 81 54 86 78 58 73 68 70 56 35 97 80 77 52 47 74 63 99 64 62 66 72 124 106 95 100 101 128 166 146 144 170 165 165 146 151 137 163 170 161 152 183 143 207 44 56 68 72 64 59 55 56 26 55 27 26 54 12 55 193 46 69 73 62 57 54 66 92 94 75 65 76 78 57 45 54 73 100 96 73 65 75 75 57 51 64 81 98 63 94 140 93 
