P2
# Created by GIMP version 3.2.2 PNM plug-in
250 301
255
239
239
239
239
239
239
239
238
238
238
238
238
238
238
238
238
238
238
238
238
238
238
238
238
238
238
238
237
237
237
237
237
237
237
237
237
237
237
237
237
237
237
237
236
236
236
236
236
236
236
236
236
236
236
236
236
236
236
236
236
236
236
236
236
236
236
236
235
235
235
235
234
234
234
234
237
235
230
231
226
238
225
232
234
237
237
235
233
234
235
234
234
234
234
234
234
234
234
234
235
235
235
235
235
235
235
235
233
233
233
233
233
233
233
233
233
233
233
233
233
233
233
233
233
233
233
233
232
232
232
232
233
232
231
230
231
231
231
231
232
232
232
232
232
232
232
232
232
231
232
233
233
230
228
228
231
231
231
231
231
230
230
230
231
231
231
231
232
232
232
232
231
231
231
231
231
231
230
230
232
230
202
213
223
235
204
195
200
212
228
234
228
228
232
231
231
231
231
231
230
230
231
230
229
229
229
229
229
229
229
229
229
229
229
229
229
229
229
229
229
229
229
229
229
229
229
229
229
229
229
229
229
229
229
229
229
229
229
229
228
228
228
228
228
228
228
228
227
227
227
239
239
239
239
239
239
239
238
238
238
238
238
238
238
238
238
238
238
238
238
238
238
238
238
238
238
238
237
237
237
237
237
237
237
237
237
237
237
237
237
237
237
237
236
236
236
236
236
236
236
236
236
236
236
236
236
236
236
236
236
236
236
236
236
236
236
236
235
235
235
235
234
234
234
234
234
229
230
227
215
238
229
231
232
236
238
234
232
234
234
232
234
234
234
234
234
234
234
234
234
234
234
234
234
234
234
234
233
233
233
233
233
233
233
233
233
233
233
233
233
233
233
233
233
233
233
233
232
232
232
232
233
232
231
231
231
231
231
230
232
232
232
232
232
232
232
232
232
231
231
232
232
229
228
228
231
231
231
231
230
230
230
230
231
231
231
231
232
232
232
232
231
231
231
231
231
230
230
229
239
222
183
195
219
221
181
172
174
188
213
230
231
230
231
228
231
231
231
231
230
230
231
230
229
229
229
229
229
229
229
229
229
229
229
229
229
229
229
229
229
229
229
229
229
229
229
229
229
229
229
229
229
229
229
229
229
229
229
229
228
228
228
228
228
228
228
227
227
227
227
239
239
239
239
239
239
239
238
238
238
238
238
238
238
238
238
238
238
238
238
238
238
238
238
238
238
238
237
237
237
237
237
237
237
237
237
237
237
237
237
237
237
237
236
236
236
236
236
236
236
236
236
236
236
236
236
236
236
236
236
236
236
236
236
236
236
236
235
235
235
235
235
235
235
235
231
225
230
223
198
230
226
225
228
234
237
234
232
234
235
232
234
234
234
234
234
234
234
234
233
233
233
233
233
233
233
233
233
233
233
233
233
233
233
233
233
233
233
233
233
233
233
233
233
233
233
233
232
232
232
232
233
233
232
232
232
232
231
230
232
232
232
232
232
232
232
232
233
231
231
231
231
228
227
229
231
231
230
230
230
230
230
230
232
232
232
232
231
231
231
231
231
231
231
231
230
230
230
229
243
209
163
175
209
193
156
160
166
168
190
221
233
231
229
229
230
230
230
230
229
229
229
229
229
229
229
229
229
229
229
229
229
229
229
229
229
229
229
229
229
229
229
229
229
229
229
229
229
229
229
229
229
229
229
229
229
229
229
229
228
228
228
228
228
228
227
227
227
227
227
239
239
239
239
239
239
239
238
238
238
238
238
238
238
238
238
238
238
238
237
237
237
237
237
237
237
237
237
237
237
237
237
237
237
237
236
236
236
236
236
236
236
236
236
236
236
236
236
236
236
236
235
235
235
235
235
235
235
235
235
235
235
235
235
235
235
235
235
235
235
235
235
235
235
235
231
224
231
217
180
215
212
209
225
232
235
234
232
235
235
232
233
233
233
233
233
233
233
233
233
233
233
233
233
233
233
233
232
232
232
232
232
232
232
232
232
232
232
232
232
232
232
232
233
233
233
233
232
232
232
232
233
233
232
233
233
232
231
229
232
232
232
232
232
232
232
232
233
231
230
231
230
228
227
229
230
230
230
230
230
230
230
229
232
232
232
232
231
231
231
231
231
231
231
231
230
230
229
230
242
195
148
164
203
177
147
166
174
159
172
211
233
231
228
232
230
230
230
230
229
229
229
229
229
229
229
229
229
229
229
229
229
229
229
229
229
229
229
229
229
229
229
229
229
229
229
229
229
229
229
229
229
229
229
229
229
229
229
229
228
228
228
228
228
227
227
227
227
227
227
239
238
238
239
239
239
239
238
238
238
238
238
238
238
238
237
237
237
237
237
237
237
237
237
237
237
237
237
237
237
237
237
237
237
237
236
236
236
236
236
236
236
236
236
236
236
236
236
236
236
236
237
236
236
236
236
236
236
236
236
236
236
236
236
236
236
236
233
235
236
235
235
236
233
229
233
219
212
207
178
201
203
148
202
239
237
229
233
232
234
234
234
234
234
234
234
234
234
234
233
233
233
233
233
233
233
233
233
233
233
232
230
231
233
235
232
231
230
231
232
233
232
231
232
232
232
232
232
232
232
232
233
232
231
230
231
233
232
230
232
228
233
234
227
228
233
229
228
233
233
226
225
231
232
228
230
228
229
233
232
227
227
232
231
231
231
230
229
229
230
231
231
231
229
231
234
230
227
234
237
177
134
155
187
162
158
157
166
170
167
189
227
233
225
234
230
230
231
231
230
230
229
229
229
229
229
229
229
229
229
229
230
230
230
230
229
229
229
229
229
229
229
229
229
229
229
229
230
230
230
230
229
229
229
229
229
229
229
229
228
228
228
228
228
228
228
227
227
226
226
239
238
238
239
239
239
239
238
238
238
238
238
238
238
238
237
237
237
237
237
237
237
237
237
237
237
237
237
237
237
237
237
237
237
237
236
236
236
236
236
236
236
236
236
236
236
236
236
236
236
236
236
236
236
236
236
236
236
235
235
235
235
235
235
235
235
235
235
236
236
235
235
234
232
228
231
228
215
191
157
191
195
154
159
224
239
237
234
233
230
234
233
233
233
233
233
233
233
233
233
233
233
233
233
233
233
233
232
233
233
232
231
231
233
234
231
230
229
230
232
232
232
231
232
232
232
232
232
232
232
232
233
232
231
230
231
233
232
229
230
230
233
233
228
228
231
231
229
232
232
227
227
230
230
228
231
229
229
231
229
224
225
230
231
230
229
229
229
230
230
231
230
232
230
229
232
231
227
227
231
153
138
147
171
145
129
149
161
166
168
172
210
236
225
231
230
230
231
231
230
230
229
229
229
229
229
229
229
229
229
229
230
230
230
230
229
229
229
229
229
229
229
229
229
229
229
229
230
230
230
230
229
229
229
229
229
229
229
229
228
228
228
228
228
228
228
227
227
226
226
239
238
238
239
239
239
238
238
238
238
238
238
238
238
237
237
237
237
237
237
237
237
237
237
237
237
237
237
237
237
237
237
237
237
237
236
236
236
236
236
236
236
236
236
236
236
236
236
236
236
236
236
236
236
236
236
236
235
235
235
235
235
235
235
235
235
235
236
237
236
234
233
233
230
227
225
224
214
195
146
163
170
174
149
206
235
234
232
240
231
233
233
233
233
233
233
233
233
233
233
233
233
233
233
233
233
233
232
232
233
233
232
232
232
233
230
229
229
230
231
232
231
231
232
232
232
232
232
232
232
232
232
232
231
230
231
233
232
229
227
232
232
230
230
228
228
233
230
230
229
229
229
229
228
227
232
229
229
229
227
223
224
228
230
229
228
228
230
231
231
230
230
232
231
228
230
233
227
222
223
136
128
151
175
142
115
132
162
167
174
159
192
238
230
231
230
230
230
231
231
230
229
230
229
229
229
229
229
229
229
229
230
230
230
229
229
229
229
229
229
229
229
229
229
229
229
229
230
230
230
229
229
229
229
229
229
229
229
229
228
228
228
228
228
228
228
227
227
226
226
239
238
238
239
239
238
238
238
238
238
238
238
238
237
237
237
237
237
237
237
237
237
237
237
237
237
237
237
237
237
237
237
237
237
237
236
236
236
236
236
236
236
236
236
236
236
236
236
236
236
236
236
236
236
236
236
235
235
235
235
235
235
235
235
235
235
235
236
237
235
233
232
232
229
225
222
211
211
217
161
135
132
181
155
173
233
234
228
241
232
234
233
233
233
233
233
233
233
233
233
233
233
233
233
233
233
233
232
232
232
233
232
232
232
232
230
230
230
230
231
231
231
231
231
231
231
231
231
231
231
231
232
232
231
230
231
232
231
228
225
233
232
228
231
228
226
235
230
227
227
231
232
228
227
228
230
229
229
229
226
223
223
227
230
228
227
228
231
232
231
230
231
231
231
230
230
232
229
222
180
133
125
162
155
115
112
140
161
172
174
157
178
223
232
229
230
230
230
231
231
230
230
230
229
229
229
229
229
229
229
229
230
230
229
229
229
229
229
229
229
229
229
229
229
229
229
229
230
230
229
229
229
229
229
229
229
229
229
229
228
228
228
228
228
228
228
227
227
226
226
238
238
237
238
238
238
238
238
238
237
237
237
237
237
237
237
237
236
236
236
236
236
236
236
236
236
236
236
236
236
236
236
236
236
236
236
236
236
236
236
236
236
236
235
235
235
235
235
235
235
235
236
236
236
236
235
235
235
235
235
235
235
235
235
235
235
235
235
236
235
232
231
230
227
223
220
209
206
222
177
134
118
159
146
123
228
243
228
234
230
236
233
233
233
233
233
233
233
233
232
232
232
232
232
232
232
232
232
232
232
232
232
232
232
231
231
231
231
231
231
231
232
232
231
231
231
231
231
231
231
231
231
231
231
230
231
232
230
227
225
233
231
228
231
228
226
234
228
225
226
231
232
228
226
229
227
228
229
230
227
225
224
226
229
227
226
228
231
233
231
229
233
228
231
234
231
231
228
220
155
130
122
158
137
119
114
152
156
171
165
161
170
198
230
227
229
230
230
230
230
230
230
229
229
229
229
229
229
229
229
229
229
229
229
229
229
229
228
228
229
229
229
229
229
229
229
229
229
229
229
229
229
229
228
228
229
229
229
229
228
228
228
228
228
228
228
227
227
226
226
238
238
237
238
238
238
238
238
237
237
237
237
237
237
237
237
236
236
236
236
236
236
236
236
236
236
236
236
236
236
236
236
236
236
236
236
236
236
236
236
236
236
236
235
235
235
235
235
235
235
235
236
236
236
235
235
235
235
235
235
235
235
235
235
235
235
235
234
235
234
232
230
228
223
219
211
214
197
200
187
166
145
137
152
93
195
240
232
233
231
232
233
233
233
233
233
233
233
233
232
232
232
232
232
232
232
232
232
232
231
231
232
232
232
231
232
232
233
232
231
231
231
232
230
230
230
230
230
230
230
230
231
231
231
230
231
232
229
226
227
230
230
228
229
228
227
231
227
226
228
231
230
227
226
229
226
227
229
228
226
225
225
226
228
227
227
229
231
232
231
229
233
227
231
234
230
232
225
207
142
116
127
148
142
149
110
149
158
169
163
172
169
184
231
232
229
230
230
230
230
230
230
229
229
229
229
229
229
229
229
229
229
229
229
229
229
228
228
228
229
229
229
229
229
229
229
229
229
229
229
229
229
228
228
228
229
229
229
229
228
228
228
228
228
228
228
227
227
226
226
238
237
237
238
238
238
238
237
237
237
237
237
237
237
237
236
236
236
236
236
236
236
236
236
236
236
236
236
236
236
236
236
236
236
236
236
236
236
236
236
236
236
236
235
235
235
235
235
235
235
235
236
236
235
235
235
235
235
235
235
235
235
235
235
235
235
235
234
235
234
231
228
225
219
214
210
214
190
188
199
187
180
143
160
94
147
228
233
233
234
230
233
233
233
233
233
233
233
233
232
232
232
232
232
232
232
232
233
232
230
230
231
232
232
232
232
233
233
232
230
229
230
230
230
230
230
230
230
230
230
230
230
231
230
230
231
231
229
225
230
227
229
230
227
228
230
227
226
228
230
230
227
225
226
228
226
227
227
225
223
223
225
227
227
228
228
229
230
230
230
230
231
228
231
229
228
236
221
182
109
107
139
141
137
132
103
155
164
164
166
174
166
180
224
233
229
229
230
230
230
230
229
229
229
229
229
229
229
229
229
229
229
229
229
229
228
228
228
228
229
229
229
229
229
229
229
229
229
229
229
229
228
228
228
228
229
229
229
229
228
228
228
228
228
228
228
227
227
226
226
238
237
237
238
238
238
238
237
237
237
237
237
237
237
237
236
236
236
236
236
236
236
236
236
236
236
236
236
236
236
236
236
236
236
236
236
236
236
236
236
236
236
236
235
235
235
235
235
235
235
235
236
235
235
235
235
235
235
234
234
234
234
234
234
234
234
234
234
236
235
232
228
223
216
210
221
214
187
196
211
185
191
158
144
100
120
226
231
227
233
235
232
232
232
232
232
232
232
232
232
232
232
232
232
232
232
232
234
232
230
229
231
232
232
232
232
232
233
232
229
228
228
229
230
230
230
230
230
230
230
230
230
231
230
230
231
231
228
224
232
225
228
231
226
229
232
225
226
230
233
230
225
224
225
227
228
228
226
222
219
221
224
227
226
228
229
230
230
229
229
230
229
230
231
225
226
240
217
163
110
117
131
129
142
120
121
166
165
154
164
167
156
174
210
225
228
229
229
230
230
230
229
229
229
229
229
229
229
229
229
229
229
229
229
229
228
228
228
228
229
229
229
229
229
229
229
229
229
229
229
229
228
228
228
228
229
229
229
229
228
228
228
228
228
228
228
227
227
226
226
238
238
238
238
237
237
237
237
237
237
236
237
237
237
237
236
236
236
236
236
236
236
236
236
236
236
236
236
236
236
236
236
236
236
236
236
236
236
236
236
236
236
236
235
235
235
235
235
235
235
235
235
235
235
235
235
235
235
235
235
235
235
235
235
235
235
235
234
234
232
229
225
219
215
213
224
213
212
207
199
171
170
162
139
109
101
193
234
230
223
239
230
236
231
229
236
235
230
234
232
231
230
231
232
233
232
231
234
234
229
228
230
229
233
230
228
230
234
230
230
229
226
234
225
226
231
239
221
229
231
227
233
223
230
228
232
223
229
226
233
227
228
230
222
232
220
229
225
234
229
226
227
219
227
226
225
224
231
223
223
226
220
232
224
224
225
229
227
223
227
233
225
229
232
229
223
234
214
126
117
117
127
123
163
116
136
162
161
159
162
157
157
166
193
234
227
225
232
230
227
232
231
230
230
230
230
230
230
230
230
230
228
228
228
228
228
228
228
228
230
229
229
229
229
229
229
228
229
229
229
229
229
229
229
229
229
228
228
228
228
228
228
227
228
227
227
227
226
226
226
237
237
237
237
237
237
237
237
237
236
236
237
237
237
237
236
236
236
236
236
236
236
236
236
236
236
236
236
236
236
236
236
236
236
236
235
235
235
235
235
235
235
235
235
235
235
235
235
235
235
235
234
234
234
234
234
234
234
234
234
234
234
234
234
234
234
234
234
234
233
229
223
217
214
213
218
220
208
202
198
195
172
131
107
134
116
146
219
217
233
227
230
235
231
229
234
233
229
233
231
232
233
233
231
231
233
235
229
233
227
229
232
227
230
230
223
231
234
231
229
229
229
225
218
231
231
231
225
234
230
231
231
229
232
229
229
227
231
227
227
228
230
229
223
234
224
230
224
227
226
228
222
215
224
230
231
221
232
218
222
223
226
222
221
233
234
228
230
225
225
219
235
226
225
222
232
235
198
116
115
106
122
117
155
132
142
164
159
160
161
158
161
167
182
218
230
227
230
229
228
231
231
231
230
230
230
230
230
230
230
230
228
228
228
228
228
228
228
228
229
229
229
229
229
229
228
228
228
228
228
228
228
228
228
228
229
228
228
228
228
228
228
227
228
227
227
227
226
226
226
237
237
237
237
237
237
237
237
236
236
236
237
237
237
236
236
236
236
236
236
236
236
236
236
236
236
236
236
236
236
236
236
236
236
236
235
235
235
235
235
235
235
235
235
235
235
235
235
235
235
235
234
234
234
234
234
234
234
234
234
234
234
234
234
234
234
234
233
234
232
227
220
214
212
212
217
224
212
215
201
201
179
148
103
123
114
122
190
211
233
231
231
234
231
229
232
231
229
234
226
231
235
234
230
228
232
236
229
231
227
229
233
229
221
230
219
233
232
233
227
227
233
217
214
236
231
225
229
236
227
232
228
234
232
229
224
231
231
228
221
227
229
226
223
231
223
229
229
219
217
228
219
218
225
230
227
228
222
215
219
227
218
220
224
235
231
221
232
224
229
225
226
226
232
226
232
222
175
122
124
109
127
122
147
143
150
171
154
157
156
155
163
164
167
197
234
229
227
228
230
230
230
231
230
230
230
230
230
230
230
230
228
228
228
228
228
228
228
228
229
229
229
229
229
228
228
228
228
228
228
228
228
228
228
228
229
228
228
228
228
228
228
227
228
227
227
227
226
226
226
237
237
237
237
237
237
237
236
236
236
236
237
237
236
236
236
236
236
236
236
236
236
236
236
236
236
236
236
236
236
236
236
236
236
236
235
235
235
235
235
235
235
235
235
235
235
235
235
235
235
235
234
234
234
234
234
234
234
234
234
234
234
234
234
234
234
234
233
233
231
225
217
211
210
210
214
222
219
221
203
195
182
164
131
94
105
128
146
215
224
237
232
232
231
231
231
230
231
235
222
227
232
233
230
228
229
232
234
225
228
223
228
234
207
224
218
232
228
234
228
222
234
215
220
231
230
227
230
232
227
229
227
234
227
229
223
231
227
230
220
224
224
225
226
222
217
227
233
214
204
225
216
226
227
223
220
229
219
207
229
220
211
225
224
227
221
221
237
217
226
231
229
226
218
223
235
227
151
108
108
103
127
146
160
152
158
170
152
156
154
151
161
161
159
186
234
234
227
228
232
229
230
230
230
230
230
230
230
230
230
230
228
228
228
228
228
228
228
228
229
229
229
229
228
228
228
228
228
228
228
228
228
228
228
228
229
228
228
228
228
228
228
227
228
227
227
227
226
226
226
237
237
237
237
237
237
236
236
236
236
236
236
236
236
236
236
236
235
235
235
235
235
235
235
235
235
235
235
235
235
235
235
235
235
235
235
235
235
235
235
235
235
235
234
234
234
234
234
234
234
234
234
234
234
234
234
234
234
234
234
234
234
234
234
234
234
234
233
232
228
222
214
210
209
209
212
220
220
210
208
198
183
144
144
97
106
126
108
203
214
230
234
230
231
232
231
230
232
234
221
224
229
232
232
230
228
227
237
215
224
216
219
239
197
214
218
230
224
233
228
217
229
219
227
220
227
233
229
226
229
227
230
232
222
228
226
229
222
230
223
219
215
224
233
215
213
231
228
215
193
223
213
227
228
218
223
216
225
207
234
204
219
223
219
225
220
230
239
214
220
217
224
231
210
224
226
216
125
98
127
117
118
150
159
141
160
165
156
156
154
148
154
157
157
180
226
235
227
229
233
228
230
229
230
230
230
230
230
230
230
230
228
228
228
228
228
228
228
228
229
229
229
228
228
228
228
228
228
228
228
228
228
228
228
228
229
228
228
228
228
228
228
227
228
227
227
227
226
226
226
237
237
237
237
237
236
236
236
236
236
236
236
236
236
236
236
235
235
235
235
235
235
235
235
235
235
235
235
235
235
235
235
235
235
235
235
235
235
235
235
235
235
235
234
234
234
234
234
234
234
234
234
234
234
234
234
234
234
234
234
234
234
234
234
234
234
234
232
230
224
218
213
209
208
208
223
218
217
213
217
200
191
162
138
117
102
114
104
169
199
233
236
228
229
233
230
229
232
231
223
224
227
231
233
232
228
225
236
213
218
216
215
238
199
202
214
228
223
229
228
216
222
225
228
212
223
233
230
223
231
227
232
229
218
223
231
229
219
226
225
215
205
220
237
213
214
235
222
218
184
228
217
223
229
221
229
212
211
228
207
210
222
214
219
231
221
230
226
217
227
215
213
232
213
230
216
188
111
111
158
137
116
147
162
140
166
164
160
153
150
144
145
151
154
169
209
232
226
229
234
227
231
228
230
230
230
230
230
230
230
230
228
228
228
228
228
228
228
228
229
229
228
228
228
228
228
228
228
228
228
228
228
228
228
228
229
228
228
228
228
228
228
227
228
227
227
227
226
226
226
237
237
237
237
236
236
236
236
236
236
236
236
236
236
236
235
235
235
235
235
235
235
235
235
235
235
235
235
235
235
235
235
235
235
235
235
235
235
235
235
235
235
235
234
234
234
234
234
234
234
234
234
234
234
234
234
234
234
234
234
234
234
234
234
234
234
234
232
227
221
215
212
210
208
208
221
215
215
223
218
203
202
194
146
132
100
109
109
152
176
233
237
227
228
233
229
228
229
225
224
224
225
228
230
230
228
226
230
221
209
222
211
224
205
183
205
226
226
221
225
219
215
226
225
216
223
226
232
223
227
226
229
226
215
213
232
228
217
216
221
210
194
208
233
209
211
228
221
216
162
230
227
221
227
220
224
221
189
220
193
222
213
208
219
226
210
228
210
213
231
220
223
226
202
223
217
165
105
112
142
132
129
156
179
155
170
167
163
145
144
142
141
151
156
160
188
225
225
227
233
227
232
227
230
230
230
230
230
230
230
230
228
228
228
228
228
228
228
228
229
228
228
228
228
228
228
228
228
228
228
228
228
228
228
228
229
228
228
228
228
228
228
227
228
227
227
227
226
226
226
236
236
236
236
236
236
236
236
236
236
235
236
236
236
236
235
235
235
235
235
235
235
235
235
235
235
235
235
235
235
235
235
235
235
235
234
234
234
234
234
234
234
234
234
234
234
234
234
234
234
234
233
233
233
233
233
233
233
233
233
233
233
233
233
233
233
233
232
226
218
213
212
211
209
207
199
214
213
219
209
215
205
184
165
144
114
108
97
162
160
217
239
226
227
233
228
226
226
220
224
224
224
224
225
226
227
227
222
226
200
226
205
206
206
163
197
226
230
215
223
222
211
225
221
225
224
218
235
224
220
223
225
223
213
203
229
226
215
206
216
206
186
196
225
203
205
216
221
208
137
224
235
221
221
211
214
225
186
177
212
217
208
204
214
213
198
232
204
201
218
213
223
226
211
223
207
123
88
115
150
140
142
143
158
141
158
169
164
141
143
145
144
157
162
159
174
220
223
226
232
227
233
227
230
230
230
230
230
230
230
230
228
228
228
228
228
228
228
228
228
228
228
228
228
228
228
227
227
227
227
227
227
227
227
227
229
228
228
228
228
228
228
227
228
227
227
227
226
226
226
237
237
237
236
236
236
236
236
236
236
236
236
236
236
236
236
236
236
236
235
235
235
235
235
235
235
235
235
235
235
235
235
235
235
235
235
235
235
235
235
235
235
235
234
234
234
234
234
234
234
234
233
233
233
233
234
234
234
234
233
233
234
234
232
231
232
234
230
217
208
205
204
205
211
221
212
210
211
210
213
221
208
177
171
157
126
104
120
121
124
218
240
232
222
236
225
230
225
208
218
226
218
211
236
209
229
232
220
209
149
243
226
160
195
200
190
236
232
211
218
221
215
211
216
221
224
227
227
227
223
220
229
206
197
174
229
226
209
204
196
214
173
161
226
202
157
220
216
211
162
219
236
216
200
201
206
232
198
144
234
191
199
207
226
173
193
228
211
206
213
207
230
214
224
197
166
120
112
89
151
154
131
144
141
146
164
165
154
149
150
154
153
148
151
159
158
204
234
224
232
227
229
230
228
228
229
229
229
229
230
230
229
229
229
229
228
228
228
228
229
228
228
228
228
228
228
227
228
228
228
228
228
228
228
228
229
228
228
228
228
228
228
227
227
227
227
226
226
225
225
237
237
237
236
236
236
236
236
236
236
236
236
236
236
236
236
236
236
236
235
235
235
235
235
235
235
235
235
235
235
235
235
235
235
235
235
235
235
235
235
235
235
235
234
234
234
234
234
234
234
234
233
233
233
233
233
234
234
234
233
233
234
234
233
232
232
233
229
214
196
188
192
199
203
205
210
214
217
214
213
218
213
197
166
123
99
102
105
96
110
213
230
231
222
231
234
230
219
207
208
205
233
223
213
205
229
218
211
204
183
219
223
156
152
185
145
201
232
225
213
210
190
226
224
224
227
226
230
227
225
220
229
186
206
184
217
216
199
213
179
199
205
158
213
184
144
210
226
168
158
208
232
194
197
206
205
251
170
147
210
186
186
200
203
135
204
201
215
222
200
205
198
224
228
181
137
110
109
108
150
161
122
127
109
140
162
164
156
155
149
141
139
145
148
146
157
197
230
227
233
229
231
228
229
229
229
229
229
229
229
229
229
229
229
229
228
228
228
228
229
228
228
228
228
228
228
227
228
228
228
228
228
228
228
228
229
228
228
228
228
228
228
227
227
227
227
226
226
225
225
237
237
237
236
236
236
236
236
236
236
236
236
236
236
236
236
236
236
236
235
235
235
235
235
235
235
235
235
235
235
235
235
235
235
235
235
235
235
235
235
235
235
235
234
234
234
234
234
234
234
234
234
234
233
233
233
233
233
233
233
234
234
234
233
233
233
232
225
218
206
199
201
208
207
203
207
213
213
210
213
215
213
214
171
108
89
111
105
95
107
194
226
232
222
221
237
228
216
203
199
212
224
212
204
205
199
229
224
194
170
217
238
165
99
177
142
198
219
225
216
209
185
224
224
217
220
215
227
220
222
214
220
182
198
169
194
211
199
181
177
165
179
144
180
172
125
207
218
151
149
217
230
159
197
187
217
217
156
168
195
150
178
177
198
112
193
226
217
204
203
189
181
220
217
175
123
97
103
137
148
149
104
115
106
156
164
155
158
156
148
138
138
146
148
145
154
186
223
230
231
229
232
226
229
229
229
229
229
229
229
229
229
229
229
229
229
228
228
228
229
228
228
228
228
228
228
227
228
228
228
228
228
228
228
228
229
228
228
228
228
228
228
227
227
227
227
226
226
225
225
237
237
237
236
236
236
236
236
236
236
236
236
236
236
236
236
236
236
236
235
235
235
235
235
235
235
235
235
235
235
235
235
235
235
235
235
234
234
234
234
234
234
235
234
234
234
234
234
234
234
234
234
234
233
233
233
233
233
232
233
234
234
233
234
234
232
230
212
215
213
207
201
201
204
208
206
209
204
205
215
214
211
217
178
120
88
103
101
106
103
151
234
237
230
218
231
230
225
196
202
190
224
213
218
192
202
219
217
193
163
201
243
177
102
155
151
209
198
208
223
213
205
209
230
217
221
213
232
223
228
219
199
204
202
162
169
183
193
158
152
134
155
131
165
166
122
175
206
158
166
224
218
154
187
180
221
183
167
180
180
130
168
171
192
107
202
240
193
198
162
173
177
196
190
160
116
99
117
156
156
130
106
109
125
167
162
156
158
150
144
144
143
140
141
145
150
173
213
233
228
227
232
226
230
230
229
229
229
229
228
228
229
229
229
229
229
229
228
228
229
228
228
228
228
228
228
227
228
228
228
228
228
228
228
228
229
228
228
228
228
228
228
227
227
227
227
226
226
225
225
237
237
237
236
236
236
236
236
236
236
236
235
235
235
235
235
235
235
235
235
235
235
235
235
235
235
235
234
234
234
234
234
234
234
234
234
234
234
233
233
234
234
234
233
233
233
233
233
233
233
233
234
233
233
233
233
233
232
232
233
234
233
232
234
235
231
226
213
211
206
201
190
183
191
205
204
208
204
207
217
213
210
219
187
145
99
99
97
112
97
122
226
223
226
213
215
226
230
180
186
201
199
207
198
191
190
222
210
171
169
170
228
148
129
166
133
188
192
191
223
214
212
204
232
218
221
212
231
221
228
221
206
199
177
137
163
179
165
124
139
157
133
117
103
155
135
169
177
130
177
187
180
145
138
178
195
176
176
160
149
133
143
180
160
147
209
223
188
192
143
172
176
168
161
125
93
105
146
159
161
129
128
98
131
157
157
162
153
148
143
139
134
131
132
137
146
163
204
233
226
226
232
228
230
230
229
229
229
229
228
228
230
230
229
229
229
229
229
229
229
228
228
228
228
228
228
227
228
228
228
228
228
228
228
228
229
228
228
228
228
228
228
227
227
227
227
226
226
225
225
237
237
237
236
236
236
236
236
236
236
236
235
235
235
235
235
235
235
235
235
235
235
235
235
235
235
235
234
234
234
234
234
234
234
234
234
234
233
232
232
233
234
234
233
233
233
233
233
233
233
233
233
233
233
233
233
233
232
232
233
234
233
231
233
235
230
222
217
208
201
199
191
181
178
185
197
205
209
213
213
208
209
219
191
158
117
121
107
115
93
108
204
204
217
215
207
225
232
181
150
209
188
186
173
182
162
203
166
129
154
183
225
147
134
153
135
166
202
179
211
220
205
208
230
218
218
213
225
216
220
217
195
194
201
130
140
177
140
119
120
148
116
119
101
130
134
149
158
130
186
181
187
140
126
181
180
155
185
158
153
122
145
190
144
152
194
210
192
165
158
172
182
146
134
106
76
102
155
157
147
135
133
95
141
158
154
149
148
152
146
131
126
135
141
139
145
156
192
230
228
229
231
229
229
229
229
229
229
229
229
229
230
230
230
229
229
229
229
229
229
228
228
228
228
228
228
227
228
228
228
228
228
228
228
228
229
228
228
228
228
228
228
227
227
227
227
226
226
225
225
237
237
237
236
236
236
236
236
236
236
236
235
235
235
235
235
235
235
235
235
235
235
235
235
235
235
235
234
234
234
234
234
234
234
234
234
234
233
232
232
233
234
234
233
233
233
233
233
233
233
233
232
232
232
233
233
233
233
233
233
234
232
231
233
234
228
219
207
202
199
200
199
192
182
179
194
198
207
213
211
208
211
214
195
154
120
134
104
111
95
94
183
191
204
215
206
221
227
199
150
169
216
187
168
160
161
142
143
140
109
145
167
140
161
139
131
164
210
171
187
221
206
206
231
223
222
221
225
219
221
222
205
191
211
137
139
189
141
106
129
116
97
83
115
81
136
144
116
119
155
172
174
129
119
160
171
145
174
166
171
106
162
197
157
113
191
188
174
156
137
159
166
128
113
105
79
115
150
141
125
146
118
119
159
164
152
142
147
151
145
131
130
141
147
144
146
150
178
223
229
232
227
227
229
229
229
229
229
229
229
229
230
230
230
230
229
229
229
229
229
228
228
228
228
228
228
227
228
228
228
228
228
228
228
228
229
228
228
228
228
228
228
227
227
227
227
226
226
225
225
237
237
237
236
236
236
236
236
236
236
236
235
235
235
235
235
235
235
235
235
235
235
235
235
235
235
235
234
234
234
234
234
234
234
234
234
234
232
232
232
232
234
234
233
233
233
233
233
233
233
233
232
232
232
232
233
233
233
233
233
234
232
230
232
234
227
216
206
207
207
206
207
209
207
202
198
194
201
210
213
217
217
208
217
157
120
131
92
115
112
96
154
169
176
195
188
197
203
201
179
189
200
191
140
173
134
142
122
138
80
140
167
98
157
105
91
163
207
168
164
210
214
200
223
219
217
221
219
217
216
221
197
176
200
154
132
154
128
100
110
118
76
100
90
83
111
132
85
93
127
148
134
139
105
152
136
161
129
140
152
96
148
192
164
140
184
176
176
156
133
142
124
116
103
101
87
145
155
118
113
162
111
150
165
155
150
156
149
144
138
136
135
135
135
136
146
145
166
215
229
233
222
224
228
228
229
229
229
229
230
230
230
230
230
230
229
229
229
229
229
228
228
228
228
228
228
227
228
228
228
228
228
228
228
228
229
228
228
228
228
228
228
227
227
227
227
226
226
225
225
236
236
236
236
236
236
236
236
236
236
236
236
236
236
236
235
235
235
235
235
235
235
235
235
235
235
235
235
234
234
234
234
234
234
234
234
234
233
233
233
233
234
234
233
233
233
233
233
233
233
233
233
233
233
233
233
233
233
233
234
235
232
231
233
232
220
205
206
199
191
192
200
204
200
191
201
203
204
207
215
221
220
213
198
184
113
134
126
87
146
108
125
138
149
212
184
176
200
204
141
142
187
177
134
147
147
133
98
115
93
124
150
102
110
133
92
145
166
174
178
197
200
180
223
216
222
220
211
220
209
225
200
183
190
138
149
132
120
109
111
96
74
98
92
68
111
99
106
116
81
97
156
113
115
145
138
155
122
166
156
103
139
169
143
142
184
139
148
143
149
114
123
89
111
105
86
124
127
132
127
136
129
145
167
154
143
148
151
139
131
134
139
139
139
141
149
147
152
199
235
225
222
227
226
228
230
230
228
228
228
229
230
229
227
226
227
228
230
231
228
228
228
228
228
228
228
228
228
229
229
229
229
229
229
230
228
228
228
228
228
228
228
228
228
227
227
227
226
226
226
236
236
236
235
235
235
235
235
235
235
235
236
236
236
235
235
235
235
235
234
234
234
234
234
234
234
234
234
234
234
234
234
234
234
233
234
234
233
233
233
233
234
234
232
232
232
232
232
232
232
232
232
232
232
232
232
232
232
232
234
234
232
231
233
231
219
203
192
193
193
188
178
176
191
208
205
209
210
208
208
213
218
218
203
188
151
121
129
97
125
126
105
109
129
174
203
163
155
199
140
138
186
165
150
127
160
126
93
96
115
120
145
102
96
110
73
117
163
162
151
188
196
178
231
225
216
209
212
213
207
215
208
201
168
146
155
153
114
102
103
82
101
93
90
65
74
89
99
87
84
92
135
131
101
144
155
145
111
170
145
122
151
163
139
119
154
120
107
123
143
98
110
92
104
119
83
128
117
116
112
136
135
149
160
149
147
142
154
142
134
135
137
135
134
137
139
146
155
197
230
225
222
223
230
229
228
228
229
230
230
230
227
227
228
228
229
229
230
230
228
228
228
228
228
228
228
228
228
228
229
229
229
229
229
229
228
228
228
228
228
228
228
228
228
227
227
227
226
226
226
236
236
236
235
235
235
235
235
235
235
235
236
236
235
235
235
235
235
235
234
234
234
234
234
234
234
234
234
234
234
234
234
234
233
233
234
234
233
233
233
233
234
234
232
232
232
232
232
232
232
232
232
232
232
232
232
232
232
232
230
230
230
231
234
231
219
203
203
200
200
196
178
157
155
166
177
189
202
206
207
210
214
216
219
176
182
129
112
97
127
110
107
108
112
117
199
183
135
174
146
153
148
132
148
148
141
143
99
96
121
81
139
114
80
108
94
100
130
156
129
163
191
173
219
228
206
207
222
214
209
208
207
193
185
148
144
161
89
111
122
95
91
111
122
54
79
94
90
83
77
85
124
113
109
130
143
129
94
158
133
135
147
162
99
127
142
114
117
136
122
86
100
101
101
124
95
132
115
105
130
135
125
141
153
150
158
149
136
130
124
126
128
129
132
137
136
147
157
188
220
224
222
223
230
228
228
230
232
232
230
227
225
226
228
230
231
230
229
229
228
228
228
228
228
228
228
228
228
228
228
229
229
229
229
229
228
228
228
228
228
228
228
228
228
227
227
227
226
226
226
236
236
236
235
235
235
235
235
235
235
235
235
235
235
235
235
234
234
234
234
234
234
234
234
234
234
234
234
234
234
234
234
233
233
233
233
233
233
233
233
233
233
233
232
232
232
232
232
232
232
232
232
232
232
232
232
232
232
232
230
230
230
232
234
229
215
199
194
189
192
203
207
202
198
200
199
208
214
212
209
209
210
210
213
206
184
123
109
85
117
109
108
79
93
105
152
182
148
117
131
132
139
112
152
165
121
138
101
85
100
52
122
135
108
124
110
123
129
198
150
159
194
150
201
230
191
204
217
213
211
210
209
187
213
158
145
146
93
121
103
113
93
111
120
71
114
81
74
67
87
67
120
104
115
141
142
148
112
152
137
136
131
163
93
124
132
107
80
121
125
75
101
117
107
113
118
130
113
103
133
120
129
157
166
156
151
146
134
130
127
129
130
132
137
144
141
148
154
178
211
223
224
227
226
227
230
233
233
231
227
224
226
227
228
230
230
230
229
228
228
228
228
228
228
228
228
228
228
228
228
228
229
229
229
229
228
228
228
228
228
228
228
228
228
227
227
227
226
226
226
236
235
235
235
235
235
235
235
235
235
235
235
235
235
234
234
234
234
234
234
234
234
234
234
234
234
234
234
234
234
234
233
233
233
233
233
233
233
233
233
233
233
233
232
232
232
232
232
232
232
232
232
232
232
232
232
232
232
232
235
234
233
234
233
224
208
192
192
185
175
168
166
170
176
182
182
192
202
209
214
216
211
203
209
219
187
137
101
86
116
112
113
91
79
95
144
152
145
132
120
124
125
136
104
162
121
129
121
85
97
73
88
124
137
102
87
122
113
171
108
130
166
125
193
233
177
190
193
198
205
212
206
190
196
171
150
123
119
105
87
86
116
119
109
101
108
90
66
93
87
78
122
82
122
136
144
156
132
147
136
132
134
157
118
142
128
102
64
98
121
94
101
133
111
108
137
134
109
109
124
114
147
166
161
154
143
148
140
137
132
130
127
127
130
135
146
145
150
173
208
224
222
229
224
228
231
231
229
226
225
225
229
229
229
229
229
228
228
228
228
228
228
228
228
228
228
228
228
228
228
228
228
229
229
229
228
228
228
228
228
228
228
228
228
227
227
227
226
226
226
235
235
235
235
235
235
235
235
235
235
235
234
234
234
234
234
234
233
233
234
234
234
234
234
234
234
234
234
234
234
233
233
233
233
233
232
232
233
233
233
233
232
232
232
232
232
232
232
232
232
232
232
232
232
232
232
232
232
232
233
231
231
234
234
225
208
194
190
186
178
171
169
173
176
176
187
193
198
205
213
217
211
201
210
198
190
163
109
116
115
92
104
102
63
70
141
109
121
119
126
133
125
109
113
135
149
118
134
118
109
96
67
92
134
82
69
99
107
158
122
133
126
112
176
220
164
176
179
188
202
208
203
185
189
186
143
125
119
103
104
71
108
121
117
111
95
103
87
95
114
93
105
102
100
140
145
147
139
143
127
126
143
132
114
138
108
91
75
74
96
105
92
132
113
116
143
143
113
126
122
125
155
160
153
157
148
144
130
128
124
121
119
120
124
129
143
142
149
169
206
225
220
225
225
228
229
226
222
222
225
230
230
230
229
228
227
228
228
229
228
228
228
228
228
228
228
228
228
228
228
228
228
228
229
229
228
228
228
228
228
228
228
228
228
227
227
227
226
226
226
235
235
235
235
235
235
235
235
235
235
235
234
234
234
234
234
233
233
233
234
234
234
234
234
234
234
234
234
234
233
233
233
233
233
233
232
232
233
233
233
233
232
232
232
232
232
232
232
232
232
232
232
232
232
232
232
232
232
232
232
229
229
233
234
226
209
197
192
187
185
190
195
193
186
180
173
172
169
171
184
204
218
223
201
208
191
165
136
133
96
95
103
92
75
101
125
95
128
79
105
141
114
108
128
153
148
103
123
138
117
109
73
78
138
94
92
102
94
127
135
114
104
126
151
187
147
152
174
182
203
199
202
187
205
201
150
143
114
119
103
100
97
97
120
108
104
84
96
101
95
103
95
91
127
137
143
160
153
154
136
131
141
109
129
120
103
96
74
70
123
113
89
116
122
119
136
131
119
132
111
134
153
167
164
154
148
127
129
129
127
124
125
129
134
137
137
141
150
161
196
223
219
222
223
225
226
225
223
224
227
230
229
229
228
228
228
228
229
229
228
228
228
228
228
228
228
228
228
228
228
228
228
228
228
229
228
228
228
228
228
228
228
228
228
227
227
227
226
226
226
235
235
235
234
234
234
234
234
234
234
234
234
234
234
234
233
233
233
233
233
233
233
233
233
233
233
233
234
233
233
233
233
233
233
232
232
232
233
233
233
233
232
232
231
231
231
231
231
231
231
231
231
231
231
231
231
231
231
231
237
233
232
234
233
222
205
192
197
185
177
177
172
163
162
168
168
174
180
183
190
200
206
206
209
214
204
180
119
109
114
111
89
108
59
84
101
73
97
101
96
118
121
101
114
155
157
105
128
139
134
134
79
74
147
82
86
122
100
111
139
86
94
115
139
161
128
123
162
171
204
193
192
192
193
198
164
136
117
113
106
115
106
103
142
99
96
90
121
105
89
95
80
64
132
113
105
158
149
155
153
145
142
118
108
120
96
78
87
73
111
99
96
102
134
110
124
102
117
120
109
142
145
166
155
127
146
138
140
138
134
129
127
130
133
134
133
143
151
152
185
221
220
222
219
221
225
228
229
228
227
226
228
228
228
229
229
229
229
229
228
228
228
228
228
228
228
228
227
228
228
228
228
228
228
228
228
228
228
228
228
228
228
228
228
227
227
227
226
226
226
234
234
234
235
235
234
234
234
234
233
233
234
234
234
234
233
233
233
233
233
233
233
233
233
233
233
233
233
233
233
233
233
233
233
233
232
232
232
232
231
231
231
231
232
232
232
232
232
232
232
232
232
232
232
232
232
232
232
232
233
231
232
234
232
221
205
194
198
190
188
160
163
173
147
150
166
182
191
193
197
201
205
210
212
213
205
202
157
90
109
103
81
99
97
89
98
74
80
103
100
110
124
98
109
143
164
107
115
134
140
109
91
65
129
119
86
111
100
125
137
86
101
107
116
109
138
101
125
173
178
174
183
180
191
191
155
122
133
106
95
90
113
131
116
136
95
63
138
105
97
103
97
75
120
102
97
165
162
163
158
147
158
126
108
137
92
83
70
86
102
94
107
96
130
124
106
79
133
126
122
132
147
157
157
152
147
145
143
138
124
119
125
126
125
132
137
142
146
149
176
213
222
217
224
230
221
225
223
234
229
227
230
230
229
229
228
228
227
227
228
228
228
228
228
228
228
228
229
229
228
228
228
228
227
227
228
228
228
228
228
228
228
228
227
227
227
227
226
226
226
234
234
234
235
234
234
234
234
234
233
233
234
234
234
234
233
233
233
233
233
233
233
233
233
233
233
233
232
232
232
232
232
232
232
232
232
232
232
232
231
231
231
231
231
231
231
231
231
231
231
231
231
231
231
231
231
231
231
231
230
232
233
234
232
222
203
187
188
181
179
176
178
177
173
183
178
194
206
210
210
206
202
204
209
208
202
207
178
111
100
115
103
91
114
101
81
83
93
81
101
112
124
111
111
136
155
128
128
118
124
121
111
79
103
103
91
111
131
111
138
97
102
110
109
102
121
104
98
147
167
187
171
160
172
192
170
94
103
141
89
111
94
95
137
124
62
94
166
105
83
107
94
104
115
81
93
152
154
160
166
156
155
125
101
139
92
90
85
73
112
91
101
86
118
119
115
105
135
128
123
129
142
153
154
152
148
140
139
132
132
130
121
123
132
134
128
141
148
148
172
212
226
219
222
211
227
232
220
227
224
230
229
229
229
229
228
228
228
228
228
228
228
228
228
228
228
228
228
228
228
228
228
228
228
228
228
228
228
228
228
228
228
228
228
228
227
227
226
226
225
234
234
234
234
234
234
234
234
234
233
233
234
234
234
233
233
233
233
233
233
233
233
233
233
233
233
233
232
232
232
232
232
232
232
232
232
232
232
232
231
231
231
231
231
231
231
231
231
231
231
231
231
231
231
231
231
231
231
231
231
233
234
232
230
222
205
189
176
174
171
175
165
156
167
172
190
186
181
189
207
212
207
205
207
208
198
194
177
132
94
130
98
85
110
93
85
107
104
89
92
113
125
119
113
135
151
149
139
106
106
122
120
106
96
116
118
113
125
118
142
122
86
112
137
105
118
116
96
127
147
175
171
157
177
193
170
83
92
146
100
77
102
75
116
95
94
77
144
103
92
105
89
103
91
85
66
130
153
158
168
156
146
129
114
126
95
87
85
57
101
101
107
97
112
90
96
132
139
122
108
125
154
165
153
146
143
135
130
103
98
106
108
124
136
124
138
148
151
151
165
197
218
216
229
198
224
228
222
229
227
230
228
228
228
228
228
229
229
229
228
228
228
228
228
228
228
228
228
228
228
228
228
228
228
228
228
228
228
228
228
228
228
228
228
228
227
227
226
225
225
234
234
234
234
234
234
234
234
234
233
233
234
234
233
233
233
233
233
233
233
233
233
233
233
233
233
233
232
232
232
232
232
232
232
232
232
232
232
232
231
231
231
231
231
231
231
231
231
231
231
231
231
231
231
231
231
231
231
231
234
232
232
232
229
219
207
200
180
182
184
181
166
165
177
171
168
178
188
197
200
198
202
213
205
208
203
183
161
148
98
134
99
87
94
84
89
102
88
78
79
107
126
114
120
142
153
153
141
109
101
109
106
113
79
112
124
114
103
120
140
123
75
100
162
98
120
116
99
110
120
157
171
146
182
194
161
90
99
126
87
71
92
85
95
98
103
87
140
114
102
96
127
128
84
94
62
120
147
142
158
155
142
130
130
102
107
90
81
67
79
122
117
109
114
90
95
140
118
99
112
129
156
160
140
132
132
124
107
99
107
116
114
121
131
126
148
147
148
154
162
185
213
219
212
202
225
224
227
228
229
225
228
228
228
228
228
228
228
228
228
228
228
228
228
228
228
228
227
227
228
228
228
228
229
229
228
228
228
228
228
228
228
228
227
227
227
226
226
225
225
234
233
233
233
233
233
233
233
233
234
234
233
233
233
233
233
233
232
232
232
232
232
232
232
232
232
232
232
232
232
232
232
232
232
232
232
232
232
232
231
231
231
231
231
231
231
231
231
231
231
231
231
231
231
231
231
231
231
231
234
230
231
236
230
213
201
200
185
176
182
175
161
161
159
156
165
175
183
187
186
182
187
201
202
202
210
192
157
156
108
134
114
93
90
104
99
94
84
66
78
96
121
109
133
144
150
147
134
110
101
110
114
125
76
111
111
120
107
117
146
112
99
101
156
90
117
123
99
114
100
159
152
118
164
189
160
94
90
117
92
83
112
90
108
71
95
109
139
118
101
94
134
137
86
94
85
120
132
115
144
156
145
123
116
87
109
91
70
82
68
117
146
115
104
102
100
122
100
108
125
131
142
143
139
143
141
128
111
114
116
118
121
121
124
131
136
140
143
153
162
189
221
217
176
216
233
224
228
216
226
221
229
229
228
228
228
227
227
227
228
228
228
228
228
228
228
228
227
227
228
228
228
228
229
229
228
228
228
228
228
228
228
228
226
226
226
226
226
226
225
233
233
233
233
233
233
233
233
233
234
234
233
233
233
233
233
232
232
232
232
232
232
232
232
232
232
232
232
232
232
232
232
232
232
232
232
232
232
232
231
231
231
231
231
231
231
231
231
231
231
231
231
231
231
231
231
231
231
231
231
228
232
239
232
211
192
186
199
177
179
181
173
161
149
155
164
159
154
159
174
182
184
187
206
195
201
196
159
153
119
138
111
107
89
108
117
97
76
75
85
84
112
109
137
136
137
142
132
108
92
110
136
134
89
127
111
112
89
129
144
114
104
112
141
95
99
139
108
139
75
134
134
119
161
178
157
105
78
109
68
77
102
112
73
85
119
141
113
101
90
95
90
102
85
93
81
107
120
107
134
146
145
118
107
107
103
89
59
89
85
103
158
126
95
100
94
113
114
127
114
132
146
147
146
140
122
103
101
103
98
103
119
122
119
125
126
143
149
153
159
189
217
194
181
229
223
215
225
217
230
225
229
229
229
228
227
227
226
226
228
228
228
228
228
228
228
228
228
228
228
228
228
228
228
228
228
228
228
228
228
228
228
228
226
226
226
226
226
225
225
233
233
233
232
233
233
233
233
233
234
234
233
233
233
233
232
232
232
232
232
232
232
232
232
232
232
232
232
232
232
232
232
232
232
232
232
232
232
232
231
231
231
231
231
231
231
231
231
231
231
231
231
231
231
231
231
231
231
231
229
230
232
235
232
217
192
172
182
169
159
172
174
154
147
149
134
149
162
171
180
185
187
193
204
198
190
189
167
155
128
130
115
122
96
92
106
95
61
76
82
79
106
105
120
126
127
138
126
111
86
97
135
116
88
124
122
93
73
132
124
113
79
113
122
104
75
136
115
146
59
102
131
125
166
172
144
128
93
96
93
101
121
103
74
80
119
118
117
104
85
93
87
92
99
91
69
89
110
107
127
128
141
117
114
127
102
95
66
97
111
107
136
127
94
107
103
117
129
112
112
140
149
141
137
123
99
86
84
93
106
115
113
112
116
121
130
144
149
157
154
173
201
177
208
224
208
212
223
227
232
231
228
228
228
228
227
227
227
227
228
228
228
228
228
228
228
228
228
228
228
228
228
228
228
228
228
228
228
228
228
228
228
228
228
227
227
226
225
224
224
233
233
233
232
232
233
233
233
233
234
234
233
233
233
233
232
232
232
232
232
232
232
232
232
232
232
232
231
231
231
231
231
231
231
231
232
232
232
232
231
231
231
231
230
230
230
230
230
230
230
230
230
230
230
230
230
230
230
230
230
233
231
228
230
224
197
167
172
178
152
160
162
137
134
121
140
150
156
163
177
187
189
190
193
207
191
188
182
166
131
112
133
118
113
98
87
107
89
90
71
80
105
98
97
121
124
135
102
109
88
94
138
112
101
131
133
93
111
126
116
110
76
117
112
116
71
126
118
138
74
117
132
104
154
174
134
144
116
95
121
91
110
126
81
101
141
119
128
129
106
95
112
85
107
98
86
86
95
100
120
118
139
114
100
107
91
94
74
98
109
106
135
123
82
108
105
106
131
108
128
143
130
117
135
147
143
146
129
105
97
96
90
103
120
116
132
133
137
159
154
159
192
184
214
208
208
227
224
228
223
230
227
227
227
227
228
228
228
228
228
228
228
228
228
228
228
228
229
229
228
228
228
228
227
227
228
228
228
228
228
228
228
228
229
229
228
226
225
223
222
233
234
235
232
232
232
232
232
232
232
232
232
232
232
232
232
232
232
232
232
232
232
232
232
232
232
232
232
232
232
232
232
232
232
232
232
232
232
232
232
232
232
232
231
231
231
231
231
231
231
231
230
230
230
230
230
230
230
230
231
233
231
233
231
216
192
179
171
179
157
138
153
156
141
138
141
141
144
148
155
173
194
205
208
209
185
173
173
146
140
113
133
128
107
69
102
97
93
98
78
85
98
96
103
124
122
111
93
96
97
93
130
120
103
130
133
77
114
101
123
138
92
119
121
130
61
106
105
125
98
123
134
112
151
158
107
148
103
83
136
75
90
92
83
104
130
126
137
129
100
86
113
81
116
110
106
72
97
108
111
113
107
104
90
107
93
73
95
85
112
108
119
119
83
98
128
125
99
102
130
128
137
140
151
159
147
150
148
127
119
115
110
119
128
120
134
141
157
149
157
166
184
195
199
187
226
217
222
226
234
224
228
227
229
231
230
226
226
229
228
228
228
228
228
228
228
228
228
228
228
227
227
227
227
227
229
228
227
227
227
227
226
225
224
226
228
228
226
222
219
232
232
232
232
232
232
232
232
232
232
232
232
232
232
232
232
232
232
232
232
232
232
232
232
232
232
232
232
232
232
232
232
232
232
232
231
231
231
231
231
231
231
231
231
231
231
231
231
231
231
231
230
230
230
230
230
230
230
230
229
231
231
233
230
216
194
182
164
167
174
156
127
136
153
142
137
126
120
146
190
206
195
189
187
209
209
195
176
156
131
111
122
124
108
101
94
112
117
91
97
86
86
87
93
114
118
97
102
97
85
100
126
134
104
116
110
93
99
104
100
131
100
120
106
119
80
110
93
116
97
128
130
120
149
149
115
142
100
110
143
95
106
97
101
105
137
124
113
133
102
107
98
92
111
122
106
83
110
107
103
96
99
105
97
87
98
71
87
89
100
120
133
102
112
97
139
121
90
120
133
135
123
145
153
140
148
137
135
152
141
131
141
132
116
126
126
135
147
145
154
160
180
187
177
229
218
228
216
226
226
224
231
226
223
224
225
226
229
232
228
228
228
228
228
228
228
228
228
228
228
228
228
227
227
227
229
228
227
227
227
227
226
225
226
225
225
226
226
225
222
232
232
232
232
232
232
232
232
232
232
232
232
232
232
232
232
232
232
232
232
232
232
232
232
232
232
232
232
232
232
232
232
232
232
232
231
231
231
231
231
231
231
231
231
231
231
231
231
231
231
231
230
230
230
230
230
230
230
230
229
231
233
234
228
214
195
181
178
149
157
168
146
138
139
121
116
139
173
176
152
153
176
184
197
192
189
199
190
173
124
110
104
118
113
127
97
111
134
110
92
86
77
85
101
106
100
85
113
97
82
99
118
131
105
100
126
117
123
106
98
153
104
114
104
114
84
111
92
114
112
117
115
133
132
137
131
133
107
124
136
95
108
97
115
102
137
127
113
124
90
134
104
116
114
131
106
93
118
106
110
100
103
103
97
80
97
72
75
93
102
123
120
106
129
81
115
114
84
101
129
119
132
149
148
138
136
147
143
121
108
122
132
116
111
128
115
131
140
149
159
159
182
183
216
185
205
220
199
219
223
224
231
228
227
230
231
229
226
224
228
228
228
228
228
228
228
228
229
229
229
228
228
228
228
228
229
228
227
227
227
227
226
225
227
225
223
223
224
224
221
233
234
234
232
232
232
232
232
232
232
232
232
232
232
232
232
232
232
232
232
232
232
232
232
232
232
232
232
232
232
232
232
232
232
232
231
231
231
231
231
231
231
231
231
231
231
231
231
231
231
231
230
230
230
230
230
230
230
230
231
231
234
235
227
213
192
173
184
159
138
143
150
135
124
134
141
136
117
119
148
160
162
175
179
197
192
179
175
179
141
105
97
106
95
93
98
117
128
93
80
91
77
87
110
95
77
81
100
80
80
84
106
108
104
88
117
115
126
99
113
141
114
109
106
113
83
112
88
105
126
104
108
144
115
121
134
126
128
124
137
52
120
139
104
109
159
110
132
98
88
153
121
118
124
139
94
104
128
106
118
110
108
99
78
79
77
69
55
89
104
107
111
109
96
98
115
109
94
111
105
119
146
133
131
155
144
131
118
121
136
134
114
113
121
113
113
134
141
158
161
155
177
177
164
214
183
156
202
215
220
221
209
212
217
224
228
228
227
225
228
228
228
228
228
228
228
228
229
229
229
229
229
229
229
229
229
228
227
227
228
228
226
225
227
225
224
223
222
219
215
233
233
234
232
232
232
232
232
232
232
232
232
232
232
232
232
232
232
232
231
231
231
231
231
231
231
231
232
232
232
232
232
232
232
232
231
231
231
231
231
231
231
231
230
230
230
230
230
230
230
230
230
230
230
230
230
230
230
230
232
229
233
235
226
214
191
167
163
166
136
121
144
145
128
133
133
107
114
137
139
148
175
191
185
190
180
182
187
160
144
117
93
108
111
88
84
113
117
88
94
85
75
88
98
79
68
79
84
74
78
85
107
111
112
94
116
131
112
123
139
95
125
118
101
103
104
113
63
87
116
109
111
137
129
111
123
131
141
132
125
66
141
151
115
141
144
113
134
77
117
157
122
93
135
143
83
121
142
108
117
114
112
104
83
87
82
91
65
107
112
115
110
115
78
103
111
110
99
104
106
122
123
138
142
136
140
119
146
139
127
117
112
115
112
102
121
141
142
157
152
145
167
173
185
146
137
202
225
210
207
215
215
218
221
221
221
222
226
229
228
228
228
228
228
228
228
228
229
229
229
229
229
229
229
229
229
228
226
226
227
227
226
226
225
225
225
224
221
217
213
231
232
232
232
232
232
232
232
232
232
232
232
232
232
232
232
232
232
232
231
231
231
231
231
231
231
231
232
232
232
232
232
232
232
232
231
231
231
231
231
231
231
231
230
230
230
230
230
230
230
230
230
230
230
230
230
230
230
230
230
226
232
233
224
214
195
168
153
157
144
134
141
138
124
117
121
120
105
104
132
152
157
165
186
204
187
169
175
161
158
117
100
106
130
132
85
96
108
117
104
63
71
92
84
72
68
75
77
85
74
94
112
126
113
99
130
125
91
128
140
81
102
115
109
91
122
114
47
85
101
119
103
111
160
121
124
141
132
137
124
88
150
137
97
157
142
120
129
83
147
148
117
90
144
133
96
141
141
110
128
137
129
122
87
74
89
103
78
107
93
114
100
103
85
86
100
107
89
83
113
116
125
146
146
122
121
140
146
128
137
147
123
103
110
121
126
139
137
150
144
144
166
183
175
131
203
237
207
187
200
230
224
229
232
229
224
222
223
224
228
228
228
228
228
228
228
228
228
228
228
228
228
229
229
229
228
228
226
226
227
227
227
227
224
224
224
224
222
218
213
231
231
232
232
232
232
232
232
232
232
232
232
232
232
232
232
232
232
232
231
231
231
231
231
231
231
231
232
232
232
232
232
232
232
232
231
231
231
231
231
231
231
231
230
230
230
230
230
230
230
230
230
230
230
230
230
230
230
230
230
227
234
233
220
212
199
175
162
162
153
138
122
111
114
125
125
129
125
107
109
151
190
193
187
191
187
186
168
135
134
141
118
103
106
130
113
93
95
108
95
58
73
90
88
70
53
83
72
93
72
85
111
125
112
108
138
124
103
126
148
124
111
122
121
97
116
121
51
88
107
123
98
96
167
138
144
142
126
144
118
127
146
112
111
159
120
141
126
107
156
144
117
114
139
120
116
152
132
115
141
156
138
135
105
97
121
128
112
107
99
113
97
83
85
101
113
98
81
99
101
121
137
116
120
132
118
136
130
118
114
105
95
111
125
113
127
131
133
147
143
152
166
189
162
165
206
199
189
190
224
211
210
218
225
227
226
227
226
225
228
228
228
228
228
228
228
228
227
227
227
228
228
228
228
228
227
227
226
227
227
228
228
227
226
222
218
219
221
219
211
232
233
234
232
232
232
232
232
232
232
232
232
232
232
232
232
232
232
232
231
231
231
231
231
231
231
231
232
232
232
232
232
232
232
232
230
230
230
230
230
230
230
230
230
230
230
230
230
230
230
230
230
230
230
230
230
230
230
230
231
229
238
234
215
208
201
180
166
167
143
123
132
132
112
100
114
97
87
109
150
174
176
172
179
174
175
186
172
151
119
122
120
130
110
103
132
93
93
91
87
75
80
79
93
63
29
101
77
103
87
80
124
127
133
140
123
144
121
119
144
124
122
98
120
112
103
132
59
76
121
123
109
103
150
144
162
134
137
158
129
137
155
137
135
158
119
140
120
126
156
150
115
128
124
119
118
156
130
120
139
148
126
136
116
131
146
144
138
99
117
103
95
107
101
114
105
90
76
82
112
114
88
98
122
110
106
118
109
134
121
106
122
117
104
120
127
127
133
148
145
155
158
179
153
155
172
154
157
231
208
203
231
233
231
227
226
227
227
225
228
228
228
228
228
228
228
228
227
227
227
227
227
228
228
228
227
227
226
227
227
229
228
228
230
221
213
213
218
217
207
232
232
232
232
232
232
232
232
232
232
232
231
231
232
232
232
232
231
231
231
231
231
231
231
231
231
231
231
231
231
231
231
231
231
231
231
231
231
231
230
230
230
230
230
230
230
230
230
230
230
230
230
230
230
230
231
231
231
231
230
231
233
232
220
204
194
193
167
153
147
136
118
117
118
104
94
107
127
145
161
175
187
193
167
165
173
169
166
171
142
93
111
131
122
106
128
130
96
90
75
65
98
64
84
77
34
100
95
116
107
74
108
142
144
140
143
138
136
131
141
148
111
119
122
145
121
145
83
80
120
124
139
117
144
157
158
147
131
181
144
151
143
143
140
165
160
142
112
143
161
144
101
129
133
128
111
160
128
124
168
148
130
163
120
155
177
136
148
115
124
130
136
114
94
125
84
84
89
94
95
68
84
94
99
78
109
136
142
117
112
120
134
114
113
122
129
116
128
143
155
162
158
170
172
170
153
135
182
190
212
227
219
230
229
221
222
226
227
227
225
227
229
229
227
226
227
229
227
228
228
228
229
228
228
228
227
226
224
224
225
226
225
225
226
222
213
220
194
195
231
232
232
232
231
231
231
231
231
231
231
231
231
231
232
232
232
232
231
231
231
231
231
231
231
231
231
231
231
231
231
231
231
231
231
231
231
231
231
231
230
230
230
230
230
230
230
230
230
230
230
230
230
230
230
230
230
230
230
230
231
230
231
232
221
205
193
190
159
158
157
141
118
118
122
110
105
123
144
157
160
161
165
167
173
154
132
139
141
138
135
111
94
120
113
114
131
112
97
86
71
87
83
55
71
90
62
86
110
122
118
95
107
138
157
153
163
144
123
140
143
166
116
105
107
156
153
158
118
86
112
109
143
107
134
151
173
161
159
172
162
151
151
147
153
165
156
133
119
142
172
130
105
138
142
121
122
154
155
147
170
130
137
161
156
154
168
163
148
132
137
162
139
84
128
95
100
93
75
81
80
66
69
78
77
101
127
130
107
124
146
133
113
99
110
112
120
121
138
147
153
158
157
171
185
128
134
166
150
218
220
210
228
225
220
224
231
230
227
231
229
229
228
228
228
228
227
227
227
228
228
228
229
228
228
228
229
228
227
227
226
222
218
215
222
225
222
203
208
199
172
232
232
232
231
231
231
231
231
231
231
231
231
231
231
232
232
231
231
231
231
231
231
231
231
231
231
231
231
231
231
231
231
231
231
231
231
231
231
230
230
230
230
230
230
230
230
230
230
230
230
230
229
229
229
229
229
229
229
229
230
229
229
230
220
204
189
182
147
149
158
152
129
120
126
126
147
156
162
161
160
168
184
197
202
203
166
118
131
136
102
112
90
106
116
116
134
121
106
92
73
89
101
61
78
90
104
115
129
134
134
124
108
127
157
157
167
154
144
156
133
154
141
137
111
171
175
152
139
90
118
118
149
115
132
141
159
142
169
161
181
151
161
154
166
167
158
136
137
136
177
138
132
143
150
129
139
165
170
167
179
137
151
182
173
159
162
188
142
154
150
177
122
118
127
112
118
56
69
108
94
89
68
58
74
103
113
110
140
124
120
111
108
112
121
112
115
129
145
144
143
149
154
168
181
167
165
167
180
197
188
221
217
220
221
223
225
222
224
233
230
228
227
227
229
229
228
225
228
228
228
229
228
228
228
227
228
228
228
228
228
226
223
221
205
202
223
205
199
203
172
232
232
232
231
231
231
231
231
231
231
231
231
231
231
232
232
231
231
231
231
231
231
231
231
231
231
231
231
231
231
231
231
231
231
231
231
231
230
230
230
230
230
230
230
230
230
230
230
230
230
230
230
230
230
229
229
229
229
229
227
228
230
229
220
204
190
183
158
144
147
154
134
107
104
114
127
142
158
162
158
152
145
141
143
189
186
147
103
103
122
88
92
83
115
98
122
135
102
88
79
60
94
90
81
91
118
158
134
144
148
147
123
123
147
157
169
140
138
147
132
143
161
134
113
166
179
160
160
108
130
123
151
137
132
142
146
137
166
157
185
145
156
157
170
169
159
143
133
138
173
159
157
150
168
148
152
185
161
167
182
163
159
198
166
175
185
180
150
154
168
159
131
151
147
139
68
74
139
83
81
59
54
63
108
100
111
128
109
100
93
89
92
92
96
100
118
135
141
131
131
139
150
164
171
162
168
168
189
167
197
206
212
226
229
222
222
227
230
233
229
228
226
226
227
228
227
226
228
228
228
229
228
228
227
227
230
229
226
226
226
227
228
228
214
192
195
204
187
192
202
231
231
231
231
231
231
231
231
231
231
231
230
231
231
231
231
231
231
230
230
230
230
230
230
230
230
230
230
230
230
230
230
230
230
230
230
230
230
230
230
230
229
229
230
230
230
230
230
230
230
230
230
230
230
230
230
229
229
229
224
228
233
231
220
205
193
187
157
133
130
146
145
128
126
137
146
149
150
148
148
151
150
145
116
100
151
181
148
97
77
114
93
73
101
93
113
126
91
81
98
58
58
136
95
117
129
181
131
150
157
158
151
136
139
159
171
137
137
156
138
142
170
120
127
155
167
172
166
127
140
125
138
141
113
137
148
160
158
147
177
137
138
153
169
169
149
132
115
157
164
168
155
156
187
163
157
189
162
166
177
176
167
179
163
198
204
161
162
150
184
154
163
179
152
97
91
162
89
79
60
46
70
75
94
103
123
99
88
113
109
94
91
92
95
114
123
137
133
125
131
139
148
159
162
138
133
164
147
139
179
203
215
220
217
214
225
234
230
223
230
230
230
228
226
225
226
227
228
228
229
229
228
228
227
227
231
229
226
223
221
220
219
218
232
216
176
181
185
171
185
231
231
231
231
231
231
231
231
231
231
231
230
231
231
231
231
231
231
230
230
230
230
230
230
230
230
230
230
230
230
230
230
230
230
230
230
230
230
230
230
229
229
229
230
230
230
230
230
230
230
230
230
230
230
230
230
230
230
230
227
232
235
230
216
198
185
178
176
156
139
139
143
140
136
135
145
149
152
155
164
172
170
162
165
166
106
96
139
138
111
92
93
83
83
103
113
103
86
75
114
94
64
157
140
128
158
185
144
158
168
159
176
152
133
152
169
153
150
182
130
137
183
143
141
148
151
177
164
140
141
122
139
140
114
128
141
165
150
146
167
136
124
146
172
165
139
113
122
176
150
176
148
143
176
172
156
177
179
176
176
180
186
154
171
209
173
166
150
176
183
179
194
166
136
110
168
120
82
77
68
89
71
60
84
87
75
90
109
109
86
79
88
94
93
115
125
136
126
126
139
140
144
153
171
176
161
122
100
170
206
201
212
212
212
217
225
224
222
228
232
233
233
230
226
224
226
228
228
229
229
229
228
228
227
227
227
227
226
224
221
216
211
207
203
221
200
172
169
166
167
231
231
231
231
231
231
231
231
231
231
231
230
230
231
231
231
231
230
230
230
230
230
230
230
230
230
230
230
230
230
230
230
230
230
230
230
230
230
230
229
229
229
229
230
230
230
230
230
230
230
230
229
229
229
229
229
229
229
229
228
232
233
226
213
196
181
172
158
149
137
137
146
149
147
148
157
163
167
166
170
176
173
165
142
159
164
121
93
112
107
86
93
94
73
95
103
104
87
72
107
125
101
138
180
126
169
185
174
167
179
158
188
169
139
148
171
151
138
171
124
133
192
148
132
140
141
175
166
147
133
113
146
134
142
124
135
153
154
157
151
139
124
136
169
147
137
111
129
177
135
172
142
132
153
175
156
176
179
174
172
185
190
145
191
195
144
171
145
200
172
188
188
151
158
161
134
137
89
96
95
49
58
88
69
70
98
105
102
92
82
91
83
86
93
115
124
134
120
126
141
132
131
143
171
173
121
93
159
179
173
206
206
214
221
224
223
219
225
239
229
229
228
227
226
226
228
229
229
229
229
229
228
228
227
226
226
226
226
224
221
215
209
204
177
193
202
177
165
176
178
231
231
231
230
230
230
230
230
230
230
230
230
230
231
231
231
231
230
230
230
230
230
230
230
230
230
230
230
230
230
230
230
230
230
230
230
230
230
230
229
229
229
229
230
230
230
230
230
230
230
230
228
228
228
228
229
229
229
229
224
227
228
226
217
205
191
181
157
152
150
159
165
158
155
164
157
168
176
174
173
176
173
167
162
148
144
144
123
107
103
90
107
107
84
86
100
136
102
81
105
145
122
126
198
150
164
193
198
173
188
157
195
185
155
155
165
145
143
164
128
117
193
142
134
141
127
150
150
142
135
128
129
101
147
111
132
141
156
150
134
139
129
125
159
125
138
122
110
167
127
154
132
139
148
169
158
187
159
158
158
186
171
141
218
172
156
154
169
196
169
167
173
163
179
141
162
117
151
101
70
86
94
60
76
97
111
81
82
84
91
88
59
82
109
114
125
133
116
123
134
117
118
134
164
180
160
165
182
202
215
171
194
209
213
209
213
220
222
225
223
221
220
222
226
229
230
230
229
229
229
229
228
227
227
226
231
229
225
221
216
211
206
202
199
174
157
172
189
184
183
231
231
231
231
231
231
231
231
231
231
231
230
230
230
230
230
230
230
230
230
230
230
230
230
230
230
230
230
230
230
230
230
230
230
230
230
230
230
230
230
230
230
230
229
229
229
229
229
229
229
229
229
228
228
228
229
230
229
229
220
235
234
215
219
210
185
197
185
176
168
169
173
174
173
174
166
182
193
183
197
184
173
181
190
155
148
134
124
108
111
87
80
116
88
101
102
122
151
106
118
156
177
148
200
173
177
190
195
176
190
169
190
188
174
171
157
154
133
164
131
100
190
139
104
132
118
157
128
141
135
131
121
124
129
124
128
152
151
153
146
143
143
134
141
130
134
134
112
154
110
153
130
143
147
149
173
169
147
150
137
163
154
162
181
154
174
157
176
193
145
183
199
186
141
169
160
173
125
109
126
105
67
74
87
92
70
82
85
94
83
76
75
96
105
112
119
123
127
121
109
106
119
135
171
184
176
183
173
165
131
163
194
205
212
200
209
208
215
213
219
223
227
227
225
224
225
226
227
229
228
231
227
224
230
223
228
225
223
225
226
220
207
196
180
190
170
158
172
147
155
230
230
230
230
230
230
230
230
230
230
230
230
230
230
230
230
230
230
230
230
230
230
230
230
230
230
230
229
229
229
229
229
229
229
229
229
229
229
229
229
229
229
229
229
229
229
229
229
229
228
228
230
230
231
230
229
229
230
232
231
233
237
224
213
202
182
183
191
187
175
160
157
167
174
174
179
194
182
167
177
164
157
141
166
155
137
129
112
112
83
131
75
94
112
104
106
122
170
158
130
164
194
160
199
189
183
202
187
182
199
186
184
153
158
191
160
135
140
182
120
126
157
148
99
95
87
150
130
133
121
129
126
141
126
133
123
165
163
165
149
146
143
126
124
129
118
132
108
139
110
148
139
130
141
142
166
158
137
154
138
187
149
169
146
152
181
156
167
170
157
189
177
156
166
166
183
165
134
158
135
109
119
94
80
82
84
83
101
104
79
71
81
99
98
109
126
119
117
120
119
115
118
127
143
172
186
194
183
135
163
197
153
175
170
163
165
207
227
236
229
230
228
225
224
225
229
232
224
226
226
231
227
226
234
229
230
220
213
218
228
229
217
202
181
177
160
165
181
169
163
230
230
230
230
230
230
230
230
230
230
230
230
230
230
230
230
230
230
230
230
230
230
230
230
230
230
230
229
229
229
229
229
229
229
229
229
229
229
229
229
229
229
229
229
229
229
229
229
229
228
228
227
229
230
228
225
225
227
231
234
235
234
208
193
205
197
172
157
160
159
153
155
167
180
187
175
160
173
173
164
160
170
169
134
140
146
116
111
91
69
99
128
87
107
108
113
132
141
218
156
163
205
181
189
198
191
201
189
192
189
187
199
153
151
189
165
144
120
189
111
105
146
145
102
78
90
139
130
126
120
118
142
168
129
151
125
177
171
168
163
169
162
145
134
140
109
132
98
139
118
143
136
139
145
128
175
141
146
127
147
166
132
146
127
153
168
146
160
151
173
188
162
167
192
211
169
141
177
168
144
136
116
82
78
62
71
95
88
77
63
71
73
84
95
117
114
114
117
124
131
135
131
125
142
157
185
177
147
144
137
116
155
169
141
157
215
243
210
209
227
227
228
229
229
229
229
229
225
227
226
230
225
222
230
226
226
218
210
210
216
220
219
215
211
192
160
149
142
156
177
230
230
230
230
230
230
230
230
230
230
230
230
230
230
230
230
230
230
230
230
230
230
230
230
229
229
229
229
229
229
229
229
229
229
229
229
229
229
229
229
229
229
229
229
229
229
229
229
229
228
228
226
227
229
228
226
224
225
226
228
236
229
192
168
180
188
179
176
167
158
150
134
117
118
128
164
140
146
157
166
169
157
153
156
136
142
157
103
86
82
38
111
100
90
127
116
168
157
213
192
161
196
201
183
195
194
185
171
187
170
176
202
137
119
176
169
159
117
187
124
86
158
141
105
71
104
126
127
117
129
119
157
184
136
169
142
185
176
164
170
179
166
157
149
141
110
132
110
125
98
160
143
137
130
135
167
137
138
126
148
163
137
156
149
165
147
143
162
147
176
172
174
188
186
171
162
177
166
151
143
113
89
85
69
78
92
88
78
60
61
83
84
102
109
103
107
120
124
121
130
148
149
137
121
126
154
166
151
128
110
149
155
144
185
215
207
184
207
230
220
220
223
227
230
229
227
226
226
228
227
230
224
220
228
225
221
218
211
207
205
203
200
198
213
216
201
188
163
171
182
230
230
230
230
230
230
230
230
230
230
230
229
229
229
229
229
229
229
229
230
230
230
230
229
229
229
229
229
229
229
229
229
229
229
229
229
229
229
229
229
229
229
229
228
228
228
228
227
227
227
227
227
228
229
229
230
228
226
224
230
235
226
198
160
130
142
173
178
166
153
142
125
114
118
130
121
160
131
128
141
140
156
155
132
103
92
112
149
81
75
81
78
107
86
135
122
156
198
198
215
177
177
202
196
192
183
179
170
181
152
160
202
138
97
161
157
140
139
178
136
111
142
134
115
75
104
133
130
127
147
145
171
188
144
177
165
188
183
166
177
183
158
159
161
135
123
139
101
122
98
141
129
141
133
118
146
127
133
125
157
147
154
161
145
154
131
155
173
160
181
177
171
186
176
150
168
174
173
166
145
99
118
85
90
99
84
71
53
55
63
87
94
100
97
103
122
123
120
117
127
145
155
155
139
118
144
162
139
78
126
152
120
136
176
178
177
198
231
218
225
221
218
221
224
226
228
231
225
225
225
230
226
221
229
227
222
215
210
210
210
200
181
164
178
198
190
182
172
177
169
230
230
230
230
230
230
230
230
230
230
230
229
229
229
229
229
229
229
229
230
230
230
229
229
229
228
228
229
229
229
229
229
229
229
229
229
229
229
229
229
229
229
229
228
228
228
228
227
227
227
227
227
226
226
228
229
228
225
222
232
235
217
197
166
129
125
139
171
175
167
148
135
134
134
132
150
135
156
138
129
154
120
116
127
138
114
101
89
127
95
69
78
101
118
109
146
155
186
208
213
200
167
183
209
194
165
184
168
179
162
141
186
175
121
153
152
141
148
170
135
135
123
124
126
105
111
137
121
147
160
145
188
194
159
180
180
188
189
168
186
194
167
177
175
140
132
136
111
104
92
132
134
120
123
118
129
117
133
121
158
120
155
140
124
138
139
165
173
165
174
179
178
169
134
179
187
175
178
157
141
154
86
114
82
80
69
82
84
123
102
78
90
106
88
90
121
109
107
124
138
144
151
161
161
148
160
163
149
141
143
110
92
161
175
167
184
220
224
234
227
223
222
226
228
227
227
229
225
223
221
227
222
215
220
217
218
214
209
208
205
197
186
175
172
184
179
168
175
190
190
230
230
230
230
230
230
230
230
230
230
230
229
229
229
229
229
229
229
229
230
230
230
229
229
228
228
228
229
229
229
229
229
229
229
229
229
229
229
229
229
229
229
229
228
228
228
228
227
227
227
227
226
226
226
225
224
224
224
225
233
231
212
193
174
163
157
131
148
165
169
155
140
132
121
108
139
141
125
146
116
107
144
137
127
124
111
96
101
108
98
89
70
92
162
122
153
199
186
201
203
209
182
171
199
197
163
186
147
155
182
138
146
180
137
148
162
159
148
161
139
141
122
120
126
128
128
133
115
145
166
135
196
202
180
187
189
192
193
172
184
197
178
189
171
149
128
126
103
116
108
118
115
125
132
106
120
123
117
143
138
135
150
138
138
143
160
151
158
166
161
161
157
163
149
187
178
169
135
173
154
109
134
84
80
85
91
105
104
75
55
96
118
94
78
119
103
101
109
128
140
143
149
159
158
175
158
159
168
150
76
106
172
139
144
202
226
236
226
218
224
222
225
231
232
227
225
226
228
223
220
225
220
210
211
206
208
207
204
199
194
191
190
190
155
162
182
182
191
201
200
229
229
229
229
229
229
229
229
229
229
229
229
229
229
229
229
229
229
229
230
230
230
229
229
228
228
228
228
228
228
228
228
228
228
228
228
228
228
228
228
228
228
228
228
228
228
228
227
227
227
227
228
229
228
225
222
222
227
231
237
225
213
204
180
178
189
162
133
149
162
159
144
128
114
107
107
145
151
147
153
140
96
116
126
134
112
105
109
112
136
107
104
90
160
193
130
188
208
200
201
205
206
173
179
200
175
183
167
123
170
148
142
181
133
132
155
146
146
140
138
139
109
111
129
131
146
143
141
137
182
160
190
205
193
193
194
201
200
178
184
198
184
190
159
160
132
135
102
122
108
125
104
126
126
108
131
123
120
139
130
129
144
125
149
139
162
126
152
185
178
169
171
166
162
185
170
153
183
170
125
163
139
92
94
118
113
86
70
69
99
130
97
80
87
100
96
111
121
121
122
135
151
160
170
158
150
170
156
109
108
132
127
145
198
222
224
212
220
210
225
221
220
224
226
224
226
232
228
223
219
227
223
213
214
207
202
197
192
191
192
187
177
168
170
151
167
164
174
192
201
229
229
229
229
229
229
229
229
229
229
229
229
229
229
229
230
230
229
228
229
229
229
229
229
229
229
229
229
229
229
229
229
229
229
229
229
229
228
228
228
229
229
229
227
227
227
227
225
225
226
228
229
225
224
227
226
220
218
221
237
221
205
197
197
199
185
163
141
132
147
155
130
126
107
103
112
94
139
162
150
135
130
122
93
101
114
102
82
100
137
153
147
135
143
197
173
142
202
196
210
193
203
181
164
198
177
172
181
121
143
144
130
157
171
119
149
104
138
130
118
136
104
122
136
149
139
154
155
157
181
171
198
203
197
191
200
207
197
185
195
200
195
178
178
124
164
132
122
131
116
153
94
149
118
111
115
122
128
124
109
131
143
113
125
150
149
141
163
169
181
144
183
155
177
171
160
192
186
149
172
131
94
111
147
120
103
93
83
108
116
92
68
89
122
115
105
103
118
117
133
136
146
154
157
159
161
176
179
170
155
117
134
184
198
201
195
193
214
213
214
215
220
227
229
227
226
228
226
219
222
222
221
216
204
203
192
196
188
202
182
171
167
156
172
174
171
180
188
190
196
229
229
229
229
229
229
229
229
229
229
229
229
229
228
229
230
230
229
228
229
229
229
229
229
229
229
229
228
228
228
228
228
228
228
228
229
228
228
228
228
228
229
229
227
228
228
228
227
227
226
227
228
226
228
230
228
223
223
228
234
219
205
199
201
203
189
166
138
112
128
132
137
114
106
91
86
106
98
145
149
133
124
130
124
98
95
108
100
94
120
154
187
185
170
205
198
169
176
204
202
197
191
206
195
187
173
159
175
159
131
139
133
138
166
113
143
132
130
110
128
129
125
130
140
147
150
166
145
164
201
182
201
205
196
191
200
207
200
189
194
194
200
183
172
154
154
147
137
126
128
133
90
155
103
107
122
142
115
120
102
134
111
117
119
132
136
150
150
164
143
172
157
142
188
162
183
187
155
151
144
142
150
175
154
105
82
77
96
112
86
97
103
108
133
93
78
108
121
126
114
137
140
159
161
155
154
172
189
187
169
140
147
175
169
159
171
199
220
206
212
216
224
232
233
230
230
232
235
221
219
219
221
217
200
196
184
175
165
162
189
175
159
163
151
157
159
170
180
184
192
229
229
229
229
229
229
229
229
229
229
229
229
228
228
229
230
230
229
228
229
229
229
229
229
229
229
229
228
228
228
228
228
228
228
228
228
228
228
227
227
228
228
228
227
228
228
229
230
229
228
226
227
228
230
232
228
224
226
233
231
217
208
203
205
205
191
169
133
113
105
142
134
125
105
96
79
83
97
105
151
145
138
141
125
113
99
98
112
131
149
164
184
192
194
178
207
193
185
202
198
202
182
188
189
194
191
154
161
170
154
144
130
138
153
125
119
138
139
98
142
121
130
146
139
130
141
170
155
161
193
191
201
205
196
190
199
207
203
195
198
194
207
187
172
180
143
161
131
138
145
127
101
132
124
133
131
127
132
84
130
121
117
105
124
159
125
142
147
173
152
156
162
171
167
173
179
174
152
162
183
194
182
156
104
106
118
111
126
136
132
126
112
100
102
94
96
108
120
117
134
141
137
142
146
146
154
164
178
178
160
150
146
177
166
163
200
207
197
216
209
213
221
226
227
225
225
227
217
228
230
209
206
222
217
206
186
152
166
160
154
150
155
157
151
158
160
169
175
175
179
229
229
229
229
229
229
229
229
229
229
229
229
228
228
229
229
229
229
228
228
228
228
228
228
228
228
228
228
228
228
228
228
228
228
228
228
228
227
227
227
228
228
228
228
227
227
228
229
230
229
228
229
229
230
230
227
224
226
230
226
217
212
208
205
201
188
170
142
106
93
111
136
117
118
99
85
71
86
95
105
147
142
131
138
126
114
123
140
142
158
195
190
199
199
199
188
215
199
200
202
200
192
170
157
190
202
166
174
159
159
143
137
137
141
143
129
129
156
92
147
131
125
157
143
136
143
157
172
166
185
203
202
206
200
194
203
210
207
202
202
195
203
182
176
170
135
160
132
140
152
136
143
143
140
131
140
129
145
107
144
152
138
108
148
140
102
141
164
152
146
148
166
175
149
182
170
175
176
177
190
174
155
149
137
145
148
143
127
104
90
86
96
102
92
96
107
107
107
89
121
133
136
134
145
154
168
165
172
174
151
148
164
154
178
194
189
197
207
207
218
219
222
225
227
227
228
229
223
212
216
218
211
202
205
225
210
191
165
157
154
163
152
168
183
189
188
193
195
191
187
228
228
228
228
228
228
228
228
228
228
228
228
228
228
228
229
229
228
227
228
228
228
228
228
228
228
228
227
227
227
227
227
227
227
227
228
228
227
227
228
228
229
229
228
227
226
226
228
229
231
231
231
229
228
228
227
226
227
229
222
218
216
212
202
193
182
168
163
121
89
88
122
119
130
109
85
76
71
92
85
115
159
148
114
133
139
149
173
179
176
185
207
189
208
208
209
193
211
204
207
195
205
199
162
162
190
174
186
163
126
112
143
124
123
134
167
142
160
90
143
151
143
158
143
149
165
137
161
166
194
202
201
207
205
202
208
213
211
208
199
197
190
174
182
139
139
157
150
143
157
139
141
158
131
145
125
127
132
127
135
154
123
117
137
110
118
138
150
153
148
160
162
160
174
172
176
174
168
172
161
160
155
148
171
171
143
114
85
103
100
121
121
99
109
110
111
143
151
143
130
144
129
128
152
160
168
161
175
185
160
150
161
160
189
201
195
215
230
221
215
217
219
223
228
229
227
224
234
212
210
217
212
194
184
200
202
200
163
151
140
147
155
165
165
171
171
178
183
180
171
228
228
228
228
228
228
228
228
228
228
228
228
228
228
228
229
229
228
227
227
227
227
227
227
227
227
227
227
227
227
227
227
227
227
227
227
227
227
228
228
229
230
231
230
229
228
227
227
228
231
233
232
230
228
227
228
229
230
231
221
218
217
212
199
187
176
165
160
144
117
112
116
125
127
124
105
90
90
85
96
90
134
167
145
132
122
148
195
206
195
195
193
195
186
212
200
197
197
203
205
200
197
215
189
158
187
162
172
190
162
109
153
167
133
140
166
163
159
117
142
155
170
162
143
141
183
153
154
158
192
195
198
205
204
202
207
210
208
206
198
204
189
178
185
128
151
166
141
155
142
151
130
154
148
166
121
131
144
128
160
137
125
150
132
106
107
156
142
143
149
171
157
175
172
167
171
166
165
181
183
159
158
166
177
131
107
125
127
120
110
112
115
120
131
135
149
135
127
117
107
112
119
139
144
154
161
157
168
182
176
169
165
189
184
179
187
175
174
201
201
206
213
220
225
227
222
216
213
217
222
210
202
199
184
173
186
188
189
172
146
133
162
147
150
159
162
171
179
177
169
228
228
228
228
228
228
228
228
228
228
228
228
228
228
228
229
229
228
227
227
227
227
227
227
227
227
227
227
227
227
227
227
227
227
227
227
227
228
228
229
230
232
232
231
234
233
231
228
227
230
233
232
232
231
228
226
228
230
232
221
216
214
210
197
185
173
162
148
138
150
117
134
111
125
123
133
121
104
100
94
98
80
133
172
168
144
132
170
213
218
203
202
198
198
199
209
196
196
188
191
203
189
193
195
170
178
158
129
171
182
134
141
187
144
137
145
170
157
162
152
147
170
173
151
145
184
170
161
164
181
198
198
205
204
201
204
205
203
203
197
209
198
187
171
137
148
173
127
157
132
156
157
158
172
142
119
136
138
131
150
131
127
150
119
145
116
139
119
145
155
138
151
165
150
172
167
172
186
189
154
163
181
176
169
155
136
135
137
120
135
126
131
156
145
144
121
84
92
94
107
104
125
136
139
149
157
164
166
173
184
182
171
161
162
177
165
161
195
211
198
206
214
219
222
224
223
220
202
200
210
211
201
187
174
180
165
176
169
153
168
151
139
135
159
172
176
183
186
183
174
228
228
228
228
228
228
228
228
228
228
228
228
228
227
228
229
229
228
227
227
227
227
227
227
227
227
227
226
226
226
226
226
226
226
226
227
227
228
229
230
231
233
233
233
236
237
234
230
227
229
232
233
235
234
229
224
223
227
230
222
214
211
207
197
186
173
160
160
142
139
123
134
132
124
126
134
133
109
108
128
110
104
103
130
151
177
194
198
193
199
218
212
182
187
212
211
206
197
195
174
195
197
175
187
166
149
169
131
152
159
188
149
172
173
145
152
169
152
188
164
145
151
180
150
159
169
145
150
173
168
196
202
208
206
202
204
204
203
204
191
206
203
188
145
144
129
165
144
158
166
135
148
138
171
143
136
143
150
136
143
137
146
127
140
154
140
142
124
144
132
147
162
124
169
176
178
176
176
151
156
166
180
172
158
184
174
157
142
151
158
155
140
134
128
96
69
83
108
111
90
114
126
123
139
137
139
161
166
163
175
165
157
155
150
170
173
175
190
168
195
204
210
210
209
213
218
220
200
197
198
190
188
189
172
161
163
155
162
164
151
167
161
169
174
190
195
199
196
189
181
229
229
229
228
228
229
229
229
229
228
228
228
228
228
228
227
227
227
227
227
227
227
227
226
226
226
226
229
229
229
228
227
228
229
231
228
228
229
229
230
230
230
230
231
234
236
235
235
235
230
225
232
233
234
235
236
234
231
229
223
214
208
203
194
186
174
160
164
150
142
123
108
132
154
134
143
140
134
92
99
107
108
132
146
151
159
192
205
201
208
192
206
218
198
161
204
222
208
215
199
170
184
196
181
188
144
167
153
132
181
180
194
151
191
180
148
157
163
176
183
135
147
190
161
147
153
136
156
173
177
195
208
203
205
203
200
199
200
208
193
198
192
182
151
156
128
170
141
177
159
127
196
145
150
137
155
160
142
154
160
138
165
144
152
155
139
138
150
148
133
163
128
148
160
162
172
164
147
161
171
155
159
177
183
175
159
141
170
171
153
129
125
124
105
82
94
103
112
114
115
120
129
137
121
135
152
154
133
154
158
148
147
157
170
154
135
127
126
155
178
162
187
209
205
208
217
222
212
184
183
189
185
161
162
162
163
152
148
151
152
150
156
168
170
182
191
187
175
165
163
228
228
228
228
228
229
229
229
229
228
228
228
228
228
227
227
227
227
227
227
227
227
227
226
226
226
226
227
228
228
228
227
228
229
231
229
229
229
229
230
231
232
232
232
235
236
236
236
237
236
232
233
234
234
232
231
231
232
234
221
212
208
202
188
178
175
175
152
148
150
140
116
123
145
146
145
141
161
147
118
77
71
99
127
185
188
190
200
198
212
208
188
200
216
212
188
201
202
211
209
193
181
165
160
177
169
145
185
144
153
189
205
172
168
195
162
154
151
163
204
141
146
191
172
160
154
148
155
169
188
198
211
209
208
202
198
199
200
205
197
196
187
174
161
159
130
160
138
171
138
163
173
151
170
163
164
184
158
159
154
150
171
154
161
122
135
148
152
145
165
139
134
147
155
151
162
167
158
166
148
172
185
175
158
150
158
173
157
128
118
138
145
124
117
137
144
140
143
134
131
158
161
122
117
152
138
134
133
131
130
143
145
159
151
129
131
138
136
149
160
185
191
205
213
201
206
218
204
188
172
168
165
168
162
153
167
162
152
147
152
157
149
137
163
170
179
183
180
171
157
228
228
228
228
228
228
229
229
228
228
228
228
228
227
227
227
227
227
227
227
227
227
226
226
226
226
226
227
227
227
227
227
228
229
230
232
231
230
230
230
231
232
232
233
235
236
236
236
237
238
237
232
233
232
229
226
224
226
228
222
219
215
203
185
174
170
167
166
157
154
151
136
127
136
144
151
148
156
151
147
144
135
110
106
130
193
210
196
203
207
208
212
201
199
214
211
216
205
214
207
194
186
168
153
159
198
144
162
193
145
152
178
173
173
202
175
179
156
166
198
171
144
186
182
162
136
159
161
170
200
190
198
204
206
202
201
205
205
202
194
195
184
169
167
156
131
154
147
149
128
164
174
157
167
163
184
184
161
152
158
181
163
154
174
124
120
163
145
153
148
134
146
147
148
146
159
174
163
152
176
162
162
160
150
161
172
158
156
162
161
156
154
149
144
144
144
134
124
128
129
111
93
95
132
112
118
128
132
143
135
153
155
147
129
132
136
127
138
164
161
168
160
184
192
186
204
200
194
199
182
171
153
158
149
150
140
147
149
146
151
166
175
177
196
203
207
203
192
178
165
228
228
228
227
228
228
228
228
228
228
227
227
227
227
227
227
226
226
226
226
226
226
226
226
226
226
226
227
228
227
227
227
227
228
229
233
233
233
232
232
231
230
230
233
235
236
236
235
234
234
234
233
234
235
235
234
232
230
230
226
223
214
196
183
180
173
157
161
148
139
143
148
143
144
153
150
140
138
150
152
146
159
167
152
166
174
206
217
195
200
211
201
221
219
187
199
209
214
211
189
189
194
184
173
150
181
179
165
167
194
167
182
184
142
184
174
176
176
175
186
191
153
193
180
158
125
177
167
162
207
186
178
196
203
203
204
209
208
194
180
196
182
171
161
148
130
159
154
148
164
163
180
161
157
192
191
149
162
169
179
177
134
181
160
117
160
155
166
183
150
161
160
130
140
169
174
157
147
157
151
150
148
162
181
176
164
169
168
174
172
167
164
157
148
144
130
149
139
128
139
136
130
147
113
128
120
134
134
126
148
158
154
131
128
133
108
117
152
134
158
186
186
176
169
184
208
193
204
192
169
171
175
171
155
156
151
155
158
150
137
135
149
167
182
189
193
187
176
166
161
228
228
228
227
227
227
228
228
227
227
227
227
227
227
226
226
226
226
226
226
226
226
226
226
226
226
226
227
228
228
228
227
227
227
228
231
232
233
234
234
233
232
231
233
234
235
236
235
233
231
231
227
226
225
229
233
235
232
230
225
214
203
191
181
180
175
165
145
140
132
133
142
143
141
146
164
168
146
134
134
133
144
162
194
186
198
189
199
208
183
194
209
210
216
205
203
196
206
201
183
198
198
182
191
169
151
196
186
139
190
184
191
198
161
156
186
151
197
178
181
174
151
181
175
165
142
199
165
143
206
197
174
198
203
203
204
208
206
184
172
197
175
175
151
145
134
163
175
149
157
158
179
182
166
190
156
160
195
179
175
164
145
183
122
160
172
179
177
165
181
145
141
145
164
162
154
161
161
152
158
147
164
177
162
162
177
177
174
158
148
156
164
153
144
148
138
132
140
152
149
139
133
130
99
86
117
114
112
153
160
138
134
145
114
112
139
138
136
145
129
153
155
154
176
180
173
185
189
182
177
167
165
145
144
158
144
145
150
157
160
165
174
186
198
197
193
186
176
163
150
228
228
228
226
227
227
227
227
227
227
226
226
226
226
226
226
226
225
225
225
225
225
226
226
226
226
226
227
228
229
229
228
227
228
228
227
229
231
234
235
236
235
235
232
232
233
236
237
235
233
232
230
224
219
220
225
229
227
225
222
205
199
200
186
166
158
157
149
144
133
130
143
149
141
132
137
159
169
183
180
158
146
176
184
198
208
223
208
203
215
186
198
208
205
223
212
193
190
216
193
189
203
196
191
203
172
170
189
186
162
158
178
203
198
156
184
152
194
186
157
177
153
158
183
174
161
202
163
138
204
199
178
203
203
202
203
206
208
185
177
198
167
174
146
145
142
162
169
149
169
169
169
147
167
159
155
194
196
169
171
167
170
142
148
181
189
183
162
161
133
150
165
140
149
165
161
151
151
163
172
174
161
152
160
164
161
163
149
156
157
154
154
151
148
149
142
154
158
151
145
137
115
90
117
151
140
133
147
132
141
154
159
138
128
135
127
116
120
118
135
117
120
145
178
185
170
174
179
170
168
158
168
156
147
132
145
148
152
156
167
182
191
194
181
182
180
172
164
158
153
228
228
228
226
226
227
227
227
227
226
226
226
226
226
226
226
225
225
225
225
225
225
225
226
226
226
226
226
228
229
230
229
229
229
230
228
229
230
232
233
235
236
237
234
231
230
234
237
236
234
233
237
232
226
225
229
231
230
227
220
203
194
191
179
162
149
140
143
139
133
132
144
159
159
150
150
162
159
151
166
206
198
196
187
207
207
202
208
198
191
205
189
214
192
189
204
221
207
190
201
181
194
213
190
203
204
160
194
196
196
171
180
204
171
167
161
164
172
198
139
194
172
160
184
179
177
197
166
152
209
195
178
203
201
203
205
207
211
186
186
199
169
172
142
139
151
162
178
151
159
163
172
148
155
132
193
182
160
170
179
164
162
145
183
187
185
167
174
147
156
168
155
146
153
156
159
165
160
158
155
155
169
174
163
160
153
132
125
141
158
166
163
152
154
167
164
159
150
155
161
145
139
160
142
128
134
130
143
140
140
153
142
150
150
131
128
144
144
138
136
128
132
134
129
148
166
147
149
158
167
162
161
164
163
154
139
142
145
146
147
153
164
173
179
181
177
165
152
145
144
227
227
227
226
226
227
227
227
227
226
226
226
226
226
226
225
225
225
225
225
225
225
225
226
226
226
226
225
227
229
230
230
230
231
231
232
231
230
230
231
233
235
237
237
231
228
231
235
235
233
232
224
223
222
225
228
229
229
226
216
200
178
162
162
172
164
142
137
140
143
135
131
143
161
169
166
163
181
178
155
170
170
193
212
221
208
214
208
206
226
209
198
199
219
219
197
188
219
203
202
200
176
204
198
173
198
185
168
163
207
190
166
188
191
154
167
177
167
206
145
172
169
157
172
181
198
200
169
161
217
201
178
204
202
207
208
206
208
181
190
201
178
173
140
128
157
164
164
153
136
153
145
164
130
159
184
170
168
165
155
171
166
178
190
183
166
174
139
156
195
145
120
143
167
161
158
169
170
168
172
169
174
177
164
141
125
121
136
154
162
161
169
177
174
167
169
162
167
161
150
162
166
143
141
142
144
126
127
139
160
146
146
142
126
107
121
125
104
115
140
120
101
129
134
112
134
154
153
146
137
139
130
146
148
143
145
142
150
165
166
155
158
174
174
172
169
168
168
164
150
226
226
226
226
226
226
226
226
226
226
226
226
226
226
226
226
226
226
226
226
225
224
224
224
226
227
228
228
227
227
231
236
237
234
229
230
230
231
231
232
232
230
229
231
236
231
220
222
235
239
233
231
229
229
226
225
228
227
215
215
207
182
161
154
144
133
132
161
142
158
165
140
137
151
155
146
137
159
187
197
207
206
185
181
202
220
220
208
201
204
210
222
206
199
208
212
206
205
212
212
203
186
201
204
194
180
195
173
158
172
198
129
150
183
158
186
152
170
193
172
137
171
157
164
177
195
209
165
186
220
181
173
212
208
201
217
211
194
189
185
205
190
171
139
145
139
167
166
136
142
121
147
169
138
195
177
159
164
131
127
192
160
183
184
188
153
150
172
185
128
124
170
179
189
172
148
157
163
143
158
169
175
168
157
155
158
157
157
159
157
162
154
170
166
153
166
157
163
168
170
172
164
161
149
150
146
148
152
142
133
139
128
130
131
129
123
116
111
111
94
96
88
117
115
123
123
157
159
151
151
150
139
138
140
134
147
153
157
158
159
163
165
166
179
179
182
181
171
169
171
226
225
225
225
225
225
225
225
225
225
225
225
225
225
225
225
225
225
225
225
225
225
224
225
225
226
227
229
227
226
226
228
230
232
232
232
233
234
233
232
233
235
238
227
232
235
229
217
211
219
231
230
228
227
224
221
225
227
219
201
191
170
153
145
137
130
128
130
150
156
170
176
168
170
168
167
155
156
162
164
183
206
211
200
159
152
195
224
210
192
194
198
212
218
208
199
198
202
203
206
223
205
183
206
217
177
170
186
160
172
172
172
142
181
181
162
160
168
183
163
135
173
152
145
162
179
193
172
182
209
186
189
203
202
204
208
203
199
192
179
195
186
192
143
157
127
145
160
142
129
170
169
147
162
198
169
173
126
134
207
191
160
181
195
150
143
157
144
125
147
209
185
179
157
147
155
153
155
175
179
171
169
167
163
167
168
159
162
166
170
172
163
166
167
168
172
168
179
179
170
164
155
153
145
152
165
174
161
130
116
123
143
151
152
142
131
126
118
111
89
95
89
95
84
90
97
121
144
148
152
150
146
148
146
138
134
132
139
153
162
167
179
194
186
186
181
172
162
153
148
225
225
225
225
225
225
225
225
225
225
225
225
225
225
225
225
225
225
225
225
225
225
225
225
225
225
225
229
229
229
227
226
228
232
235
233
234
234
232
229
228
232
236
243
225
222
239
243
227
215
217
221
221
225
226
226
233
235
230
225
205
182
162
146
140
138
135
140
134
163
166
162
175
178
185
193
193
196
197
195
197
204
211
223
220
208
196
196
210
218
217
215
204
204
215
217
203
193
192
210
207
214
208
195
190
202
201
194
163
164
156
195
154
165
205
150
164
175
182
187
143
176
149
163
181
193
197
193
184
201
190
201
195
200
212
204
198
205
193
193
194
188
192
143
156
115
122
177
125
121
165
157
125
154
179
191
135
138
176
192
146
157
197
160
137
151
139
150
178
211
196
195
164
151
157
163
178
185
173
164
167
158
165
182
167
157
179
183
160
141
142
165
173
174
172
166
160
167
163
156
156
153
156
164
160
162
158
141
132
142
156
152
146
130
120
128
135
116
87
86
73
80
105
113
107
108
117
130
143
143
134
136
142
143
140
151
145
146
152
153
153
161
173
177
179
168
157
155
147
140
225
225
225
225
225
225
225
225
225
225
225
225
225
225
225
225
225
225
225
225
225
225
225
225
225
224
224
226
228
231
232
231
231
231
232
234
234
234
232
228
226
226
227
228
240
240
227
225
236
238
229
228
226
228
227
222
221
214
204
192
181
179
176
163
156
148
137
136
127
132
165
162
160
187
179
177
188
197
210
221
214
201
198
189
209
223
216
205
203
201
198
198
205
208
207
213
219
214
202
194
209
210
210
201
175
191
174
197
200
179
184
155
204
145
201
167
139
154
177
214
129
149
166
158
176
194
190
195
185
205
198
194
192
202
217
207
198
202
192
198
192
195
179
166
169
139
141
151
113
161
174
160
127
158
192
147
125
160
194
158
153
184
162
146
158
171
168
195
181
181
192
135
147
146
156
179
176
157
154
167
165
171
179
178
174
175
178
165
164
165
161
175
163
158
158
162
151
154
153
156
165
165
166
165
162
160
151
146
160
172
165
154
146
129
117
126
143
144
133
132
86
77
100
131
131
127
111
134
150
152
144
145
141
134
133
119
127
135
140
151
168
181
184
182
184
169
158
163
158
152
224
224
224
224
224
224
224
224
224
224
224
224
224
224
224
224
224
224
224
224
224
225
225
225
224
224
224
223
225
228
231
232
232
230
230
234
234
235
236
237
235
231
228
218
224
232
233
229
225
228
234
235
230
229
227
222
218
208
196
179
161
153
150
145
153
165
167
170
150
149
151
175
185
170
192
195
198
194
199
215
217
212
218
217
204
198
206
211
208
210
219
203
207
205
200
205
215
212
201
195
183
209
217
196
178
190
166
161
213
198
187
150
165
187
166
165
163
170
149
183
154
154
174
156
171
197
185
191
187
214
208
179
197
205
211
210
198
196
194
190
194
200
174
181
171
147
152
138
119
160
167
153
135
157
185
137
168
206
172
162
168
134
157
173
166
178
179
170
185
191
153
139
162
175
184
184
157
141
156
153
183
170
155
183
192
176
176
172
173
162
133
132
128
147
165
162
155
161
161
162
168
164
162
163
164
167
164
162
171
166
142
149
133
119
120
134
139
127
110
103
110
127
115
110
114
141
144
136
146
146
143
145
143
143
152
143
148
153
152
158
171
179
179
186
190
180
174
183
180
176
224
224
224
224
224
224
224
224
224
224
224
224
224
224
224
224
224
224
224
224
224
224
224
224
224
224
224
227
227
227
228
229
231
233
234
232
231
232
236
241
242
239
235
237
213
208
231
242
228
217
220
223
217
217
220
220
223
221
215
183
169
160
157
156
161
170
176
188
193
173
172
174
171
189
191
198
202
198
197
204
203
202
211
214
214
216
216
213
211
210
209
221
207
199
203
207
203
199
200
184
182
199
192
213
207
176
210
162
165
222
180
173
116
174
157
173
178
177
171
178
168
146
203
153
166
186
169
174
173
195
194
177
206
209
208
211
200
197
202
197
200
198
176
173
155
149
163
164
124
148
150
143
164
143
165
140
195
190
172
171
135
172
203
172
181
157
169
196
191
158
150
167
166
178
179
161
160
167
161
162
164
173
177
173
171
167
158
139
139
138
138
156
168
174
173
168
167
174
168
160
163
163
166
171
166
165
165
161
158
155
149
134
135
137
134
121
107
107
114
121
122
132
124
124
118
128
127
136
140
140
138
138
136
139
148
154
150
152
159
164
169
177
185
189
191
181
173
172
163
154
224
224
224
224
224
224
224
224
224
224
224
224
224
224
224
224
224
224
224
224
223
223
223
223
224
225
225
228
230
230
228
226
228
233
238
232
230
229
230
233
236
237
237
238
242
230
211
212
230
236
226
218
212
211
210
204
202
204
201
193
178
161
153
156
160
172
187
170
171
197
196
180
183
187
192
188
197
206
214
217
210
204
204
205
203
208
218
221
216
211
211
197
212
217
204
200
208
213
211
187
176
191
191
197
225
200
167
201
153
219
212
176
163
118
173
151
187
187
166
172
176
154
191
156
171
181
168
188
187
196
213
186
208
210
210
210
200
200
206
209
191
199
181
173
139
181
200
140
111
155
145
136
157
139
137
173
192
185
161
146
164
198
162
153
191
194
195
180
153
149
170
166
178
168
160
178
188
182
182
176
177
177
182
178
155
145
160
170
173
177
183
174
171
167
165
176
175
182
175
167
174
176
180
167
170
171
171
169
161
156
158
148
131
116
114
117
119
125
133
119
105
103
115
127
119
127
146
137
144
153
154
145
140
135
127
141
141
146
156
165
172
180
186
178
177
175
174
176
177
181
224
224
223
223
223
223
223
223
223
223
223
223
223
223
223
223
223
222
223
223
223
222
222
222
224
225
226
224
228
231
228
224
223
229
235
237
234
230
226
225
227
231
235
230
235
237
234
227
223
225
229
221
219
219
214
201
193
191
189
188
183
170
165
166
158
154
163
193
197
191
203
214
199
193
207
208
206
206
210
211
207
201
196
188
203
208
200
202
215
218
210
221
211
206
213
218
213
205
201
200
180
178
215
185
190
220
185
174
196
153
220
212
173
178
167
148
187
187
152
179
170
166
185
158
177
173
162
195
188
183
216
188
201
206
212
207
197
199
200
218
176
204
182
176
112
193
203
166
151
162
145
154
144
182
112
181
199
150
142
138
176
183
145
182
180
175
179
164
152
177
194
189
175
186
197
181
170
168
159
165
158
154
151
154
170
180
173
168
160
156
164
146
152
164
179
167
165
174
174
175
182
177
172
174
187
183
173
173
171
162
158
158
147
142
146
151
144
130
119
118
113
110
122
136
129
120
127
127
129
134
131
129
148
164
161
153
164
171
172
180
192
194
188
178
169
160
151
144
147
154
224
224
224
224
224
224
224
224
224
224
224
222
222
222
222
222
222
223
222
221
222
223
223
224
224
225
225
226
228
230
233
233
230
225
222
224
235
238
230
221
220
223
223
232
230
235
234
228
231
233
225
227
215
207
209
214
210
198
188
192
189
184
181
185
191
184
171
185
197
206
205
202
203
207
208
206
202
198
198
203
206
198
188
203
214
217
220
210
214
213
218
212
217
215
219
229
223
209
206
198
198
179
184
206
200
197
217
193
186
187
141
216
187
160
165
171
182
185
163
167
197
188
157
137
162
191
160
183
182
202
205
185
213
217
195
205
204
196
184
216
192
208
183
173
143
185
206
171
153
155
147
142
172
153
115
198
157
141
175
163
193
176
182
189
180
165
189
192
207
193
180
176
184
177
160
148
157
167
156
136
148
148
141
158
185
181
155
158
146
145
123
126
150
148
155
160
166
175
179
174
170
174
183
181
179
176
171
169
167
166
166
158
156
157
149
149
128
120
117
123
122
124
127
126
121
123
126
130
135
137
136
138
146
149
147
149
151
145
150
155
158
167
168
173
179
180
170
163
165
170
223
223
223
223
223
223
223
223
223
223
223
222
222
222
222
223
223
223
223
221
221
222
223
224
225
227
226
226
227
230
233
235
234
231
228
227
225
226
231
230
224
223
227
222
224
223
226
231
229
226
229
222
219
219
219
215
205
198
195
184
186
184
186
192
202
203
200
197
203
208
210
210
212
213
214
205
211
215
215
211
206
198
190
200
218
212
207
209
220
214
218
226
211
222
222
212
219
220
211
202
203
211
198
194
211
213
212
211
181
190
175
148
204
165
200
177
175
168
164
165
191
187
166
130
164
202
180
188
183
200
212
194
212
206
199
206
206
196
198
211
201
199
201
169
178
176
202
169
154
146
151
160
199
158
186
182
142
185
169
187
168
163
196
191
174
185
181
198
189
174
163
179
165
172
171
168
175
182
197
197
180
158
148
157
171
175
172
175
163
172
164
155
148
131
140
174
169
168
175
180
177
172
170
172
174
176
180
182
183
182
180
175
182
173
163
163
164
148
134
102
113
113
100
103
122
134
130
146
149
152
150
147
145
147
153
149
151
147
153
159
165
179
183
185
175
165
161
154
150
159
223
223
223
223
223
223
223
223
223
223
223
222
222
222
222
223
223
223
223
222
222
222
222
223
223
224
223
226
227
230
233
236
238
237
236
234
226
223
229
231
225
219
218
218
213
225
228
219
229
239
224
213
213
212
208
202
196
195
197
207
208
207
203
203
209
212
213
213
212
213
216
219
220
219
220
214
211
206
206
210
212
207
200
210
200
200
219
209
198
200
222
208
212
220
211
206
207
205
219
212
212
203
212
201
188
205
202
215
200
192
194
191
164
178
175
196
202
192
179
165
192
201
176
153
171
195
183
186
186
198
212
196
208
199
207
213
206
189
203
204
186
203
204
188
188
186
203
138
158
146
169
177
163
121
184
174
200
162
152
176
163
208
191
170
195
190
199
178
176
183
179
170
168
161
183
190
183
193
184
159
156
161
174
180
176
170
168
162
162
175
170
171
178
166
167
144
150
164
180
187
182
175
171
175
176
179
184
188
190
188
185
175
178
155
142
132
137
112
92
108
106
112
125
132
132
135
141
137
128
128
139
151
152
149
148
147
143
137
155
178
191
195
186
174
172
171
167
156
143
145
223
223
223
223
223
223
223
223
223
223
223
221
221
221
221
222
222
222
222
222
222
222
223
224
225
225
225
225
225
225
227
230
233
234
235
233
234
229
224
224
226
221
211
200
218
225
225
223
213
210
224
228
226
224
223
218
208
196
187
180
185
189
192
198
208
216
219
211
206
205
209
211
209
208
210
216
205
193
191
198
207
208
205
207
192
199
221
213
219
209
187
194
209
205
203
209
198
191
197
219
202
205
208
218
205
184
215
217
187
194
204
194
181
195
178
185
199
206
187
163
172
203
197
175
176
184
184
188
194
197
208
199
206
199
202
212
195
184
204
194
180
216
195
190
188
211
189
130
167
132
171
181
125
142
181
166
156
157
173
178
192
159
183
192
189
183
134
167
195
186
170
160
168
194
177
163
167
149
144
146
156
161
160
160
168
178
183
184
179
174
157
154
160
147
139
157
159
165
170
171
171
178
187
190
187
184
182
181
181
179
178
178
178
165
158
146
128
93
73
92
114
135
140
132
126
127
127
122
126
134
138
136
134
137
144
137
154
163
174
176
172
176
172
162
158
152
153
166
181
186
223
223
223
222
222
222
222
222
222
222
222
222
222
222
222
222
222
222
222
221
221
221
222
225
228
230
231
223
222
220
220
221
224
226
227
228
232
231
225
222
226
225
221
214
179
185
216
220
219
218
206
213
209
206
209
216
222
221
218
214
214
213
211
210
210
210
209
220
217
216
219
218
214
215
218
208
206
203
199
196
197
200
204
218
212
198
195
190
208
216
218
214
207
195
212
209
201
207
176
188
208
197
210
224
213
215
207
195
212
183
202
194
204
199
197
198
192
214
207
183
151
187
216
177
175
187
200
203
206
201
208
204
209
203
184
204
182
187
211
191
196
209
199
166
206
223
166
153
175
129
178
183
147
190
182
187
170
162
177
176
171
191
216
186
181
156
172
221
180
159
146
177
190
181
180
166
149
151
127
150
166
177
173
172
178
179
173
177
167
168
172
170
162
154
158
159
154
151
153
156
161
169
178
170
169
168
167
169
172
175
177
185
179
167
150
153
150
152
153
138
99
80
101
120
117
116
124
132
126
120
122
133
143
142
134
142
160
170
175
170
163
164
160
170
177
179
178
178
175
167
223
223
223
222
222
222
222
222
222
222
222
221
221
221
221
221
221
221
221
223
221
221
222
223
224
225
226
226
225
223
222
222
223
222
222
228
226
227
229
226
220
223
230
238
223
198
196
222
237
230
225
222
218
210
202
200
203
207
209
215
215
216
217
219
219
218
217
213
214
216
217
214
212
212
214
213
210
207
205
202
201
202
206
192
214
205
206
211
198
181
206
216
219
205
215
215
208
219
205
193
190
221
220
210
224
214
198
218
181
190
215
198
202
202
184
204
188
210
205
186
147
161
198
193
177
184
201
211
214
205
203
198
210
210
181
206
181
189
210
201
188
191
204
174
212
211
166
167
179
157
198
177
181
188
173
181
182
174
153
165
200
209
190
193
144
183
219
166
173
185
184
184
163
174
177
175
171
157
165
165
165
166
168
174
179
178
173
163
168
176
177
168
158
155
159
144
147
153
159
160
161
168
177
177
179
181
181
180
180
181
183
173
177
173
146
145
135
133
124
102
109
105
95
103
121
125
112
118
126
129
126
128
141
156
163
167
169
164
172
183
188
187
173
162
155
151
151
147
142
150
223
223
223
222
222
222
222
222
222
222
222
221
221
221
221
221
221
221
221
223
222
221
221
221
221
222
223
229
229
230
231
231
228
223
220
225
221
221
226
225
219
218
222
224
231
234
208
182
196
217
212
214
220
224
224
223
220
217
212
215
216
217
219
219
220
219
220
216
219
221
220
219
218
216
213
216
208
201
200
202
204
207
210
200
219
205
195
204
215
193
181
197
214
214
210
219
214
210
226
216
205
212
232
220
212
220
202
211
212
157
201
212
191
207
210
200
191
209
208
195
180
167
206
212
182
182
190
205
211
208
204
190
211
211
190
214
188
184
202
198
171
192
197
197
208
186
181
173
184
180
190
170
190
172
188
189
179
160
170
194
212
189
179
149
187
188
162
179
185
193
170
151
164
164
161
148
146
170
177
163
162
164
168
172
171
164
157
153
164
166
159
151
148
148
142
146
144
142
139
135
134
142
153
171
174
177
174
167
162
160
161
167
168
159
143
138
132
126
121
130
116
98
90
96
109
121
128
133
132
131
135
143
151
155
155
146
157
157
160
161
162
166
160
170
152
142
154
171
172
163
222
222
222
221
221
221
221
221
221
221
221
221
221
221
221
221
221
221
221
221
221
222
223
225
228
230
232
227
230
233
236
235
230
223
218
213
216
217
216
220
224
220
210
213
211
219
233
237
231
225
224
217
213
207
204
209
216
218
215
216
218
218
218
215
212
213
216
216
219
219
216
215
214
209
202
204
205
206
204
196
193
200
210
216
208
219
225
191
198
216
218
197
184
211
211
211
222
202
200
218
201
196
205
220
222
213
217
199
222
204
176
207
205
198
227
200
185
196
213
194
181
147
206
207
184
191
192
199
202
212
217
195
214
207
192
211
191
180
202
178
179
210
190
191
217
164
180
174
185
181
170
181
180
149
173
159
168
153
190
220
165
161
172
187
186
167
177
182
185
153
154
177
182
163
119
118
161
172
149
154
166
172
170
169
173
171
164
170
165
164
178
183
175
173
173
164
153
145
149
155
153
145
139
137
146
157
164
168
174
183
191
185
177
162
166
153
135
111
111
133
128
121
114
112
113
113
112
116
120
130
140
142
137
138
142
144
154
159
170
181
183
181
166
153
156
153
147
145
149
152
223
223
223
222
222
222
222
222
222
222
222
221
222
222
222
221
221
221
222
220
221
224
224
226
229
234
237
230
233
236
235
235
236
238
239
227
224
216
206
203
207
211
211
209
211
212
212
216
221
221
218
221
223
227
230
228
225
222
223
219
223
225
225
226
227
223
218
217
216
225
222
207
208
212
201
204
205
209
219
223
214
211
220
224
219
217
206
209
210
198
209
235
205
193
184
191
189
204
217
221
208
206
190
208
202
212
204
218
215
212
194
204
195
217
198
197
188
187
212
199
204
183
190
203
196
183
195
192
207
213
202
186
223
202
192
200
191
192
188
166
189
213
178
193
211
161
180
188
156
176
187
188
181
159
178
139
191
180
185
205
175
179
173
174
175
182
191
154
172
168
168
167
175
136
148
175
155
153
157
153
159
140
138
146
137
145
166
186
184
185
182
169
153
149
154
162
153
150
156
160
158
157
160
142
144
153
154
171
174
177
167
173
180
173
161
144
127
121
110
88
97
112
118
117
121
125
124
124
128
128
125
129
137
141
138
147
160
172
177
174
167
157
149
150
148
146
150
154
154
152
223
223
223
222
222
222
222
222
222
222
222
221
222
222
222
221
221
221
222
222
223
225
225
225
224
225
225
237
232
228
228
233
237
236
233
230
235
235
229
220
213
207
203
209
209
206
202
202
207
210
210
212
210
210
211
210
211
215
221
232
229
228
225
224
225
225
225
228
223
217
218
220
209
188
173
186
198
202
205
217
223
219
213
217
217
218
217
221
221
210
207
180
196
212
194
187
194
187
212
213
230
220
216
193
210
204
205
195
211
224
207
173
206
195
201
211
196
173
194
205
199
194
195
204
202
186
207
199
195
203
190
207
209
199
196
200
180
202
192
165
191
186
183
187
188
184
189
176
131
189
191
207
160
196
154
176
177
156
204
193
178
197
176
169
181
158
156
170
171
167
187
172
114
130
150
141
135
132
157
153
137
154
152
155
177
180
193
183
164
145
140
148
160
168
171
162
158
149
142
144
149
142
130
151
152
154
161
160
162
170
182
183
188
185
184
182
171
158
139
127
123
124
126
126
127
120
109
112
108
114
129
136
136
141
152
155
161
165
161
154
150
145
142
141
149
162
167
163
159
160
222
222
222
222
222
222
222
222
222
222
222
221
221
223
222
221
220
221
222
219
220
224
227
228
228
226
225
227
225
225
229
234
235
231
227
237
229
221
221
227
230
221
210
209
213
218
219
219
218
215
212
215
217
221
226
226
223
222
222
224
224
226
227
225
222
221
221
219
221
214
213
218
203
186
192
192
202
207
205
199
189
188
200
212
204
195
201
212
219
217
200
192
183
197
207
165
198
236
209
215
221
223
226
211
210
209
218
200
201
207
204
189
192
208
203
210
203
171
187
216
196
197
195
199
206
190
204
177
184
221
175
192
209
202
202
203
190
198
179
174
175
200
169
177
190
186
192
142
175
209
189
186
165
184
169
215
170
190
188
181
180
188
162
173
183
198
176
181
175
184
161
106
145
159
125
131
170
161
133
133
151
150
168
182
186
177
123
109
129
146
145
139
139
144
148
135
134
137
142
139
134
140
152
179
175
164
170
163
169
162
164
184
190
184
175
162
149
143
132
139
120
105
99
102
114
120
117
101
109
117
125
134
142
147
151
146
155
165
169
168
167
165
164
161
154
149
150
156
160
158
222
222
222
222
222
222
222
222
222
222
222
220
221
222
222
220
220
221
221
219
221
224
229
233
235
233
231
227
225
223
219
216
216
222
228
219
227
234
234
229
222
219
219
208
214
222
228
229
225
217
211
212
207
203
202
205
210
216
223
225
225
228
231
230
224
222
223
220
225
220
209
198
184
180
192
210
201
194
201
210
206
204
211
223
227
219
216
198
187
191
173
154
162
185
205
220
197
157
210
230
222
224
223
226
213
211
210
225
203
196
194
203
190
223
206
201
210
185
190
214
196
191
196
190
192
185
202
161
175
237
170
187
226
192
197
196
199
188
191
181
182
228
153
179
200
180
174
148
214
194
180
173
204
154
190
194
171
210
175
190
186
186
182
183
202
186
208
193
188
161
110
145
179
150
134
158
148
137
155
177
163
154
156
165
149
137
168
183
175
161
153
161
170
155
132
156
138
132
147
156
151
150
157
143
156
152
139
128
143
155
163
164
167
163
170
176
167
150
124
102
101
108
115
116
118
116
108
114
123
128
124
126
134
137
134
137
143
152
158
159
155
148
144
127
133
137
137
135
135
136
221
221
221
221
221
221
221
221
221
221
221
221
221
222
222
221
221
220
221
225
224
225
228
231
233
233
232
233
234
236
235
229
222
222
225
223
218
215
219
226
227
220
214
221
219
218
219
222
222
219
217
209
212
219
227
231
230
227
226
231
228
225
223
221
220
221
224
223
218
220
215
207
209
210
201
196
202
196
189
197
206
207
204
210
218
219
226
213
199
194
169
179
188
183
191
218
225
219
180
210
225
225
221
214
227
219
207
225
215
211
203
179
213
202
205
202
212
197
190
200
201
186
195
186
182
176
205
180
169
217
178
195
218
189
211
204
194
187
201
176
218
208
162
191
190
187
156
178
196
184
186
188
196
169
203
188
206
200
202
196
171
183
187
200
188
208
183
195
177
111
151
165
148
136
131
141
142
140
162
152
151
143
137
157
166
157
171
173
177
172
162
158
156
142
123
131
135
135
127
119
119
127
133
141
139
137
131
149
163
168
157
156
172
177
176
165
152
147
138
126
116
108
103
100
108
120
126
118
115
119
128
130
127
133
144
155
152
150
152
154
151
145
142
145
151
154
150
146
146
147
221
221
221
221
221
221
221
221
221
221
221
220
221
222
221
221
220
220
220
223
222
222
223
226
228
230
231
229
227
231
238
242
238
233
231
224
225
224
218
211
210
219
230
228
223
219
220
223
225
227
229
232
228
226
226
228
230
234
237
226
225
223
220
221
222
221
219
217
204
201
194
183
190
193
177
188
206
212
206
200
199
207
218
204
204
202
211
214
214
212
201
190
164
198
195
197
213
218
216
188
203
222
217
216
211
219
218
207
215
203
214
189
210
194
198
204
205
201
196
197
205
186
183
186
199
183
189
198
181
195
186
197
197
203
218
206
188
204
181
180
229
179
177
193
187
185
165
196
200
181
183
193
174
196
207
184
197
202
197
191
182
204
194
195
196
201
196
160
123
173
178
175
153
133
134
125
124
137
125
137
147
151
172
161
148
181
192
182
175
163
158
164
171
164
152
153
141
129
128
138
146
147
144
142
138
147
147
155
145
155
161
176
175
161
155
150
142
135
120
132
119
109
105
104
108
115
114
119
121
124
129
131
133
137
142
153
150
151
158
164
165
161
158
149
145
139
135
138
144
144
220
220
220
221
221
221
221
221
221
221
221
219
220
221
221
220
220
219
220
219
219
220
221
223
226
230
233
229
219
210
209
212
215
222
229
233
228
226
230
231
225
215
210
219
219
222
225
226
225
227
231
229
228
230
233
233
229
224
222
226
230
229
224
224
226
219
209
196
191
188
184
182
188
195
196
179
177
180
195
210
213
214
221
218
220
222
214
201
190
184
196
191
189
186
186
191
208
227
222
213
200
213
214
224
197
206
213
198
206
196
204
217
196
206
198
205
195
198
201
200
193
196
179
188
200
196
182
200
203
198
189
208
197
202
205
192
185
214
174
193
207
181
179
189
191
180
182
210
218
168
175
196
199
197
193
206
198
220
186
185
189
197
186
195
188
172
191
132
163
197
163
162
170
138
126
124
130
147
120
126
132
159
146
144
169
160
152
168
158
149
150
153
149
137
127
133
121
112
114
118
122
131
142
155
137
129
138
150
152
159
166
145
162
170
175
170
160
156
147
129
117
110
109
108
110
114
112
124
134
136
131
129
133
130
120
129
132
140
150
154
147
139
133
113
129
144
145
140
139
140
220
220
220
221
221
221
221
221
221
221
221
220
221
221
221
220
220
219
220
220
222
223
223
223
225
229
232
230
227
225
219
207
195
192
197
201
200
203
212
218
220
222
224
224
226
229
230
226
222
226
234
233
230
228
229
231
232
232
233
231
232
223
209
206
210
203
192
195
197
191
192
201
192
182
190
201
205
200
195
201
209
205
198
194
187
195
207
221
206
162
152
192
199
203
202
193
203
200
220
234
215
192
215
217
228
211
213
197
206
219
188
209
207
206
207
211
192
193
197
193
173
208
190
190
172
199
201
208
214
205
189
207
198
192
216
208
190
196
175
201
195
192
175
193
185
191
184
205
204
183
198
200
207
184
197
200
205
192
203
195
194
197
212
189
190
185
130
194
188
170
181
172
145
162
157
142
135
107
107
118
140
134
136
151
152
157
167
148
143
144
149
145
133
122
120
123
118
106
99
114
138
147
140
125
132
137
153
150
152
142
141
158
169
172
179
180
172
162
146
128
117
108
102
95
96
106
110
103
106
117
133
139
137
134
135
135
141
151
161
160
151
142
137
146
153
155
153
151
150
145
221
221
221
221
220
220
220
220
220
220
219
218
219
219
219
218
218
219
221
225
223
223
223
218
214
219
228
230
227
223
223
224
222
218
213
224
215
206
203
206
213
221
227
221
226
227
225
227
234
236
233
233
235
234
231
232
231
229
223
223
224
227
216
212
213
199
188
192
205
199
181
179
186
194
204
207
198
192
185
203
207
216
219
216
219
222
216
204
201
190
166
182
201
215
212
208
213
218
220
219
223
216
195
223
226
213
208
199
205
213
201
198
207
204
214
217
194
194
192
198
198
208
196
182
186
210
170
203
206
200
201
219
202
192
211
197
182
208
191
208
198
179
194
190
205
186
159
193
186
187
197
208
190
194
197
206
213
180
196
191
205
195
199
190
174
137
191
189
170
179
175
154
161
166
130
99
96
135
154
157
154
140
137
151
157
157
162
158
160
157
147
140
143
139
123
131
134
140
140
130
124
117
107
123
136
147
142
142
142
146
169
162
155
155
164
167
160
150
145
129
120
111
102
94
97
105
108
111
114
121
133
144
144
144
152
155
166
163
158
161
154
153
166
159
155
154
152
143
134
136
221
221
221
221
220
220
220
220
220
220
219
218
219
219
219
218
218
219
220
213
217
222
223
222
221
220
218
217
225
233
235
230
223
218
216
210
216
223
226
223
219
221
226
229
233
234
231
233
238
239
236
232
233
232
231
227
225
216
207
204
199
203
201
197
195
189
195
206
191
170
164
177
189
191
189
209
195
197
201
208
196
205
216
222
222
221
212
199
201
205
197
200
191
186
197
208
213
207
200
213
231
217
215
175
212
227
210
204
200
199
217
198
183
206
194
206
202
199
196
202
196
191
186
188
183
200
181
204
197
195
198
214
197
193
213
202
191
210
205
194
213
182
203
177
187
196
190
201
181
190
189
186
193
205
215
208
195
184
218
201
185
181
202
193
125
201
195
190
179
155
154
167
143
114
110
137
172
164
131
118
130
143
156
165
161
150
145
153
149
148
146
146
150
149
140
117
107
119
135
126
112
114
119
127
125
149
154
139
141
146
143
136
144
155
164
168
170
169
169
156
142
128
115
106
109
117
119
125
131
127
120
124
134
140
144
138
139
136
141
151
148
139
139
146
138
134
138
139
132
121
221
221
221
221
220
220
220
220
220
220
219
218
219
219
219
218
218
219
220
220
224
223
219
219
223
222
216
223
214
206
208
218
225
224
220
208
209
214
222
227
229
230
231
233
236
236
233
233
236
237
234
235
234
233
234
235
236
232
227
229
221
221
212
204
200
199
208
205
191
182
185
188
194
203
207
208
198
201
203
209
212
215
201
203
204
209
210
205
206
208
203
217
227
217
194
195
221
230
219
221
200
229
228
213
166
218
234
208
213
202
197
211
201
186
204
196
208
201
200
204
200
183
186
191
188
199
197
206
199
202
197
204
196
198
206
199
203
211
211
191
211
179
197
172
190
192
202
205
183
206
199
179
197
202
205
199
198
216
209
177
176
216
202
131
196
203
185
171
177
180
175
124
134
136
147
135
131
123
134
144
140
138
136
133
140
151
157
136
138
143
140
129
129
144
155
138
128
132
129
107
103
118
124
118
144
157
140
141
157
145
127
135
151
167
173
173
170
162
153
146
140
138
136
128
122
114
104
119
129
132
129
133
139
142
144
154
154
155
157
156
150
144
142
151
148
141
128
115
108
106
221
221
221
221
220
220
220
220
220
220
219
218
219
219
219
218
218
219
220
218
220
220
220
223
230
234
233
231
226
217
208
203
206
214
222
215
208
204
209
218
225
229
231
233
235
235
233
232
234
233
231
238
236
234
232
232
229
221
214
194
200
207
200
198
202
193
187
169
158
161
175
179
180
180
171
183
171
167
163
169
194
210
196
215
207
202
204
209
213
211
209
186
201
217
219
215
210
212
214
221
226
219
221
228
226
156
209
220
212
215
195
198
219
209
205
197
207
200
202
199
200
186
187
181
192
200
208
201
203
213
194
201
203
207
198
191
211
209
209
196
197
188
190
181
207
179
196
199
191
211
208
192
205
200
193
205
195
198
175
201
211
189
128
195
186
157
186
207
189
168
135
135
163
162
144
126
122
109
106
100
102
115
127
128
135
142
139
138
138
148
157
157
150
138
125
130
107
105
115
118
125
121
98
114
117
123
132
149
146
135
151
153
154
153
153
158
168
170
168
157
140
125
115
112
118
126
125
115
113
111
116
121
121
125
136
128
127
132
135
128
127
131
133
137
139
143
147
153
157
153
220
220
220
221
220
220
220
220
220
220
219
218
219
219
219
220
220
220
221
218
219
223
229
230
227
228
231
225
232
239
237
227
218
215
215
220
221
225
227
226
226
229
235
235
236
237
236
235
236
235
233
229
229
231
231
230
221
211
202
201
193
185
169
172
188
190
190
184
175
176
179
179
187
192
186
200
190
195
202
190
192
205
208
189
184
179
182
185
182
174
171
198
203
212
216
210
201
207
220
214
225
217
225
222
201
217
160
199
217
208
203
198
206
224
204
204
201
198
204
191
196
188
179
173
186
195
211
195
194
208
192
209
205
209
202
191
212
205
211
197
200
207
200
198
206
184
198
196
199
198
198
202
208
210
205
202
208
185
187
186
188
133
186
176
189
207
206
189
158
126
141
166
154
145
144
151
134
136
154
162
155
158
161
157
157
156
146
141
137
135
133
135
144
147
139
129
114
122
134
119
104
107
113
120
96
109
128
127
126
132
140
144
146
152
161
168
171
170
169
147
138
132
129
126
126
125
118
120
120
123
132
141
140
139
147
143
136
136
140
139
141
143
141
142
147
145
130
112
108
114
220
220
220
221
220
220
220
220
220
220
219
218
219
219
219
220
220
220
221
223
221
223
227
225
219
219
225
225
226
228
231
230
225
215
208
207
209
215
224
231
233
234
235
235
236
237
237
237
237
236
235
230
228
226
229
228
227
225
225
216
210
217
216
208
193
169
161
181
187
200
207
204
201
197
192
170
175
189
204
197
201
202
201
197
206
211
216
216
205
196
194
189
184
180
189
210
227
227
217
223
215
224
217
214
214
201
199
168
193
201
203
206
201
205
218
206
194
198
207
196
197
194
180
181
181
191
214
199
186
200
198
215
199
202
212
195
206
200
211
198
211
204
211
210
197
203
197
205
205
198
194
207
199
207
204
176
203
155
170
174
108
169
170
178
195
198
180
141
145
170
187
180
174
170
162
183
182
177
160
149
144
144
148
150
152
150
142
154
162
165
152
136
136
145
146
132
127
127
126
120
117
126
136
118
116
123
122
127
141
140
135
157
156
155
155
154
157
165
173
148
133
119
107
99
103
111
113
114
127
134
136
143
143
135
129
133
134
134
135
131
126
126
129
137
134
135
143
151
150
137
220
220
220
221
220
220
220
220
220
220
219
218
219
219
219
220
220
220
221
215
215
216
219
222
223
226
228
219
221
218
208
196
193
199
207
199
195
195
206
220
228
229
228
233
233
234
235
235
234
233
233
238
233
225
221
216
214
214
219
211
211
218
212
196
177
160
159
184
167
148
147
158
163
166
172
196
197
187
186
183
197
196
194
208
216
213
209
214
215
216
225
221
217
220
218
197
181
200
232
233
223
218
212
211
228
209
192
179
150
191
207
188
202
212
215
205
196
198
202
205
197
194
192
190
182
191
206
200
187
198
204
212
199
200
216
194
207
203
203
201
212
195
213
207
196
207
192
213
198
214
204
208
187
195
193
208
201
163
148
98
156
164
181
187
194
170
99
155
192
198
189
183
176
184
189
172
141
132
137
141
141
136
133
138
142
145
150
152
138
125
113
104
101
99
93
109
130
133
117
109
107
108
112
113
109
108
123
149
145
134
154
137
144
152
154
156
159
159
157
159
149
138
126
116
119
128
132
137
143
138
125
120
120
118
119
118
130
133
135
137
133
134
146
145
141
137
132
125
117
115
220
220
220
221
220
220
220
220
220
220
219
218
219
219
219
220
220
220
221
220
225
227
226
226
225
216
205
202
196
190
190
197
203
206
205
221
220
221
223
225
226
229
232
231
231
232
234
234
232
231
231
230
226
225
221
215
205
199
199
215
221
222
197
176
174
175
182
193
188
181
179
174
158
158
180
156
155
154
173
173
177
179
199
208
216
211
210
220
223
219
221
220
224
228
230
232
224
201
177
188
209
217
219
218
206
212
216
189
169
162
185
190
194
213
205
208
203
198
193
207
189
186
196
187
181
189
189
192
189
199
200
207
207
208
218
192
215
213
193
200
205
202
217
195
198
196
194
210
181
224
210
204
183
194
196
188
189
159
124
143
164
170
191
165
126
116
186
194
183
175
181
189
183
179
182
156
152
154
161
141
152
153
149
148
140
134
140
111
109
122
137
138
130
122
116
115
111
97
101
126
133
125
128
117
99
105
115
120
126
121
113
135
139
137
135
144
158
158
147
133
135
141
141
131
127
126
124
126
128
129
127
122
113
115
128
131
134
128
130
146
145
139
146
127
122
120
121
117
111
114
219
219
219
220
220
220
220
220
220
220
220
217
217
218
217
219
221
221
220
220
224
225
220
214
214
222
230
216
218
221
222
220
215
212
212
212
217
222
224
227
231
234
235
238
237
235
234
233
232
230
229
232
228
224
222
227
226
213
200
191
181
194
180
179
190
168
169
165
175
177
181
190
163
150
126
114
112
152
184
175
186
207
197
203
203
208
216
220
221
222
225
234
230
224
221
223
226
223
217
189
170
159
197
226
216
205
191
196
168
178
174
212
197
207
209
199
195
197
190
210
189
175
200
203
176
193
177
187
200
196
197
208
206
196
207
207
213
202
186
199
208
208
195
199
195
204
190
203
198
220
205
194
195
188
211
184
160
148
177
155
149
183
148
96
148
191
188
171
186
179
190
195
188
188
185
177
179
178
165
165
164
145
137
146
159
153
126
122
124
121
118
123
134
136
131
123
122
111
119
130
139
147
129
120
113
117
130
133
126
127
135
144
149
154
156
161
166
168
166
157
143
126
115
111
112
114
116
124
117
119
110
111
122
124
136
134
137
141
146
149
146
136
126
124
113
113
111
103
109
113
219
219
219
220
220
220
220
220
220
220
220
219
220
220
219
220
222
221
219
224
225
217
211
218
231
230
219
230
235
225
206
202
213
216
208
214
220
226
229
232
235
238
238
238
237
236
235
234
233
231
230
218
224
226
223
217
212
208
205
197
186
179
172
177
183
169
160
180
183
178
157
156
162
169
172
160
164
188
180
181
169
199
214
216
215
218
223
225
225
226
229
219
222
222
220
220
221
221
219
216
229
195
159
160
183
202
197
200
192
149
184
184
189
183
215
193
194
203
193
208
200
183
197
194
178
183
181
186
203
201
210
208
202
197
206
202
199
191
183
206
200
188
186
189
194
191
185
214
204
212
211
189
192
187
209
175
174
204
113
125
177
150
132
159
172
160
149
142
160
175
187
189
191
202
208
204
201
194
178
170
172
160
149
142
142
149
144
128
136
132
125
132
135
117
95
103
122
137
140
130
125
129
123
123
140
143
128
123
136
145
143
145
153
162
170
177
181
181
179
173
168
159
145
128
114
109
110
110
114
131
135
137
137
126
126
124
130
132
127
120
120
127
134
134
124
126
126
117
119
121
219
219
219
220
220
220
220
220
220
220
220
217
219
219
218
219
220
219
216
213
199
199
219
227
217
213
220
214
201
194
198
201
200
206
216
214
220
227
231
234
237
239
238
238
237
237
236
236
234
232
230
238
234
224
213
206
205
204
204
197
200
191
189
186
184
193
190
211
190
177
162
158
160
128
117
91
81
105
126
147
139
172
204
209
209
211
217
220
221
224
226
226
227
223
218
213
208
203
198
206
192
212
236
201
164
169
173
191
192
183
154
157
206
175
193
214
191
198
199
208
193
171
186
193
189
175
188
184
200
198
213
210
200
202
207
201
190
186
184
193
192
183
185
179
194
189
194
211
206
203
215
185
196
195
201
175
143
179
100
154
167
132
128
164
172
157
172
183
189
202
201
199
197
198
197
195
199
203
200
158
154
144
146
144
135
134
130
133
128
113
104
101
94
99
120
122
104
104
116
128
129
112
97
110
114
118
123
129
134
131
124
136
138
139
142
147
156
163
166
163
157
145
129
111
101
102
108
119
115
116
111
113
123
128
138
129
127
124
125
132
138
138
135
135
133
140
135
115
109
116
219
219
219
220
220
220
220
220
220
220
220
215
217
217
217
219
220
219
215
224
225
225
226
227
225
220
214
218
218
214
209
210
215
214
207
212
218
224
228
231
234
236
236
238
237
237
237
236
234
231
227
210
212
215
219
222
220
213
206
222
215
201
199
198
193
190
182
163
151
158
179
175
165
134
131
146
133
158
197
180
180
196
208
210
212
215
219
223
226
227
229
230
226
220
219
219
217
210
203
193
194
185
187
204
215
201
178
192
180
189
178
180
190
212
165
203
183
197
201
196
186
176
196
191
196
165
190
180
192
188
205
210
199
205
206
203
195
187
182
185
191
194
190
187
203
199
201
199
203
200
213
188
198
201
182
162
135
139
127
121
147
143
152
167
169
155
156
154
146
148
149
177
183
190
192
189
190
195
198
199
187
173
179
178
163
150
136
123
127
126
124
113
92
98
130
111
102
118
121
112
106
102
118
132
111
103
120
136
135
133
138
135
138
144
149
153
156
156
156
164
160
154
147
139
132
128
128
105
113
125
129
127
123
119
119
114
121
125
124
121
117
114
112
116
100
98
109
119
127
130
219
219
219
219
219
219
219
219
219
219
219
218
220
220
219
220
221
218
215
216
217
212
207
212
221
219
210
219
221
220
219
222
227
227
223
214
219
224
227
229
233
236
237
238
238
237
236
235
233
228
225
236
231
221
208
197
189
190
193
180
186
196
187
166
154
154
169
161
159
161
190
187
184
189
193
170
148
143
166
168
201
219
218
220
222
226
228
230
230
229
227
223
219
216
214
215
213
209
208
208
192
206
206
179
181
185
161
165
198
162
174
207
191
186
164
176
194
213
201
177
182
189
196
185
192
160
189
181
189
185
198
208
198
203
201
201
202
186
174
204
195
196
194
205
205
202
196
200
197
196
209
195
188
193
166
189
141
150
142
134
174
152
146
132
141
158
158
165
171
170
180
162
175
188
193
193
190
193
200
203
200
190
187
176
161
155
148
134
140
130
115
111
108
103
102
113
114
119
99
103
134
134
122
117
126
137
142
141
138
131
126
138
139
141
146
150
155
159
162
164
158
150
141
130
120
116
117
121
127
128
125
118
113
118
121
116
120
122
122
121
121
118
117
117
118
125
131
130
131
140
219
219
219
219
219
219
219
219
219
219
219
221
221
221
219
219
219
216
213
211
209
214
223
225
223
225
230
232
223
223
230
224
208
203
211
220
225
229
230
232
236
239
240
239
238
237
236
234
232
228
226
222
218
213
211
208
202
195
192
174
172
186
195
199
202
199
208
230
217
180
158
136
150
186
190
183
158
140
152
185
193
205
223
218
222
226
227
228
228
225
222
220
219
217
211
202
195
195
199
202
204
206
203
214
216
191
176
173
170
160
179
181
186
193
156
176
196
200
199
180
180
186
180
185
191
173
194
189
191
189
194
207
200
202
202
195
206
184
175
211
198
194
199
208
188
198
201
204
189
186
204
200
181
182
166
163
149
161
163
148
155
126
144
165
169
186
176
183
186
176
180
183
189
190
187
185
183
187
200
196
200
193
185
167
145
134
123
128
118
105
98
103
115
120
117
102
77
81
105
121
124
125
135
124
136
140
129
121
125
131
133
154
148
142
140
144
153
165
174
177
172
161
143
123
111
112
118
125
130
126
123
115
105
110
108
107
105
105
111
122
126
120
112
91
92
98
110
122
127
128
219
219
219
219
219
219
219
219
219
219
219
219
220
218
217
217
218
217
214
214
228
234
224
219
225
225
218
218
228
228
217
211
215
218
215
224
229
233
235
236
239
240
240
239
238
236
235
234
233
229
228
229
216
203
203
206
208
205
203
211
210
204
205
192
174
176
180
188
207
224
204
173
164
173
160
144
148
157
175
186
170
174
202
221
225
228
227
227
228
225
222
217
214
212
210
208
204
204
207
208
197
210
212
210
211
190
171
178
179
151
189
193
162
206
172
178
188
170
193
189
181
191
185
186
189
192
198
195
190
192
190
204
200
202
208
188
204
182
190
199
206
192
200
195
178
199
199
200
191
185
199
195
187
175
163
166
186
141
175
145
168
135
149
147
139
133
121
136
148
165
176
177
182
181
181
186
181
177
184
188
192
193
203
202
187
174
160
147
129
129
131
113
97
91
84
69
86
97
106
120
136
133
105
138
135
136
139
139
136
135
137
139
139
142
146
148
146
146
148
162
166
168
163
148
132
125
125
131
131
116
113
108
100
106
101
98
112
122
123
115
111
112
115
118
129
134
132
131
129
131
219
219
219
219
219
219
219
219
219
219
219
219
219
218
217
219
223
223
220
233
215
205
212
220
221
224
230
228
217
205
195
183
178
192
211
224
230
235
237
238
239
239
238
239
238
236
235
234
233
231
231
225
222
219
215
205
192
185
184
170
166
143
163
172
161
176
167
143
151
196
199
198
191
171
144
125
123
115
136
147
204
218
211
226
229
228
225
222
221
218
214
216
206
198
201
209
208
202
197
180
175
167
154
168
177
143
122
152
181
172
169
163
185
192
167
180
207
180
190
178
170
193
187
178
179
199
197
195
186
195
189
201
197
201
213
182
200
180
203
194
217
189
194
186
189
202
179
196
204
193
197
186
198
170
150
166
151
156
160
162
117
120
134
127
134
135
144
162
152
164
162
155
157
155
163
180
184
182
189
192
189
184
191
184
163
151
141
131
110
102
92
75
85
101
95
120
117
116
131
123
109
131
148
144
136
126
122
124
129
134
137
138
138
142
147
148
146
144
145
134
134
136
138
138
133
128
126
120
118
102
103
102
93
94
82
95
103
110
113
115
119
122
124
125
124
116
114
125
131
127
220
220
220
220
220
220
220
220
220
221
221
218
218
217
217
218
220
221
221
214
215
225
235
236
232
219
202
186
165
164
185
203
216
225
225
220
223
229
233
236
238
239
240
238
238
237
237
236
235
232
230
218
211
200
187
175
171
177
188
181
169
177
187
195
190
193
165
149
159
171
162
168
195
190
168
134
137
125
141
149
167
206
217
220
233
227
227
226
216
209
205
205
201
212
220
179
170
173
168
171
143
170
171
194
210
188
172
162
133
168
203
156
143
197
171
189
160
192
175
172
177
189
175
179
182
203
186
203
199
201
187
199
198
200
203
193
196
184
206
191
206
183
182
169
195
192
180
198
199
180
192
165
178
172
132
174
163
133
136
113
136
181
153
108
117
110
160
173
137
117
122
142
145
141
159
157
173
176
169
181
188
194
179
180
172
165
145
156
164
150
129
123
118
120
133
129
130
139
131
99
134
159
139
126
110
112
123
132
134
134
146
150
150
149
148
146
144
142
141
147
152
142
125
128
145
141
119
120
114
107
102
98
95
96
99
128
124
126
133
134
127
120
116
109
107
106
107
107
110
120
220
220
220
219
219
220
220
220
220
220
220
214
216
218
218
214
212
211
210
209
221
230
220
201
196
200
199
200
210
214
219
226
222
216
220
226
229
232
234
235
234
234
234
237
236
236
235
234
232
230
227
228
226
223
217
206
193
186
185
203
182
171
184
186
195
209
204
178
146
158
150
161
152
175
156
162
129
148
181
182
177
210
205
233
222
227
231
214
210
211
196
199
200
166
146
153
128
132
161
164
166
173
166
157
163
173
161
126
141
139
172
163
140
166
174
178
165
181
160
169
188
178
171
178
185
201
186
197
200
200
191
203
201
202
204
194
195
186
205
194
205
197
184
180
197
191
178
181
176
173
191
184
162
179
112
150
153
138
85
86
157
141
97
115
82
93
99
52
48
43
66
88
134
155
155
163
164
172
176
182
190
204
199
196
177
164
150
153
121
110
122
125
115
114
121
124
145
136
124
147
155
144
141
128
137
155
158
158
158
151
152
154
152
148
145
144
145
148
150
151
149
149
140
123
114
114
114
110
108
106
102
95
91
93
97
95
95
99
108
115
117
114
112
125
129
130
132
137
140
126
220
220
220
218
219
220
221
221
220
220
219
217
221
224
222
216
214
214
215
220
215
215
218
220
224
221
210
214
231
217
197
201
204
209
227
226
229
232
235
236
236
236
236
237
236
235
234
233
231
229
226
223
223
224
225
222
215
209
206
193
199
191
193
181
195
188
162
184
183
146
128
148
142
142
169
154
170
165
175
179
192
187
219
214
230
227
212
220
208
187
193
174
180
195
125
65
74
65
59
64
91
105
124
139
165
195
200
177
136
117
171
178
153
146
173
156
176
163
155
169
186
171
165
170
186
201
195
197
201
190
183
200
202
205
207
201
198
189
204
198
199
199
188
191
187
183
181
190
183
167
172
190
142
155
161
143
157
137
124
134
150
124
100
88
95
103
8
69
86
102
99
89
34
44
137
134
143
150
151
149
157
175
186
190
167
150
141
126
135
136
135
135
126
124
137
128
126
136
137
146
127
127
131
147
141
138
132
140
157
157
157
151
152
152
151
149
146
145
145
153
140
143
146
130
111
104
99
98
96
97
99
98
97
99
101
97
116
134
138
130
124
126
130
124
129
123
110
103
109
116
220
220
220
218
219
220
221
221
220
219
219
216
217
218
217
214
215
218
223
222
217
223
232
229
223
222
223
226
223
193
165
170
187
204
223
226
229
232
236
237
238
239
240
238
237
236
235
234
232
231
229
229
226
220
219
218
214
208
205
213
207
201
215
206
199
196
190
185
205
204
181
144
129
119
156
171
164
187
158
167
183
197
191
224
223
224
201
196
196
188
178
198
163
88
100
144
177
124
96
61
105
56
80
150
156
142
169
164
165
164
112
163
126
179
169
155
196
161
175
177
183
178
168
172
192
201
199
194
199
182
182
190
198
206
210
208
202
193
200
198
198
190
194
196
172
177
186
195
170
154
175
191
139
103
182
119
126
138
132
136
140
93
94
76
98
106
149
121
138
154
169
166
164
114
55
68
101
143
155
167
165
162
166
173
160
147
146
142
146
157
135
101
121
153
146
143
129
152
153
125
117
140
135
145
130
126
130
140
146
137
136
139
139
139
140
144
148
153
156
152
140
139
139
132
131
125
110
96
90
88
93
99
102
100
99
104
108
108
106
107
108
104
96
99
97
100
106
108
104
100
219
219
219
218
218
220
221
221
220
219
219
218
217
217
217
216
219
221
224
219
224
232
231
219
214
218
221
207
205
208
215
221
227
228
222
233
235
237
238
238
237
237
237
238
237
236
235
235
234
233
232
222
219
216
213
209
204
195
187
193
205
199
181
183
194
205
186
177
172
203
195
202
172
135
151
120
116
147
167
146
173
173
195
223
221
225
207
192
158
143
141
105
87
164
208
160
164
151
181
166
139
142
88
88
138
112
176
178
167
155
178
148
89
141
137
169
182
158
169
161
170
159
154
187
200
197
193
187
195
182
195
187
198
205
208
210
201
197
198
186
205
184
199
194
168
178
182
180
185
168
151
162
190
136
121
128
117
111
129
131
119
85
76
81
133
73
20
8
1
2
2
1
30
111
176
98
89
116
126
134
151
156
159
159
145
124
121
134
130
116
113
128
141
146
151
141
156
151
141
135
147
147
145
158
154
157
149
139
135
133
143
141
134
132
140
153
158
149
137
155
161
167
157
137
126
116
103
110
104
100
99
99
100
100
101
112
115
116
113
112
112
105
98
102
104
102
92
77
74
87
219
219
219
218
218
219
220
220
220
219
219
221
221
222
222
222
221
220
219
222
228
230
225
225
233
225
202
205
195
201
213
216
225
236
237
236
237
238
239
238
237
237
237
236
235
234
233
233
233
232
231
231
230
226
223
222
222
218
214
209
206
208
209
212
189
191
186
173
184
189
167
178
183
162
204
199
165
207
206
189
186
207
208
204
227
230
212
180
82
63
105
136
202
145
16
1
10
30
50
27
9
66
141
112
84
117
154
151
159
151
150
169
157
125
148
199
174
177
167
165
184
153
162
194
202
196
196
193
194
180
200
197
207
207
204
207
198
201
199
175
209
186
189
187
173
177
168
168
189
180
172
165
144
140
152
136
115
79
139
134
79
75
58
83
2
1
34
40
58
68
47
21
1
1
37
95
84
65
59
92
136
160
166
158
139
112
112
124
108
120
139
142
147
148
132
136
150
137
143
150
149
133
151
147
157
167
154
139
135
129
130
129
147
161
157
140
132
140
153
155
158
155
145
132
121
120
127
106
106
105
100
91
90
97
107
114
124
130
121
105
98
101
107
98
99
97
100
113
129
129
219
219
219
218
219
219
219
219
219
219
219
217
218
218
217
216
215
215
215
224
230
234
228
220
218
209
192
212
213
217
223
227
224
221
222
233
235
237
238
238
238
239
240
236
235
233
232
232
232
230
229
230
229
222
214
210
211
213
213
216
227
223
216
218
214
214
206
195
200
206
221
186
203
176
148
205
214
193
186
212
228
197
210
221
223
229
216
148
36
45
74
51
3
1
12
72
75
70
70
39
61
46
40
64
78
105
118
131
157
168
128
118
184
140
169
176
159
175
159
172
178
158
171
197
200
198
199
202
190
172
194
200
209
206
199
202
191
199
195
186
201
189
172
185
176
168
163
163
168
150
157
176
144
133
126
125
125
113
115
102
86
56
35
1
42
77
26
11
31
35
86
74
45
3
5
6
61
62
16
108
147
157
154
141
130
116
131
139
153
146
133
132
129
128
138
147
141
143
158
156
141
140
160
154
142
133
123
126
137
135
136
148
136
126
125
134
145
153
155
146
155
156
159
158
131
97
88
91
92
93
90
85
87
98
109
123
110
96
87
85
87
90
93
97
108
112
109
111
115
113
219
219
219
219
219
219
219
219
219
220
220
219
221
221
218
216
218
222
228
235
221
218
222
218
209
207
207
213
215
199
193
211
219
220
234
234
235
237
237
237
237
237
238
238
236
234
233
232
231
230
229
224
226
224
218
215
217
220
221
219
221
206
213
209
210
211
220
215
213
202
218
217
206
213
199
166
195
215
208
217
216
207
212
221
239
223
215
185
66
39
43
28
1
3
78
131
94
76
82
53
55
64
17
6
31
61
77
85
149
182
125
151
158
176
165
134
155
166
159
184
164
174
180
205
202
196
194
199
181
166
191
192
203
200
192
196
183
192
185
209
192
191
163
189
175
159
172
166
142
149
153
141
145
137
114
108
142
100
77
67
60
40
1
43
75
67
2
5
16
4
58
66
51
12
1
8
29
46
54
121
153
159
164
161
155
142
161
153
153
145
139
141
143
148
158
148
153
155
144
155
153
160
163
149
129
130
145
159
154
137
134
128
128
128
129
130
130
129
128
137
147
137
133
150
147
130
130
103
98
96
98
102
108
115
121
104
101
102
108
111
105
98
96
96
98
105
112
115
112
112
219
220
220
219
219
220
220
220
220
219
219
217
221
221
220
220
222
222
222
216
230
215
207
225
217
198
205
204
201
205
215
223
223
223
226
235
235
236
237
237
238
237
237
237
236
235
234
233
231
229
227
229
229
228
228
227
227
226
227
228
229
221
216
216
213
210
213
206
217
219
209
205
210
208
200
199
201
212
224
222
212
213
223
223
232
223
218
185
137
112
77
74
18
1
69
121
102
90
76
75
73
40
32
39
22
59
77
82
124
141
100
150
152
170
140
164
165
146
175
185
159
175
189
212
205
176
180
205
178
177
193
192
204
189
188
171
166
186
202
204
196
165
194
189
162
159
160
166
149
137
142
150
152
133
128
103
93
96
67
51
41
9
14
86
67
21
15
9
2
17
79
47
42
17
1
38
60
36
70
120
157
165
169
166
162
144
152
164
156
141
153
161
156
161
155
163
159
147
155
161
176
163
151
144
137
142
147
139
134
134
127
138
142
145
140
132
129
132
137
137
126
126
122
99
92
83
108
105
102
92
94
111
110
100
101
99
101
100
97
94
94
94
93
93
91
95
103
110
107
98
219
219
219
219
219
220
220
220
220
219
219
215
217
217
216
218
222
224
224
239
220
210
210
200
191
196
205
197
202
210
214
214
216
227
239
235
236
237
238
239
238
238
237
235
234
233
232
231
230
228
226
229
228
227
225
224
222
220
221
217
222
222
221
221
217
215
219
219
218
217
218
220
217
205
193
198
208
223
229
220
210
215
228
226
234
220
213
194
167
151
114
75
30
6
46
136
100
86
71
68
73
62
69
77
52
36
58
69
68
105
105
120
132
156
140
175
157
166
179
166
173
187
197
205
200
194
195
205
187
184
184
190
195
201
200
137
181
200
207
203
166
182
191
189
170
158
149
173
131
142
145
126
128
97
93
115
109
58
52
29
24
1
45
78
68
64
49
38
27
37
30
30
32
1
19
41
36
71
103
135
156
161
162
161
156
150
163
152
155
155
161
164
161
159
152
142
150
150
157
155
159
144
134
127
115
113
116
119
132
148
153
145
150
156
156
151
145
141
140
145
149
150
148
132
125
100
91
98
89
95
101
96
96
99
90
96
104
108
97
82
73
74
78
74
104
106
98
112
120
115
219
219
219
219
219
220
220
220
220
219
219
221
222
220
219
223
228
229
229
216
206
209
210
202
208
216
210
204
206
210
213
217
221
226
230
234
235
237
238
239
238
237
236
240
238
236
234
233
232
230
229
226
226
225
224
222
221
219
220
213
219
222
222
223
218
218
225
222
219
222
229
229
223
219
220
216
213
214
220
225
226
224
222
225
233
219
210
200
189
174
134
70
66
1
1
100
122
92
71
46
56
65
76
76
49
1
34
53
58
61
88
151
116
129
180
130
154
175
181
171
182
184
204
183
194
191
179
206
198
176
177
181
179
192
169
100
171
188
192
197
183
190
200
189
162
174
165
159
171
133
123
124
75
135
96
91
99
49
26
20
19
17
41
88
78
63
53
60
49
69
84
49
16
2
35
50
53
96
132
155
159
166
169
174
161
154
155
149
149
158
164
165
159
147
145
150
157
159
162
156
156
146
139
119
119
130
142
146
148
149
144
143
142
141
140
140
140
140
140
146
149
144
155
141
131
126
130
101
100
108
106
92
96
112
113
113
106
96
90
91
97
102
103
110
95
89
96
105
111
101
219
219
219
219
219
220
220
220
220
219
219
220
220
217
216
219
223
222
220
208
219
218
216
225
224
210
200
214
214
215
219
226
230
229
226
232
233
235
237
237
236
234
233
235
234
232
231
231
231
230
230
229
229
230
230
230
230
229
230
226
226
221
217
215
210
212
220
222
219
220
223
222
219
224
233
224
226
224
220
217
219
224
227
225
232
224
213
201
188
168
131
125
100
28
1
9
91
126
105
97
93
93
73
49
27
6
49
53
48
73
99
124
89
144
137
123
171
171
181
177
183
198
212
179
189
194
174
192
193
178
181
187
194
202
152
127
168
187
203
203
184
175
204
178
172
185
162
162
155
125
124
138
147
110
86
83
55
35
27
24
5
23
36
51
71
61
70
66
64
64
73
38
1
7
40
61
84
108
134
155
161
176
174
175
158
154
149
160
145
153
160
161
153
136
142
157
156
153
153
153
154
147
140
134
132
134
137
141
149
160
165
146
141
134
130
132
137
143
147
147
149
140
155
136
112
106
108
111
115
103
99
111
109
96
92
94
101
109
109
103
96
88
82
78
77
104
117
96
96
114
219
219
219
219
219
220
220
220
220
219
219
218
219
220
218
220
223
220
216
226
225
222
226
229
215
202
206
206
207
208
209
211
216
224
230
232
233
235
237
237
236
234
233
233
232
231
231
232
233
233
233
230
230
231
231
231
230
228
228
221
217
212
212
215
214
217
226
231
227
223
222
225
226
223
218
231
233
230
223
219
220
222
223
228
231
228
218
201
186
171
148
104
96
63
33
8
17
56
93
109
92
81
46
18
14
45
72
33
49
57
86
106
83
92
119
148
168
179
192
177
189
204
190
191
172
201
187
160
170
188
171
172
196
201
156
132
132
174
210
200
162
189
206
172
187
181
168
159
153
119
120
96
76
93
105
92
57
35
32
19
17
18
35
6
47
65
76
62
85
86
38
2
13
31
61
86
111
144
152
159
173
188
175
169
159
168
169
163
156
163
159
157
155
142
148
150
149
149
148
150
149
145
140
129
137
144
146
147
147
149
152
140
139
136
133
130
130
131
133
145
146
130
146
156
161
146
119
93
111
110
98
93
87
89
107
113
108
97
88
84
88
94
97
103
114
111
101
104
106
96
220
220
220
219
219
220
220
220
220
219
219
219
221
224
224
224
226
224
221
220
218
227
229
216
215
221
216
208
199
192
193
199
207
219
229
234
235
237
238
238
237
235
234
227
225
222
220
219
217
215
214
218
218
218
217
214
211
209
207
216
211
203
199
197
187
181
186
215
224
232
231
231
231
225
216
230
227
225
226
231
233
228
222
231
227
225
218
203
193
188
183
130
99
70
65
13
1
1
26
36
27
29
19
12
21
64
57
83
47
78
54
116
86
91
104
148
164
199
189
184
198
189
190
197
173
188
179
164
174
187
161
181
203
204
181
100
94
165
210
180
166
175
177
196
187
176
182
165
174
149
97
150
91
75
100
73
67
49
25
31
24
4
10
19
28
32
46
54
28
27
1
1
18
49
58
82
123
141
153
174
184
184
173
176
175
172
167
152
166
175
161
152
158
157
155
153
153
156
149
150
146
152
153
153
156
149
138
135
136
142
152
153
154
152
148
142
137
136
137
129
145
144
143
121
118
128
142
112
92
87
92
91
98
101
90
72
73
76
85
98
104
100
91
101
98
91
89
95
100
94
220
220
220
219
219
220
220
220
220
219
219
214
217
220
219
218
219
219
218
218
227
231
222
215
219
216
201
208
197
193
202
212
216
223
232
235
236
237
238
238
237
236
235
241
239
236
234
231
228
225
223
215
216
217
216
214
211
209
207
190
189
189
193
195
188
185
194
195
214
228
229
224
223
225
225
217
226
235
234
226
222
228
237
230
225
224
218
207
202
197
193
173
168
123
110
85
63
5
1
1
2
8
15
14
23
35
14
62
71
63
82
86
141
132
137
168
186
205
169
188
203
195
206
202
200
188
176
191
195
194
172
195
204
200
191
82
86
146
172
156
148
130
151
202
188
175
170
173
152
157
135
122
114
92
56
74
63
45
42
44
7
1
1
4
7
2
41
68
7
2
16
49
47
86
98
116
154
158
164
175
179
166
166
177
177
156
149
150
164
166
161
155
157
162
159
159
156
157
150
153
147
153
153
145
150
144
137
140
142
143
150
148
148
145
142
138
137
138
140
144
136
134
145
140
135
121
127
121
101
98
104
95
88
82
70
72
92
110
116
109
101
97
96
91
72
75
89
93
99
102
220
221
221
219
219
220
220
220
220
219
219
217
220
222
220
217
219
219
220
226
233
215
210
229
216
191
196
178
182
198
215
218
211
218
233
235
235
236
236
236
236
235
235
230
230
230
231
232
231
230
229
230
231
232
234
234
233
231
230
233
232
230
229
224
213
210
220
217
223
226
227
226
227
229
230
231
230
229
228
224
221
223
228
231
227
229
223
214
209
193
180
179
172
174
132
117
90
78
55
56
58
51
53
47
57
47
39
54
82
73
118
109
76
102
140
192
190
193
170
189
201
205
160
201
210
205
188
184
187
202
178
199
202
200
197
110
113
137
131
129
103
154
189
165
181
177
177
168
180
178
152
130
85
83
72
107
107
57
71
20
28
28
19
4
17
1
11
6
4
29
42
69
80
107
162
170
167
193
174
169
181
168
172
174
169
152
165
163
158
147
160
164
153
161
161
163
157
162
161
172
161
154
141
139
150
151
151
158
154
142
139
142
143
145
147
149
150
150
150
143
144
148
147
144
155
134
130
143
126
98
88
95
91
91
109
117
120
116
105
93
85
81
81
88
100
86
77
94
97
80
220
219
219
220
220
220
220
219
219
219
219
217
219
220
221
219
218
217
219
221
227
212
229
215
188
187
212
189
172
177
186
196
211
217
220
223
228
232
233
234
237
235
231
233
232
231
230
230
229
229
229
231
230
229
229
229
228
225
223
225
223
220
219
222
225
222
215
226
226
226
230
233
235
235
233
227
231
231
231
232
226
220
222
228
225
220
217
214
208
199
194
181
171
179
161
115
116
108
101
94
95
86
87
78
63
57
40
105
97
60
129
116
107
91
163
177
190
199
184
194
209
207
174
208
193
190
190
198
193
201
187
214
205
216
202
163
166
164
187
145
120
194
182
144
171
188
181
159
177
168
155
165
117
52
68
91
77
74
98
33
34
35
55
57
50
46
49
37
66
71
79
80
102
118
121
153
157
187
182
169
181
180
178
163
153
164
160
145
152
159
160
156
152
152
154
139
156
170
168
159
153
151
150
154
152
150
149
146
144
147
153
142
136
133
137
143
143
138
133
142
143
143
142
143
140
131
122
112
139
128
99
103
122
122
116
102
104
94
85
82
77
81
97
92
79
90
97
94
89
89
220
219
219
220
220
220
220
219
219
219
219
220
220
219
218
217
218
220
223
228
205
228
215
186
183
205
152
182
210
201
167
182
215
220
224
225
229
233
234
235
238
237
234
233
233
232
231
229
228
228
227
227
227
228
230
232
232
231
229
221
227
229
222
215
215
221
226
228
226
226
227
228
229
228
227
230
230
228
227
230
227
225
230
229
225
220
218
216
213
208
204
215
189
169
149
150
152
134
121
139
129
102
134
143
121
70
45
71
111
83
98
89
111
142
184
158
170
177
202
202
206
194
198
204
201
190
181
194
193
192
200
210
201
204
197
187
191
186
228
174
181
174
156
208
172
172
178
189
177
168
164
149
112
93
115
112
83
68
107
41
28
57
63
71
84
92
91
96
78
82
114
124
127
141
141
166
171
179
179
184
191
177
173
171
162
164
163
162
153
147
151
161
165
160
152
165
163
156
148
144
149
157
162
162
151
145
151
161
161
152
143
143
142
143
145
146
147
151
155
145
145
140
133
128
129
128
128
98
98
116
125
110
102
107
107
105
102
92
91
96
85
72
70
74
84
94
79
82
103
97
220
219
219
220
220
220
219
219
219
219
219
220
220
219
218
218
218
219
222
205
233
208
174
183
186
181
220
203
167
184
221
224
218
220
229
231
233
235
235
236
237
236
234
233
233
232
231
230
228
227
226
228
228
229
230
231
231
230
229
228
227
226
227
232
234
230
225
229
230
230
229
228
227
227
228
227
226
223
223
229
228
227
231
232
229
225
221
219
214
208
203
184
193
186
153
167
169
165
169
139
159
156
138
157
132
109
85
99
101
127
119
99
148
196
207
168
182
190
186
219
206
190
178
186
199
190
179
194
196
178
204
201
200
200
203
202
188
167
196
152
177
187
192
181
150
181
188
177
180
152
124
131
155
145
101
96
103
89
104
38
57
65
104
106
102
84
128
117
139
126
135
145
153
171
164
169
179
171
179
164
179
176
174
171
154
149
153
164
162
161
163
164
161
156
150
152
148
146
150
155
156
153
151
151
159
167
164
151
141
142
149
143
142
141
139
135
133
136
141
144
146
145
140
135
130
124
121
111
87
95
119
113
96
94
99
103
105
96
82
70
62
66
80
101
80
80
84
83
85
82
220
219
219
220
220
219
219
219
219
219
219
216
218
220
221
221
219
216
216
226
206
196
204
196
205
187
199
176
194
208
206
215
227
226
235
235
236
236
236
236
235
234
233
233
233
233
232
231
229
228
227
227
227
228
228
228
227
226
226
228
228
225
219
216
218
225
231
227
229
232
232
231
230
231
232
225
225
223
225
231
230
226
228
230
228
226
223
219
212
203
197
193
196
196
194
200
171
151
163
164
162
171
162
170
124
108
100
117
122
129
150
150
154
197
190
138
113
175
194
193
174
214
197
178
192
192
183
191
203
179
207
204
205
203
208
194
183
186
180
160
165
184
189
181
187
178
171
157
174
152
147
170
173
141
90
120
119
55
91
67
89
127
96
141
136
124
135
124
144
152
138
153
165
164
151
147
172
176
187
184
186
183
175
159
148
151
157
157
167
174
170
158
149
149
153
155
149
148
156
162
162
159
158
157
153
144
132
122
120
126
133
133
130
130
133
134
133
132
132
133
134
137
139
139
133
120
109
123
113
93
90
101
94
81
85
86
85
81
77
77
79
88
97
94
91
98
92
79
85
99
220
219
219
219
219
219
219
219
219
218
218
216
217
219
219
219
217
213
212
213
203
216
204
220
207
182
164
205
215
221
214
217
222
223
236
235
234
235
235
235
234
233
234
233
233
232
232
231
231
230
230
224
225
226
226
227
227
227
227
228
229
229
227
222
218
216
215
221
225
229
231
231
230
230
231
231
230
227
228
233
231
227
229
224
223
221
218
216
212
207
203
192
201
197
194
178
174
170
172
163
160
164
184
142
123
102
110
122
86
140
167
149
181
197
179
162
154
175
200
207
201
202
198
187
188
195
188
184
208
198
214
194
198
202
207
175
178
213
167
137
147
180
158
174
166
162
176
186
169
141
155
178
174
160
138
118
139
93
86
100
85
115
143
134
157
143
132
132
144
138
141
138
152
144
161
165
171
163
157
158
145
155
163
157
166
176
169
160
161
160
155
149
148
150
154
160
156
156
159
159
154
154
156
133
134
139
150
159
159
147
134
144
141
141
143
144
142
140
140
134
132
130
130
129
128
125
124
103
119
108
92
98
106
99
95
103
96
90
86
87
89
91
89
100
94
82
73
73
88
92
220
219
219
219
219
219
219
219
218
218
218
220
218
216
214
214
215
213
214
198
215
224
203
191
189
195
207
214
201
214
218
217
232
232
213
231
231
232
234
235
234
234
236
233
232
232
231
231
231
231
231
229
229
229
228
227
226
226
226
232
226
225
232
239
236
224
213
222
225
228
231
231
230
229
229
235
233
227
226
229
228
226
230
228
224
219
215
213
211
210
210
213
204
184
190
187
208
204
180
169
150
149
161
138
145
121
97
145
129
128
167
182
185
188
175
172
186
211
204
196
191
196
182
188
186
200
196
187
207
210
209
207
208
217
209
178
188
221
171
128
179
146
131
186
154
132
196
183
164
165
180
182
189
178
133
131
120
132
116
93
136
107
140
125
129
121
138
136
166
148
155
158
156
136
155
154
146
155
167
157
150
169
173
162
167
166
154
161
158
154
151
150
149
149
150
150
155
162
165
160
152
147
147
159
157
150
141
137
140
146
150
151
151
151
148
141
136
138
144
141
140
137
131
121
116
119
125
104
104
108
102
95
105
108
88
79
76
79
83
87
95
102
98
80
75
74
92
95
74
57
220
219
219
219
219
219
219
218
218
218
218
219
217
214
213
214
215
215
216
213
223
206
207
192
203
206
218
185
185
180
183
207
214
211
236
231
230
231
234
235
233
233
235
233
232
230
229
229
229
230
231
233
233
232
230
226
224
224
224
226
225
224
221
216
217
228
239
227
227
228
230
231
231
231
230
232
232
227
225
227
225
223
228
232
229
224
219
215
211
209
208
206
193
191
210
187
150
151
162
173
156
180
176
161
126
116
114
141
104
134
172
200
216
205
205
209
203
201
195
226
192
179
183
185
192
207
200
194
201
210
201
213
202
203
173
176
193
197
194
182
204
174
190
180
164
164
185
188
170
184
189
169
163
165
160
129
147
122
132
102
147
125
125
140
118
159
148
153
153
163
164
156
159
156
162
152
141
145
163
154
158
163
149
144
154
155
163
156
156
155
153
150
148
147
148
157
159
160
158
156
157
159
160
156
153
148
147
153
161
163
160
134
135
138
139
137
135
138
144
138
139
140
139
130
116
107
105
117
104
99
95
83
82
79
64
80
73
77
85
90
92
83
64
72
99
93
78
69
64
85
220
219
219
219
219
219
219
218
218
218
218
216
215
215
216
218
218
215
214
219
211
203
197
205
215
234
203
192
163
159
175
200
224
228
224
233
231
232
235
235
232
231
232
234
232
230
227
227
227
228
229
229
230
230
229
227
226
227
228
224
223
225
229
230
226
224
224
229
227
226
227
229
231
232
231
228
231
230
230
232
227
223
227
229
229
227
225
220
214
209
205
200
208
196
174
166
154
177
183
169
175
177
153
140
142
131
132
127
137
165
183
218
213
201
203
205
198
195
209
202
218
213
202
192
204
210
196
195
194
211
206
216
204
208
168
204
211
167
201
193
188
194
196
188
175
184
162
159
151
151
148
162
174
167
178
162
132
136
126
98
111
145
130
137
139
169
155
160
161
136
154
155
160
167
151
148
154
147
154
167
176
167
146
161
170
154
164
157
149
140
139
144
149
152
151
150
152
150
148
150
154
155
151
149
153
156
157
156
151
141
131
137
134
135
139
141
139
133
130
144
141
144
152
154
141
120
105
96
105
101
95
95
84
79
93
93
95
99
90
69
68
80
82
88
107
85
75
88
88
88
218
218
218
218
218
219
219
219
220
220
220
216
218
219
218
216
216
218
222
202
205
217
212
219
229
189
194
171
156
182
189
209
214
216
235
231
233
234
234
234
234
234
235
232
232
232
231
230
228
226
225
227
225
226
229
230
228
227
227
228
228
227
222
218
216
219
223
225
226
226
227
228
229
231
232
233
229
225
226
229
231
228
224
226
227
224
217
210
205
202
199
202
200
191
188
176
176
195
187
188
175
145
148
171
156
142
166
138
167
178
209
223
208
212
211
211
205
194
195
202
195
190
197
216
196
194
205
203
201
210
213
204
220
204
198
206
190
184
197
192
202
183
194
179
185
143
148
152
165
181
171
173
165
164
153
147
147
159
132
131
115
115
172
132
136
175
174
139
164
167
156
144
139
149
172
183
179
176
178
172
169
161
161
163
148
135
140
150
135
139
148
146
150
152
142
148
139
137
149
160
160
155
152
147
149
151
152
155
158
158
157
160
152
145
143
146
150
149
147
138
133
136
147
150
138
125
120
105
98
95
95
90
82
82
89
85
81
77
76
80
87
92
96
106
81
69
73
78
88
90
218
219
219
217
217
218
218
218
218
218
219
219
219
219
217
215
213
210
211
208
224
213
209
230
203
196
154
154
192
175
175
181
188
202
228
228
230
232
234
235
235
236
236
233
233
233
233
232
231
229
228
231
229
228
228
227
224
221
221
217
219
221
221
219
218
218
219
220
221
223
224
226
228
229
230
225
224
223
225
227
229
229
229
228
226
225
224
217
208
204
205
209
214
191
182
189
187
191
194
172
165
137
181
155
146
156
157
140
169
187
211
218
203
206
212
216
208
193
187
198
206
200
192
213
204
200
219
205
197
208
215
207
204
205
206
201
185
197
201
204
198
187
182
172
184
178
185
170
181
188
174
142
134
150
169
154
147
144
133
154
135
112
140
167
142
153
152
151
159
158
167
167
167
163
151
144
154
166
167
164
168
158
145
141
138
141
152
155
148
149
147
139
143
155
158
155
154
155
158
162
163
160
156
154
152
149
147
147
151
154
156
156
154
153
152
152
150
146
143
148
142
140
141
138
129
121
119
102
98
97
96
89
78
77
84
72
74
78
85
91
95
95
94
86
79
90
101
93
86
92
219
219
219
218
218
218
218
218
218
218
218
217
217
218
219
220
218
214
212
211
222
213
233
209
190
168
160
187
186
188
188
180
194
192
212
226
229
232
234
235
235
235
235
232
232
232
232
231
230
229
229
229
227
227
229
230
228
226
226
218
219
220
220
220
221
220
219
221
222
223
225
227
228
229
229
231
230
229
226
223
221
220
220
227
227
227
224
220
216
214
213
209
199
194
197
189
186
185
164
173
168
199
142
129
191
172
163
185
196
206
216
219
208
199
200
203
211
211
201
200
213
214
199
207
210
196
217
210
196
207
215
214
207
208
210
204
186
200
208
199
172
186
181
172
177
192
180
170
163
152
149
132
152
169
180
171
158
172
160
141
150
152
108
128
141
154
130
146
157
149
143
167
167
169
162
155
161
156
133
139
154
155
145
146
154
160
163
168
156
142
137
141
146
144
138
145
155
161
159
158
163
166
164
157
154
150
147
147
150
154
157
152
152
150
148
146
146
147
148
136
136
135
134
130
125
120
117
111
103
101
103
102
92
82
79
72
74
80
87
94
95
93
90
89
93
96
91
90
97
94
219
219
219
219
219
219
219
220
220
220
220
216
217
218
220
222
222
220
219
219
210
225
216
199
177
178
193
197
168
193
191
203
218
217
221
227
230
233
234
234
233
232
232
231
231
231
230
229
229
228
227
224
223
225
229
232
232
232
233
229
226
222
220
221
221
220
219
224
224
225
225
226
227
229
230
226
226
225
225
224
224
225
225
221
227
226
219
218
223
222
216
212
195
202
209
193
194
197
172
170
194
161
157
202
166
158
182
206
206
214
217
219
217
211
215
199
212
222
211
201
215
224
212
207
217
183
191
215
196
203
206
204
213
194
194
200
187
182
201
169
197
197
162
191
193
170
154
166
155
140
136
139
172
178
160
163
162
162
169
159
146
153
147
126
141
157
141
141
142
152
174
149
149
162
167
155
153
163
164
149
159
162
159
162
165
156
144
136
143
143
141
145
145
143
143
139
150
157
154
150
152
155
156
166
164
162
159
156
153
151
152
149
148
145
144
144
148
153
156
151
151
145
137
133
131
128
124
104
98
97
100
98
88
77
71
80
79
79
83
87
91
91
91
93
87
91
101
97
89
88
220
220
220
220
220
220
220
220
220
220
220
218
219
220
219
217
215
216
218
225
224
212
195
192
192
209
199
187
202
191
180
203
209
228
228
227
230
233
234
234
233
232
232
234
233
232
231
230
229
228
227
225
223
224
228
229
228
228
228
231
227
223
221
222
221
219
217
219
219
218
220
220
223
226
228
227
226
224
225
226
228
227
226
218
217
218
220
221
219
215
211
201
202
196
191
195
195
192
200
195
174
162
177
170
182
185
194
201
208
223
219
207
205
211
224
216
215
214
205
198
210
221
214
208
225
182
167
213
192
198
199
211
225
195
198
201
203
188
200
198
172
184
196
188
164
156
161
160
164
168
152
149
156
165
151
165
174
162
171
170
156
156
152
141
133
145
166
162
164
159
162
182
158
150
159
164
167
171
170
166
163
160
158
158
158
151
141
134
143
147
149
152
150
145
145
150
154
158
156
151
145
143
144
148
148
151
155
154
152
151
153
162
159
155
151
147
143
140
137
136
139
139
136
135
133
124
113
113
109
107
103
96
88
84
85
81
81
82
85
90
93
96
96
91
105
107
96
94
100
95
220
220
220
219
219
219
219
219
218
218
218
219
220
221
218
214
214
216
220
222
216
207
207
196
212
191
194
208
206
199
200
193
209
213
221
227
229
232
234
234
234
234
234
233
232
231
229
228
227
226
226
226
224
225
228
229
228
227
227
225
224
224
225
226
223
219
216
211
211
211
212
215
218
222
224
233
230
227
225
226
225
222
220
220
207
208
225
228
213
204
207
213
214
218
214
212
204
191
194
173
165
165
195
205
176
182
204
213
219
226
221
204
197
205
209
220
218
217
212
203
202
208
211
203
219
190
174
209
195
202
202
212
212
193
198
183
192
185
177
187
189
200
190
171
173
173
171
176
174
179
169
173
160
163
163
168
185
183
179
162
168
164
126
139
130
139
157
137
150
163
167
160
165
169
169
167
163
161
162
157
152
153
155
150
151
155
156
158
150
146
150
154
152
145
138
154
155
158
161
161
157
154
154
144
144
147
151
151
148
150
154
140
139
139
140
143
147
150
152
153
147
136
127
127
132
134
131
122
107
92
87
88
87
83
78
82
86
91
94
95
94
93
92
105
94
85
90
93
80
70
220
220
220
219
219
219
219
219
218
218
218
219
219
219
218
218
218
220
223
220
202
223
209
218
195
180
201
205
167
192
212
203
229
221
229
228
230
232
233
233
233
234
234
232
231
230
228
227
226
226
226
226
225
225
228
230
229
228
228
223
223
223
223
221
218
214
212
212
212
213
215
218
220
221
222
223
223
223
224
224
225
226
227
223
209
206
219
227
219
211
212
211
201
210
208
200
192
174
167
176
170
175
176
197
169
199
209
218
220
215
217
208
205
220
213
212
217
221
221
217
207
204
210
206
204
198
207
208
206
208
198
212
211
205
201
192
184
189
183
195
181
210
211
183
189
203
186
178
168
152
148
158
148
137
142
155
166
157
173
179
164
144
152
157
124
117
145
157
163
160
143
139
148
143
143
159
163
155
154
154
152
158
158
147
143
147
144
137
135
147
156
148
144
151
155
147
152
157
160
165
169
168
163
165
162
162
162
157
148
146
149
154
152
147
141
135
133
135
137
135
140
146
147
141
128
112
100
128
114
100
96
100
101
95
88
90
93
94
92
87
84
84
85
76
85
82
76
80
81
81
220
220
221
221
221
221
220
220
220
220
219
221
219
218
218
219
220
219
219
220
234
204
212
207
190
202
214
169
169
177
189
215
220
233
229
232
233
234
234
233
232
232
232
233
233
231
230
229
229
230
230
227
225
225
227
227
225
223
223
225
223
219
215
212
207
205
204
219
220
222
223
225
225
223
222
226
227
227
224
220
218
219
220
224
218
209
208
219
231
229
219
208
202
179
162
184
187
169
192
186
199
202
178
190
212
203
213
217
223
213
214
199
196
226
224
213
212
207
212
226
223
211
211
220
196
204
238
208
215
206
182
194
207
206
191
208
179
186
202
184
187
201
194
205
203
198
193
183
195
175
164
161
163
155
173
171
148
150
175
167
175
169
155
148
164
157
117
117
145
173
154
157
167
155
145
151
143
137
151
154
151
156
155
144
142
143
133
132
121
136
157
155
150
150
142
147
156
159
155
159
166
162
152
142
143
149
156
156
150
149
153
149
154
158
156
148
142
140
141
140
139
138
136
133
132
134
137
108
113
118
112
102
94
96
101
96
94
88
79
71
72
79
87
92
82
75
91
113
107
89
221
221
220
220
220
219
219
220
220
220
219
220
219
220
220
221
222
222
222
222
203
214
214
205
201
216
204
157
179
191
180
197
208
220
222
226
230
234
235
234
232
232
232
233
232
232
232
231
231
231
231
229
228
228
228
229
230
229
229
223
223
223
221
216
212
211
213
214
216
220
222
222
223
227
233
230
230
226
226
228
221
212
210
218
229
211
196
196
211
227
214
212
218
194
195
192
197
196
191
204
207
189
190
202
208
219
215
226
223
211
206
214
224
229
233
220
224
213
211
208
225
220
213
209
211
194
215
211
213
216
195
212
206
193
186
183
181
206
181
192
165
177
180
191
193
181
194
179
179
176
174
175
176
169
160
146
143
159
159
176
178
172
164
145
152
169
170
168
143
146
159
171
171
168
157
149
151
150
140
142
147
132
123
141
134
141
131
139
147
155
152
140
132
139
151
148
151
154
159
165
166
160
152
152
153
152
151
151
152
151
148
154
159
156
147
143
149
155
157
135
136
138
142
143
138
129
124
115
111
114
113
105
101
103
106
84
83
77
76
83
85
82
81
73
93
99
89
79
74
84
221
221
220
221
220
220
220
221
221
220
220
218
220
221
220
218
217
218
221
217
220
220
211
215
219
212
196
198
201
196
195
202
214
221
229
227
231
234
235
234
232
232
233
232
232
232
231
231
231
231
231
227
227
226
226
227
228
227
227
229
224
218
213
210
211
218
225
226
225
225
224
221
220
223
228
232
234
232
230
229
219
210
209
211
215
213
214
206
200
210
220
215
216
196
197
202
203
200
191
192
201
203
205
211
215
217
217
209
213
188
187
224
230
215
226
218
223
221
218
212
216
215
216
210
216
207
211
215
214
207
206
221
208
192
196
191
193
198
176
189
193
173
148
129
122
198
172
158
183
197
186
173
174
178
178
169
156
160
151
155
153
163
178
172
144
144
167
181
150
142
158
161
161
161
155
147
150
153
149
132
139
140
123
134
139
147
151
167
156
145
140
140
143
150
157
148
154
159
160
159
160
163
164
156
160
161
155
149
147
149
151
150
148
145
146
154
161
160
153
160
148
135
133
137
139
136
131
114
110
113
116
111
102
91
81
98
95
91
92
90
77
68
73
84
76
56
67
65
72
80
222
221
220
222
221
220
221
222
222
221
221
218
220
222
220
217
216
218
222
214
229
218
212
222
220
193
186
185
195
210
231
216
213
213
228
229
232
234
234
233
232
233
233
232
231
231
231
231
231
231
231
229
228
227
228
228
229
228
227
226
224
222
220
218
217
221
225
226
225
224
222
220
218
222
227
225
229
229
227
224
213
205
205
216
212
212
207
208
214
212
213
206
203
192
196
213
214
214
206
203
209
218
216
216
220
224
230
221
218
211
210
215
213
211
218
224
220
219
214
212
205
206
207
211
219
219
207
219
213
201
216
209
196
186
198
189
199
195
186
178
187
199
172
127
182
180
177
200
190
185
190
193
191
190
193
166
161
167
160
163
160
154
151
175
179
171
154
164
171
168
154
159
159
161
157
145
139
139
136
153
141
143
124
124
126
127
149
159
151
145
148
153
151
142
134
145
140
135
134
142
154
162
164
160
163
164
161
158
157
157
157
148
140
134
136
144
147
141
133
134
145
153
150
137
128
128
133
123
113
106
106
107
113
109
98
91
100
92
73
68
76
84
89
90
77
78
77
83
59
77
222
221
221
223
222
221
222
222
223
222
221
219
221
222
221
220
221
223
225
217
225
214
221
218
200
175
188
222
187
169
194
213
232
233
228
231
232
233
233
233
232
233
234
232
232
232
231
230
230
229
229
230
229
228
228
229
229
228
227
222
222
224
225
223
219
217
217
220
219
219
219
217
216
220
224
224
228
229
230
230
222
213
214
202
210
221
203
193
202
200
207
219
215
212
207
221
213
214
209
212
213
210
213
211
211
221
221
215
198
196
206
211
216
220
217
205
215
231
224
217
198
200
200
211
215
216
206
221
211
209
217
213
208
207
202
187
193
190
191
169
203
214
190
165
177
177
192
192
184
183
188
180
158
146
148
162
152
153
152
156
155
146
146
141
156
166
166
172
171
164
157
139
135
139
142
139
140
149
154
146
138
137
129
134
141
139
145
133
133
135
142
149
154
155
155
156
158
162
168
173
170
156
143
154
153
153
155
161
162
156
148
152
147
143
144
147
149
153
156
154
142
131
131
140
142
129
114
121
116
113
109
104
105
99
87
84
90
83
75
89
102
94
77
68
95
82
80
69
90
74
222
222
221
223
222
222
222
223
223
222
222
223
221
220
221
223
224
223
223
221
220
220
229
206
189
182
200
197
192
207
215
218
216
229
230
231
232
232
233
232
233
233
234
233
233
232
231
230
229
228
227
228
227
226
226
227
227
226
225
226
222
219
218
216
214
216
219
221
220
220
220
218
215
215
217
223
225
225
228
232
227
219
218
209
203
212
206
202
200
185
186
206
211
220
212
217
206
206
206
214
213
204
220
220
210
218
201
182
189
185
195
217
218
215
232
228
215
208
202
221
223
217
197
210
207
203
209
220
209
223
210
197
201
208
186
178
178
179
175
176
209
187
195
179
172
188
196
173
187
196
192
186
187
185
179
171
155
152
153
148
147
152
174
181
165
151
156
158
149
141
149
160
144
133
126
117
117
125
132
113
129
128
132
139
151
150
128
133
137
141
145
149
155
162
166
168
173
175
172
167
164
163
161
155
152
150
152
157
160
155
148
146
142
138
137
136
137
143
149
149
157
159
147
132
122
121
123
125
121
113
100
88
93
101
100
99
100
101
105
105
91
82
86
106
86
82
80
87
54
62
223
222
222
223
222
222
222
223
223
222
222
225
222
220
221
223
223
220
217
219
221
227
222
196
194
203
208
199
203
218
213
218
215
228
227
230
231
231
232
232
233
233
234
233
233
232
231
229
228
227
227
228
227
226
227
227
228
227
226
227
223
220
218
217
217
220
223
224
223
224
224
222
219
218
220
221
222
220
223
229
225
218
218
224
208
195
190
200
207
185
163
187
203
223
220
223
222
219
224
218
211
206
224
223
213
217
199
185
196
208
214
213
210
217
230
226
228
223
206
201
205
216
220
208
204
195
213
219
210
226
206
196
205
209
191
196
193
194
177
193
189
189
209
185
222
197
198
209
201
192
189
193
197
193
187
175
172
163
151
147
165
165
168
158
168
165
168
172
176
157
141
139
128
122
119
114
114
120
123
126
130
123
139
133
127
135
128
144
148
152
154
154
152
146
140
141
149
157
161
161
159
156
153
152
153
152
150
150
155
159
161
158
154
148
145
144
144
142
140
143
154
163
162
154
140
122
110
94
102
114
118
112
109
108
102
101
107
104
93
81
76
87
106
90
92
71
68
47
53
62
223
223
222
223
222
221
222
223
223
222
222
223
222
221
222
223
222
217
215
218
223
225
207
197
205
216
208
198
206
210
210
219
224
224
223
229
229
230
231
233
233
233
233
232
231
231
230
229
228
228
228
228
228
227
228
229
229
228
228
226
224
223
225
225
223
222
222
224
223
223
225
225
223
223
225
228
228
226
228
232
229
225
227
211
217
205
189
183
187
190
179
183
198
210
204
200
208
198
202
212
195
209
212
203
204
201
203
205
192
204
216
211
222
232
218
218
222
222
223
215
211
202
199
207
209
200
216
220
216
215
210
202
213
202
197
200
195
193
174
202
202
208
198
190
192
206
202
198
190
193
203
197
179
175
187
180
173
153
136
135
162
155
147
162
168
163
168
164
166
154
154
135
132
133
132
125
122
123
121
150
134
128
145
133
131
140
155
144
143
140
138
141
148
151
150
166
163
157
152
153
156
157
156
145
147
147
145
146
150
156
158
153
154
152
150
152
155
153
148
147
149
149
151
156
155
140
125
111
104
102
106
105
106
107
102
91
96
85
75
86
103
98
84
92
74
67
73
93
89
97
223
223
222
222
222
221
221
222
223
222
221
219
221
223
223
223
221
218
217
224
225
219
198
207
212
216
206
195
212
211
216
215
224
221
232
227
228
229
231
233
233
233
232
230
230
230
230
229
229
229
229
226
226
225
226
227
227
227
226
228
224
222
222
222
220
220
221
226
224
223
223
222
221
222
224
225
228
227
227
229
226
225
230
223
223
214
219
210
193
203
209
204
214
214
202
194
211
198
202
207
185
222
213
194
202
188
208
206
213
213
210
214
220
228
237
225
217
207
219
216
216
204
204
207
215
210
217
222
221
201
217
200
216
196
206
204
203
206
198
202
212
186
187
188
197
189
205
207
203
201
199
186
171
169
176
182
161
152
162
151
143
130
146
151
160
153
157
159
173
165
161
165
161
157
146
131
127
129
128
143
138
140
133
124
151
147
144
142
142
138
134
136
145
154
158
152
161
167
164
156
151
152
154
157
156
154
154
158
160
157
152
158
164
162
154
148
150
151
148
140
149
153
151
149
150
151
147
131
112
102
107
113
117
114
105
94
100
97
91
95
97
91
85
87
88
84
101
108
105
98
223
223
223
223
223
223
223
223
223
223
223
221
221
221
221
222
222
221
221
227
219
211
213
223
227
216
200
213
212
212
212
214
216
219
221
229
232
234
232
231
231
230
228
234
233
232
230
229
228
227
227
225
225
227
228
228
228
227
226
226
226
225
223
221
220
221
223
223
229
223
227
224
213
214
205
198
214
228
231
230
230
229
226
223
214
221
209
204
207
204
213
227
212
215
222
217
221
219
201
210
218
213
203
175
184
201
215
224
219
217
222
227
227
227
229
212
208
209
214
216
209
198
191
222
226
220
218
220
213
208
217
194
202
216
211
216
208
212
209
214
207
199
198
205
210
207
201
189
193
206
203
185
185
189
177
151
155
164
159
156
147
136
155
139
128
163
166
152
172
168
144
147
142
159
149
146
162
147
137
147
142
153
135
123
120
138
144
147
143
143
148
151
153
157
162
165
165
168
171
165
155
151
154
167
170
169
162
159
160
161
159
162
153
152
155
148
137
141
156
148
144
135
137
146
140
129
129
135
137
135
121
108
109
109
100
102
98
92
90
94
99
99
94
111
104
109
125
100
78
100
223
223
223
223
223
223
223
223
223
223
223
222
222
222
222
223
223
222
222
229
215
212
223
226
216
209
211
214
213
212
211
213
216
220
222
226
230
232
232
232
233
233
232
233
232
231
230
229
228
227
226
228
226
225
223
223
224
225
226
225
225
225
223
221
220
221
222
221
223
215
220
223
222
226
217
197
200
210
224
233
232
224
216
242
199
200
227
220
210
217
209
204
219
218
211
214
207
192
189
189
218
190
192
196
175
193
184
210
218
221
220
223
227
221
209
209
216
216
207
205
213
217
214
215
220
219
220
224
219
214
220
208
212
213
215
214
215
213
212
211
200
198
208
213
202
188
182
189
182
185
182
173
180
189
181
183
166
154
142
138
128
115
130
127
144
172
168
160
157
165
181
170
167
160
137
135
145
147
166
159
137
129
142
136
118
138
146
151
150
152
160
170
176
175
171
175
168
155
148
158
171
165
148
152
155
156
155
154
156
157
157
166
161
159
162
162
156
147
143
159
161
145
131
134
139
136
138
113
120
126
116
102
102
104
99
89
97
107
111
108
104
103
104
114
105
93
85
97
118
119
223
223
223
223
223
223
223
223
223
223
223
222
222
222
222
223
223
223
222
220
213
216
226
225
214
214
224
219
217
215
215
216
220
224
227
223
227
230
230
231
233
234
232
233
232
232
231
230
229
227
227
227
226
224
223
223
224
225
226
224
225
225
224
222
220
220
220
220
222
216
217
220
222
226
220
223
213
211
222
233
231
222
217
210
216
214
216
203
218
232
193
201
213
217
208
203
206
206
201
200
186
190
219
210
156
170
178
209
216
219
217
220
226
223
214
220
226
223
211
207
214
220
220
220
221
219
219
222
218
214
216
216
214
207
217
212
218
209
209
207
216
215
199
187
187
186
181
188
187
198
202
192
188
184
173
177
166
158
147
138
127
121
138
157
141
138
140
153
156
168
154
153
156
140
134
151
153
146
158
144
129
140
140
137
153
144
144
140
147
155
161
166
169
167
164
152
157
161
160
154
150
155
163
166
162
159
157
156
158
163
169
169
169
166
162
163
162
150
135
131
130
130
137
141
128
114
114
138
108
96
106
102
89
91
103
104
120
127
116
104
101
99
95
96
95
103
104
118
119
90
223
223
223
223
223
223
223
223
223
223
223
222
222
222
222
223
223
223
223
211
221
224
220
219
223
224
221
215
214
213
213
214
218
221
224
226
229
232
231
231
233
233
231
233
233
233
233
232
230
228
227
222
223
225
227
227
226
225
224
223
224
224
224
223
221
220
219
215
217
212
207
206
211
219
220
229
223
221
226
229
228
225
224
200
224
220
218
211
211
213
213
201
223
213
202
215
212
203
216
196
183
165
186
195
167
190
205
222
219
220
225
227
225
225
228
217
214
215
223
226
223
222
225
226
223
217
214
214
214
212
213
218
214
209
215
212
211
201
199
187
186
195
206
197
180
184
204
198
198
203
200
184
175
178
180
180
179
175
161
142
127
125
134
146
157
136
125
150
145
163
166
165
153
137
151
166
147
134
142
150
145
128
151
138
132
148
149
154
158
164
169
170
168
166
166
146
146
154
163
162
153
151
157
158
156
158
163
163
160
160
163
161
166
165
157
155
159
158
152
144
135
130
135
135
119
101
93
102
112
119
114
107
113
121
118
123
102
79
75
90
106
106
97
102
100
114
119
109
89
80
223
223
223
223
223
223
223
223
223
223
223
222
222
223
223
222
222
223
223
218
229
227
217
217
227
224
211
218
218
218
219
220
222
224
225
228
232
234
233
233
234
234
232
232
232
233
233
231
229
227
225
222
223
225
227
226
225
223
222
223
223
224
224
224
222
220
219
221
216
211
206
208
214
218
220
201
208
216
222
228
230
227
220
214
209
206
217
217
213
197
219
219
213
227
220
184
181
205
208
209
153
171
184
156
155
163
213
228
227
229
233
231
226
223
224
221
218
220
228
230
224
220
221
220
215
212
210
210
213
214
213
221
216
216
210
211
202
200
197
213
205
203
209
208
196
190
193
203
198
194
186
175
173
182
191
194
191
176
154
134
125
123
117
130
136
152
158
125
107
154
151
162
151
152
167
153
126
130
145
145
134
147
148
134
152
144
155
156
149
148
154
156
150
148
150
153
156
154
152
159
168
165
156
157
152
149
152
154
156
161
168
171
173
172
166
159
156
155
154
147
152
144
126
118
123
115
94
85
90
92
94
104
121
117
96
79
79
94
115
115
100
97
107
116
114
110
106
92
97
120
223
223
223
223
223
223
223
223
223
223
223
222
222
223
223
222
222
223
223
224
225
221
220
223
226
222
214
223
224
224
225
226
227
228
228
225
228
231
231
231
233
233
232
230
231
232
232
230
228
224
222
225
224
223
222
221
221
221
221
223
223
223
224
225
224
222
220
225
216
217
217
216
209
194
190
201
207
213
218
227
233
227
216
215
202
206
210
200
224
211
206
217
212
215
223
222
206
187
176
160
162
167
155
144
180
191
216
226
232
231
222
220
226
228
225
232
236
234
225
217
216
218
218
213
210
212
212
209
212
213
208
213
211
214
201
205
200
209
210
204
220
219
203
204
223
224
208
202
199
194
191
191
190
187
185
183
186
178
162
140
129
132
123
134
141
144
171
164
134
142
151
143
153
161
143
123
133
149
147
139
156
147
147
143
161
177
152
159
159
160
158
146
135
136
145
147
156
162
161
157
158
163
168
173
166
158
153
152
153
158
162
174
171
170
173
172
165
155
149
129
136
140
129
115
116
114
105
105
96
99
107
99
90
97
110
112
112
112
114
119
120
114
105
116
116
111
113
103
113
132
223
223
223
223
223
223
223
223
223
223
223
222
222
223
223
222
222
223
223
223
220
218
223
225
224
222
222
220
219
219
219
220
221
222
223
223
227
230
230
230
232
232
231
231
232
233
233
231
228
224
222
223
223
222
221
221
221
221
221
224
223
223
224
225
225
223
222
217
211
221
218
205
188
173
180
212
213
216
221
228
231
227
222
222
207
199
217
207
220
211
211
216
218
227
217
187
180
198
208
174
217
120
141
199
170
204
228
227
231
227
216
215
224
232
233
229
230
227
220
217
220
225
227
214
211
214
213
207
210
212
205
205
210
208
198
197
204
212
215
201
205
213
217
208
196
194
202
206
204
193
186
188
190
185
180
180
186
189
188
163
140
141
131
114
116
120
157
152
150
156
158
168
164
153
120
116
138
140
142
170
145
148
141
139
147
156
167
155
163
165
155
140
131
127
125
147
143
149
163
166
159
155
159
159
163
167
167
164
157
146
137
150
148
149
156
164
166
160
154
147
133
132
132
115
101
103
108
99
97
97
98
98
105
106
97
106
121
125
114
109
115
117
110
120
114
112
111
105
105
107
223
223
223
223
223
223
223
223
223
223
223
223
223
224
224
223
223
224
224
221
223
223
223
222
221
221
222
224
223
222
221
221
223
225
226
228
231
233
233
233
234
234
232
233
234
235
235
233
230
226
223
217
219
222
225
226
225
223
222
224
223
223
224
226
226
225
223
221
217
229
219
197
185
193
227
196
201
214
227
231
227
225
228
211
216
179
196
209
214
196
195
200
219
216
206
204
190
173
176
177
167
179
188
189
179
210
233
230
228
228
228
225
222
226
233
236
223
218
224
226
220
217
220
215
211
215
212
204
209
216
210
208
218
212
206
195
207
206
206
210
203
200
200
196
191
196
208
200
207
202
192
190
189
182
178
188
181
180
195
183
159
155
140
113
137
115
125
135
156
148
162
168
135
129
137
147
122
94
130
120
125
142
141
143
140
155
146
156
155
148
141
147
150
129
100
138
146
151
153
156
160
159
153
156
159
160
158
159
163
162
158
148
146
141
135
136
140
140
137
141
128
127
130
121
113
106
94
116
104
99
99
96
99
114
127
119
110
111
118
113
102
107
124
114
113
112
98
103
108
91
222
222
222
222
222
222
222
222
222
222
222
222
222
222
222
223
223
222
222
224
224
222
219
217
218
223
227
222
224
226
225
223
221
221
221
226
226
226
226
227
228
230
231
231
232
233
233
231
228
225
222
222
218
220
226
228
225
224
228
223
227
224
221
224
226
224
223
228
226
200
173
197
229
226
170
136
184
209
213
225
233
226
223
215
207
213
200
205
216
195
193
180
163
207
229
217
221
204
173
181
181
133
181
195
208
238
226
227
227
226
225
224
225
227
229
228
226
224
222
219
218
216
215
214
214
209
197
208
205
210
214
212
199
211
195
206
209
201
203
195
191
185
189
196
195
193
197
195
194
198
205
198
182
180
189
176
171
173
183
185
186
155
154
143
127
130
137
126
140
137
148
146
134
130
145
136
115
92
115
107
135
132
144
154
150
158
151
154
157
136
125
146
148
155
157
114
123
180
151
154
155
167
161
157
162
164
159
156
157
160
161
166
162
149
138
134
118
107
114
122
119
120
120
117
112
108
106
105
106
102
99
108
120
120
109
117
120
114
109
105
110
119
108
117
104
105
101
103
105
91
222
222
222
222
222
222
222
222
222
222
222
223
223
223
223
224
224
223
223
224
224
223
220
219
220
223
227
223
224
225
224
222
221
221
221
226
226
226
227
228
229
230
231
233
233
234
234
233
231
228
226
215
224
228
222
221
225
221
212
225
213
221
232
225
220
229
237
221
181
181
226
236
210
136
144
199
214
215
216
229
230
223
228
217
207
225
203
184
218
229
211
193
200
182
205
212
199
211
185
177
196
176
176
182
208
223
235
235
231
227
223
222
224
227
229
231
227
223
221
219
217
213
210
210
207
208
212
209
216
218
210
208
214
214
198
204
211
188
196
196
197
195
191
190
187
189
197
200
196
194
195
194
190
187
185
190
193
193
188
178
179
151
145
158
154
151
131
126
125
148
153
124
138
149
120
135
140
148
146
153
154
134
148
165
158
161
156
147
157
142
117
121
147
148
165
164
118
122
179
157
166
164
165
165
168
166
164
161
160
162
163
158
156
152
158
160
139
115
108
97
100
104
104
102
100
102
105
95
94
99
108
108
105
109
118
124
125
99
99
122
115
103
106
97
94
99
94
102
117
110
222
222
222
222
222
222
222
222
222
222
222
224
224
223
223
224
224
223
223
223
223
223
222
221
222
224
227
224
225
225
224
222
222
222
223
227
228
229
230
231
232
232
232
232
233
233
233
233
232
230
229
224
222
220
219
216
213
215
219
218
226
225
220
227
233
221
204
188
221
236
228
187
130
190
220
214
213
205
209
227
229
222
225
218
213
212
197
200
213
211
222
211
183
178
190
198
212
212
186
181
198
179
158
191
236
234
230
232
229
225
223
225
228
231
232
232
227
222
220
218
216
211
207
206
198
202
217
202
216
215
201
203
218
212
204
207
209
179
198
188
190
184
176
176
181
188
198
194
196
192
185
185
187
182
173
184
184
188
192
184
177
154
149
135
145
134
124
135
133
155
148
159
138
131
149
165
155
133
143
155
162
159
173
170
146
150
158
156
145
155
144
108
144
161
156
159
182
119
123
176
161
166
177
173
170
166
165
163
159
157
156
156
165
154
132
129
139
140
133
112
105
98
97
100
103
101
98
102
103
102
100
104
113
118
120
87
94
106
125
118
96
100
114
112
108
117
117
104
88
82
222
222
222
222
222
222
222
222
222
222
222
224
224
223
223
224
224
223
223
222
223
224
224
223
223
225
226
227
226
225
224
223
223
224
225
227
228
229
230
231
231
230
230
230
231
232
233
233
231
228
226
226
218
214
216
214
211
218
230
224
228
226
225
224
212
201
204
233
236
235
163
150
229
224
210
205
207
202
203
220
232
230
228
218
213
221
197
176
203
212
190
200
198
190
201
185
187
223
207
195
177
150
170
212
224
229
227
227
225
224
226
230
232
231
230
230
226
223
220
218
215
211
209
207
200
202
209
199
209
209
199
201
205
205
206
205
199
183
203
188
189
183
179
187
196
198
199
194
202
204
198
192
190
188
183
177
172
173
179
181
182
169
157
143
149
132
144
150
154
150
152
159
151
138
145
135
135
129
163
162
162
153
158
156
145
151
156
139
129
140
157
150
85
150
167
155
169
172
136
131
176
167
160
172
167
164
166
169
166
164
162
152
141
132
129
118
105
110
125
113
108
102
98
99
99
93
87
93
103
108
106
107
110
101
89
101
114
118
111
105
120
134
116
90
110
121
108
97
102
105
223
223
223
222
222
222
222
222
222
222
222
224
224
223
223
224
224
223
223
223
223
224
225
225
225
225
226
226
225
223
222
222
223
224
224
225
226
227
227
228
227
227
227
229
231
233
234
234
230
226
223
215
221
221
214
213
222
226
223
228
220
233
228
196
199
227
233
240
219
158
207
244
212
209
216
213
213
205
197
199
206
214
221
232
211
219
217
187
177
194
210
214
213
184
173
187
193
201
208
206
198
198
207
213
222
241
237
229
227
226
227
230
230
228
226
228
227
224
220
216
213
212
210
210
211
212
204
209
204
207
207
198
193
204
198
195
192
196
195
174
181
182
183
190
192
186
181
186
190
194
193
188
184
183
185
184
182
178
169
169
177
178
160
132
129
131
148
148
141
123
144
148
147
145
117
130
134
146
157
166
162
150
144
145
149
154
149
145
166
145
144
159
163
89
159
174
151
162
180
127
134
180
155
156
153
152
157
163
164
162
159
149
151
147
136
129
124
110
93
94
104
111
107
97
94
96
99
101
102
109
114
105
91
90
98
111
119
104
107
126
116
98
92
120
105
98
108
111
103
106
223
223
223
222
222
222
222
222
222
222
222
224
224
223
223
224
224
223
223
223
224
224
225
225
225
225
225
225
223
222
221
221
222
223
223
226
226
227
228
228
229
229
229
231
232
234
235
235
231
226
223
222
221
217
213
213
218
222
224
216
237
212
191
220
234
225
234
203
169
229
228
222
226
225
221
215
206
200
196
188
181
190
207
217
232
226
212
213
208
204
217
218
214
226
202
201
213
195
216
197
190
213
207
198
232
233
224
229
227
225
225
227
229
230
231
228
225
221
217
214
213
212
211
204
210
212
200
210
199
200
202
191
190
203
187
182
187
199
177
181
189
192
190
191
190
191
194
205
197
193
195
193
188
187
190
186
178
183
189
180
162
172
170
166
135
137
132
146
142
148
177
136
146
158
152
150
138
135
152
164
154
145
140
141
148
149
139
145
145
151
147
155
161
157
88
150
173
166
160
169
139
133
176
157
156
153
151
151
150
145
139
142
120
116
126
119
102
101
110
109
113
112
103
97
100
109
115
115
108
102
100
99
102
111
121
118
106
95
111
115
97
102
125
105
113
107
106
113
122
124
223
223
223
222
222
222
222
222
222
222
222
223
223
223
223
224
224
223
223
224
224
224
224
225
225
224
224
225
224
222
222
223
224
223
223
226
226
227
228
229
231
232
233
233
234
234
234
234
231
228
226
233
219
208
210
210
207
211
222
232
195
200
224
228
234
225
191
171
240
227
226
219
220
215
217
216
208
207
208
201
195
200
208
225
207
209
228
227
219
218
212
202
210
196
208
208
199
207
180
211
180
186
221
225
235
224
235
226
226
226
226
228
231
233
234
225
220
213
211
214
216
215
213
201
201
204
199
196
193
192
188
180
185
188
184
181
184
185
168
181
184
183
183
183
182
186
195
200
194
191
190
186
181
181
185
183
175
187
202
191
162
175
175
161
149
159
162
169
156
154
150
151
155
145
154
153
164
142
150
168
128
110
121
139
150
147
140
127
143
156
172
179
158
161
162
108
178
167
182
177
168
141
141
163
167
165
157
153
152
146
137
122
119
119
110
101
106
114
112
117
112
102
95
99
108
111
107
102
102
99
98
105
112
107
96
79
87
97
106
104
116
124
103
115
116
114
126
126
112
113
223
223
223
222
222
222
222
222
222
222
222
224
224
224
224
225
225
224
224
224
224
223
224
224
224
224
223
227
225
224
224
225
226
225
224
222
222
223
224
226
229
231
233
234
234
233
232
231
230
228
229
223
222
214
206
206
211
209
203
191
219
231
227
228
218
196
186
238
218
225
221
223
228
229
220
223
219
216
209
208
216
218
212
208
220
204
201
220
218
209
215
207
227
203
188
197
191
195
209
196
214
195
223
222
230
234
229
227
228
231
232
231
230
229
229
222
213
205
206
214
220
219
215
208
199
197
202
182
191
192
181
173
176
169
188
189
181
168
172
185
184
183
189
195
190
182
183
188
194
199
197
189
184
188
195
189
197
200
186
178
177
194
166
152
166
160
163
142
149
166
162
158
151
161
158
155
125
130
165
129
98
106
137
144
137
137
148
153
157
161
161
158
166
165
182
143
114
185
170
162
175
175
122
144
154
158
153
153
159
158
150
143
125
112
103
95
99
103
97
92
98
104
108
114
118
113
104
111
105
104
110
105
93
86
87
91
105
105
117
125
110
110
124
123
124
111
115
121
120
124
223
223
223
223
223
223
223
224
224
224
224
224
224
224
224
224
224
224
224
224
225
226
226
224
224
224
224
225
225
224
224
224
224
224
224
225
227
229
231
231
231
232
232
229
232
234
233
232
229
226
227
230
227
217
210
218
217
205
203
222
224
228
242
219
181
209
240
226
222
222
224
225
223
223
224
223
219
213
212
211
208
202
196
208
214
197
174
219
225
209
230
204
210
219
182
187
213
207
197
219
194
199
222
227
227
233
231
229
230
229
227
229
232
231
226
217
211
209
215
222
221
216
211
209
202
201
185
179
185
178
183
172
181
177
169
181
173
177
173
184
189
182
181
186
180
175
185
176
182
189
193
193
187
180
174
185
191
194
192
191
189
176
162
168
163
164
158
172
167
169
169
148
171
160
144
140
137
138
126
93
104
127
144
146
146
149
149
156
161
167
169
168
169
172
176
189
141
118
192
158
164
162
167
127
142
155
157
155
159
144
133
138
124
108
98
90
89
96
106
103
115
121
119
116
112
110
113
110
105
100
95
90
87
90
95
101
111
116
111
110
117
127
130
118
121
122
121
120
119
116
223
223
223
223
223
223
223
224
224
224
224
224
224
224
224
224
224
224
224
224
225
226
226
225
224
224
224
224
224
225
225
226
226
227
227
228
229
231
231
230
230
229
230
234
235
235
234
231
229
228
229
220
225
214
211
200
186
205
222
216
222
224
200
185
232
233
214
214
211
211
214
216
216
218
220
218
217
216
217
216
210
201
194
197
215
213
197
204
223
218
213
211
179
205
223
224
220
216
207
199
189
204
227
230
230
231
224
231
231
229
228
230
233
232
228
222
213
207
211
217
216
212
209
198
197
199
192
187
186
179
177
179
182
178
174
183
174
179
172
182
178
179
183
184
184
184
186
200
189
186
192
193
187
188
196
192
186
181
181
185
183
173
162
169
173
161
166
164
150
170
168
155
167
144
136
153
149
152
131
103
118
136
147
149
148
150
154
153
157
162
165
167
169
171
172
168
177
136
146
180
160
162
162
153
132
155
160
143
120
118
110
97
92
95
101
100
93
97
110
122
118
106
101
108
113
111
110
109
107
104
101
97
96
100
107
99
106
112
115
120
124
126
124
134
129
123
117
111
105
105
223
223
223
223
223
223
224
224
224
224
224
225
225
225
225
224
224
224
224
224
225
226
226
226
225
224
225
224
224
225
225
226
227
227
227
225
226
228
229
229
230
231
232
235
234
232
231
230
229
228
229
224
219
224
200
194
213
209
209
201
227
181
171
231
221
223
217
223
220
219
220
221
220
221
223
220
219
218
216
214
211
209
206
210
210
204
202
185
218
234
212
220
200
196
199
211
197
195
202
202
200
212
225
225
228
232
227
231
231
229
228
229
232
231
229
222
215
210
213
217
217
212
207
198
200
194
190
186
180
180
175
177
173
171
173
175
167
172
164
173
162
169
178
173
179
184
177
193
185
185
194
195
186
181
183
186
186
189
190
184
174
169
169
166
160
149
159
161
169
170
151
164
148
138
151
157
140
138
107
119
138
147
146
149
150
153
161
158
160
163
167
170
171
170
169
162
177
164
115
158
166
154
155
168
151
120
144
144
125
86
69
84
65
57
72
82
83
88
98
96
98
98
100
111
117
116
117
109
107
105
102
99
99
103
109
108
106
107
113
121
125
122
120
112
112
115
118
116
111
111
223
223
223
223
223
224
224
224
224
224
224
225
225
225
225
224
224
224
224
224
225
226
226
226
226
225
225
225
225
225
225
225
224
224
224
222
223
225
226
228
229
232
233
233
231
230
230
231
231
229
228
232
218
200
221
223
212
222
209
221
178
188
242
220
224
225
223
224
223
222
221
220
219
219
218
222
221
219
217
215
215
217
219
211
199
200
217
195
203
227
213
204
221
216
204
219
213
217
221
210
208
215
223
223
227
234
234
228
228
228
229
229
230
228
226
220
218
217
219
219
215
208
202
198
202
189
188
183
176
180
174
179
173
174
181
176
169
175
168
173
168
173
178
176
180
182
179
174
180
186
188
190
189
183
175
184
191
198
196
184
173
171
175
176
165
174
154
135
169
155
152
157
137
153
167
141
137
127
91
129
149
149
140
144
147
152
164
167
168
170
172
172
170
168
166
165
164
154
154
99
169
149
151
148
137
158
105
125
124
73
83
67
52
48
67
86
93
94
96
100
109
117
121
126
122
114
111
110
107
104
103
102
103
104
105
110
106
105
108
112
112
110
109
111
117
122
123
119
114
111
223
224
224
224
224
224
224
224
224
225
225
226
225
226
226
225
225
225
225
224
226
227
227
227
226
226
226
224
225
225
226
225
224
225
224
226
227
228
228
228
228
229
231
234
233
233
233
234
233
229
227
223
206
223
219
214
221
213
221
195
198
225
224
232
216
223
219
217
219
220
220
220
219
217
216
217
219
222
224
221
219
218
217
213
208
212
219
203
180
208
226
208
207
222
223
213
205
220
206
204
203
213
227
232
230
230
232
226
227
228
230
230
228
225
223
219
221
222
218
214
207
200
195
192
195
185
189
187
175
177
168
176
174
176
186
176
171
177
173
169
178
176
175
179
178
175
183
179
183
184
182
184
192
197
197
192
194
190
182
178
179
177
172
171
161
179
169
150
173
155
153
141
147
164
154
129
150
118
105
136
155
155
147
154
158
161
172
170
172
174
173
170
167
165
165
167
161
151
174
124
129
163
152
158
167
148
145
117
125
120
110
82
80
80
88
95
102
109
114
120
120
117
116
122
120
109
103
111
107
104
106
110
112
110
105
97
98
100
102
98
96
98
103
129
132
129
118
111
113
115
224
224
224
224
224
224
224
224
225
225
225
226
225
226
226
225
225
225
225
225
226
227
227
227
227
227
227
223
224
225
226
227
227
228
227
227
228
229
230
230
231
232
233
234
234
234
234
232
230
225
224
212
231
219
214
216
222
223
187
188
232
208
220
215
213
219
218
222
225
226
224
223
221
220
217
219
220
221
221
219
217
217
216
218
222
215
205
210
183
197
230
215
202
215
217
219
220
230
220
207
207
214
227
234
230
227
228
226
226
228
230
229
225
222
221
219
220
219
213
208
204
200
198
194
192
183
182
178
170
168
164
169
173
172
182
173
171
173
171
163
177
174
169
176
174
170
182
181
179
182
189
190
186
186
191
187
193
191
183
179
181
177
169
165
156
152
175
178
173
170
158
146
160
152
140
142
131
75
113
135
149
153
152
161
164
164
169
169
171
173
171
168
165
164
165
165
164
171
157
180
122
146
164
151
151
158
142
121
76
86
99
101
97
90
88
92
100
107
109
106
109
106
103
107
109
108
111
111
108
106
106
110
110
104
96
93
95
95
90
88
93
105
117
120
122
120
114
113
120
127
224
224
224
224
224
224
224
225
225
225
225
226
225
226
226
225
225
225
225
225
226
227
227
228
227
228
227
223
224
225
227
228
228
227
227
224
226
229
230
231
232
233
234
231
232
232
231
229
227
224
225
234
216
215
223
232
224
196
196
224
213
223
212
222
222
219
230
224
226
225
221
218
218
217
216
221
220
218
216
216
217
219
220
211
220
214
213
228
201
179
208
223
210
221
217
224
221
208
201
214
218
220
223
229
230
228
230
225
224
225
226
224
220
218
218
220
218
215
209
206
203
199
193
190
180
175
169
167
165
160
163
167
177
170
178
175
175
169
166
169
175
176
173
174
177
177
181
178
175
179
187
189
181
171
168
185
191
195
193
188
182
176
171
180
175
156
161
162
151
172
172
158
161
141
137
153
104
71
125
139
141
143
146
153
156
157
158
166
166
166
165
164
163
162
161
161
169
164
156
164
161
116
162
156
159
124
137
124
87
64
58
78
72
71
81
93
99
98
95
100
109
113
111
110
110
112
119
110
110
110
108
108
105
97
88
97
100
98
92
92
103
116
124
116
114
117
124
126
124
126
224
224
224
224
224
224
224
225
225
225
225
226
225
226
226
225
225
225
225
225
226
227
227
228
227
228
227
223
224
225
226
226
225
223
222
226
227
229
230
230
229
228
228
230
231
232
231
229
229
229
231
221
224
222
228
222
201
204
229
218
223
208
213
213
224
235
212
222
224
223
219
218
221
223
223
214
216
218
222
223
222
220
218
218
223
215
220
222
194
161
206
230
181
214
228
216
218
224
218
206
219
224
222
227
233
232
230
224
221
220
221
219
214
214
216
221
219
214
208
204
199
188
175
170
161
169
169
170
172
159
164
160
173
160
166
167
170
158
153
170
165
169
171
164
170
177
169
187
184
175
169
174
184
182
173
200
190
184
188
193
189
180
172
179
171
164
152
173
178
172
156
157
159
146
133
146
109
131
158
164
155
151
155
157
162
166
166
163
160
157
156
157
157
154
152
160
159
155
141
146
154
134
134
161
131
152
118
95
105
73
59
80
70
67
73
77
81
91
104
95
98
99
105
118
125
123
124
108
113
116
114
112
109
102
95
92
101
106
105
109
115
115
111
119
112
117
133
138
130
131
225
225
225
225
225
226
227
227
227
226
226
227
227
227
227
227
228
228
228
229
229
229
229
230
230
230
230
226
225
225
225
225
225
225
226
224
226
228
229
228
227
227
228
234
233
231
231
231
232
228
226
216
229
230
212
206
218
227
225
214
217
219
218
213
212
217
224
222
219
217
221
223
222
219
218
219
217
216
219
221
221
218
215
213
220
227
217
213
214
181
206
230
212
211
225
227
219
219
224
222
222
223
227
230
230
227
225
223
226
226
222
218
215
211
208
218
211
211
199
201
207
184
172
180
163
159
170
169
155
165
156
161
167
173
164
155
157
154
165
157
173
170
165
168
168
174
170
176
177
167
162
175
189
192
189
192
186
189
191
186
186
184
172
165
163
173
162
169
180
159
157
163
149
136
148
125
101
131
148
153
150
152
158
163
163
165
168
158
149
142
142
147
153
156
158
160
167
167
159
154
150
130
104
126
132
115
108
98
81
79
73
79
70
64
60
56
61
73
80
93
106
115
117
120
120
115
111
116
116
119
118
107
94
91
97
110
102
102
107
106
97
100
110
113
107
125
139
126
135
152
225
225
225
225
226
226
226
227
227
226
226
227
227
227
227
227
228
228
228
228
229
229
229
229
229
230
230
227
227
227
226
226
227
227
227
227
228
229
228
228
228
230
231
232
232
232
231
229
229
227
226
227
224
218
213
217
224
224
217
218
213
208
207
207
209
210
214
227
226
224
223
222
221
220
220
217
217
217
219
223
224
221
218
217
211
206
202
213
216
184
183
224
224
224
224
225
224
221
218
220
221
223
226
229
230
228
226
224
229
231
229
223
216
206
198
211
211
203
191
189
178
167
181
180
180
169
161
154
156
157
160
163
165
154
160
170
143
161
165
157
158
155
162
169
185
165
161
149
159
155
157
180
192
189
192
194
188
188
187
184
188
185
170
173
173
167
140
146
176
170
154
174
153
147
160
122
110
141
156
157
154
151
151
152
152
154
157
157
154
152
153
154
155
154
154
150
142
149
154
150
155
153
134
84
81
70
64
55
52
63
67
67
82
90
85
83
90
100
103
112
109
109
103
95
103
113
109
112
112
113
111
105
103
111
122
106
101
98
99
99
99
103
108
93
119
137
122
127
147
137
225
225
225
226
226
226
226
226
227
227
227
227
227
228
228
228
228
228
228
229
229
229
229
229
229
229
229
228
228
227
227
227
227
228
228
227
227
226
226
226
227
229
231
230
232
234
232
229
227
227
227
229
217
210
217
225
226
222
216
224
217
211
213
217
219
218
217
218
222
225
226
224
224
225
227
228
226
224
223
222
220
215
212
215
219
226
227
231
219
198
179
213
213
210
215
224
220
216
224
219
220
223
226
229
229
228
227
224
228
231
230
226
219
208
200
202
206
205
199
193
195
174
121
146
106
126
170
167
158
158
153
147
150
158
157
145
147
171
119
101
141
128
123
134
128
188
180
178
153
150
178
194
188
186
196
183
182
185
187
188
191
183
165
179
165
161
156
147
152
165
172
150
145
149
138
100
122
153
147
148
153
158
161
163
163
161
160
152
154
157
156
154
151
151
151
158
164
156
149
151
146
132
127
117
106
94
65
43
50
59
58
60
66
72
88
103
99
97
106
98
110
104
98
110
114
116
126
124
116
107
106
111
115
114
111
99
99
97
95
96
99
100
99
122
123
106
127
146
130
124
226
226
226
227
227
226
226
226
227
228
228
227
228
228
228
229
229
229
229
230
230
230
230
230
230
230
230
227
227
227
226
226
227
227
227
228
227
226
226
226
227
229
230
232
233
234
234
231
230
228
227
220
215
216
222
224
221
220
222
215
210
208
211
214
213
211
209
216
221
226
228
226
226
226
225
222
221
220
220
222
223
222
222
220
212
207
209
221
216
213
180
216
223
217
214
223
219
214
222
219
221
224
227
228
228
227
226
226
225
224
222
219
216
211
207
179
197
190
191
181
138
102
81
102
84
98
174
164
179
170
158
180
156
156
163
166
157
115
73
80
81
81
115
106
109
127
178
184
170
176
179
170
188
203
184
176
176
180
186
190
190
184
175
169
169
173
172
154
152
165
157
169
165
158
118
100
131
155
142
148
156
162
163
161
159
154
149
153
155
156
154
151
151
154
155
150
147
159
157
141
149
153
130
102
75
86
88
72
63
58
64
75
66
52
58
78
82
87
106
102
100
113
118
106
109
113
100
111
107
103
108
117
121
111
99
90
94
99
103
108
111
111
111
106
103
130
127
122
136
130
226
226
226
228
227
227
226
226
227
228
229
228
228
229
229
229
229
229
229
231
231
231
231
231
230
230
230
229
228
227
227
227
227
227
228
231
230
230
229
230
230
230
230
233
232
232
232
232
232
227
225
214
219
224
224
220
219
220
221
218
217
216
216
214
211
212
215
226
228
227
224
223
222
220
215
222
220
218
218
220
222
224
225
218
223
224
216
205
191
205
184
176
219
231
213
216
228
224
217
221
224
227
228
228
226
225
225
229
225
220
216
213
211
210
209
229
197
172
158
113
88
105
99
71
74
83
96
140
98
133
161
156
180
156
128
169
115
44
57
93
77
100
83
87
76
101
151
172
162
168
177
170
169
174
173
187
181
178
181
185
184
187
194
183
169
168
178
169
159
158
144
162
151
145
124
148
151
158
158
153
157
158
155
153
157
158
156
160
161
160
157
157
160
160
159
158
168
161
152
151
139
126
127
124
84
67
54
56
75
74
65
70
88
81
65
75
90
94
100
110
122
117
110
115
107
96
103
102
110
116
116
113
110
108
106
118
116
115
114
105
94
90
92
99
109
114
139
131
113
127
226
227
227
227
227
227
227
227
228
228
228
228
228
229
230
230
230
229
229
231
231
231
231
230
230
230
230
230
229
228
228
228
228
228
229
230
229
229
229
229
230
229
229
231
230
229
230
232
231
225
222
219
223
225
221
219
220
218
215
215
213
211
210
207
206
210
216
216
218
216
214
217
222
222
221
227
225
222
219
218
218
218
219
222
217
211
215
215
204
199
167
138
191
224
221
219
223
222
220
223
226
230
230
227
225
224
225
226
225
223
222
218
215
214
216
212
183
139
121
122
118
111
101
98
105
69
104
75
60
56
112
160
106
127
165
155
64
94
109
67
98
96
90
86
117
105
88
83
148
181
171
170
179
187
200
188
186
183
184
186
181
181
191
194
165
164
180
176
161
159
168
181
167
140
121
154
147
145
148
153
156
158
159
161
165
167
168
160
162
162
159
160
161
159
154
157
142
155
170
153
136
130
118
77
79
80
60
44
57
73
77
61
82
89
88
99
107
105
102
112
106
115
120
111
116
125
119
122
124
125
122
117
115
116
119
117
112
110
110
106
100
101
109
118
122
124
107
118
129
104
227
227
227
227
227
228
228
228
228
228
228
228
228
230
231
231
230
229
229
230
230
230
229
229
229
229
229
229
229
228
227
227
228
228
228
228
226
225
225
226
228
229
229
229
229
230
230
231
228
224
222
224
223
222
219
218
219
218
215
222
218
215
215
215
214
213
214
196
204
211
214
219
225
226
224
217
217
219
221
222
223
225
226
220
221
218
222
214
217
224
224
178
200
225
235
230
220
215
217
224
228
232
231
228
225
224
226
223
223
225
226
221
216
215
218
184
120
97
99
89
88
96
100
68
74
72
82
52
89
69
69
73
53
48
75
94
60
81
84
67
69
103
74
78
92
88
112
117
131
155
180
192
182
170
166
174
186
187
187
192
188
180
179
172
175
183
170
169
182
175
173
169
153
101
89
111
129
144
153
160
159
159
161
161
158
155
154
159
162
163
160
158
159
157
152
152
150
147
152
155
139
118
109
115
73
46
63
73
63
68
80
77
73
73
81
92
100
109
118
106
114
113
114
121
118
115
123
129
122
119
123
128
129
129
130
126
121
113
109
108
109
111
113
109
111
104
114
109
93
111
227
227
227
227
227
228
229
229
229
228
228
228
229
230
231
231
230
229
229
229
229
229
228
228
228
228
228
228
227
226
226
226
226
226
227
229
226
223
223
225
229
231
232
228
230
233
232
230
227
224
224
222
222
221
220
218
216
218
221
220
214
209
211
212
206
195
187
193
208
222
226
225
226
221
216
219
220
223
224
224
222
221
220
218
221
218
222
209
210
207
214
216
217
222
226
228
232
227
213
224
228
232
232
228
225
225
227
223
224
225
223
215
207
206
210
167
136
127
115
104
103
85
71
71
61
79
59
66
91
55
54
45
55
59
64
42
71
68
70
70
79
68
72
69
69
80
88
98
103
159
189
157
153
176
168
169
187
188
183
193
197
188
181
170
167
180
175
184
191
165
161
173
156
114
144
145
150
157
165
164
158
155
157
159
158
160
164
163
166
167
161
159
162
163
161
161
154
142
128
128
141
134
105
79
79
58
56
64
69
77
68
75
83
90
86
82
91
104
108
119
119
122
124
122
122
125
126
128
125
126
129
126
118
114
117
112
110
102
96
99
107
105
98
95
93
112
105
84
104
129
227
227
227
227
227
228
228
229
228
228
228
228
228
229
229
229
229
230
230
228
229
229
230
230
229
228
228
228
227
226
225
225
225
226
226
226
226
226
227
228
229
231
231
231
231
231
229
228
225
222
220
222
219
223
226
221
218
218
217
218
216
213
210
204
196
194
197
213
192
199
214
209
216
227
218
222
222
221
222
223
224
221
219
221
222
223
217
207
208
216
219
209
184
207
236
232
229
227
218
221
230
234
230
226
227
225
220
232
227
220
217
195
202
207
210
147
115
100
70
71
85
58
55
64
66
61
54
55
63
64
58
81
64
73
100
57
60
63
63
57
58
51
69
59
67
56
64
82
90
113
157
159
172
176
170
168
173
183
174
176
169
179
183
180
183
179
178
184
181
169
161
166
135
120
146
146
152
157
154
157
162
170
170
164
166
172
172
167
167
169
171
170
166
163
165
162
159
153
146
131
110
104
117
87
56
52
44
44
68
78
81
81
81
79
75
71
77
98
117
107
105
111
111
118
125
120
118
124
128
126
119
116
118
117
111
116
101
101
119
122
104
92
96
102
104
102
92
101
115
104
227
227
227
227
227
228
228
229
228
228
228
229
229
229
229
229
229
229
229
229
229
229
229
228
227
226
226
228
228
226
226
225
225
225
225
225
225
226
226
227
228
229
230
230
230
230
230
229
225
223
222
224
220
220
221
217
216
221
222
214
217
215
208
203
200
198
196
206
203
211
222
224
223
221
217
217
224
226
220
216
219
222
222
222
215
214
215
216
219
216
207
215
201
215
232
226
230
239
227
222
228
230
226
225
227
226
222
222
226
219
213
205
208
226
182
114
87
66
85
101
81
70
81
86
80
74
69
66
64
65
67
43
57
60
69
58
65
57
58
59
60
50
58
43
49
43
53
52
80
110
169
177
152
157
163
177
174
177
174
187
188
190
182
173
176
179
186
193
188
175
168
179
125
110
135
155
156
156
152
157
158
164
166
160
160
164
164
172
170
171
174
176
173
168
164
152
162
160
144
126
111
104
107
88
60
51
45
45
63
75
74
86
85
83
82
86
94
100
100
120
108
108
110
110
107
100
107
114
114
117
123
125
122
118
117
107
108
110
107
97
90
100
115
105
91
95
103
99
85
88
227
227
227
227
227
228
228
229
228
228
228
229
229
229
229
229
229
229
229
229
229
228
227
226
225
224
223
225
224
225
223
222
222
222
222
226
226
226
227
227
228
229
230
231
231
230
230
229
226
224
223
223
219
219
219
215
216
221
222
213
220
217
208
201
202
200
193
195
210
217
217
219
212
209
219
220
222
225
227
225
221
215
211
208
214
225
227
219
217
218
214
212
185
190
235
239
219
228
229
225
228
227
223
223
226
226
223
225
218
208
207
203
189
222
147
96
68
70
89
75
71
87
75
78
72
74
81
77
62
54
57
47
58
55
49
52
56
53
54
61
66
58
60
43
48
45
53
48
60
56
114
172
151
165
181
186
179
175
169
182
188
188
176
179
183
191
196
192
180
175
177
163
152
166
150
152
161
169
164
163
158
161
165
161
159
162
162
167
176
176
167
166
175
172
161
157
154
156
155
136
104
87
90
83
68
58
62
62
67
75
66
71
65
63
70
83
94
102
106
108
112
119
113
114
121
116
113
124
128
131
128
123
119
120
124
112
117
117
113
113
118
114
105
100
109
109
89
86
104
118
227
227
227
227
227
228
228
229
228
228
228
230
230
229
229
229
229
228
228
228
227
227
226
225
224
223
222
222
222
223
221
221
222
222
222
229
229
228
229
229
230
230
231
231
232
231
230
228
226
224
223
218
217
220
222
218
217
219
216
218
221
216
207
201
200
198
193
199
208
207
203
205
209
214
223
232
220
215
221
222
214
212
218
214
212
217
219
217
215
208
195
195
202
207
235
233
219
235
230
228
229
228
225
222
221
222
222
218
216
218
219
207
196
213
114
53
55
99
96
68
86
88
66
88
76
69
72
70
61
59
65
75
56
59
57
50
41
53
51
54
62
58
60
46
48
41
42
60
58
28
62
162
164
161
165
182
181
176
165
167
174
179
176
174
174
184
193
189
179
176
178
149
133
159
161
163
163
155
165
175
165
165
170
168
166
169
170
154
162
168
167
163
164
167
168
162
155
142
133
141
147
118
76
56
54
49
68
77
80
94
86
80
79
88
101
98
86
85
94
102
108
112
100
101
118
127
132
124
127
122
114
121
133
128
112
107
119
120
110
109
117
118
109
105
103
97
87
97
116
119
227
227
227
227
227
228
228
229
228
228
228
230
230
229
229
229
229
228
228
226
226
225
225
224
223
223
223
223
223
224
224
224
225
226
227
229
229
229
229
229
229
230
231
232
232
231
230
228
225
223
222
217
218
221
222
218
217
217
213
221
217
212
207
202
198
197
198
212
203
200
201
206
219
226
220
215
216
219
219
211
203
210
221
210
209
215
218
216
218
217
209
222
224
208
221
230
227
237
224
228
229
230
227
221
215
214
216
211
218
220
201
183
212
200
84
43
80
107
95
93
92
76
84
87
77
69
67
67
64
60
58
65
46
57
59
54
38
49
49
56
61
59
60
50
47
35
29
49
65
45
40
143
168
155
163
169
177
177
170
164
172
179
183
174
168
175
185
185
180
171
158
136
123
141
157
160
169
154
170
184
172
168
173
172
171
173
174
185
169
161
167
159
140
141
157
151
137
134
132
118
105
102
103
78
73
61
72
76
75
89
87
96
95
94
88
78
73
84
98
93
92
107
115
109
96
89
98
100
114
120
112
109
111
106
95
104
114
117
112
111
115
112
104
86
95
95
83
94
112
101
227
227
227
227
227
228
228
229
228
228
228
229
229
229
229
229
229
229
229
226
226
225
224
224
224
224
224
222
222
224
224
225
226
228
229
227
227
227
227
227
228
229
229
232
232
231
230
227
224
222
221
222
220
221
218
214
216
219
216
219
213
209
208
205
201
201
205
210
206
211
212
204
207
213
209
212
216
213
204
201
208
212
210
210
216
225
223
214
215
223
226
233
220
199
217
236
228
228
225
225
225
227
227
221
212
209
211
221
217
209
190
169
206
158
52
63
111
103
94
92
81
85
80
64
65
67
69
71
67
55
43
43
47
49
38
48
43
48
51
57
56
56
58
56
51
40
33
29
57
53
33
128
167
157
176
164
172
174
177
172
177
177
181
178
179
186
183
174
177
180
169
162
174
184
180
167
183
181
198
184
173
169
172
171
171
172
169
171
175
179
182
175
155
126
105
125
121
116
103
96
104
95
67
67
64
63
73
79
78
88
93
55
69
78
77
83
96
103
101
121
113
110
100
94
95
94
102
102
109
116
115
103
91
93
101
115
117
118
117
116
112
102
91
95
88
94
101
100
90
87
227
227
227
227
227
228
228
229
228
228
228
229
229
229
229
229
229
229
229
227
226
226
225
224
224
225
225
222
222
223
223
224
226
227
228
226
226
226
226
227
228
228
229
231
231
230
229
227
224
222
221
223
221
220
216
212
216
221
219
216
214
212
209
208
208
207
206
202
209
211
207
200
190
191
203
217
203
186
179
191
208
217
218
233
223
218
214
213
215
209
197
193
218
223
220
227
230
231
236
224
220
221
226
224
216
211
211
223
219
214
213
196
205
142
59
49
103
113
104
84
78
90
60
62
63
63
64
64
63
59
55
42
47
46
32
36
45
51
44
40
38
41
50
53
46
38
34
27
49
45
50
139
161
145
158
167
172
172
181
175
178
174
179
170
180
191
182
170
184
194
179
165
161
160
166
165
159
159
176
177
171
171
174
174
175
174
168
162
172
166
147
144
156
150
129
108
95
102
112
104
95
89
78
60
59
69
74
77
72
67
76
80
81
80
81
94
111
121
123
110
116
114
98
103
124
116
99
108
96
92
102
112
113
113
117
113
117
115
103
91
89
95
100
92
103
106
88
86
98
103
227
227
227
227
227
228
228
229
228
228
228
228
228
229
229
229
229
230
230
228
228
226
225
225
224
225
225
224
224
225
225
226
227
228
229
227
227
227
227
228
229
229
230
229
228
229
228
227
224
222
221
220
220
220
217
213
217
222
219
214
218
216
210
209
212
211
204
206
208
191
188
205
196
188
205
180
167
169
192
207
206
208
218
222
221
222
221
219
221
222
215
194
191
194
213
238
233
218
232
224
218
217
225
228
222
216
215
219
227
214
201
191
208
171
109
51
106
124
95
75
67
60
66
53
57
62
67
63
53
46
44
47
34
47
49
32
46
57
27
30
29
37
49
54
44
36
33
35
43
29
61
147
154
145
161
169
173
172
182
173
176
176
188
179
183
188
181
177
190
176
133
137
158
166
158
168
170
179
170
171
169
173
177
179
182
180
171
159
163
161
150
139
134
133
134
118
102
99
99
89
89
81
59
66
65
77
80
84
84
79
95
101
89
88
99
104
97
98
107
93
92
94
89
105
125
112
92
84
96
106
106
100
100
112
124
108
104
98
96
103
109
101
89
92
84
82
81
87
88
80
225
226
227
227
227
227
228
228
229
229
229
230
230
230
230
230
230
230
230
226
226
224
223
223
224
225
225
224
224
225
224
225
225
226
226
228
227
227
228
230
232
233
233
229
229
229
228
226
224
224
223
218
217
215
215
216
219
219
219
218
219
219
216
209
203
205
210
201
197
198
202
201
198
191
179
175
195
198
214
203
204
226
238
216
227
226
216
217
221
217
212
216
213
192
185
212
231
231
232
222
232
226
227
225
221
224
213
213
205
204
210
202
207
148
126
32
131
118
77
65
68
60
58
61
58
64
51
60
56
41
48
58
47
44
47
45
40
14
44
25
28
40
36
48
40
38
25
42
38
28
120
129
156
158
172
177
175
178
179
177
181
183
176
184
189
187
185
191
193
173
147
154
156
159
177
175
178
173
179
178
163
178
175
177
179
184
174
169
133
149
159
135
136
120
134
119
117
99
97
88
86
72
71
54
32
51
57
61
58
56
52
75
94
89
88
101
100
93
87
97
95
93
100
101
89
85
95
99
95
96
90
87
92
98
110
94
93
95
103
109
108
100
92
84
73
78
78
84
95
89
224
224
225
227
227
227
228
228
229
229
229
229
229
229
229
229
229
228
228
226
226
224
223
223
224
225
225
224
224
225
224
225
227
229
230
227
226
226
227
228
229
229
229
227
228
229
229
227
224
223
222
218
215
214
216
219
221
221
219
215
219
214
204
200
203
208
208
208
197
200
207
199
187
189
197
210
199
202
182
199
219
230
197
210
219
221
219
220
219
215
213
216
225
211
196
213
234
233
224
223
230
222
221
219
218
225
218
218
216
210
202
191
207
155
126
52
148
95
66
60
58
73
65
57
71
45
60
69
50
37
57
51
43
52
54
48
47
33
39
37
43
37
44
49
65
49
32
39
41
34
77
142
167
136
149
172
171
179
188
187
182
184
185
186
187
179
184
190
188
155
129
157
170
177
181
168
169
168
177
171
172
174
165
168
171
162
188
170
150
140
144
129
133
126
123
112
100
106
80
91
83
70
60
38
33
33
49
66
77
72
81
89
105
101
98
99
94
100
106
113
113
112
111
103
90
86
96
109
90
87
83
80
105
117
99
103
101
108
103
98
96
90
95
99
90
64
73
79
77
89
224
224
224
227
227
227
228
228
228
229
229
228
228
228
228
228
227
227
227
226
226
225
224
224
224
225
225
226
226
226
225
226
228
230
231
227
227
227
228
228
229
228
227
226
227
229
230
228
225
223
221
219
216
216
217
219
220
218
215
210
216
211
198
197
208
211
204
193
195
200
200
195
199
207
209
193
187
175
182
198
216
181
204
216
219
220
221
222
216
211
214
212
223
221
210
216
231
234
225
225
230
223
220
217
216
221
217
209
220
219
207
196
216
164
120
102
116
69
62
64
72
62
58
62
49
50
67
58
53
66
43
51
45
47
50
59
53
44
40
47
47
36
44
45
62
58
57
42
54
20
40
133
162
149
162
164
163
171
184
181
170
171
181
187
187
177
186
192
185
155
144
163
175
177
175
165
169
166
165
169
171
171
169
164
161
135
163
176
150
135
146
113
111
134
105
110
97
103
89
81
87
65
72
55
64
73
74
91
82
94
99
104
105
100
107
112
110
114
112
114
116
113
108
102
95
90
94
99
94
80
78
101
118
114
106
105
104
112
101
90
89
85
94
86
74
90
85
80
84
68
225
225
225
227
227
227
227
228
228
228
229
229
229
228
228
228
227
227
227
227
226
226
225
225
225
226
226
228
228
227
227
227
227
227
228
226
226
226
227
228
228
228
227
227
228
230
230
228
226
224
222
218
218
218
218
217
215
213
211
209
213
211
204
206
213
211
202
199
200
201
199
200
207
202
186
169
171
176
196
219
181
178
229
221
223
221
219
218
214
213
216
212
211
216
218
218
221
228
229
220
226
227
226
223
220
220
217
217
222
213
194
186
213
178
131
130
101
74
69
51
74
78
84
73
71
75
48
40
53
50
48
52
56
49
45
64
47
47
54
44
41
48
53
53
44
56
73
60
46
34
37
119
170
131
154
166
166
170
179
180
172
173
184
185
183
179
179
187
172
164
171
171
177
178
178
177
179
175
170
179
165
165
178
167
154
135
131
159
169
136
137
138
109
111
127
104
91
89
100
86
84
56
58
58
58
59
66
80
84
107
98
97
104
107
108
100
99
113
116
112
113
106
99
102
101
96
92
88
98
89
98
121
112
102
113
107
110
106
101
93
88
90
88
75
79
82
90
80
68
77
225
225
225
226
227
227
227
228
228
228
228
229
229
229
229
229
229
228
228
228
228
227
227
227
227
227
227
227
227
228
228
228
227
226
225
223
223
223
224
226
227
226
226
229
229
230
229
227
226
226
225
217
219
221
220
215
212
213
214
216
213
211
211
213
211
207
202
213
197
195
205
206
197
184
174
168
181
181
203
196
171
210
200
212
222
220
215
216
217
215
217
215
209
212
216
215
216
224
229
215
220
226
227
227
226
222
221
209
215
215
206
199
212
174
119
92
95
63
65
71
91
102
77
52
58
87
73
68
55
51
62
49
60
66
54
53
45
58
55
61
64
72
77
69
55
48
51
71
87
45
57
146
172
160
158
164
171
173
176
184
184
183
187
182
176
181
172
181
157
160
168
169
174
181
182
180
175
175
177
185
172
159
168
173
151
148
134
136
148
135
130
141
120
108
128
123
100
85
79
89
76
82
59
62
82
74
86
84
86
89
91
105
106
96
92
94
105
120
114
118
122
114
105
104
104
99
95
93
93
99
114
109
96
104
105
102
112
94
93
87
77
91
82
86
84
79
85
79
69
71
223
222
222
226
226
227
227
227
228
228
228
230
230
230
230
230
230
230
230
229
229
229
229
228
228
228
228
224
225
226
227
228
227
226
226
223
222
222
223
225
227
228
228
229
229
229
229
227
226
226
226
217
219
221
220
216
215
218
220
225
215
210
213
212
204
202
205
210
197
195
200
197
187
178
171
175
166
209
181
163
209
161
184
210
221
224
219
219
218
213
210
212
215
213
209
212
221
227
229
223
221
227
224
223
224
216
217
230
223
216
201
193
203
182
136
93
89
64
51
83
66
19
0
1
1
5
85
67
60
43
51
52
51
67
56
43
60
63
21
26
43
34
49
50
85
67
50
51
81
58
42
148
157
146
168
163
176
176
174
184
187
179
176
183
176
185
179
183
162
164
159
176
174
178
178
183
175
174
171
172
183
161
152
177
150
141
140
134
116
135
129
117
125
125
98
116
115
89
78
72
76
103
81
62
86
94
86
113
93
91
99
89
83
69
77
104
127
129
108
117
127
124
111
103
99
98
99
92
98
91
97
99
96
109
106
109
121
104
103
97
90
109
106
97
85
98
86
76
80
65
223
222
221
226
226
226
227
227
228
228
228
229
229
229
230
230
230
231
231
230
230
230
230
230
230
229
229
228
227
226
226
226
226
227
227
225
224
223
223
225
228
230
230
227
227
228
228
227
225
225
224
219
219
218
217
216
218
221
222
222
213
209
211
208
201
202
209
212
202
197
191
185
182
174
162
168
188
189
174
199
171
165
187
213
221
223
222
221
214
208
208
211
217
212
208
215
218
220
229
230
223
228
223
221
222
210
211
223
223
225
214
201
206
189
144
106
70
80
52
66
32
1
9
13
4
0
5
99
54
53
59
53
50
56
49
51
66
33
0
10
29
6
4
5
63
56
38
57
94
46
79
175
137
150
155
172
186
183
176
185
185
175
172
183
181
187
186
170
169
172
167
187
182
182
177
187
185
183
172
163
177
167
149
167
159
126
129
135
133
135
116
126
128
118
108
88
98
88
96
68
73
74
59
76
63
75
69
84
75
73
60
58
75
77
86
104
111
115
114
116
123
119
109
106
102
98
99
92
101
81
89
105
102
110
113
99
101
100
94
95
102
104
104
103
108
88
85
76
72
97
224
224
223
226
226
226
227
227
228
228
228
228
228
229
229
230
230
231
231
231
231
231
231
231
231
230
230
232
231
227
225
224
225
226
227
225
223
221
221
223
226
228
229
224
225
228
229
227
225
223
221
223
219
215
214
216
219
220
219
213
209
209
211
209
204
206
212
207
182
176
191
195
184
176
176
182
172
170
176
180
172
156
204
212
214
216
219
218
209
206
214
217
218
211
213
219
206
204
224
226
219
227
224
225
226
212
212
218
222
221
208
194
203
202
162
149
100
108
88
76
32
33
16
0
10
0
8
48
89
50
54
47
64
56
48
63
52
0
6
0
20
14
1
9
59
81
77
101
79
14
98
181
155
169
169
172
183
177
169
178
178
170
173
180
183
181
182
141
159
170
174
172
180
186
171
174
175
182
176
168
162
167
150
150
172
128
123
131
126
125
115
120
114
120
120
118
86
84
82
77
58
53
39
34
42
91
144
58
89
82
76
88
105
103
107
116
108
109
118
123
122
112
108
112
110
101
95
106
89
85
113
108
98
117
106
111
98
111
101
109
125
102
100
103
94
93
84
86
101
96
223
223
224
226
226
226
226
227
227
227
227
229
230
230
231
231
231
230
230
230
230
231
231
232
231
231
231
230
228
226
226
227
228
228
228
224
222
220
222
225
228
229
228
229
229
230
230
229
227
225
222
217
216
218
220
217
213
211
211
218
204
208
216
207
205
207
198
178
178
197
191
199
173
176
171
166
164
182
166
192
160
176
220
172
197
210
221
210
219
186
210
219
224
209
210
211
212
201
213
222
231
216
237
216
217
225
223
221
219
206
201
187
199
217
176
137
139
140
132
28
2
25
28
17
0
24
7
3
97
53
49
53
46
53
56
73
9
3
4
1
7
0
0
4
17
50
80
44
22
51
160
152
147
161
188
169
169
173
166
178
187
172
173
177
182
188
146
162
174
175
171
169
177
180
173
174
171
160
166
149
159
169
164
142
167
161
119
126
127
127
119
110
112
115
111
108
102
71
86
77
71
49
53
51
48
64
78
73
72
77
70
91
97
99
95
99
108
113
111
97
101
109
115
111
105
105
111
110
102
100
106
107
109
109
106
109
126
111
110
116
101
96
100
110
96
86
88
94
97
94
223
223
224
225
225
226
226
227
227
228
228
229
229
230
230
230
230
230
230
230
230
231
231
232
232
231
231
232
230
228
228
228
227
226
226
225
223
222
223
226
228
228
227
229
229
230
230
228
226
225
222
221
221
221
220
218
218
218
217
208
207
218
221
207
202
203
192
181
197
201
196
184
185
176
168
173
168
167
190
164
162
196
180
171
196
196
207
212
201
195
211
218
211
217
215
219
203
205
206
228
226
224
205
214
230
221
216
214
208
208
220
208
201
210
195
153
149
168
108
12
1
1
2
0
82
91
0
2
89
70
57
42
49
58
54
57
2
0
9
7
6
3
3
1
0
4
3
46
37
68
172
160
140
155
166
187
178
169
167
187
185
169
189
182
190
179
172
168
189
178
173
161
167
180
170
164
163
151
153
161
142
153
169
134
146
159
129
121
117
117
116
110
108
110
109
112
99
80
87
66
62
62
67
70
71
71
58
51
79
107
105
101
101
103
111
120
118
105
93
95
106
118
118
106
96
100
111
86
89
93
93
95
105
105
96
123
115
113
123
108
93
109
121
103
97
91
88
86
85
82
223
223
224
224
224
225
226
227
228
229
229
228
229
229
230
230
230
229
229
230
231
231
232
232
232
231
231
232
231
229
228
227
226
224
222
224
223
222
224
227
229
229
229
229
228
229
229
228
226
225
222
220
221
220
215
214
217
220
218
211
212
217
213
202
202
203
191
188
204
201
197
179
189
179
175
173
174
168
174
158
172
175
172
187
207
200
181
174
183
205
228
192
201
223
220
216
206
212
206
214
225
222
224
218
225
215
210
214
206
209
217
207
197
206
216
161
143
159
79
37
46
25
22
24
60
47
17
68
79
54
54
58
63
56
47
49
15
1
0
3
4
1
7
14
8
20
53
42
24
117
183
149
159
163
161
164
176
181
178
186
189
177
182
194
189
144
175
171
171
181
167
156
158
181
170
156
159
145
143
159
139
142
164
139
133
151
141
121
112
110
115
113
109
108
107
107
114
93
73
60
57
59
58
72
66
69
73
77
93
103
96
90
93
100
103
98
87
83
85
117
122
123
112
95
88
99
113
99
96
93
89
86
93
100
96
112
108
102
104
106
111
114
96
100
95
88
84
83
85
83
223
223
224
224
225
225
226
227
228
228
229
228
228
229
229
229
229
229
229
230
231
231
232
232
232
232
231
230
229
228
228
227
225
223
221
221
222
223
225
229
231
231
231
228
228
229
229
227
226
225
223
217
220
218
211
209
215
218
214
218
211
209
206
204
206
203
190
194
197
199
193
186
184
186
188
177
182
173
153
177
167
166
190
184
148
214
238
174
166
189
210
161
206
223
218
202
217
214
211
206
220
222
219
234
222
222
224
215
215
212
200
192
194
202
219
199
164
139
45
47
64
67
59
56
50
51
63
97
71
54
49
36
51
50
54
68
55
24
5
42
19
12
11
7
16
37
58
81
116
168
150
147
158
135
167
163
174
176
166
167
181
184
180
174
137
124
149
174
166
183
177
157
150
178
168
149
158
146
140
138
150
139
149
150
134
138
144
123
114
111
114
113
110
107
101
106
110
100
80
72
60
62
49
53
45
52
71
82
86
88
85
85
97
108
105
96
94
109
127
128
123
113
100
92
93
101
108
106
95
93
97
96
98
110
122
100
123
111
92
104
114
108
102
91
85
80
83
87
87
81
223
223
224
225
226
226
226
227
227
227
228
228
228
229
229
229
229
229
229
231
231
232
232
232
232
232
232
229
228
228
228
228
227
226
224
223
223
224
226
229
231
231
231
228
227
228
228
226
225
225
223
219
223
221
214
212
217
218
214
217
208
208
213
213
206
197
189
200
200
197
193
190
188
191
194
190
187
169
167
184
158
196
180
155
160
206
183
162
160
190
203
166
214
218
204
199
217
213
213
211
211
218
238
212
221
222
210
211
217
214
198
193
194
194
205
195
181
163
59
50
53
57
45
46
53
67
56
50
51
51
44
39
56
49
36
41
52
45
51
50
8
14
21
18
45
54
23
102
169
164
147
167
160
161
173
186
177
172
177
178
185
193
189
171
132
175
157
180
179
163
166
158
145
168
162
143
152
145
137
128
145
138
142
150
135
132
140
125
119
115
111
109
110
105
93
97
91
96
90
81
57
61
48
46
63
85
96
94
91
88
84
96
101
103
99
100
108
114
115
107
106
100
95
96
101
103
102
109
100
98
98
89
82
87
93
109
104
95
106
128
115
89
92
91
87
90
99
100
90
80
223
223
224
226
226
226
226
227
227
227
227
228
229
229
230
230
230
229
229
231
231
232
232
232
232
232
232
229
229
229
229
229
229
228
227
226
226
226
226
228
228
228
229
228
227
227
227
226
225
224
223
222
224
223
218
215
218
219
216
217
213
213
214
210
199
196
200
205
212
201
198
185
200
193
191
195
183
168
174
179
174
194
159
150
175
173
145
188
146
184
181
188
205
208
189
205
209
217
218
212
223
147
185
238
216
216
207
211
211
205
201
198
191
191
198
203
195
186
74
38
47
55
58
57
53
53
46
51
58
51
61
38
61
63
44
40
42
31
38
50
33
36
40
43
41
37
67
156
165
162
165
161
156
165
148
143
176
161
157
187
184
172
182
121
141
172
159
165
167
170
155
158
147
159
161
144
144
143
134
138
126
137
144
143
132
136
139
128
124
119
112
107
110
106
94
84
125
110
74
85
60
42
47
61
66
72
75
75
77
90
105
116
113
105
98
104
114
111
101
96
101
101
96
96
103
108
108
107
109
107
96
89
97
105
103
92
83
106
122
106
84
83
100
98
98
101
103
97
88
87
223
223
224
225
225
226
226
227
227
228
228
229
229
230
230
230
230
230
230
231
231
232
232
233
232
232
232
231
229
228
228
228
228
227
227
226
226
226
225
226
227
228
229
227
227
227
226
225
225
224
223
223
221
219
217
215
215
217
218
217
217
213
208
205
201
203
209
211
211
201
200
195
199
193
190
188
177
164
170
184
182
169
160
167
173
171
156
160
162
216
124
186
191
205
195
195
202
221
216
216
230
123
87
252
220
221
230
212
211
200
205
200
190
199
198
198
202
206
144
78
49
50
46
51
58
57
49
52
51
48
52
45
57
59
37
41
45
36
43
37
42
44
39
46
39
62
157
175
162
150
144
151
161
152
170
162
153
172
184
163
184
197
133
140
180
175
171
171
154
175
150
152
148
153
165
150
137
142
135
143
120
137
137
139
134
133
139
133
127
123
118
111
111
110
105
86
141
115
70
83
65
40
43
45
54
69
87
97
96
100
112
99
96
91
92
101
111
112
108
103
109
109
103
103
111
116
115
113
113
103
82
72
83
92
88
100
89
97
91
84
94
102
110
96
98
96
90
86
86
88
223
223
224
224
224
225
226
227
228
229
229
229
230
230
231
231
231
230
230
231
231
232
232
233
233
232
231
231
229
227
226
225
225
224
224
223
223
224
224
226
228
230
232
228
227
226
225
225
225
224
223
223
219
216
216
214
213
217
221
210
214
211
207
213
214
208
205
215
196
200
196
212
189
195
195
181
176
151
180
196
159
177
167
172
177
163
173
167
180
188
118
170
185
210
211
176
199
218
204
215
209
232
165
127
226
219
205
207
217
207
214
208
198
208
194
184
202
203
200
113
34
53
46
44
43
52
57
55
41
58
50
42
55
65
45
52
49
38
46
49
33
49
38
31
71
119
168
149
147
146
166
156
164
178
169
162
167
151
171
204
182
122
65
161
160
178
160
175
160
147
147
143
145
149
168
153
131
141
137
134
125
137
122
140
141
123
136
135
125
122
121
114
110
112
114
90
81
81
83
64
51
51
33
47
80
96
87
85
93
96
94
97
89
88
98
110
112
105
99
103
110
113
113
118
126
123
113
112
107
101
91
83
87
95
95
73
90
95
82
94
103
92
105
100
105
102
95
97
102
90
222
222
223
223
223
224
225
225
226
227
227
228
228
228
228
230
230
230
231
229
229
230
230
229
229
228
228
229
229
229
229
228
226
224
222
221
220
219
223
225
227
227
226
224
225
225
224
222
221
221
222
219
220
220
220
218
215
212
210
215
211
210
210
207
200
202
209
207
201
205
205
199
201
194
177
165
166
170
181
164
170
181
178
177
175
173
169
173
192
134
136
196
178
185
178
167
178
223
218
216
201
220
215
48
203
229
209
215
207
206
209
212
188
198
196
196
181
180
202
173
54
42
51
41
38
57
60
70
67
67
60
42
49
59
52
47
54
53
57
47
34
34
45
50
103
170
169
156
164
154
146
165
161
164
161
153
174
174
167
142
155
1
105
177
172
176
170
156
158
152
129
144
150
148
152
145
150
144
142
134
129
133
121
121
134
131
135
129
136
122
113
127
119
100
105
102
93
88
89
67
58
50
71
150
87
82
76
77
92
86
108
109
109
110
110
105
103
107
114
123
121
121
125
128
126
119
112
104
105
95
90
103
91
93
92
79
80
59
76
108
103
102
114
113
114
103
108
104
95
78
222
222
222
223
223
224
224
225
226
227
227
227
228
228
228
230
230
230
230
229
229
230
230
230
230
230
229
229
229
229
229
227
226
224
223
224
223
223
225
227
229
228
228
226
226
226
225
223
222
222
221
221
220
219
220
220
218
216
215
217
210
206
207
208
206
207
213
197
206
208
203
189
184
186
169
175
162
160
172
170
186
186
177
177
182
166
172
173
159
130
148
172
170
184
173
165
183
233
209
198
199
231
205
2
50
152
240
210
216
220
193
203
189
182
200
183
157
194
200
196
168
65
46
41
48
44
69
67
81
71
59
55
43
57
58
54
60
69
51
34
44
39
39
84
121
162
167
162
141
152
169
160
151
166
171
164
153
160
193
73
20
42
167
165
166
170
166
152
159
153
132
143
152
144
153
136
146
138
144
134
127
132
125
124
134
129
125
118
129
127
116
115
117
110
104
101
91
86
85
77
66
53
67
98
64
70
75
87
109
104
114
107
108
114
120
120
115
113
115
111
119
128
132
129
122
117
115
111
105
89
84
101
95
95
88
82
63
62
89
91
81
98
109
95
114
113
109
96
94
85
221
222
222
223
223
223
224
225
226
226
227
227
227
228
228
229
230
230
230
229
229
230
230
231
231
231
230
230
229
229
229
227
225
224
224
224
223
223
225
226
228
227
227
228
227
224
224
223
224
223
222
219
217
214
216
218
219
218
216
216
208
203
206
210
210
208
210
198
212
210
200
184
179
186
171
188
168
167
175
176
196
184
176
191
171
173
171
176
153
113
148
164
158
163
159
150
174
225
192
181
218
194
239
129
1
67
129
195
213
205
212
198
190
194
188
183
193
169
188
186
193
145
95
64
56
61
47
57
80
72
56
34
59
62
51
66
51
45
45
46
41
63
82
118
134
166
155
153
168
164
147
150
169
167
166
175
167
157
111
52
16
95
179
162
169
170
167
151
162
154
134
140
150
141
156
133
144
132
141
145
129
130
124
118
130
133
125
114
118
128
123
109
110
112
104
103
94
88
76
77
61
45
50
63
70
87
90
94
105
104
108
109
117
117
111
115
124
123
112
131
126
121
118
118
118
116
114
101
100
96
97
110
95
88
75
67
75
88
87
74
82
100
88
103
116
112
103
90
90
88
221
222
222
222
222
223
224
225
225
226
226
227
227
227
228
229
229
230
230
228
229
229
230
230
230
230
230
230
229
228
227
226
225
225
225
222
221
222
224
225
227
227
227
228
226
223
222
223
224
223
221
219
215
211
213
216
218
217
215
211
205
203
207
211
209
204
203
209
208
207
196
190
193
189
182
189
175
183
182
176
192
176
180
191
161
174
169
169
149
130
153
172
160
155
171
141
159
206
190
170
194
208
212
252
116
1
117
147
171
228
209
206
212
178
173
176
185
177
183
175
188
180
165
120
83
62
53
67
60
77
76
63
69
58
60
67
57
59
68
68
93
98
105
151
155
153
164
152
145
158
162
156
167
165
159
157
165
82
33
46
25
162
158
161
174
170
167
150
165
154
138
134
141
139
154
140
144
132
136
146
129
130
126
116
127
137
126
119
113
120
127
116
103
101
104
103
99
95
71
70
49
37
44
65
81
85
82
86
99
112
119
103
83
85
112
121
110
115
137
132
128
124
124
125
121
111
102
115
103
95
99
110
93
91
83
83
90
91
89
84
80
87
96
122
115
107
108
107
100
93
221
221
221
222
222
223
223
224
225
226
226
226
226
227
227
229
229
229
229
229
229
229
229
229
228
228
227
230
229
228
227
226
225
225
225
222
222
223
225
227
229
228
229
227
225
222
221
223
224
223
222
222
218
213
214
216
218
216
214
209
207
205
207
208
207
204
205
209
196
206
197
196
200
183
191
186
178
186
180
169
183
173
187
172
170
163
169
150
127
177
167
149
154
161
200
149
160
182
178
179
172
211
202
232
166
66
115
27
117
191
168
218
195
187
195
195
177
183
165
161
155
166
172
184
193
126
97
57
59
87
73
51
68
60
69
81
78
83
119
124
153
136
131
157
171
149
157
150
149
160
170
174
169
160
163
121
21
29
66
31
98
163
162
158
168
165
159
150
162
155
144
133
134
138
143
147
144
139
136
134
126
133
136
122
125
134
122
120
115
113
120
122
107
94
100
96
98
102
75
65
47
48
61
69
76
72
81
95
102
103
94
79
83
91
101
109
115
120
124
123
127
131
131
126
120
116
115
123
103
95
104
114
96
95
89
89
84
75
67
69
75
79
87
97
98
107
114
114
103
94
220
221
221
221
222
222
223
224
225
225
225
226
226
226
227
228
229
229
229
228
229
229
229
228
228
227
227
229
229
228
228
227
226
225
225
221
221
223
224
226
227
227
227
226
224
222
222
223
223
223
222
222
219
216
215
215
215
213
210
210
209
207
206
207
207
209
211
203
194
208
202
199
195
179
197
198
187
179
172
167
182
175
186
169
166
166
164
144
139
183
161
162
158
141
162
125
168
185
186
175
184
209
188
223
199
80
52
1
46
26
135
198
178
202
189
205
195
153
135
133
114
186
178
159
160
194
187
128
78
60
97
44
32
68
82
76
136
175
149
140
131
133
168
172
180
157
162
174
132
140
156
162
184
159
34
111
47
17
75
8
134
162
156
159
164
161
150
151
155
154
146
139
135
138
133
145
144
146
140
132
128
130
134
122
121
132
124
114
119
114
112
121
116
101
96
91
92
100
81
61
49
54
68
64
69
77
92
98
93
87
74
95
91
97
109
115
113
121
135
128
126
125
124
123
122
121
120
106
101
107
112
106
85
92
91
86
76
81
71
65
85
89
72
72
92
115
109
100
95
99
220
220
221
221
221
222
223
224
224
225
225
226
226
226
226
228
228
229
229
228
228
229
229
229
229
228
228
228
228
228
228
227
226
225
224
221
222
224
224
225
225
226
225
225
224
224
223
223
223
223
222
221
220
219
217
215
213
210
207
210
211
212
211
210
210
209
208
202
208
204
201
197
187
187
200
205
193
172
170
174
186
180
182
176
159
178
162
152
164
159
154
158
155
153
163
148
186
173
154
162
176
193
191
217
218
131
41
20
4
2
163
135
131
142
189
180
179
158
138
112
103
133
123
123
72
112
98
131
146
98
95
43
17
58
70
113
137
105
41
79
83
101
151
178
160
127
162
158
160
168
166
155
106
86
14
21
70
61
41
48
161
168
157
162
160
158
142
154
150
154
148
142
142
139
132
137
143
145
139
139
137
128
129
122
120
132
128
113
113
117
117
115
117
111
97
92
83
90
84
57
49
48
54
57
61
77
85
80
85
97
103
95
106
109
105
113
131
141
141
127
125
125
130
133
129
117
106
112
113
114
100
86
76
95
90
72
51
62
73
68
60
54
61
82
93
113
104
100
101
110
220
220
221
221
221
222
223
223
224
225
225
225
226
226
226
228
228
228
229
228
228
229
229
230
230
230
229
228
228
229
229
228
226
225
224
225
226
227
227
226
226
227
226
224
225
225
225
224
223
223
223
223
223
223
222
218
215
211
209
208
211
215
217
216
212
205
199
206
219
192
192
193
182
200
201
196
189
165
171
181
190
185
181
171
171
175
166
159
159
155
167
159
157
167
157
144
164
151
143
154
174
161
182
219
229
193
92
31
15
31
179
146
110
118
162
138
160
179
201
175
180
163
143
137
152
150
131
118
145
141
126
104
41
83
105
170
148
132
141
132
134
175
196
186
174
162
164
154
167
147
107
83
12
41
48
28
8
114
15
103
177
144
149
157
151
151
135
155
148
158
155
141
148
142
138
132
144
141
135
141
141
130
133
131
124
129
124
118
105
118
128
113
110
114
101
93
75
79
84
55
52
42
38
50
53
81
90
83
90
97
97
114
110
113
122
124
119
118
124
132
132
133
130
127
124
123
122
124
121
114
99
97
97
97
64
69
75
74
62
69
62
48
73
85
75
87
95
107
106
106
217
220
222
221
221
222
222
223
224
225
225
224
226
227
225
226
229
230
228
230
229
229
230
231
231
229
227
228
228
229
229
229
228
227
226
223
222
220
220
222
224
225
225
224
225
226
225
223
223
224
225
225
222
219
216
214
211
209
207
202
209
216
216
212
208
204
201
202
204
189
202
197
191
190
206
168
177
188
172
187
190
179
184
161
178
184
174
156
156
168
166
165
160
169
158
141
160
147
149
152
162
166
177
196
219
213
91
98
34
33
181
140
104
156
140
90
67
117
125
93
142
160
163
150
160
185
175
139
190
184
162
121
85
159
179
206
193
232
202
201
181
158
166
142
146
104
107
100
91
91
69
12
2
37
58
20
57
57
37
156
163
151
157
151
146
156
134
143
140
154
157
156
150
142
142
132
136
149
132
135
144
132
135
134
117
122
129
127
116
106
108
117
121
112
100
100
83
73
69
59
44
38
37
62
86
76
81
101
93
69
103
106
113
119
118
121
133
136
126
129
124
118
129
133
129
130
128
112
112
105
93
87
82
70
57
71
79
59
46
61
60
59
83
72
73
92
101
81
98
105
219
220
221
221
221
222
222
223
224
225
225
224
226
227
225
227
230
230
228
229
229
228
229
230
230
229
227
228
228
228
229
228
227
226
225
225
223
221
221
223
225
225
225
226
224
222
220
218
220
222
224
224
221
218
216
214
211
209
207
207
211
213
212
210
208
204
200
199
195
201
199
197
186
197
188
166
175
179
183
181
186
186
177
172
180
184
178
162
155
163
167
160
160
168
157
143
156
144
149
156
165
147
139
173
216
236
126
96
13
27
190
128
123
133
145
110
71
111
96
39
77
122
66
52
92
83
50
55
116
99
79
87
71
75
70
105
71
101
100
95
79
77
96
96
99
56
63
101
97
83
88
12
2
57
40
29
76
31
70
171
148
163
155
151
144
150
134
154
152
151
145
148
151
147
146
134
130
140
133
132
138
141
135
131
128
123
125
116
116
116
112
108
108
108
109
99
85
66
65
59
47
42
58
73
68
75
82
87
90
93
95
111
112
119
122
115
106
97
86
94
105
115
133
139
131
129
122
109
103
91
80
76
77
72
65
78
70
54
49
59
65
66
70
55
64
86
79
75
100
110
220
219
218
221
221
222
223
223
224
225
225
225
227
227
226
228
230
230
229
229
228
228
229
230
230
229
228
228
228
228
228
227
226
225
224
223
222
221
221
222
224
224
225
223
222
220
219
220
223
224
225
220
219
218
216
215
213
211
210
211
211
210
208
208
208
207
202
197
194
205
199
189
186
200
175
177
182
178
194
179
180
186
165
183
181
182
181
170
157
159
169
156
161
168
157
147
151
140
150
147
158
146
141
163
190
233
188
91
22
66
182
135
136
130
135
98
79
106
89
64
79
127
54
60
86
66
43
66
108
90
91
83
82
68
79
100
61
90
81
81
66
72
92
109
112
62
72
109
82
74
66
1
1
89
60
50
69
24
116
172
160
151
162
147
140
134
118
148
155
152
150
146
151
145
144
139
131
135
139
133
130
144
138
132
135
121
121
119
115
111
109
109
109
107
106
92
91
79
84
73
54
37
53
52
55
84
82
71
70
100
103
113
118
102
102
109
73
54
88
111
130
141
152
147
134
127
116
114
107
97
90
83
78
69
62
73
53
49
55
59
71
75
60
72
57
76
80
91
93
103
221
220
218
221
221
222
223
224
224
225
225
226
227
227
227
229
230
230
230
229
229
229
229
230
230
230
230
229
229
229
229
228
226
224
224
221
220
220
220
221
221
222
222
222
221
221
222
224
223
221
219
218
219
218
218
217
215
214
213
211
211
210
208
207
208
208
206
197
203
199
201
181
191
194
179
191
187
184
191
186
180
179
162
187
182
182
178
172
162
159
170
156
164
168
158
152
148
140
155
139
152
157
161
154
168
209
235
101
38
106
181
146
133
128
123
104
87
98
86
83
74
98
44
74
61
71
64
69
94
84
94
86
88
72
84
90
71
99
85
84
73
76
93
109
112
46
49
63
29
67
25
2
2
68
60
64
43
37
156
162
171
134
157
143
142
129
108
138
150
150
157
151
150
139
138
145
138
135
145
140
128
137
139
134
133
123
118
125
116
109
108
112
113
107
102
94
92
82
81
53
40
32
45
63
81
87
87
102
101
109
115
116
96
101
107
88
87
110
121
130
145
148
148
140
133
133
125
119
113
107
100
90
76
65
59
60
49
53
62
67
77
80
64
59
55
64
61
78
97
104
222
223
223
220
221
222
223
224
224
224
224
226
226
227
228
229
229
230
230
229
229
230
230
230
230
231
231
230
230
230
229
228
227
225
224
220
220
220
220
220
221
221
222
224
223
221
221
220
218
214
211
220
221
221
220
218
216
214
212
210
213
213
209
206
206
206
206
198
210
197
199
190
192
190
189
192
181
186
175
195
181
171
170
185
184
183
172
168
165
157
167
162
166
168
159
156
146
144
158
145
150
155
152
137
171
192
248
153
30
116
195
137
123
111
123
113
81
88
82
76
83
95
67
66
49
82
59
61
100
86
84
82
92
78
70
79
79
83
84
76
77
81
100
111
114
45
38
18
4
50
1
5
3
33
57
63
26
70
173
161
160
141
140
144
148
139
119
143
153
145
146
151
149
139
137
147
140
131
144
144
139
132
134
132
132
134
114
119
120
121
117
108
101
102
109
93
87
87
80
43
38
45
47
58
84
71
79
99
104
98
106
111
105
108
97
89
116
137
120
138
148
143
137
132
130
134
127
117
112
103
92
80
72
70
74
63
68
67
67
73
76
74
74
66
64
57
56
66
87
86
222
222
223
220
221
222
224
224
225
224
224
226
225
226
228
229
228
229
231
229
230
230
229
229
229
230
231
230
230
230
230
229
227
225
224
221
222
222
222
222
222
222
223
224
222
219
217
217
218
219
219
222
223
223
222
218
214
211
210
212
215
214
209
203
202
203
203
200
208
203
194
203
188
193
194
189
175
187
167
195
174
164
172
182
184
185
165
163
164
152
163
169
165
165
159
157
145
149
159
155
143
147
153
137
165
175
243
224
43
142
180
128
115
114
111
112
94
87
65
66
79
64
61
56
52
76
43
72
110
87
86
78
77
87
79
76
87
82
73
73
77
80
95
107
112
72
71
12
17
16
1
1
6
33
73
60
25
134
166
163
160
145
137
149
152
143
126
145
160
148
142
144
147
145
143
146
137
123
136
139
151
136
130
130
137
143
116
116
120
125
121
108
97
99
108
94
84
89
79
51
43
53
51
60
79
74
93
93
104
115
116
106
113
87
80
113
120
110
125
144
151
145
142
138
134
133
123
120
117
108
96
85
82
85
90
79
88
77
64
70
70
67
76
80
71
57
65
67
72
66
220
220
221
220
221
222
224
225
225
224
224
226
224
225
227
229
228
228
230
229
229
229
228
227
227
228
230
229
229
229
229
228
227
225
224
221
222
223
223
222
222
223
224
221
220
219
218
218
220
223
226
219
221
222
221
218
214
212
211
212
212
210
204
201
201
202
201
205
206
204
195
197
188
200
195
190
179
189
180
188
163
165
169
178
181
183
162
160
161
148
165
173
161
161
160
157
143
152
156
151
140
146
158
147
145
163
216
246
114
167
151
130
110
123
100
102
102
92
70
82
85
63
73
46
53
61
37
82
98
85
85
95
77
90
81
70
79
84
75
79
75
80
86
103
95
106
118
13
9
1
18
11
18
46
68
46
56
175
158
153
162
147
141
150
156
148
129
136
156
154
151
145
144
147
142
144
140
122
129
133
144
140
132
133
136
135
128
123
119
120
121
116
107
100
101
103
84
75
60
57
38
47
57
72
71
69
94
101
109
125
105
102
80
82
106
118
119
131
145
135
142
140
144
144
140
139
130
125
125
118
107
99
97
97
94
89
90
76
64
72
76
73
76
55
68
62
49
57
71
71
219
221
223
220
221
222
224
225
225
224
224
226
224
224
227
229
227
227
230
229
228
228
227
226
225
227
228
228
228
229
228
227
226
225
224
220
221
223
223
221
221
221
223
221
221
222
220
218
216
217
218
214
216
219
220
218
216
214
213
210
208
204
199
199
202
203
202
211
208
199
200
178
192
206
196
189
183
190
198
184
158
174
170
174
176
180
161
160
159
146
170
174
157
158
160
157
141
153
152
143
149
148
142
145
138
165
175
224
187
153
141
132
106
117
105
110
87
93
88
79
74
80
74
43
63
67
48
84
92
98
79
80
83
80
72
87
78
72
85
81
71
87
87
109
82
124
145
37
2
5
33
22
31
67
70
21
105
166
161
141
150
156
136
149
160
161
139
131
148
153
155
152
143
141
138
145
146
128
127
132
130
138
137
139
131
120
142
125
120
120
123
121
112
103
100
99
85
77
67
90
50
41
56
66
78
85
97
102
88
108
97
81
87
104
116
115
115
126
135
145
149
147
149
148
142
143
136
124
123
114
103
98
101
99
93
93
84
72
69
81
92
90
79
67
68
67
54
66
53
56
224
222
218
221
222
224
224
224
224
224
225
225
224
226
227
229
230
230
231
227
228
229
229
230
230
229
229
230
230
229
228
227
227
227
227
226
222
221
222
222
221
221
224
223
221
217
217
217
216
212
211
217
218
221
223
219
214
214
218
208
211
209
202
198
199
200
200
204
191
204
201
191
199
198
195
182
182
176
191
180
165
182
177
172
182
184
166
155
156
159
170
169
159
149
154
150
138
146
156
148
149
138
143
149
156
159
199
232
226
152
132
127
103
114
102
97
94
92
74
90
76
75
69
56
67
65
51
93
96
97
86
92
80
85
87
88
88
81
80
81
77
83
87
95
102
107
127
57
4
8
27
41
74
81
47
38
143
150
157
151
149
142
149
159
160
147
147
145
140
147
141
150
139
148
155
138
141
127
130
133
139
132
131
126
139
132
125
128
130
112
124
123
122
110
105
100
87
78
77
65
40
40
65
62
76
98
95
80
107
108
102
105
96
107
107
106
125
142
149
152
149
148
150
149
144
139
135
126
119
117
117
114
112
106
96
82
78
73
84
99
88
68
65
68
66
54
60
56
62
66
221
223
224
221
222
223
224
224
224
224
225
225
226
227
228
228
229
228
229
227
228
228
229
230
230
230
230
231
230
230
229
229
228
227
227
224
220
220
221
222
221
222
224
221
220
218
217
218
218
216
215
225
223
223
224
221
215
213
214
213
213
211
204
199
199
198
197
192
190
201
190
183
199
199
186
186
184
183
193
182
169
179
176
180
185
178
166
157
160
157
165
160
154
146
152
151
143
152
159
152
154
149
146
146
142
135
156
203
226
161
134
131
105
106
108
97
97
94
82
85
79
73
69
61
73
64
52
94
95
92
84
94
85
89
87
84
84
78
77
86
78
82
91
106
102
78
74
47
12
5
18
68
99
74
32
89
155
156
157
153
146
141
155
160
157
145
149
149
144
149
145
140
135
142
155
146
150
137
130
135
134
124
123
118
128
126
126
112
114
127
115
118
113
113
111
106
104
82
58
54
61
62
58
82
82
89
95
114
109
82
80
101
111
121
115
118
132
143
158
154
148
146
150
155
152
143
135
137
129
125
123
118
114
108
98
92
87
84
91
95
78
66
74
77
59
54
54
62
47
62
224
220
213
220
222
223
224
223
224
224
225
227
227
228
228
228
228
227
228
229
229
229
229
230
231
231
232
229
229
230
229
228
227
226
225
221
219
219
221
223
222
222
223
220
219
218
217
216
217
217
219
224
222
221
223
223
220
216
214
209
209
206
202
200
201
200
198
192
192
200
191
184
197
196
183
188
184
187
191
182
173
175
176
185
185
167
167
159
164
155
158
158
156
150
153
152
148
154
156
148
143
143
139
149
150
142
145
181
217
151
123
125
102
89
102
98
97
93
89
80
81
75
68
64
77
60
55
96
94
86
82
95
90
91
84
83
85
77
75
81
82
86
84
104
101
50
24
2
11
19
13
45
44
16
28
133
152
154
154
154
142
141
160
162
157
149
154
156
151
153
151
139
139
137
150
149
150
142
126
136
131
121
121
115
118
118
122
118
110
128
107
105
106
100
89
93
98
93
82
73
62
54
52
81
83
97
92
100
80
78
99
99
106
111
119
144
150
140
150
142
144
150
153
152
147
145
145
144
137
132
128
121
117
111
103
103
101
102
107
96
73
68
84
67
71
71
51
59
68
79
219
218
227
221
223
224
225
224
225
225
226
227
227
228
228
228
229
228
228
230
230
230
229
229
230
231
232
227
227
228
228
227
225
223
222
220
220
221
222
223
223
222
222
220
220
218
215
212
213
216
218
220
220
219
221
221
220
217
215
205
204
203
202
203
204
204
202
202
196
198
199
194
192
189
185
185
181
186
184
178
175
171
176
179
179
157
167
159
164
151
152
157
160
154
155
154
152
156
154
158
143
146
138
145
143
150
159
201
207
139
122
128
108
87
102
103
94
91
85
80
81
80
63
63
76
54
59
100
95
84
82
94
91
89
80
83
88
79
76
80
80
85
85
101
87
30
19
13
32
23
12
20
14
1
69
150
141
153
151
156
144
142
160
159
158
155
154
154
154
155
152
141
145
133
139
142
143
143
125
132
132
131
126
118
115
115
117
114
104
105
106
99
111
106
90
89
82
82
88
78
55
54
74
73
70
89
95
93
92
99
91
107
109
123
135
141
125
106
115
136
142
150
153
151
147
148
154
147
141
137
133
127
123
120
114
117
114
113
109
95
78
80
95
65
64
59
66
62
73
67
226
223
220
222
224
225
226
225
225
226
227
226
226
228
228
229
229
229
229
232
231
230
229
229
229
230
230
227
227
228
227
226
225
223
221
221
222
223
223
224
224
223
221
220
220
218
214
210
211
215
219
220
222
222
222
219
217
214
212
209
208
206
207
207
206
205
204
202
199
198
200
197
190
188
183
185
184
185
179
175
173
169
174
166
173
153
169
161
163
152
152
152
160
156
157
155
153
157
152
139
128
141
137
140
135
156
184
220
184
127
127
127
104
88
102
110
92
90
76
83
80
80
55
63
74
48
68
101
95
82
81
94
92
86
77
86
91
78
76
88
75
82
95
110
72
7
23
13
23
8
11
8
17
1
83
155
139
158
152
155
145
145
155
153
158
157
148
146
152
151
147
137
145
134
132
137
136
142
129
126
135
140
129
120
117
118
116
106
100
89
100
92
88
105
88
97
90
79
73
68
58
56
64
72
74
81
95
92
106
107
90
118
122
133
117
87
87
112
139
150
145
145
151
159
160
155
153
151
145
144
141
135
133
131
126
128
121
112
100
89
87
94
100
73
69
63
72
66
75
61
222
226
222
223
224
226
226
225
225
226
226
226
226
228
228
229
230
230
230
231
231
230
230
229
229
229
229
229
229
229
228
227
225
224
223
222
223
224
223
224
225
224
221
219
218
216
212
209
210
214
218
215
220
223
221
219
217
216
214
208
207
207
208
208
206
205
205
194
203
198
195
195
195
194
182
186
192
186
179
176
171
169
170
159
172
157
170
165
163
160
156
153
162
160
158
153
148
151
146
151
136
137
136
137
123
124
148
200
149
120
125
117
89
85
100
110
94
91
71
84
77
77
52
68
73
46
77
99
93
83
82
96
93
85
77
88
90
75
75
80
79
88
90
109
76
4
4
2
19
19
21
9
26
10
89
151
141
158
150
150
148
153
159
156
158
160
148
146
153
149
147
139
147
144
136
140
134
136
131
124
135
140
125
119
117
121
116
123
111
94
90
100
70
99
73
82
87
84
75
68
59
52
53
61
86
83
94
90
94
94
112
118
114
112
88
77
119
155
163
155
150
149
153
159
159
155
153
151
148
147
147
141
138
137
132
125
119
113
105
98
98
98
90
80
77
80
65
70
78
74
221
218
227
222
223
224
225
224
224
224
225
226
226
228
229
229
230
230
230
229
229
229
230
230
229
229
229
230
230
229
228
227
225
224
224
220
222
223
222
223
226
224
222
218
217
213
209
206
207
209
212
214
216
219
218
219
219
217
212
207
206
206
208
206
202
201
203
191
202
194
193
196
195
196
185
185
198
185
182
181
171
171
167
159
175
162
168
168
163
168
160
155
164
164
160
150
140
144
141
142
134
126
131
139
136
126
148
171
133
129
121
115
87
90
106
98
96
91
75
82
78
73
59
75
72
44
85
96
92
88
87
94
93
87
80
88
85
72
79
73
84
92
80
104
83
4
2
18
23
20
7
7
17
11
98
147
146
155
152
150
154
160
165
165
158
161
155
154
157
149
153
146
151
156
141
147
140
135
138
129
132
136
123
121
114
115
109
118
111
101
86
103
79
100
80
66
72
71
65
61
59
63
71
55
80
83
96
103
95
93
97
109
107
107
105
127
161
157
137
147
150
152
155
154
152
154
155
149
148
152
152
146
143
141
136
128
121
123
122
113
106
97
83
90
65
71
78
78
63
65
224
227
220
222
223
224
224
223
222
223
223
227
227
228
229
229
230
229
229
227
227
228
229
230
230
230
229
230
229
228
226
225
224
223
223
219
221
222
220
222
226
225
223
218
216
211
206
203
202
202
204
217
218
217
215
218
217
212
204
214
213
212
211
206
199
196
197
193
195
185
194
199
187
189
188
181
200
184
184
185
172
175
166
161
177
165
166
170
163
173
162
153
164
164
163
151
141
145
145
133
143
137
135
133
136
135
172
149
128
133
110
112
88
92
106
84
97
91
80
80
80
71
69
78
71
42
89
94
92
94
93
90
91
87
82
88
82
71
84
81
78
85
86
110
78
5
29
10
27
49
32
30
4
3
113
150
154
157
157
155
157
163
167
173
155
156
157
161
160
150
158
150
150
159
143
153
149
143
153
134
131
134
126
127
111
107
100
86
99
97
78
72
64
75
77
73
79
68
54
57
65
57
44
72
80
93
91
85
83
108
96
105
112
116
118
141
154
146
152
146
144
145
152
158
159
156
153
149
150
155
157
150
148
147
142
144
131
129
129
117
107
101
92
90
83
83
92
73
74
67
217
227
219
223
223
221
220
220
221
223
224
224
225
228
229
229
229
229
229
230
230
229
229
229
229
228
228
229
228
227
227
227
225
220
217
226
221
218
219
223
226
225
223
220
214
210
210
207
203
205
210
208
217
221
219
213
211
214
216
215
215
214
206
198
200
198
189
193
197
183
195
184
194
183
194
187
197
187
182
170
175
171
176
180
170
174
167
174
166
166
167
160
154
150
159
160
131
130
123
130
136
151
133
136
127
154
170
135
129
122
106
107
84
106
103
99
93
76
90
80
76
75
70
84
65
48
98
95
96
94
84
92
91
76
89
87
82
73
75
85
84
83
89
123
74
26
48
19
22
43
71
64
22
33
99
158
149
152
152
152
153
153
163
157
161
157
156
163
165
160
157
154
154
152
147
143
142
140
138
165
136
120
118
132
115
108
108
88
91
94
83
63
62
67
62
69
80
66
59
54
61
51
54
74
89
76
78
84
85
101
105
118
107
106
134
158
148
136
148
116
153
159
150
164
167
153
153
153
154
159
162
161
156
151
149
139
147
138
129
129
115
104
111
108
91
106
85
73
88
69
215
231
226
223
223
223
222
222
222
222
222
223
224
227
227
228
228
227
228
229
229
229
229
229
229
228
228
228
228
228
227
225
223
221
221
223
220
219
220
224
226
225
223
222
216
213
212
207
203
204
210
216
213
208
207
214
220
220
215
219
215
212
205
199
201
202
195
193
191
186
189
188
180
176
184
198
190
184
187
176
176
168
175
165
166
170
171
170
159
166
171
165
147
145
142
148
136
132
133
129
128
134
129
138
145
170
157
127
126
115
110
95
94
104
107
105
101
88
93
85
78
83
80
82
57
54
96
95
96
94
85
94
92
80
87
86
79
76
77
82
86
83
81
113
76
30
53
39
24
47
66
47
33
38
121
163
159
161
155
155
159
155
157
161
189
192
165
146
149
152
153
149
153
155
153
149
145
139
135
132
132
137
122
128
122
107
97
99
84
86
91
74
58
66
81
60
69
64
66
58
57
55
71
72
70
82
76
80
101
96
91
119
103
122
142
132
128
131
114
142
163
163
154
159
156
146
150
153
162
164
158
157
163
159
148
147
156
149
134
130
124
113
106
106
102
93
85
89
91
77
211
224
219
219
220
221
223
222
222
222
221
221
223
225
226
226
226
226
227
229
229
229
229
229
228
228
228
228
230
229
226
223
221
223
225
221
220
220
222
225
226
224
224
221
218
215
213
208
205
206
211
213
208
204
207
219
225
221
212
218
212
209
207
204
204
203
198
189
183
189
182
192
172
177
183
193
177
180
183
177
186
177
179
177
177
168
176
163
146
149
153
156
138
146
139
147
142
124
122
131
134
144
151
154
165
167
121
122
122
111
112
83
103
99
105
100
96
90
85
79
75
84
81
81
50
66
95
95
94
92
85
95
91
83
83
84
75
82
81
78
85
88
86
105
66
13
44
41
2
54
63
41
33
46
136
154
156
161
155
157
164
161
160
177
199
207
200
202
199
176
149
150
152
153
149
145
144
145
145
130
132
133
113
117
120
104
93
108
101
93
81
67
68
77
80
71
73
62
58
56
61
59
63
66
72
73
69
96
104
78
90
106
116
120
119
112
101
113
140
154
157
153
150
151
146
144
152
163
161
159
161
160
157
156
160
163
151
148
152
146
135
128
125
103
111
82
87
101
86
75
220
226
218
216
217
219
221
221
221
222
222
221
222
225
226
226
226
226
226
228
228
228
228
228
228
228
228
227
229
227
226
224
223
224
225
221
221
221
222
224
224
224
223
219
218
216
213
208
206
208
213
201
207
214
220
221
220
215
212
213
207
208
211
209
206
202
195
188
186
192
180
189
173
182
186
188
178
189
177
167
185
177
165
179
174
150
172
166
152
152
149
142
130
134
127
141
146
144
142
144
142
149
148
151
164
149
119
126
116
113
104
83
103
96
96
102
93
91
80
82
80
89
83
80
48
79
96
95
93
91
86
94
89
86
79
81
73
88
84
80
82
91
93
104
65
5
42
98
49
56
41
24
65
75
148
162
161
165
158
157
159
153
153
149
174
194
196
183
166
167
180
160
160
155
144
136
134
136
138
138
130
117
112
108
93
92
98
112
116
99
69
66
85
88
71
66
62
57
61
62
55
44
41
67
75
57
76
102
85
81
95
101
106
108
97
85
105
137
155
154
147
145
147
148
150
154
157
168
157
155
162
162
154
156
168
173
150
146
150
139
127
121
113
111
115
90
97
102
79
67
218
227
221
219
219
219
220
220
221
223
224
221
223
225
226
226
226
226
227
228
228
228
228
228
228
228
228
228
228
226
226
226
226
224
222
223
222
221
221
222
223
224
224
220
218
217
213
208
207
207
210
202
209
218
221
218
213
213
215
213
207
208
212
210
207
202
195
192
196
193
179
177
175
179
183
173
170
183
169
159
174
175
160
178
167
139
163
164
155
154
148
134
135
132
129
140
138
149
141
133
130
138
135
152
161
129
128
124
108
113
91
95
101
101
92
105
91
89
79
86
86
89
79
75
51
91
96
96
95
92
90
94
89
88
79
78
72
90
83
84
83
88
88
105
87
7
38
95
67
29
50
43
68
54
165
166
160
164
163
161
161
156
161
159
152
147
152
154
144
145
157
146
149
148
143
137
135
136
136
123
128
118
132
112
70
83
103
114
106
89
81
87
94
88
76
71
59
60
66
59
43
46
59
66
52
60
92
81
74
99
92
105
118
104
91
115
151
156
147
156
150
149
151
154
161
164
157
158
161
162
161
161
164
164
161
154
150
150
144
138
154
156
132
126
114
108
107
93
78
68
201
219
221
223
222
221
221
220
220
222
223
222
223
226
226
226
227
226
227
227
227
227
227
227
228
228
228
228
227
225
226
227
227
225
222
224
222
220
220
222
224
225
224
223
220
218
213
209
208
206
207
212
210
209
210
210
211
214
218
217
211
211
210
207
206
204
198
190
197
187
180
171
175
174
181
163
161
165
159
155
152
157
146
173
163
143
156
156
145
144
140
131
140
137
136
139
125
132
117
131
124
134
138
164
154
117
126
117
103
107
85
107
102
107
97
105
90
89
84
88
90
84
76
65
60
97
96
96
98
95
94
95
92
89
83
75
74
89
80
83
85
87
81
104
104
4
5
73
65
37
35
57
42
57
182
159
153
160
163
166
167
163
171
160
160
155
152
151
148
147
151
134
137
138
135
134
137
140
142
117
132
125
141
122
89
95
107
113
103
93
99
108
100
85
79
85
77
73
58
51
48
57
54
42
38
74
82
72
87
95
90
92
107
89
96
141
146
128
143
148
149
152
152
156
165
165
154
155
158
162
165
166
164
161
158
159
152
149
138
128
138
139
117
128
109
114
104
84
81
74
195
215
219
220
220
220
221
221
222
222
222
221
223
225
226
226
226
226
227
227
227
227
227
227
227
228
228
228
228
226
226
225
225
225
224
223
220
218
220
224
226
226
224
222
221
216
213
211
211
209
208
210
204
202
205
210
213
215
217
216
215
214
210
204
205
203
195
191
192
185
186
178
174
169
179
170
172
158
151
152
137
139
115
149
139
136
142
151
146
145
142
133
132
130
122
128
126
134
133
147
137
137
142
160
132
121
123
109
110
97
93
109
105
103
104
103
92
97
99
93
96
86
86
58
73
100
96
95
99
95
95
93
93
89
89
74
80
91
80
83
82
87
82
100
105
4
5
52
121
188
101
30
30
112
182
161
159
165
163
163
164
157
159
156
159
152
142
142
147
151
154
145
145
141
135
130
129
129
129
129
134
133
135
124
117
106
114
116
116
110
109
113
102
86
84
87
80
80
65
59
53
52
34
21
43
71
71
80
92
83
88
104
86
107
141
134
129
143
153
139
146
151
153
156
160
161
158
162
156
155
161
161
154
155
159
158
146
147
150
143
141
142
137
124
115
114
103
94
91
80
189
207
209
213
215
217
220
220
221
222
222
221
222
225
225
226
226
226
227
226
226
227
227
227
227
228
228
229
230
228
225
223
223
225
228
220
218
217
220
226
229
227
223
221
219
214
213
213
215
214
211
197
197
202
210
215
214
212
212
212
214
216
211
204
204
200
189
199
193
190
194
189
170
162
173
162
175
152
142
157
150
152
113
137
123
129
130
149
146
143
136
133
125
138
130
137
138
131
133
132
134
141
159
163
115
125
112
106
121
91
104
105
106
95
106
90
85
94
101
88
91
80
89
57
82
103
96
93
97
92
92
90
92
87
93
75
86
94
82
86
76
82
85
95
102
9
54
127
138
207
143
2
68
163
172
155
158
167
162
164
169
161
158
155
155
149
145
148
148
144
145
135
139
142
141
139
135
128
123
132
132
145
134
117
123
99
119
124
123
116
116
113
95
88
102
116
82
78
78
66
43
63
86
22
42
59
81
83
81
91
80
81
87
114
129
119
122
134
136
142
151
156
158
159
158
160
165
161
163
156
143
142
153
159
155
152
152
153
149
144
147
147
138
125
130
119
111
116
106
87
207
217
216
221
217
217
217
220
222
217
224
220
221
222
223
225
226
225
226
225
227
227
227
226
226
225
227
227
227
226
226
226
227
224
223
223
221
216
217
225
230
229
224
228
223
219
216
211
211
212
208
202
199
214
221
207
205
217
218
217
211
209
205
210
188
188
201
198
194
193
198
181
170
156
175
169
155
159
155
154
147
151
138
140
129
123
134
143
135
130
137
146
139
131
130
137
136
130
132
138
137
143
162
149
124
121
108
103
118
82
102
106
92
93
87
107
76
96
99
88
83
91
77
52
99
110
95
104
93
95
87
88
102
89
89
83
88
81
73
78
86
84
75
92
99
59
86
130
163
215
87
14
115
168
168
167
163
157
160
163
159
164
178
147
142
149
153
144
146
146
133
127
139
145
129
139
137
131
115
115
131
142
141
132
120
117
125
128
123
123
115
112
111
102
101
122
86
80
81
56
53
62
54
65
54
73
71
70
66
70
82
79
99
99
111
118
112
153
139
143
153
149
149
162
157
152
166
149
146
144
148
155
161
161
159
161
155
152
153
156
157
150
142
131
133
130
121
113
106
100
214
221
232
223
220
219
219
221
223
218
218
223
223
224
225
225
225
223
223
224
225
227
227
226
225
226
226
227
226
226
226
226
226
224
223
220
218
215
216
222
227
226
223
220
217
213
213
214
211
210
210
209
212
213
202
193
206
218
212
208
213
209
204
200
201
200
203
199
196
193
193
181
174
160
174
165
152
151
158
152
152
148
137
145
136
127
130
138
135
131
136
140
146
142
134
139
146
146
140
140
134
149
169
135
127
114
107
104
111
85
103
104
93
93
88
102
80
93
94
84
80
88
69
58
102
112
101
101
88
98
94
96
103
86
85
82
87
85
82
82
78
92
87
80
102
76
98
149
170
193
26
31
145
158
160
161
163
161
163
165
159
158
166
161
150
150
152
144
139
138
133
142
128
124
126
142
132
127
125
123
134
140
138
132
126
128
138
133
129
131
123
117
114
102
100
94
87
85
85
77
60
48
45
49
49
64
56
58
60
69
73
74
90
90
110
124
141
124
128
144
159
164
155
153
154
147
135
139
141
146
153
159
163
162
160
158
158
158
159
157
151
145
139
140
131
128
129
121
106
101
186
197
212
227
222
220
220
217
221
223
221
224
223
224
224
224
224
224
224
223
225
226
226
226
225
226
227
227
226
226
226
226
226
224
223
221
221
219
220
225
228
227
225
225
225
219
219
221
211
205
212
212
212
203
190
191
205
212
208
209
214
208
207
194
205
203
201
199
198
193
186
178
177
164
170
165
150
144
161
155
160
149
140
148
146
135
128
132
135
134
135
138
147
146
140
143
149
147
146
143
136
161
160
125
121
108
103
109
103
93
106
102
96
94
91
99
91
94
91
85
84
87
61
76
110
106
95
98
97
106
81
101
100
82
83
83
85
85
86
92
70
79
90
89
107
83
112
154
209
126
2
69
173
166
162
152
159
159
158
160
156
153
155
162
150
144
145
142
133
131
134
140
135
130
124
132
128
130
133
129
135
137
136
135
132
135
146
138
134
135
126
118
114
102
103
103
100
92
84
76
68
64
66
37
41
51
52
56
58
79
82
83
89
122
114
117
128
117
149
152
139
144
153
146
139
137
133
143
147
153
159
163
165
165
164
159
162
163
160
153
147
143
142
139
139
134
126
119
116
114
170
196
199
215
213
215
219
215
216
224
222
222
222
223
224
225
226
226
227
224
225
227
227
226
226
227
228
228
226
225
226
226
226
224
222
222
224
224
225
228
230
230
228
222
226
218
215
215
200
193
209
213
201
193
200
209
206
203
210
213
206
205
211
198
200
201
201
196
198
195
182
176
176
165
166
168
149
144
159
158
160
151
141
146
151
144
131
131
136
137
136
141
142
142
146
150
145
143
150
142
144
167
135
125
109
113
105
112
96
100
107
98
96
94
90
95
99
93
89
89
89
84
56
92
117
103
87
91
103
107
69
101
95
80
85
89
84
82
84
71
94
98
82
84
93
97
140
184
180
39
16
86
174
164
157
154
163
162
157
160
162
161
161
166
160
152
151
153
147
141
143
134
139
134
124
125
128
132
134
133
136
136
137
141
138
138
146
144
137
135
125
117
114
108
112
98
90
99
99
80
77
77
57
57
49
46
53
53
42
68
77
70
106
151
92
119
122
136
143
142
131
138
152
147
133
142
162
160
159
157
158
160
163
165
166
162
160
156
152
149
147
148
149
142
146
140
126
120
125
126
150
199
199
212
213
210
221
221
217
223
217
223
222
223
224
224
226
226
227
226
226
228
227
226
226
228
229
228
226
225
225
225
226
224
222
220
223
224
225
226
229
228
227
218
225
218
214
212
198
197
218
215
199
195
213
223
208
199
208
209
200
207
208
207
201
207
201
194
198
200
184
178
174
165
167
168
146
146
151
157
153
152
139
137
150
150
138
134
137
139
140
142
141
142
149
156
151
146
152
141
162
155
116
123
107
118
112
106
89
102
105
96
96
96
92
89
97
88
85
90
90
75
57
101
113
103
92
88
95
96
81
101
93
81
86
93
83
82
82
94
94
80
81
100
91
126
171
200
77
15
36
102
175
152
157
152
163
162
156
158
163
161
160
155
156
149
144
147
147
137
131
142
133
120
122
127
128
126
132
135
134
134
137
144
142
141
147
150
141
137
128
120
117
111
116
105
96
98
95
82
86
87
68
63
51
40
40
41
35
62
67
91
100
90
80
130
126
136
138
108
144
156
142
137
139
151
169
166
160
154
152
156
160
161
161
159
152
145
145
151
155
155
153
153
146
140
138
134
129
129
157
213
223
225
234
219
221
224
221
225
219
224
224
223
224
223
224
224
225
226
226
227
227
226
226
228
229
227
226
225
225
225
226
223
222
221
223
223
224
226
228
227
225
223
228
223
217
214
205
208
225
214
204
203
211
213
204
199
201
206
205
212
203
208
205
208
195
197
197
201
187
184
174
167
172
165
149
152
149
154
149
155
143
134
146
149
141
138
137
139
142
144
150
148
148
155
155
150
144
154
173
136
115
112
109
110
110
100
90
105
104
99
100
105
97
88
94
89
85
91
88
65
72
114
101
94
98
98
96
84
96
103
94
82
84
94
83
85
85
91
82
84
95
93
91
146
182
101
27
42
23
145
172
153
161
152
163
165
160
161
162
157
153
155
157
154
150
152
156
148
134
145
144
129
121
118
123
122
127
132
129
126
132
141
142
143
152
149
139
137
130
122
116
107
110
94
108
106
104
112
105
85
78
61
52
42
28
35
48
71
66
106
78
60
128
114
130
133
128
110
148
148
126
137
154
158
164
158
154
151
153
158
161
159
156
152
147
143
147
156
161
158
152
151
149
144
140
138
139
137
122
146
153
180
229
228
220
220
218
226
222
223
222
222
222
223
223
224
225
225
225
226
225
225
225
227
228
227
226
225
225
225
226
223
222
223
224
223
224
227
230
229
225
224
224
220
214
209
205
209
216
212
204
205
206
198
197
203
202
207
208
206
202
206
204
197
193
201
193
197
188
189
175
170
178
159
153
155
153
149
152
156
147
138
142
141
139
138
135
135
141
147
151
150
150
157
157
151
146
165
152
119
116
105
112
103
104
95
96
107
102
102
101
110
99
93
94
95
90
91
84
57
95
120
95
91
95
104
105
75
103
100
93
84
83
95
83
88
87
76
87
90
81
81
124
117
80
4
56
49
17
173
157
154
156
163
173
175
172
172
170
164
160
158
150
149
149
148
151
147
132
135
146
137
126
115
123
123
129
131
126
123
131
142
143
147
157
148
136
132
126
121
114
103
105
102
110
97
87
97
98
92
99
81
66
55
31
39
59
70
60
68
68
101
143
98
138
124
96
137
138
133
134
152
162
161
163
152
152
153
157
161
161
156
151
149
149
150
154
158
159
155
152
145
152
149
138
139
148
144
98
119
134
92
191
226
222
219
212
220
218
220
220
220
221
222
224
225
226
224
224
225
224
223
224
226
227
226
225
225
225
225
225
223
222
224
224
222
223
227
230
228
225
228
221
220
216
212
213
217
216
211
199
204
208
195
194
208
213
205
201
191
205
206
201
189
203
204
188
191
186
192
175
171
182
151
153
153
156
142
153
154
149
143
139
135
136
138
134
133
142
145
143
145
158
165
159
156
164
164
116
110
111
107
111
107
106
91
99
106
98
99
96
108
93
95
94
99
92
88
79
51
111
111
99
105
93
95
104
71
106
93
89
84
84
96
84
88
84
74
87
89
94
90
108
25
2
32
95
43
50
176
159
153
155
164
172
174
170
170
168
163
162
178
160
157
159
151
151
149
134
129
123
115
132
131
128
122
137
134
129
128
138
148
149
151
159
151
136
129
123
119
115
106
109
99
96
100
100
94
97
101
95
89
61
54
35
47
65
69
65
65
56
95
86
114
119
85
114
128
124
134
147
147
146
147
145
151
153
156
159
159
155
150
147
150
153
156
157
155
154
154
154
151
147
145
147
150
149
142
87
95
127
85
153
250
214
219
226
219
219
216
231
216
224
229
223
230
220
224
223
227
224
225
224
219
226
227
226
225
224
224
225
223
222
227
224
222
220
216
221
228
227
228
223
220
221
221
216
211
208
209
202
210
204
201
204
199
209
200
183
193
205
206
198
188
205
198
191
188
189
183
171
171
180
166
150
159
157
149
140
154
153
147
144
141
136
130
129
136
147
150
144
144
160
156
155
173
164
120
118
105
109
109
101
105
97
95
104
96
98
97
101
95
104
103
89
93
88
94
58
75
118
113
102
98
102
99
77
96
101
94
86
88
89
81
81
86
82
79
84
85
93
108
112
5
23
48
70
15
60
182
152
153
163
165
160
161
166
168
165
161
161
156
159
164
147
144
156
147
143
138
132
119
117
133
132
147
136
134
125
123
134
146
154
155
155
140
131
128
129
106
108
112
110
108
87
111
105
89
103
93
96
89
80
55
47
55
69
73
61
45
74
84
111
129
87
92
118
125
135
140
137
144
160
158
137
147
155
163
162
151
143
147
156
156
151
151
155
157
156
156
157
158
151
145
156
148
139
150
98
134
122
84
93
229
252
237
225
218
223
222
223
226
227
218
212
223
231
225
224
228
225
226
223
216
222
226
226
225
225
225
226
223
222
224
221
220
219
218
223
228
226
227
223
220
222
219
215
209
207
207
210
208
210
209
206
204
200
191
186
199
212
201
195
190
215
194
191
192
191
179
169
172
184
167
153
154
158
145
143
148
148
142
139
137
136
131
128
137
148
156
157
161
156
157
170
162
138
117
115
104
100
102
101
99
89
102
107
100
102
97
102
97
101
99
91
96
89
88
56
95
115
103
101
103
102
95
86
97
99
91
85
89
92
85
83
84
81
81
85
82
88
106
113
5
33
58
51
2
97
168
158
160
160
167
164
166
170
171
168
165
164
161
162
164
157
155
158
150
145
138
142
130
131
128
128
135
132
128
130
136
145
150
149
146
142
135
123
128
146
128
118
109
105
96
105
100
89
98
95
104
109
101
87
63
53
62
67
52
38
56
85
81
119
109
61
99
117
128
132
137
144
151
153
151
149
154
158
158
151
146
149
156
160
161
157
151
151
156
163
163
160
150
149
145
146
144
145
152
60
108
125
64
36
62
144
185
239
224
228
221
220
221
218
230
235
224
229
226
225
230
226
226
222
213
218
226
225
225
225
226
226
223
221
223
219
218
219
221
228
230
225
224
223
222
222
218
213
209
208
210
217
206
212
212
202
201
185
198
192
199
212
203
199
192
209
197
193
192
190
177
170
175
182
171
160
153
162
144
147
144
145
143
139
136
138
134
130
137
150
160
160
169
158
165
178
147
121
114
108
104
95
98
104
97
88
99
100
96
101
94
102
100
99
94
92
98
88
76
61
116
113
99
103
107
100
87
95
96
98
95
89
88
87
82
82
86
87
79
86
83
88
113
104
2
35
65
37
30
160
166
161
156
159
165
165
167
171
173
171
167
166
166
166
162
164
162
154
149
140
130
139
129
136
126
131
132
132
132
133
141
154
161
161
157
154
141
130
130
146
133
126
112
104
97
104
96
98
105
95
101
115
102
92
75
52
54
57
42
46
66
72
84
68
59
89
119
125
118
129
134
137
141
137
138
151
154
157
153
146
148
159
165
163
158
156
151
150
157
165
162
151
146
153
154
144
147
156
151
69
104
167
77
100
66
47
55
108
216
246
236
222
229
232
220
222
228
220
226
225
230
227
226
222
212
217
226
225
224
224
225
225
224
223
224
219
218
221
224
231
232
226
224
225
223
221
217
213
212
212
215
214
206
211
210
199
196
188
205
195
199
206
208
199
196
201
202
194
191
187
176
173
177
175
170
163
158
161
147
145
143
144
146
138
134
138
136
131
135
146
167
160
165
171
176
160
127
117
111
98
101
97
99
101
92
97
97
94
93
98
88
99
99
93
93
90
98
87
62
80
126
109
105
105
106
96
82
101
94
97
96
91
88
85
82
81
86
89
83
83
86
88
124
87
3
45
51
25
102
175
153
157
159
170
165
166
168
171
173
172
170
168
169
171
160
162
160
149
148
134
132
133
126
131
131
138
136
133
124
117
125
148
164
162
154
150
142
139
132
132
122
130
121
107
107
96
105
106
90
106
97
104
103
97
87
49
41
48
35
49
55
58
83
59
67
105
128
123
113
139
141
126
128
135
140
151
146
150
151
152
158
166
166
161
152
151
151
155
161
161
152
141
150
157
162
147
153
160
143
97
135
149
134
252
193
108
45
37
69
103
216
251
230
219
234
228
227
232
226
225
230
226
226
223
213
218
228
226
224
223
223
225
225
225
223
219
218
221
223
230
231
225
227
226
225
220
216
215
216
217
221
206
208
208
206
201
194
204
198
194
205
200
208
191
203
205
202
196
196
188
170
170
177
173
164
160
163
156
150
138
141
142
144
135
130
133
134
131
134
140
172
171
168
183
172
131
112
111
106
86
93
101
99
90
82
102
101
99
96
98
86
96
95
86
95
88
96
82
58
105
122
106
109
102
101
97
87
104
93
94
87
90
92
92
90
85
82
83
90
79
89
92
128
61
19
61
50
64
157
158
139
150
167
171
168
170
172
173
174
174
171
169
168
175
162
158
153
148
150
134
147
139
135
127
133
134
134
130
126
121
135
164
175
162
148
147
135
134
127
127
119
127
118
108
107
103
113
95
96
109
106
93
105
103
98
61
56
70
57
59
136
63
80
53
103
129
99
118
116
135
127
112
124
140
143
145
142
145
152
160
164
162
159
157
154
148
148
157
161
156
151
150
160
160
160
149
153
155
138
37
97
141
213
226
250
242
187
65
16
7
58
203
250
239
237
223
223
227
227
226
229
225
226
223
215
221
227
226
223
223
223
225
225
225
220
217
217
218
219
225
229
225
228
227
225
219
216
215
218
219
223
206
211
205
201
198
189
205
204
198
200
196
207
193
204
197
195
197
202
189
163
163
179
177
159
160
167
156
155
138
141
142
139
134
130
132
133
134
139
143
167
180
178
180
154
117
112
105
102
87
89
100
97
83
82
103
97
100
95
95
86
96
93
88
95
90
91
74
70
120
114
105
105
97
97
98
96
103
93
87
87
92
92
91
91
85
81
84
88
80
94
104
122
35
28
56
43
120
178
169
148
151
170
161
170
172
173
172
172
171
170
167
164
171
165
157
150
149
149
138
152
142
142
125
130
127
129
128
126
131
148
165
163
147
140
146
140
131
120
128
120
116
106
110
103
109
105
101
145
98
108
101
106
109
107
74
58
69
69
70
44
59
65
65
107
96
113
108
121
117
104
107
130
143
140
139
144
145
152
159
160
155
152
154
156
145
142
150
154
153
157
167
168
160
155
150
152
152
146
71
133
150
162
188
201
228
248
243
185
159
95
39
72
190
247
246
244
222
229
228
229
224
225
223
216
223
225
225
224
224
225
226
224
223
217
216
217
217
215
221
228
228
228
227
226
220
217
216
217
215
215
211
210
205
200
196
191
192
209
206
192
197
200
199
201
191
192
193
200
187
162
167
183
177
158
163
165
161
156
144
140
141
134
137
136
134
133
136
144
150
158
176
186
167
131
113
111
101
99
97
91
93
91
87
95
102
90
99
93
91
87
97
92
92
92
96
86
66
92
122
110
106
101
98
96
95
98
96
95
80
90
95
91
87
88
84
80
90
85
87
97
115
101
19
42
54
65
146
163
169
159
163
165
163
167
170
171
170
170
172
171
169
164
167
173
165
155
151
144
143
144
133
133
124
129
136
129
129
141
155
169
170
161
154
153
156
144
132
117
125
120
113
103
111
108
107
99
113
155
96
103
111
111
112
111
84
48
43
55
56
49
74
77
67
91
110
116
104
124
111
107
122
140
145
142
141
143
146
150
151
152
152
152
152
148
142
141
149
154
156
160
166
163
157
151
153
152
153
159
70
120
170
182
231
232
219
211
224
246
252
244
175
80
26
76
182
242
252
232
230
230
224
224
223
217
225
223
224
225
226
228
227
224
222
215
216
218
217
214
220
229
232
227
227
225
221
217
216
215
211
203
215
206
207
206
201
204
189
198
210
193
206
189
197
200
202
195
187
191
181
165
176
188
173
155
163
158
162
153
149
136
139
130
138
140
133
128
133
144
151
158
169
189
158
117
112
104
94
92
103
91
84
85
93
108
98
91
104
96
91
89
96
89
93
88
101
84
61
111
117
111
107
101
103
98
90
94
88
97
75
86
94
93
91
93
85
79
87
90
98
92
113
77
16
66
76
156
178
150
149
160
176
157
169
164
168
170
170
172
176
178
177
170
169
182
176
164
154
139
147
140
127
121
126
132
152
133
129
142
163
176
167
160
158
152
140
130
128
118
125
125
125
110
108
115
108
103
105
107
109
106
110
109
104
107
103
71
59
67
58
66
55
54
96
111
112
104
113
112
109
117
130
135
136
137
137
138
145
147
145
147
154
155
150
138
141
147
155
162
164
160
156
153
153
148
155
153
154
165
109
133
175
196
200
210
222
225
220
218
220
227
248
252
197
84
20
83
189
239
238
232
227
224
222
221
219
224
225
225
224
226
226
223
220
216
224
219
213
223
230
229
229
228
228
225
218
212
213
215
215
215
214
206
204
212
212
203
196
200
208
197
188
200
190
201
196
176
193
191
172
163
176
183
178
160
158
165
165
153
148
146
138
137
137
134
132
131
128
135
148
171
186
194
134
116
113
109
90
102
96
92
87
83
92
96
82
104
108
94
90
84
92
88
93
95
90
81
75
125
113
105
109
105
96
101
105
93
104
89
87
93
95
94
90
84
82
83
87
89
92
102
115
46
40
74
153
185
158
146
169
171
165
175
165
171
175
175
172
168
169
173
175
174
176
178
154
161
171
137
135
131
130
137
123
122
122
134
131
132
137
164
166
161
155
154
129
124
127
130
122
121
119
107
109
108
108
101
106
110
111
110
103
104
110
102
100
66
69
65
72
60
70
90
96
95
91
91
110
122
113
119
137
144
135
133
141
151
137
138
147
152
155
150
135
132
144
152
164
146
141
166
152
151
153
155
156
156
155
154
69
118
145
199
196
200
210
220
224
222
220
226
218
223
247
249
201
116
51
105
197
238
230
218
202
206
221
224
225
225
224
225
226
223
220
221
220
213
213
225
227
223
226
228
229
225
220
215
216
218
218
220
214
203
202
217
220
201
182
204
201
204
202
181
200
203
191
176
190
194
167
158
177
180
177
160
157
159
161
154
152
150
139
136
131
126
130
136
134
132
134
155
191
193
129
120
102
92
103
102
95
93
88
84
92
96
86
96
97
89
89
92
98
96
98
85
83
77
90
119
116
100
101
98
98
97
93
95
99
86
93
96
95
93
91
88
85
86
89
88
103
93
110
24
59
142
188
168
145
148
161
160
161
168
170
170
170
172
172
172
172
175
180
175
177
182
162
157
159
145
152
134
129
139
139
119
116
133
114
137
160
168
160
147
141
135
133
116
122
124
119
118
117
114
118
109
110
102
106
109
109
112
105
106
110
114
93
84
74
70
53
68
58
70
92
109
106
91
90
110
123
134
132
130
134
140
141
138
134
139
147
149
146
137
128
133
154
152
151
150
154
158
139
146
153
153
147
146
152
154
74
152
151
180
192
207
215
219
222
225
225
218
224
227
230
239
246
239
224
139
87
128
151
147
192
214
214
225
225
225
223
224
225
223
221
222
218
213
216
221
218
218
227
228
228
224
221
218
220
221
220
215
211
206
208
211
203
192
191
210
199
205
194
177
208
202
191
171
184
192
166
160
177
179
174
164
158
154
155
154
155
151
139
135
131
125
129
138
136
132
132
145
199
198
123
116
110
104
104
99
97
94
89
86
93
96
90
95
91
89
90
101
99
96
94
86
82
80
110
112
117
99
97
100
106
101
88
99
94
84
97
96
92
89
89
89
88
86
87
89
101
105
69
57
148
199
164
157
141
158
161
157
164
167
179
176
173
173
175
173
169
174
183
175
171
172
167
154
148
149
154
142
147
127
123
118
113
114
114
140
173
161
147
138
137
125
140
127
136
132
127
124
119
122
125
113
113
106
108
110
107
112
108
108
108
106
118
98
80
59
59
74
63
79
101
105
95
84
88
114
126
131
123
125
138
141
134
124
130
136
142
145
139
132
132
141
151
145
145
155
150
141
145
154
151
147
145
146
148
149
94
130
171
178
199
220
224
220
221
224
224
228
225
222
218
220
227
236
242
240
208
143
109
143
189
211
221
226
226
225
223
224
226
224
222
219
219
220
219
215
212
218
231
229
228
224
222
221
222
221
220
212
207
208
214
207
188
189
210
207
203
201
182
202
207
195
184
166
179
184
173
174
175
181
167
168
162
155
151
152
153
148
137
133
134
129
128
130
130
134
142
145
181
182
117
107
114
116
89
97
97
94
90
88
93
96
92
96
90
91
89
104
94
92
90
94
83
87
118
104
110
102
97
102
107
106
91
101
90
89
96
94
89
87
87
89
86
86
87
96
91
99
103
170
196
161
152
149
143
157
161
158
163
167
175
179
175
175
177
172
165
174
190
186
171
167
181
170
154
160
154
143
153
133
129
134
128
100
114
148
167
151
137
140
142
132
142
131
138
130
126
123
116
117
116
115
116
110
112
112
108
112
111
111
110
103
126
92
68
48
71
72
74
98
106
90
79
86
105
125
121
119
121
126
131
132
130
125
133
135
137
142
137
134
143
151
150
148
145
147
139
135
156
160
142
137
150
155
146
144
72
106
165
193
207
219
220
220
224
223
219
227
225
227
231
231
228
228
231
241
241
253
190
165
200
196
215
227
227
226
224
225
226
225
223
220
221
222
218
213
216
224
230
230
228
224
223
221
220
218
218
218
209
204
209
211
200
197
206
200
204
198
195
212
197
190
175
172
181
175
179
187
170
180
160
168
167
158
150
150
150
145
138
131
133
129
125
125
126
133
145
159
172
161
118
119
108
108
95
95
97
93
89
90
95
94
93
92
88
90
88
100
90
92
94
94
80
92
113
102
101
103
95
98
98
105
98
97
87
95
91
95
90
87
90
88
86
87
92
103
73
115
217
184
165
159
146
152
154
154
165
168
165
174
170
177
172
175
177
171
165
177
198
192
171
163
185
176
158
165
154
148
136
140
134
120
126
108
126
160
161
155
140
144
139
138
136
128
131
124
123
127
125
120
116
112
113
109
114
114
109
113
113
115
118
121
110
95
62
53
62
64
69
87
91
87
89
97
112
126
120
121
125
124
120
124
133
134
139
138
137
141
137
134
143
148
152
155
142
133
142
146
149
145
135
138
153
155
144
145
80
76
127
180
199
220
224
223
223
224
223
223
226
225
224
224
227
227
225
218
228
229
238
234
212
214
235
226
227
226
224
225
227
224
222
224
219
217
216
216
224
229
225
229
227
225
223
220
217
215
215
213
213
207
203
209
210
201
194
208
205
196
210
187
184
194
181
182
185
178
179
189
167
177
156
163
168
161
150
149
149
144
142
133
133
128
126
130
133
134
138
159
190
162
113
129
109
100
105
94
96
91
87
93
93
91
92
90
91
90
87
93
89
90
95
88
81
100
111
109
100
104
95
102
101
104
103
93
85
96
88
97
91
87
88
89
87
88
94
86
94
152
193
157
153
151
148
155
158
150
165
172
165
174
168
176
173
175
176
170
165
176
194
190
171
164
180
170
154
163
158
152
145
146
128
117
120
120
161
164
156
162
151
145
133
141
138
135
132
132
129
138
141
126
123
113
113
108
114
114
110
115
115
115
121
123
134
122
88
56
57
57
61
71
77
91
99
97
105
125
122
121
122
124
125
127
129
131
134
136
138
141
138
136
140
139
139
139
139
137
144
149
144
134
145
154
153
145
142
148
48
65
131
161
189
220
229
225
221
222
227
222
227
228
227
226
228
229
229
239
229
223
217
226
226
213
231
224
225
225
224
225
226
223
220
225
215
216
220
217
220
227
227
229
227
226
225
220
215
213
214
210
214
212
207
207
205
199
199
217
207
199
199
173
185
197
193
184
183
192
176
185
174
171
154
161
169
164
152
150
149
144
144
135
135
129
127
132
135
133
135
148
191
159
101
119
105
100
100
94
96
89
85
93
93
88
89
91
96
90
88
87
91
89
93
82
89
106
111
117
107
103
97
105
112
101
102
95
91
98
100
101
91
84
88
90
88
89
94
96
99
171
146
147
154
150
147
155
152
147
155
160
157
158
165
177
173
173
175
171
167
172
182
195
178
172
180
173
164
170
168
151
164
155
147
155
134
137
173
162
155
157
156
147
135
139
146
142
132
139
130
138
146
120
121
124
120
113
117
115
109
114
115
112
119
113
148
133
107
58
64
61
69
75
80
96
95
86
102
121
117
116
121
127
130
129
128
125
124
131
137
136
136
138
138
139
143
129
136
146
140
143
145
138
150
154
146
141
145
149
77
63
119
173
191
211
222
222
221
220
220
229
224
222
227
226
223
224
231
223
219
223
232
220
219
232
219
223
224
224
223
224
225
222
219
221
212
219
226
214
209
222
233
229
228
227
226
220
213
212
214
222
212
207
213
215
203
201
215
211
205
203
179
191
198
193
194
178
177
205
174
183
184
166
153
161
171
165
152
152
150
143
142
134
136
130
125
126
128
130
135
159
176
153
112
118
102
108
102
94
96
88
85
93
93
86
88
89
96
87
89
86
96
91
94
82
98
107
111
117
110
99
98
98
115
92
95
97
98
102
116
106
93
85
89
94
93
94
96
84
141
173
146
156
159
154
150
168
157
160
158
160
160
154
175
172
168
169
174
175
173
174
178
194
176
170
175
176
173
169
163
162
155
141
153
155
132
161
159
164
160
147
154
149
141
132
149
149
135
147
133
140
151
119
124
138
131
118
119
116
109
113
114
112
120
115
110
113
93
69
64
72
81
81
86
103
95
81
106
110
110
119
129
126
118
125
140
127
122
130
134
128
130
137
136
144
175
145
131
144
140
142
140
143
139
135
137
144
150
150
171
104
89
150
170
203
230
221
217
228
222
224
224
224
223
227
231
230
227
231
225
221
224
226
217
213
220
227
226
225
224
225
225
224
223
220
221
222
221
218
218
222
228
229
226
225
224
220
213
212
214
218
215
212
210
209
207
205
205
214
205
196
184
198
208
189
189
173
193
182
178
188
184
167
157
159
162
180
157
153
155
148
137
144
135
127
121
137
131
133
138
154
184
151
110
113
117
102
94
97
92
87
88
90
90
92
93
84
99
89
85
88
91
97
87
80
100
107
105
107
105
98
100
107
103
104
96
105
98
106
114
98
81
93
97
85
105
92
94
100
184
165
154
145
154
158
149
159
153
163
153
156
154
162
177
182
176
170
181
182
172
175
179
182
171
170
177
177
167
161
163
155
155
170
145
165
158
175
162
150
159
161
156
150
145
142
146
146
125
145
145
132
133
127
136
127
126
127
110
125
112
117
119
123
118
124
119
123
109
75
85
68
68
72
95
98
91
93
95
119
127
127
115
110
117
125
127
120
121
135
137
127
132
141
132
131
155
143
134
137
140
146
136
130
153
152
137
144
155
143
26
63
109
137
151
167
192
213
224
233
229
230
230
228
227
227
229
229
226
228
224
220
222
224
218
216
223
226
225
225
225
226
225
223
222
218
220
222
220
218
219
222
227
228
227
226
225
221
216
215
216
217
213
210
209
208
208
208
209
210
202
179
198
206
184
190
190
185
189
185
183
186
179
173
156
158
163
171
158
154
152
145
140
139
136
136
127
131
125
133
141
152
177
163
108
112
107
102
99
94
92
91
94
94
92
86
84
80
92
87
88
91
93
95
80
86
102
107
105
107
104
99
102
110
103
98
96
103
98
99
105
100
82
100
91
97
91
105
84
146
191
167
157
158
150
153
155
153
159
154
159
160
157
165
177
183
178
180
194
189
175
175
170
173
177
178
175
173
173
168
159
159
161
172
153
165
156
165
154
169
167
156
147
147
148
147
148
146
131
139
137
132
138
134
135
126
128
133
119
132
116
118
118
122
120
126
120
127
117
80
81
79
79
103
98
110
113
76
116
127
120
113
114
119
124
123
120
131
132
135
128
123
135
142
132
134
134
136
138
145
144
133
130
141
145
146
147
145
137
133
39
63
88
118
185
211
212
224
222
218
224
224
227
228
228
228
229
229
226
222
224
222
223
225
222
220
224
224
224
224
225
226
225
222
220
217
221
222
218
216
220
222
224
227
227
227
227
223
219
218
220
219
215
211
210
210
209
210
212
212
178
196
209
183
189
204
186
191
183
188
184
185
173
180
161
157
168
161
159
156
149
142
142
137
135
139
131
127
124
135
140
156
174
179
109
113
104
107
102
88
88
90
94
94
92
87
83
84
89
88
91
93
95
95
77
94
103
106
105
105
102
101
106
111
102
92
99
104
102
96
99
96
88
93
95
101
94
97
107
176
185
163
150
160
148
145
151
148
161
142
154
152
153
164
178
189
181
185
199
188
178
183
174
176
186
191
183
178
180
175
165
164
163
169
161
167
163
166
163
167
166
158
153
155
154
149
147
146
142
140
137
139
141
140
138
128
129
135
124
134
120
121
118
121
122
126
117
123
117
79
65
79
69
68
83
90
79
84
118
115
114
119
125
123
119
125
136
126
127
129
129
132
137
136
131
139
128
140
136
132
139
137
149
148
138
141
149
140
128
134
38
66
152
167
142
165
214
217
215
230
222
220
224
228
229
229
230
228
227
221
226
226
224
226
223
220
223
223
223
224
225
226
225
221
218
219
222
222
216
214
219
221
221
224
226
228
227
224
220
220
222
221
215
211
210
209
206
205
208
199
198
205
190
192
202
191
204
187
183
188
176
184
171
183
169
157
176
156
158
155
151
142
141
140
132
135
131
125
128
136
134
160
175
189
117
112
111
110
98
92
90
89
91
91
90
88
88
89
89
91
92
90
94
94
82
100
102
103
104
103
101
103
110
109
102
91
104
106
107
97
101
96
93
94
95
103
92
89
151
178
182
167
152
159
164
153
155
143
154
146
149
149
149
155
173
194
179
179
186
170
169
185
179
178
184
188
185
178
171
168
166
168
163
158
161
167
169
173
175
152
163
169
167
164
157
152
153
146
152
147
147
146
140
142
144
133
131
133
123
128
119
123
122
120
125
128
117
122
119
85
63
68
129
119
60
116
90
98
112
120
114
117
127
133
131
130
133
118
119
123
131
135
129
126
133
127
130
149
146
137
145
149
149
147
141
144
144
137
142
150
48
58
104
185
201
198
201
207
207
218
230
227
230
230
228
227
228
229
228
227
228
224
219
219
217
216
219
223
223
224
225
226
224
221
219
222
223
220
215
214
218
219
219
222
225
228
227
223
221
221
222
218
212
209
210
208
203
200
201
202
210
192
196
198
187
201
204
182
191
187
168
187
173
180
176
159
180
158
155
153
155
145
138
140
133
134
134
125
130
136
135
152
171
191
133
105
113
109
97
101
98
94
93
90
88
87
87
88
90
94
92
89
91
89
86
102
100
101
102
100
101
106
110
105
104
95
106
105
107
98
104
101
95
105
92
99
78
121
169
168
172
162
157
150
170
158
164
143
143
163
151
154
151
146
167
199
186
183
186
169
171
190
185
182
188
190
185
177
174
173
172
172
163
154
162
167
171
172
175
160
172
176
171
166
161
158
163
153
151
145
149
149
139
141
148
136
132
132
124
124
120
125
124
120
129
132
124
127
127
103
80
49
154
86
98
81
86
107
110
119
121
125
126
127
127
125
123
120
127
129
127
125
122
125
135
132
134
136
145
143
146
154
141
147
146
148
145
145
157
155
33
55
62
148
171
190
218
232
222
221
227
230
230
226
223
223
226
229
229
227
223
214
209
211
211
212
218
224
224
223
224
225
224
221
220
224
222
219
217
216
217
217
218
221
226
229
227
223
221
221
222
217
212
210
213
211
204
201
204
213
192
200
202
176
192
215
185
185
194
182
169
191
177
177
178
162
176
163
152
153
158
148
136
138
136
135
137
126
128
134
144
143
167
191
158
109
112
111
103
97
94
92
91
89
84
84
84
87
91
97
93
94
93
84
91
103
99
101
101
98
102
108
108
103
107
103
103
102
103
99
102
97
101
97
103
85
103
169
167
165
162
154
162
144
158
153
169
154
139
168
148
147
150
147
169
185
183
187
193
181
180
193
186
183
196
197
184
179
186
187
179
168
162
159
170
174
175
173
175
177
181
178
174
173
169
162
160
161
145
141
145
145
141
141
148
137
133
135
132
127
125
128
124
123
131
132
129
127
125
108
87
90
67
86
95
76
87
115
121
107
123
132
125
117
119
124
125
119
133
140
129
122
130
135
132
138
136
127
140
138
131
145
145
145
143
146
150
152
150
139
47
36
79
86
160
183
190
226
236
227
226
226
227
225
223
225
226
226
223
212
207
202
206
214
214
214
222
226
225
223
222
223
224
223
222
223
218
218
221
222
218
215
217
222
228
231
228
223
221
220
221
220
213
210
213
212
205
203
207
201
200
204
182
190
213
193
188
194
186
171
178
192
179
176
174
167
166
165
151
155
158
149
138
138
135
128
135
130
130
131
147
151
161
185
181
128
112
113
104
91
89
87
87
86
84
84
87
89
94
94
87
97
96
84
98
103
100
103
102
98
104
109
104
103
109
108
99
103
101
102
100
99
102
90
105
95
164
184
168
175
166
158
169
151
150
153
164
159
140
159
150
140
149
153
167
166
174
182
188
182
178
184
178
179
188
187
178
176
182
183
174
163
163
170
176
181
176
177
179
182
183
180
177
180
175
163
157
161
147
156
153
142
143
141
147
139
135
137
137
129
128
131
126
130
130
131
133
127
118
104
84
82
84
92
82
93
108
105
100
119
122
122
120
128
137
135
125
128
130
137
135
128
134
139
131
126
134
139
145
143
133
133
140
142
141
143
148
146
134
128
43
55
102
67
120
165
186
193
206
224
220
228
230
232
232
232
228
219
210
194
192
194
209
223
222
219
227
228
226
223
221
223
224
223
224
221
215
217
225
226
219
214
216
223
229
233
228
223
221
220
220
220
212
208
210
208
202
201
205
200
200
184
195
212
204
198
191
201
173
160
185
191
180
177
169
170
156
165
151
157
157
148
140
141
132
116
128
133
135
129
144
166
156
176
191
147
115
112
98
98
94
89
87
84
82
85
89
91
94
86
77
93
95
82
104
103
102
105
103
97
106
111
101
103
110
111
95
103
102
106
101
111
97
101
88
131
207
171
170
173
166
161
164
151
141
149
143
152
141
153
165
146
155
157
155
177
188
190
191
185
179
183
180
185
182
181
182
181
177
174
176
163
165
177
177
179
171
176
178
180
183
178
174
175
173
168
167
157
153
180
167
141
143
139
146
143
136
137
137
127
129
133
129
136
131
130
137
134
121
107
88
81
86
106
78
81
107
106
120
126
131
134
132
132
137
140
139
153
128
126
134
127
125
133
135
136
140
141
129
139
153
140
142
141
145
145
144
138
126
133
52
69
87
103
116
164
201
227
223
225
225
231
222
236
250
228
167
163
185
169
194
219
228
226
219
218
224
222
221
221
222
224
225
223
223
220
220
222
224
225
221
216
211
225
229
230
225
221
222
223
222
214
208
207
210
210
206
205
207
209
194
197
208
206
204
200
188
191
185
174
192
189
168
176
170
166
167
162
158
155
153
148
130
139
139
122
124
129
127
138
143
161
171
159
186
203
140
99
115
100
93
92
86
77
82
91
86
90
89
91
95
94
91
90
93
100
92
101
107
94
95
107
109
103
104
109
99
107
118
106
107
100
108
92
113
181
180
187
161
172
161
165
182
161
137
153
163
151
132
142
165
151
162
150
168
174
191
187
193
192
189
201
184
180
177
190
183
199
194
171
159
165
178
181
175
177
179
179
181
188
183
178
176
175
173
173
174
158
151
166
159
140
142
144
153
141
143
139
129
131
132
127
140
136
141
132
131
129
125
118
89
81
105
91
93
114
112
114
123
125
137
139
139
128
130
124
122
128
130
128
137
130
133
130
137
139
133
131
137
137
156
146
140
135
149
149
144
138
137
143
47
69
91
94
138
152
187
220
220
231
222
238
233
223
205
178
132
143
172
203
211
221
225
225
223
223
224
226
225
224
223
224
222
221
220
224
220
219
221
221
217
214
214
222
227
230
227
225
226
225
223
215
211
211
214
212
205
200
200
205
204
200
199
202
200
193
189
188
185
174
192
186
173
175
162
163
164
164
156
151
154
147
133
134
136
122
124
126
123
136
143
157
160
171
172
195
193
131
103
98
106
95
89
96
89
77
84
88
85
83
83
85
89
93
96
99
95
105
109
101
106
114
109
99
111
118
111
103
108
110
94
112
86
104
171
178
177
170
169
170
162
168
189
169
134
144
161
154
130
144
157
160
158
157
168
171
186
182
186
182
183
201
190
187
193
206
189
189
183
172
169
171
179
176
169
172
179
183
185
187
184
182
180
175
171
171
174
151
174
155
154
157
141
151
158
139
142
144
137
140
138
128
135
134
139
132
133
133
132
125
99
82
90
79
94
119
117
119
128
140
133
122
128
129
136
127
124
128
127
120
127
130
141
135
131
131
128
134
142
135
140
128
128
139
143
135
133
133
135
141
19
21
57
95
127
146
132
190
214
222
231
222
203
169
146
159
174
216
241
242
228
222
226
226
224
220
213
224
223
223
223
225
224
223
222
226
220
217
218
218
215
215
216
218
225
230
229
227
228
226
222
218
212
209
209
207
204
204
207
199
213
208
199
205
201
189
190
186
185
173
194
183
181
175
158
160
160
168
152
145
155
145
136
128
131
123
125
127
124
136
146
151
164
170
172
186
206
189
138
95
94
98
98
90
88
91
95
84
87
87
86
89
95
97
95
96
97
105
106
102
110
115
105
108
116
101
107
114
108
109
98
95
89
153
187
173
180
174
167
169
159
161
184
174
137
139
163
148
135
141
146
152
159
161
163
167
180
183
192
191
189
197
182
183
189
197
181
178
176
171
166
174
178
173
168
174
182
184
185
181
182
183
181
176
170
169
172
161
159
161
153
148
152
153
152
139
140
144
140
142
140
129
131
131
134
131
133
133
134
127
104
84
104
104
104
111
119
126
125
133
128
123
134
134
136
128
130
129
136
134
136
135
142
136
130
133
132
144
150
136
131
122
128
135
131
122
126
133
136
141
40
52
46
84
123
165
160
201
231
214
231
228
210
194
186
200
219
245
236
217
210
217
222
207
192
201
216
223
223
222
223
225
225
225
224
223
223
220
217
218
220
219
215
217
224
230
229
227
227
224
221
218
212
207
207
204
203
206
209
202
211
208
201
202
199
194
196
191
183
170
196
181
186
176
161
158
158
172
150
142
157
144
140
127
126
122
125
128
128
136
147
159
167
165
181
184
189
207
186
134
107
97
102
96
95
96
86
80
88
89
86
87
94
94
89
97
98
103
104
101
107
111
106
106
113
110
113
110
105
109
103
88
139
195
173
170
193
181
165
172
161
153
167
171
144
138
161
147
155
141
147
141
170
168
164
167
176
182
199
205
203
200
180
186
190
197
191
183
180
180
178
172
176
175
174
183
187
182
177
175
176
179
179
175
169
167
168
167
151
163
151
141
157
151
144
145
141
141
137
139
141
134
137
135
134
134
134
133
133
125
107
81
102
115
114
113
125
136
133
125
129
130
141
136
137
133
137
138
138
133
129
127
131
135
138
132
132
141
141
130
130
127
132
129
127
123
133
139
136
138
37
50
55
127
155
140
179
193
211
192
180
165
188
231
245
233
223
233
210
201
187
191
208
208
197
204
221
227
226
225
224
224
223
221
220
218
225
225
218
220
227
225
214
220
226
231
229
226
226
223
220
214
213
213
213
209
204
200
199
211
200
199
200
194
196
204
204
203
183
171
198
179
184
176
168
160
159
172
151
142
156
144
142
129
123
119
121
127
128
132
143
170
158
172
177
185
191
178
191
202
149
97
95
111
97
86
103
88
94
91
82
83
93
100
97
101
99
101
105
103
104
112
118
114
109
122
117
104
112
105
83
136
189
188
183
175
203
177
172
171
168
158
158
164
150
141
159
156
164
139
148
141
159
164
164
170
173
180
192
199
202
206
198
193
199
207
207
185
176
184
192
172
177
178
181
190
190
180
172
175
174
175
176
173
168
164
162
158
174
150
149
159
152
152
144
151
142
142
138
139
145
142
143
143
138
140
139
136
136
127
116
99
91
104
122
125
122
125
130
131
136
132
135
131
139
137
136
136
129
130
140
148
142
135
131
134
132
139
132
132
141
141
137
131
134
134
143
141
132
133
25
30
44
96
116
121
140
155
143
135
124
139
164
193
189
172
166
195
198
217
200
188
200
216
213
211
221
226
225
224
223
224
223
222
221
217
226
226
219
221
230
227
215
221
227
232
230
227
227
224
221
215
215
214
213
208
205
204
203
208
194
200
209
201
201
208
203
209
182
176
197
178
179
175
170
164
161
168
154
146
154
145
140
136
125
121
121
127
129
130
144
161
173
174
169
179
186
179
181
186
200
174
120
96
105
104
88
93
95
93
87
89
99
101
98
99
98
99
104
106
106
114
124
119
117
116
107
112
106
93
123
189
192
178
186
187
195
191
173
162
169
168
158
161
157
150
166
176
168
143
154
161
146
161
165
169
172
182
188
185
187
197
202
195
195
194
200
180
176
186
187
179
184
183
185
189
187
177
172
178
175
174
174
172
167
162
160
160
163
155
154
159
158
153
144
150
140
144
142
140
146
143
142
147
139
143
141
138
139
131
125
111
103
116
126
126
122
120
127
128
141
142
141
129
133
131
132
129
127
139
151
156
139
130
127
135
133
142
133
140
152
150
139
133
139
140
145
140
132
139
47
92
83
76
123
151
134
150
143
174
211
204
204
172
142
160
173
197
211
205
220
210
197
202
203
208
227
223
222
222
222
224
224
223
223
222
223
222
219
220
225
225
220
217
224
230
229
227
227
224
221
219
217
213
208
205
207
211
214
203
203
207
210
208
206
205
203
200
176
181
194
178
178
178
169
167
163
162
156
150
150
145
136
138
126
124
122
127
130
132
151
157
181
172
175
176
175
192
181
180
182
206
205
156
114
103
99
97
94
89
88
95
102
99
90
95
99
101
103
110
112
115
121
107
120
121
111
101
98
133
197
196
180
186
180
190
181
198
173
166
168
168
157
161
165
157
166
185
179
147
165
178
158
171
169
166
167
179
185
181
182
186
192
195
194
187
196
185
193
197
179
187
191
189
187
186
181
174
172
174
172
171
170
168
164
163
164
166
145
166
163
152
162
150
142
148
139
146
145
140
145
142
138
148
137
143
140
137
139
131
130
105
112
125
121
124
135
134
140
127
140
146
148
132
130
127
132
137
132
135
129
128
118
130
140
132
128
138
131
136
140
138
129
137
142
138
140
137
134
143
62
35
44
78
158
124
158
178
194
201
209
221
226
171
142
193
195
171
163
199
219
202
185
210
228
224
227
226
225
223
223
223
221
220
219
228
221
216
218
219
219
221
224
210
219
227
227
226
225
223
220
220
220
218
214
210
209
209
209
205
215
207
195
200
202
202
210
188
169
184
191
177
180
183
169
169
164
157
158
153
148
145
134
133
121
123
120
124
130
134
157
173
161
176
183
180
184
178
180
181
181
178
188
204
192
160
144
121
110
96
93
103
112
109
100
94
101
104
105
114
119
117
114
115
103
116
115
85
138
217
196
185
184
189
192
182
175
177
182
184
171
163
152
160
168
154
155
168
178
135
160
165
167
168
155
168
159
167
175
181
188
190
193
186
198
195
202
184
193
197
173
189
194
193
190
187
180
172
171
168
168
168
167
164
162
164
168
158
168
157
163
168
153
147
143
151
141
149
147
141
145
143
140
150
138
144
140
136
139
131
132
120
111
114
115
127
135
126
134
144
139
131
140
136
138
133
136
139
134
137
129
136
133
141
140
137
130
141
133
135
132
131
127
146
147
139
138
136
133
138
38
21
28
78
168
117
142
199
222
192
177
178
145
151
160
132
116
125
144
195
217
192
192
215
214
218
226
227
225
222
221
224
225
221
216
224
221
221
222
219
214
216
222
218
213
219
229
231
228
225
220
219
215
212
211
213
213
211
208
209
197
195
198
198
203
203
191
188
181
184
188
188
183
174
175
175
160
175
148
157
157
147
134
131
122
119
123
123
124
138
153
175
170
178
187
183
185
188
184
181
179
181
184
181
177
179
187
192
202
181
148
96
114
110
94
104
97
104
109
126
121
119
111
114
105
122
97
142
204
196
184
190
188
187
188
186
183
183
185
183
187
159
159
154
168
157
173
166
153
141
160
155
163
157
180
166
166
167
172
179
185
186
186
199
204
199
191
189
187
187
191
198
194
199
196
179
179
184
175
169
172
170
175
164
170
164
161
158
159
168
168
159
158
159
148
151
143
147
144
142
148
145
143
148
146
139
143
145
139
135
127
118
116
122
130
131
133
137
136
138
137
144
145
134
132
140
140
145
140
140
141
137
137
140
141
143
133
141
136
134
129
141
139
140
142
139
137
141
140
136
49
59
79
85
99
109
153
196
242
180
146
107
46
123
141
95
117
129
144
163
176
200
202
214
230
225
233
225
226
225
223
225
225
224
221
218
216
217
221
221
219
222
228
216
214
219
228
229
226
223
221
217
215
213
214
216
215
210
206
201
199
207
214
207
198
201
208
192
179
182
191
190
184
175
168
167
161
176
144
151
158
152
136
133
126
122
124
123
125
141
159
169
169
179
186
184
187
190
185
186
182
183
191
196
191
178
169
191
176
189
194
149
111
106
110
99
103
111
108
115
111
116
113
115
113
89
156
207
177
195
195
188
186
185
187
187
185
186
187
182
178
156
152
161
164
172
189
183
151
151
144
138
172
166
173
163
164
168
173
179
183
184
184
198
194
187
188
197
200
196
195
196
193
199
195
182
183
188
179
177
177
174
177
166
170
164
160
160
161
163
175
157
158
152
151
150
143
151
149
143
148
147
144
170
163
150
150
148
139
135
129
123
116
121
131
133
134
138
141
136
144
145
136
132
140
141
131
141
140
147
153
148
144
140
135
138
140
150
144
135
134
143
140
147
141
136
140
142
135
133
47
24
58
70
108
136
108
108
154
157
120
69
114
140
90
66
88
94
102
108
147
143
172
201
192
210
220
221
224
225
224
224
223
223
221
222
219
219
222
222
219
220
222
216
214
219
228
227
225
224
221
221
219
216
215
215
213
209
205
203
210
206
199
203
209
209
205
186
179
191
200
185
176
178
175
164
159
174
150
151
153
152
144
134
129
127
127
124
125
141
158
175
176
179
177
174
180
188
186
186
188
189
191
193
191
184
175
171
185
184
178
200
144
104
111
100
107
113
113
121
120
117
106
113
85
144
207
192
187
191
185
187
184
183
186
188
187
187
187
178
182
168
149
162
151
168
167
165
148
161
156
137
162
165
158
164
166
169
172
175
178
182
184
199
190
184
191
201
204
199
195
196
195
200
196
186
188
192
184
180
178
174
174
165
168
163
157
165
166
163
182
159
160
150
157
152
142
153
152
141
146
151
148
167
159
148
151
149
138
136
133
129
120
122
131
133
135
138
140
145
141
137
140
144
140
135
136
145
142
145
148
144
142
142
139
133
142
149
149
140
148
150
145
137
144
152
152
142
133
138
42
50
53
85
149
226
249
232
105
87
138
138
147
115
54
84
115
107
133
166
140
161
186
180
194
223
229
222
224
224
223
224
223
222
219
226
223
221
222
221
217
215
214
217
213
218
227
229
227
226
223
224
221
214
212
211
212
212
211
210
213
199
189
205
217
207
196
190
186
199
207
182
171
180
176
165
154
170
164
160
146
145
150
136
130
128
128
125
125
138
151
175
181
182
178
174
181
186
185
186
191
191
186
183
186
187
183
172
180
183
166
191
180
155
117
112
109
109
109
115
116
112
106
110
178
190
188
198
201
179
196
188
185
184
186
188
188
187
185
176
181
174
164
173
153
174
177
165
169
156
170
143
150
175
171
167
169
170
170
171
173
178
182
194
188
191
199
201
198
198
200
198
199
201
197
189
191
193
185
179
176
173
171
166
167
165
159
167
170
168
180
162
162
153
160
157
142
151
149
138
146
153
152
151
146
141
150
151
140
139
136
132
126
127
130
132
138
140
136
148
140
133
143
153
143
135
145
149
142
141
141
137
139
144
145
141
144
138
139
132
141
134
130
135
143
151
144
132
131
139
40
35
28
38
73
185
249
223
124
92
109
167
169
119
90
96
75
91
97
122
134
172
202
209
216
224
222
228
227
225
224
226
226
223
218
220
219
219
221
221
220
218
217
216
211
215
226
230
230
228
223
220
218
212
211
212
214
216
217
207
204
201
210
216
203
195
205
205
196
197
203
185
176
182
165
165
155
169
173
165
144
140
144
139
131
126
124
124
128
141
153
163
176
187
188
189
189
185
180
185
188
186
184
185
188
179
167
172
173
180
179
181
184
183
167
112
111
112
115
109
104
106
115
178
206
189
189
182
193
200
187
188
187
186
186
187
188
187
186
185
179
171
177
172
151
168
188
166
181
153
167
147
160
170
170
164
168
171
172
172
172
175
179
184
181
192
204
202
200
204
206
200
203
203
195
190
193
191
183
183
179
179
175
170
170
171
164
164
170
172
170
164
162
158
159
158
143
148
148
142
148
152
151
154
151
146
153
152
141
140
137
131
132
133
131
132
143
146
135
142
148
143
139
149
151
144
143
145
142
145
148
145
145
146
144
144
144
135
139
132
140
138
146
161
144
135
135
134
139
143
17
110
48
57
86
75
114
104
102
114
125
135
122
171
135
115
129
118
105
110
180
153
145
183
188
204
225
230
228
224
222
225
226
222
217
216
217
219
220
221
221
222
221
216
211
216
226
230
229
227
222
220
219
216
216
215
213
212
210
205
205
206
211
209
201
201
210
198
201
198
200
183
176
186
168
163
163
171
171
162
150
142
135
142
132
124
119
120
130
149
165
163
176
184
185
188
187
180
179
176
183
183
180
179
179
176
168
164
168
167
179
177
172
169
187
181
163
144
144
142
154
171
195
208
171
189
185
178
199
183
189
186
187
188
187
187
189
190
189
184
190
188
180
161
161
158
161
158
178
180
163
143
170
157
169
159
163
169
173
173
173
174
175
182
179
191
205
205
206
209
204
203
208
205
196
193
195
191
183
185
181
183
176
173
169
172
167
165
173
174
167
169
165
162
161
157
147
150
151
151
152
148
151
160
158
150
150
147
139
140
136
131
134
136
133
135
147
151
141
145
147
145
144
147
147
143
144
145
142
145
149
147
146
146
145
143
148
144
144
141
142
149
167
159
134
132
147
148
143
143
4
40
36
66
170
90
90
115
102
87
115
94
67
145
163
110
105
161
150
169
192
200
172
178
208
208
213
229
227
224
221
222
223
221
217
220
222
223
222
220
220
220
219
216
215
222
231
231
228
227
225
222
221
220
216
214
211
208
206
210
210
207
199
197
207
211
204
183
203
202
198
180
173
185
172
171
168
167
169
162
154
147
135
138
133
126
120
119
130
151
172
171
179
176
175
180
180
177
182
176
178
178
173
168
170
175
176
168
152
160
176
158
165
174
163
178
173
169
186
189
195
187
190
190
182
189
192
194
192
193
191
186
189
190
187
186
189
192
193
177
188
200
183
172
191
172
158
169
176
201
164
143
163
169
184
163
164
166
167
168
170
172
175
182
181
196
208
207
209
213
203
205
211
206
196
196
199
193
186
182
179
185
176
174
168
173
167
170
176
170
172
172
171
162
167
159
155
154
151
155
154
147
159
154
157
150
147
143
139
142
136
135
133
135
136
136
143
149
146
150
142
144
151
149
144
145
149
149
143
143
144
141
142
147
146
147
153
151
141
143
137
140
148
135
129
141
151
143
140
142
74
62
44
13
48
74
111
109
99
98
99
110
94
106
129
146
98
102
115
110
142
156
184
212
232
248
230
229
229
227
223
222
223
223
222
223
226
226
224
220
219
219
220
218
220
229
237
232
227
228
228
221
218
216
212
212
212
213
213
214
208
211
211
202
203
208
204
184
207
199
192
182
173
180
160
182
168
161
172
167
154
148
144
132
132
131
126
121
128
149
170
171
177
175
176
186
183
180
188
186
179
170
168
172
174
170
164
162
166
161
161
172
171
168
177
180
182
174
178
171
180
178
185
188
200
188
182
194
184
197
187
189
193
193
188
184
187
191
193
191
173
189
184
181
187
166
169
160
155
190
175
163
152
173
162
172
168
162
157
158
164
170
176
175
181
201
213
205
210
217
208
205
212
207
197
199
202
196
188
178
177
184
175
173
167
174
169
174
178
164
178
171
172
156
169
164
163
156
148
154
153
149
170
149
157
154
151
148
145
145
135
141
132
131
136
135
135
142
147
145
147
151
148
144
154
158
144
150
144
145
146
142
142
145
145
143
149
150
139
157
155
152
145
145
148
154
145
135
150
155
118
16
39
24
116
100
111
119
130
130
114
120
92
66
106
148
156
112
130
152
145
182
204
200
217
226
212
218
225
226
223
226
227
223
222
222
221
219
219
222
224
222
218
218
222
228
233
234
230
226
225
221
218
214
215
217
218
215
211
210
217
210
197
202
211
202
188
204
204
202
203
177
169
167
177
173
185
173
168
177
165
147
144
138
127
119
139
131
127
145
182
173
182
179
184
180
177
187
178
176
173
169
168
166
162
161
163
169
165
165
164
173
181
176
180
190
184
175
168
166
177
187
187
193
184
188
193
188
189
194
192
188
193
194
189
185
187
188
187
190
189
184
184
206
193
178
174
168
166
164
182
179
178
165
166
166
170
151
151
158
164
174
158
173
200
208
201
206
217
216
207
214
211
202
199
204
203
194
189
180
185
186
180
173
170
167
165
176
181
173
176
174
167
170
160
158
158
160
144
156
175
157
160
156
156
152
153
158
142
149
139
140
137
135
139
132
139
141
155
149
148
147
149
149
148
148
150
153
148
144
148
156
161
155
147
152
147
148
142
142
149
146
149
153
139
148
141
144
143
148
