P2
# Created by GIMP version 3.2.2 PNM plug-in
217 290
255
231
231
231
231
231
231
231
231
231
231
231
231
231
231
231
231
231
231
230
230
230
230
229
229
229
229
230
230
230
230
230
230
230
230
230
230
230
229
228
228
228
228
229
230
229
229
229
228
228
228
228
228
227
228
228
228
228
228
229
229
229
229
227
227
227
228
228
228
228
228
228
228
228
228
228
228
228
229
229
229
229
229
229
229
229
229
229
229
229
229
229
229
229
229
229
230
230
230
230
229
229
229
230
230
230
229
229
229
229
229
229
229
229
229
228
229
230
230
229
229
230
231
230
230
230
230
230
230
230
230
230
229
229
229
229
229
230
230
230
230
230
230
230
230
230
230
228
228
228
229
229
229
229
229
230
230
230
229
229
228
228
228
229
229
229
228
229
229
229
230
229
229
229
229
229
229
229
229
229
229
229
229
228
228
228
228
228
228
228
228
228
228
228
228
228
228
228
228
228
228
228
228
228
228
228
228
228
228
228
228
227
227
227
227
227
227
227
231
231
231
231
231
231
231
231
231
231
231
231
231
231
231
231
231
231
230
230
230
230
229
229
229
229
230
230
230
230
230
230
230
230
230
230
230
228
228
228
228
228
229
229
229
229
229
228
228
228
226
226
227
227
227
228
228
228
229
229
229
228
228
228
227
228
228
228
228
228
228
228
228
228
229
229
229
229
229
229
230
230
229
229
229
229
229
229
229
229
230
230
229
229
229
229
229
229
229
230
230
230
229
229
229
230
229
229
229
229
229
229
229
229
228
229
230
230
229
229
230
230
230
230
230
230
230
230
230
230
230
230
229
229
229
229
229
230
230
230
230
230
230
230
230
230
229
228
228
229
229
229
229
229
229
229
229
229
229
229
229
229
230
230
229
229
228
229
229
229
229
229
229
229
229
229
229
229
229
229
229
229
228
228
228
228
228
228
228
228
228
228
228
228
228
228
228
228
228
228
228
228
228
228
228
228
228
228
228
228
227
227
227
227
227
227
227
231
231
231
231
231
231
231
231
231
231
231
231
231
231
231
231
231
231
230
230
230
230
229
229
229
229
230
230
230
230
230
230
230
230
230
230
229
228
229
229
228
228
228
228
228
228
228
228
228
228
226
227
228
228
228
228
227
228
229
229
229
228
228
228
227
227
228
228
228
228
228
228
228
228
229
229
229
229
229
230
230
230
229
229
229
229
229
229
229
229
230
230
229
229
229
229
229
228
228
230
231
230
229
228
229
231
229
229
229
229
229
229
229
229
228
229
230
229
229
229
229
230
230
230
230
230
230
230
230
230
231
230
230
229
229
229
229
229
230
230
230
230
230
230
230
230
229
229
229
229
229
229
229
229
228
229
229
229
229
229
229
230
230
229
229
229
229
229
229
229
228
228
228
228
228
228
227
228
230
230
229
229
228
228
227
227
228
228
228
228
228
228
228
228
228
228
228
228
228
228
228
228
228
228
228
228
228
228
228
228
227
227
227
227
227
227
227
231
231
230
230
230
230
230
230
230
230
230
230
230
230
230
230
230
230
230
230
230
230
229
229
229
229
229
229
229
229
229
229
229
229
229
229
229
228
229
229
228
228
228
228
228
228
228
227
227
227
227
228
228
229
228
228
228
227
228
228
228
228
227
228
227
227
228
228
228
228
228
228
228
228
229
229
229
229
229
229
229
230
228
228
228
228
228
228
228
228
230
229
229
229
229
229
228
228
228
230
231
230
229
228
229
231
229
229
229
229
229
229
229
229
228
229
229
229
229
228
229
230
230
230
230
230
230
230
230
230
231
230
230
229
229
229
229
229
230
230
230
230
230
230
230
230
229
229
229
229
229
229
229
229
228
228
229
229
229
229
230
230
228
228
228
228
228
228
230
231
228
227
227
227
227
227
228
227
229
230
229
229
228
228
227
227
228
228
228
228
228
228
228
228
228
228
228
228
228
228
228
228
228
228
228
228
228
228
228
228
227
227
227
227
227
227
227
231
231
230
230
230
230
230
230
230
230
230
230
230
230
230
230
230
230
230
230
230
230
229
229
229
229
229
229
229
229
229
229
229
229
229
229
228
228
229
228
228
228
228
229
228
227
227
227
226
226
227
227
227
226
225
226
227
228
228
228
228
228
228
228
228
228
228
228
228
228
228
228
228
228
228
228
228
228
229
229
229
229
228
228
228
228
228
228
228
228
229
229
229
229
229
229
228
228
229
230
230
230
229
229
229
230
229
229
229
229
229
229
229
229
228
228
229
229
228
228
229
230
230
230
230
230
230
230
230
230
230
230
229
229
229
229
229
230
230
230
230
230
230
230
230
230
229
229
229
229
229
229
229
229
228
228
229
229
229
229
230
230
228
228
228
228
228
229
230
231
228
228
228
228
229
229
228
229
228
229
229
229
228
228
228
228
228
228
228
228
228
228
228
228
228
228
228
228
228
228
228
228
228
228
228
228
228
228
228
228
227
227
227
227
227
227
227
231
231
230
230
230
230
230
230
230
230
230
230
230
230
230
230
230
230
230
230
230
230
229
229
229
229
229
229
229
229
229
229
229
229
229
229
228
228
228
227
228
228
228
228
228
228
227
227
225
225
227
226
225
224
223
224
225
225
226
226
227
227
228
228
228
228
228
228
228
228
228
228
228
228
227
227
227
228
228
228
228
228
228
228
228
228
228
228
228
228
228
228
228
229
229
229
229
229
230
229
229
229
230
230
230
229
229
229
229
229
229
229
229
229
227
228
229
229
228
228
229
230
230
230
230
230
230
230
230
230
230
229
229
229
229
229
230
230
230
230
230
230
230
230
230
230
229
229
229
229
229
229
229
229
229
229
229
229
229
229
229
229
228
228
227
227
229
229
230
230
228
228
229
229
229
229
229
229
228
229
229
229
228
228
228
228
228
228
228
228
228
228
228
228
228
228
228
228
228
228
228
228
228
228
228
228
228
228
228
228
227
227
227
227
227
227
227
230
230
230
230
230
230
230
230
230
230
230
230
230
230
230
230
230
230
230
230
230
230
229
229
229
229
229
229
229
229
229
229
229
229
229
228
228
229
227
228
228
228
228
228
229
227
227
226
225
225
227
225
223
222
221
222
224
225
225
226
227
227
228
228
229
229
227
227
227
227
227
227
227
227
227
227
227
227
227
228
228
228
228
228
228
228
228
228
228
228
228
228
228
228
229
229
229
229
231
229
228
229
230
231
230
228
228
228
228
228
228
228
228
228
227
228
229
229
228
228
229
230
230
230
230
230
230
230
230
230
229
229
229
229
229
230
230
231
230
230
230
230
230
230
230
230
228
228
228
228
228
228
228
228
229
229
229
229
229
229
229
229
229
228
228
229
228
229
229
229
227
227
228
228
228
227
227
227
228
228
228
228
229
229
229
229
228
228
228
228
228
228
228
228
228
228
228
228
228
228
228
228
228
228
228
228
228
228
228
228
227
227
227
227
227
227
227
230
230
230
230
230
230
230
230
230
230
230
230
230
230
230
230
230
230
230
230
230
230
229
229
229
229
230
229
229
229
229
229
229
228
229
229
228
228
228
227
226
226
227
229
228
226
226
227
226
227
222
231
216
215
221
222
222
222
226
222
229
220
229
229
231
226
228
228
227
227
227
227
228
228
227
227
228
228
229
229
228
228
227
227
227
227
228
228
228
228
227
228
228
228
228
228
228
229
228
228
228
228
229
229
229
229
229
229
229
229
229
229
229
229
229
229
229
229
229
229
229
229
229
229
229
229
229
229
229
229
229
229
229
229
229
229
229
229
229
229
229
229
229
229
229
229
230
230
230
230
230
230
230
230
227
228
232
231
227
228
230
227
228
226
230
230
231
233
230
231
233
228
230
232
228
229
230
228
229
229
229
229
228
228
228
228
227
227
228
228
228
228
229
229
228
228
228
228
228
228
228
228
229
228
227
227
228
228
227
226
227
227
227
227
227
227
227
230
230
230
230
230
230
230
230
230
230
229
229
229
229
229
229
229
229
230
230
230
230
229
229
229
229
229
229
229
229
229
229
228
228
228
227
227
228
228
228
227
227
229
225
224
228
227
222
223
230
225
218
210
190
194
202
213
214
223
227
229
225
222
229
229
229
228
228
227
227
227
227
228
228
226
227
227
228
228
228
228
227
227
227
227
227
228
228
228
228
227
228
228
228
228
228
228
229
228
228
228
228
229
229
229
229
229
229
229
229
229
229
229
229
229
229
229
229
229
229
229
229
229
229
229
229
229
229
229
229
229
229
229
229
229
229
229
229
229
229
229
229
229
229
229
229
229
229
229
229
229
229
229
229
228
228
228
227
227
227
229
229
228
230
233
231
231
233
231
231
233
229
228
230
228
227
228
225
229
229
229
229
228
228
228
228
228
228
228
228
228
228
228
228
228
228
228
228
228
228
228
228
229
228
227
227
228
228
227
226
227
227
227
227
227
227
227
230
230
230
230
230
230
230
230
230
230
229
229
229
229
229
229
229
229
230
230
230
229
229
229
229
229
229
229
229
229
229
228
228
228
226
226
226
228
228
228
228
229
229
227
225
227
227
226
222
222
215
179
164
154
170
192
192
200
213
224
223
228
220
230
228
231
228
228
227
227
227
227
228
228
226
226
227
227
227
227
227
227
227
227
227
227
228
228
228
228
227
228
228
228
228
228
228
229
228
228
228
228
229
229
229
229
229
229
229
229
229
229
229
229
229
229
229
229
229
229
229
229
229
229
229
229
229
229
229
229
229
229
229
229
229
229
229
229
229
229
229
229
229
229
229
229
228
228
228
228
228
228
228
228
229
230
227
227
230
229
227
231
230
232
233
232
232
233
235
236
233
231
230
230
230
229
227
225
228
229
229
228
228
228
228
228
228
228
228
228
228
228
228
228
228
228
228
228
228
228
228
228
229
228
227
227
228
228
227
226
227
227
227
227
227
227
227
230
230
230
230
230
230
230
230
230
230
229
229
229
229
229
229
229
229
229
229
229
229
229
229
229
229
229
229
229
229
228
228
228
228
226
226
226
227
228
228
228
228
223
231
230
222
225
229
214
191
167
143
136
139
144
161
158
204
195
204
207
222
223
227
227
227
228
228
227
227
227
227
228
228
226
226
227
227
227
227
227
227
227
227
227
227
228
228
228
228
227
228
228
228
228
228
228
229
228
228
228
228
229
229
229
229
229
229
229
229
229
229
229
229
229
229
229
229
229
229
229
229
229
229
229
229
229
229
229
229
229
229
229
229
229
229
229
229
229
229
229
229
229
229
229
229
228
228
228
228
228
228
228
228
227
231
229
229
232
229
225
230
233
227
220
223
222
217
223
227
228
232
232
231
231
230
228
229
228
229
228
228
228
228
228
228
228
228
228
228
227
227
227
227
228
228
228
228
228
228
228
228
229
228
227
227
228
228
227
226
227
227
227
227
227
227
227
230
230
229
229
229
229
229
229
229
229
229
229
229
229
229
229
229
229
229
229
229
229
229
229
229
229
229
229
229
228
228
228
228
228
228
228
228
227
227
227
227
228
222
226
226
223
224
218
190
159
140
128
124
118
138
139
143
180
178
182
191
209
227
222
229
223
228
228
227
227
227
227
228
228
226
227
227
228
228
228
228
227
227
227
227
227
228
228
228
228
227
228
228
228
228
228
228
229
228
228
228
228
229
229
229
229
229
229
229
229
229
229
229
229
229
229
229
229
229
229
229
229
229
229
229
229
229
229
229
229
228
228
228
228
228
228
228
228
228
228
228
228
228
228
228
228
229
229
229
229
229
229
229
229
226
229
228
226
227
228
229
230
229
216
199
203
200
189
199
206
217
230
232
230
232
229
226
229
228
228
228
228
228
228
227
227
228
228
228
228
227
227
227
227
228
228
228
228
228
228
228
228
229
228
227
227
228
228
227
226
227
227
227
227
227
227
227
230
230
229
229
229
229
229
229
229
229
229
229
229
229
229
229
229
229
228
228
228
229
229
229
229
229
229
229
228
228
228
228
228
228
228
228
228
227
227
227
226
227
229
223
224
231
222
193
161
143
139
124
118
98
141
128
156
146
162
171
180
196
219
216
233
222
228
228
227
227
227
227
228
228
226
227
227
228
228
228
228
227
227
227
227
227
228
228
228
228
227
228
228
228
228
228
228
229
228
228
228
228
229
229
229
229
229
229
229
229
229
229
229
229
229
229
229
229
229
229
229
229
229
229
229
229
229
229
229
229
228
228
228
228
228
228
228
228
228
228
228
228
228
228
228
228
229
229
229
229
229
229
229
229
230
228
228
225
223
232
235
226
210
202
182
183
180
172
191
199
203
220
228
228
234
231
226
231
228
228
228
228
228
227
227
227
227
227
227
227
227
227
227
227
228
228
228
228
228
228
228
228
229
228
227
227
228
228
227
226
227
227
227
227
227
227
227
230
230
229
229
229
229
229
229
229
229
229
229
229
229
229
229
229
229
228
228
228
228
229
229
229
229
229
228
228
228
228
228
228
228
228
228
228
227
227
226
226
226
230
222
227
230
207
165
141
140
127
118
119
119
120
100
164
142
139
164
168
176
190
205
231
223
228
228
227
227
227
227
228
228
226
226
227
227
227
227
227
227
227
227
227
227
228
228
228
228
227
228
228
228
228
228
228
229
228
228
228
228
229
229
229
229
229
229
229
229
229
229
229
229
229
229
229
229
229
229
229
229
229
229
229
229
229
229
229
229
228
228
228
228
228
228
228
228
228
228
228
228
228
228
228
228
228
228
228
228
228
228
228
228
234
227
230
229
224
235
231
201
180
189
171
165
159
162
190
193
179
202
211
218
233
235
228
231
228
228
228
228
227
227
227
227
227
227
227
227
227
227
227
227
228
228
228
228
228
228
228
228
229
228
227
227
228
228
227
226
227
227
227
227
227
227
227
230
230
229
229
229
229
229
229
229
229
228
228
228
228
228
228
228
228
228
228
228
228
229
229
229
229
228
228
228
228
228
228
228
227
227
227
227
227
227
227
227
226
222
225
230
220
187
146
130
136
131
110
98
145
106
89
160
133
112
155
154
158
158
191
226
222
228
228
227
227
227
227
227
228
225
225
226
226
226
226
226
226
227
227
227
227
228
228
228
228
227
228
228
228
228
228
228
229
228
228
228
228
229
229
229
229
229
229
229
229
229
229
229
229
229
229
229
229
229
229
229
229
229
229
229
229
229
229
229
229
228
228
228
228
228
228
228
228
228
228
228
228
228
228
228
228
227
227
227
226
227
227
227
227
231
222
230
231
223
232
218
173
156
180
165
148
136
145
177
177
157
179
193
205
229
236
228
229
228
228
228
228
227
227
227
227
226
226
227
227
227
227
228
228
228
228
228
228
228
228
228
228
229
228
227
227
228
228
227
226
227
227
227
227
227
227
227
229
229
229
229
229
229
229
229
229
229
229
229
229
229
229
229
229
229
229
229
229
229
228
228
228
228
229
228
228
228
228
228
228
228
228
227
227
227
227
227
224
224
220
229
231
207
152
148
115
114
131
90
100
109
97
97
153
142
118
130
155
158
133
175
201
221
228
227
228
226
229
227
223
230
226
226
226
226
226
226
226
226
227
227
227
227
227
227
227
227
228
228
228
228
228
228
228
228
228
228
228
228
228
228
228
228
229
229
229
229
229
229
229
229
230
229
229
229
229
229
229
228
228
228
228
228
228
228
228
228
228
228
228
228
228
228
228
228
227
227
227
227
227
227
227
227
228
228
228
228
228
228
227
227
227
231
223
233
222
223
194
151
150
156
165
124
126
150
159
171
154
168
170
208
219
234
230
235
228
228
228
227
228
228
228
229
227
227
227
227
227
227
227
227
226
226
227
227
227
227
228
228
228
228
228
228
227
227
227
227
226
226
226
226
226
226
226
229
229
229
229
229
229
229
229
229
229
229
229
229
229
229
229
229
229
229
229
229
229
228
228
228
228
228
228
228
228
228
228
228
227
227
227
226
226
227
227
225
224
224
224
232
192
136
137
121
93
121
91
134
136
106
117
129
120
134
135
151
163
132
161
192
215
222
225
228
226
228
228
223
225
225
226
226
226
226
226
226
226
227
227
227
227
227
227
227
227
228
228
228
228
228
228
228
228
228
228
228
228
228
228
228
228
229
229
229
229
229
229
229
229
230
229
229
229
229
229
229
228
228
228
228
228
228
228
228
228
228
228
228
228
228
228
228
228
228
228
228
228
228
228
228
228
228
228
228
228
228
228
227
226
227
233
222
236
215
227
171
137
147
143
168
122
123
134
159
181
161
167
160
189
202
229
230
226
228
228
228
227
228
228
228
229
227
227
227
227
227
227
227
227
227
227
227
227
227
227
227
227
228
228
228
228
227
227
227
227
226
226
226
226
226
226
226
229
229
229
229
229
229
229
229
229
229
229
229
229
229
229
229
229
229
229
229
229
229
228
228
228
228
228
228
228
228
228
228
227
227
227
226
226
226
227
227
226
224
225
224
222
176
138
132
122
93
107
97
110
158
110
109
107
109
126
127
142
174
144
145
168
195
211
222
224
225
227
229
226
227
225
226
226
226
226
226
226
226
227
227
227
227
227
227
227
227
228
228
228
228
228
228
228
228
228
228
228
228
228
228
228
228
229
229
229
229
229
229
229
229
230
229
229
229
229
229
229
228
228
228
228
228
228
228
228
228
228
228
228
228
228
228
228
228
228
228
228
228
228
228
228
228
229
228
228
228
228
228
228
227
229
220
234
220
234
210
161
122
125
121
151
132
113
114
139
164
153
163
157
172
182
220
232
225
229
228
228
228
227
228
228
228
227
227
227
227
227
227
227
227
227
227
227
227
227
227
227
227
228
228
228
227
227
227
227
227
226
226
226
226
226
226
226
229
229
229
229
229
229
229
229
229
229
229
229
229
229
229
229
229
229
229
229
229
229
228
228
228
228
228
228
228
228
228
227
227
227
227
227
226
226
227
226
225
223
221
227
198
159
151
131
112
110
111
98
119
152
144
76
101
131
114
123
127
171
156
133
136
166
208
224
223
226
225
230
229
228
226
226
226
226
226
226
226
226
227
227
227
227
227
227
227
227
228
228
228
228
228
228
228
228
228
228
228
228
228
228
228
228
229
229
229
229
229
229
229
229
230
229
229
229
229
229
229
228
228
228
228
228
228
228
228
228
228
228
228
228
228
228
228
228
228
228
228
228
228
228
228
228
229
228
228
228
228
228
228
226
228
224
224
226
229
198
144
117
116
119
126
150
109
107
127
140
129
154
159
166
168
208
233
230
229
229
228
228
227
228
228
228
227
227
227
227
227
227
227
227
228
228
227
227
227
227
226
226
228
228
227
227
227
227
227
227
226
226
226
226
226
226
226
229
229
229
229
229
229
229
229
229
229
229
229
229
229
229
229
229
229
229
229
229
229
228
228
228
228
228
228
228
228
227
227
227
227
228
227
226
225
226
226
224
222
218
222
174
148
142
123
106
106
127
109
105
137
142
121
78
119
131
135
113
152
161
137
117
144
209
229
223
229
223
226
226
224
226
226
226
226
226
226
226
226
227
227
227
227
227
227
227
227
228
228
228
228
228
228
228
228
228
228
228
228
228
228
228
228
229
229
229
229
229
229
229
229
230
229
229
229
229
229
229
228
229
229
229
229
229
229
229
229
228
228
228
228
228
228
228
228
228
228
228
228
228
228
228
228
229
228
228
228
228
228
228
227
230
228
215
226
222
170
139
118
118
124
102
145
109
101
132
118
112
144
154
158
162
199
228
231
229
229
228
228
227
227
228
228
227
227
227
227
227
227
227
227
228
228
227
227
227
227
226
226
227
227
227
227
227
227
226
226
226
226
226
226
226
226
226
229
229
229
229
229
229
229
229
229
229
229
229
229
229
229
229
229
229
229
229
229
229
228
228
228
228
228
228
228
227
227
227
227
227
228
227
227
225
226
225
223
221
223
211
161
140
118
110
113
90
114
111
90
90
133
134
97
88
139
136
110
138
160
155
124
133
192
218
212
230
223
226
225
226
226
226
225
226
226
226
226
226
227
227
227
227
227
227
227
227
228
228
228
228
228
228
228
228
228
228
228
228
228
228
228
228
229
229
229
229
229
229
229
229
230
229
229
229
229
229
229
228
229
229
229
229
229
229
229
229
228
228
228
228
228
228
228
228
228
228
228
228
228
228
228
228
229
228
228
228
228
228
229
227
227
227
221
216
214
144
150
132
112
122
100
130
119
101
142
101
121
144
143
148
166
196
222
230
229
229
228
228
227
227
227
228
227
227
227
227
227
227
227
227
227
227
227
227
227
227
227
227
227
227
227
227
227
226
226
226
226
226
226
226
226
226
226
229
229
229
229
229
229
229
229
229
229
229
229
229
229
229
229
229
229
229
229
229
229
228
228
228
228
228
228
227
227
227
227
227
227
227
226
227
227
227
226
224
223
225
200
147
127
114
98
117
93
79
112
92
104
106
120
124
116
117
117
115
134
139
161
142
132
160
194
197
229
227
228
228
227
226
226
225
225
226
226
225
225
227
227
227
227
227
227
227
227
228
228
228
228
228
228
228
228
228
228
228
228
228
228
228
228
229
229
229
229
229
229
229
229
230
229
229
229
229
229
229
228
229
229
229
229
229
229
229
229
228
228
228
228
228
228
228
228
228
228
228
228
228
228
228
228
229
228
228
228
228
229
228
227
220
234
218
219
174
143
144
143
111
128
117
128
124
118
150
104
132
146
135
142
172
192
212
230
230
229
228
228
227
227
227
227
227
227
227
227
227
227
227
227
227
227
227
227
227
227
227
227
227
227
227
227
226
226
226
226
226
226
226
226
226
226
226
229
229
229
229
229
229
229
229
229
229
229
229
229
229
229
229
229
229
229
229
229
229
228
228
228
228
228
227
227
227
227
227
227
226
225
225
226
226
227
227
225
224
219
189
131
112
126
90
113
111
81
70
106
104
123
119
132
129
96
100
121
129
108
148
151
138
142
178
186
230
228
227
224
223
226
226
225
225
226
226
226
225
227
227
227
227
227
227
227
227
228
228
228
228
228
228
228
228
228
228
228
228
228
228
228
228
229
229
229
229
229
229
229
229
230
229
229
229
229
229
229
228
229
229
229
229
229
229
229
229
228
228
228
228
228
228
228
228
229
229
229
229
229
229
229
229
229
228
228
228
228
229
229
228
222
231
234
202
156
125
135
133
110
133
119
118
103
124
144
111
131
145
133
142
175
184
202
230
230
229
229
228
227
227
227
227
227
227
227
227
227
227
227
227
226
226
227
227
227
227
228
228
227
227
227
227
226
226
226
226
226
226
226
226
226
226
226
229
229
229
229
229
229
229
229
229
229
230
230
230
230
229
229
229
229
229
229
229
229
228
228
228
228
228
228
228
227
227
226
226
226
227
225
226
225
226
224
224
224
222
171
124
124
121
110
88
106
92
83
99
99
97
114
120
123
129
105
97
141
73
122
165
142
152
149
168
221
212
226
233
226
228
227
227
228
228
229
228
227
226
227
227
227
227
227
227
228
228
228
227
226
226
227
228
228
229
229
229
228
228
229
229
229
227
228
229
230
230
230
229
228
228
230
230
229
228
229
229
229
229
229
229
229
228
228
228
228
228
228
228
228
228
228
228
228
230
230
229
229
228
228
228
227
229
228
226
226
228
231
229
226
224
224
239
192
140
139
136
133
101
131
127
123
120
117
149
128
136
130
117
152
190
166
189
230
226
226
227
227
227
227
227
227
228
228
227
227
227
227
226
226
227
227
227
227
227
227
227
227
227
227
227
227
227
227
227
227
227
227
227
227
226
226
226
229
229
229
229
229
229
229
229
229
229
230
230
230
230
229
229
229
229
229
229
229
229
228
228
228
228
228
228
228
227
227
226
226
225
225
225
226
226
226
223
222
223
218
167
137
111
108
102
100
95
135
121
83
86
97
98
117
114
127
137
85
124
100
86
148
136
158
145
149
205
203
225
222
225
227
226
226
226
226
227
227
226
226
227
227
227
227
227
227
228
229
228
227
227
227
227
228
228
230
229
229
229
229
229
229
230
228
229
229
230
230
230
229
229
228
229
230
229
229
229
229
229
229
229
229
229
228
228
228
228
228
228
228
228
228
228
228
228
229
229
229
229
228
228
228
228
226
226
226
226
226
226
226
226
228
216
216
183
142
122
125
162
133
122
146
123
127
119
131
138
141
126
114
150
176
166
170
223
230
229
229
228
228
227
227
227
227
227
227
227
227
227
227
227
226
226
226
226
226
226
226
226
226
226
226
226
226
226
226
226
226
226
226
226
227
227
227
229
229
229
229
229
229
229
229
229
229
230
230
230
229
229
229
229
229
229
229
229
229
228
228
228
228
228
228
228
227
227
226
226
225
224
225
227
228
226
224
222
220
210
146
128
122
115
104
115
120
114
134
140
125
106
88
89
121
122
118
96
95
123
93
141
148
146
125
132
185
214
237
226
226
227
226
225
225
225
225
226
226
226
227
227
227
227
227
227
228
229
228
228
228
228
228
229
229
230
230
229
229
229
229
230
230
229
229
230
230
230
230
229
229
228
229
229
230
230
229
229
228
229
229
229
229
229
228
228
228
228
228
228
228
228
228
228
228
229
228
228
228
228
228
228
228
226
226
229
229
227
224
225
227
219
207
194
164
137
110
104
148
150
133
139
128
123
113
139
152
147
116
117
143
174
163
160
215
229
229
229
228
228
227
227
226
226
226
226
227
227
227
228
228
226
226
226
226
226
226
226
226
226
226
226
226
226
226
226
226
225
225
225
226
227
227
228
229
229
229
229
229
229
229
229
229
229
230
230
229
229
229
229
229
229
229
229
229
229
228
228
228
228
228
228
228
227
227
226
226
225
224
225
227
228
226
225
223
222
194
152
118
105
92
116
125
131
99
71
81
108
127
111
83
104
133
117
115
108
98
97
116
135
164
131
125
150
203
229
229
227
227
226
225
225
225
225
226
226
226
227
227
227
227
227
227
228
228
228
228
228
229
229
229
229
230
230
230
229
229
230
230
230
230
230
230
230
230
230
229
229
229
228
228
230
231
229
228
228
229
229
229
229
229
229
228
228
228
228
228
228
228
228
228
228
228
228
228
228
228
228
228
228
229
228
229
230
228
225
223
223
207
198
178
147
132
123
112
127
136
132
130
135
108
117
137
154
152
111
122
134
183
158
168
208
226
226
226
226
227
227
227
227
226
226
226
226
227
227
227
227
226
226
226
226
226
226
226
226
226
226
226
226
226
226
226
226
225
225
225
226
226
227
227
228
228
229
229
229
229
229
229
229
229
229
229
229
229
229
229
228
228
229
229
229
229
228
228
228
228
228
228
228
227
227
226
226
225
225
226
227
227
227
226
225
225
176
152
120
106
97
105
89
90
89
103
93
94
101
114
114
70
96
106
112
128
119
67
114
111
154
134
118
136
185
227
229
226
226
226
225
225
227
227
227
226
226
227
227
227
227
227
227
228
228
228
228
229
229
229
229
229
230
230
229
229
229
229
230
230
230
230
229
229
229
229
230
230
230
228
227
230
231
229
228
229
230
230
229
229
229
229
229
229
228
228
228
228
228
228
228
228
228
228
228
228
228
228
228
228
229
227
226
226
228
226
219
211
189
168
153
138
129
128
128
134
122
105
140
134
102
123
115
150
150
116
120
134
183
157
174
200
226
226
226
226
226
227
227
227
227
227
227
227
226
226
226
226
226
226
226
226
226
226
226
226
226
226
226
226
226
226
226
226
226
226
226
226
226
226
226
228
228
229
229
229
229
229
229
229
229
229
229
229
229
229
228
228
228
229
229
229
229
228
228
228
228
228
228
228
227
227
226
226
226
226
226
226
226
226
225
225
226
172
142
125
115
120
91
70
77
93
94
111
129
119
115
128
128
104
112
95
117
132
65
96
101
124
133
110
143
171
224
229
227
224
224
225
226
227
228
227
226
226
227
227
227
227
227
227
228
227
227
228
229
229
229
229
229
229
229
229
228
228
229
229
229
229
229
228
228
229
229
230
230
232
227
226
229
231
229
228
229
230
230
230
229
229
229
229
229
228
228
228
228
228
228
228
228
228
228
228
228
228
228
228
227
228
228
225
224
227
227
215
200
178
146
138
152
143
120
122
140
125
100
139
130
113
107
127
156
143
125
117
138
162
159
170
195
229
229
228
228
227
226
226
226
227
227
227
226
226
226
225
225
226
226
226
226
226
226
226
226
226
226
226
226
226
226
226
226
227
227
226
226
225
225
225
228
228
229
229
229
229
229
229
229
229
229
229
229
229
228
228
228
228
229
229
229
229
228
228
228
228
228
228
228
227
227
226
226
226
225
224
226
226
225
224
222
222
177
148
123
89
89
95
104
105
98
90
118
122
112
111
109
139
123
115
73
93
93
114
94
145
132
140
112
129
146
186
225
230
222
222
224
226
228
228
227
226
226
227
227
227
227
227
227
228
226
226
227
228
229
229
228
228
229
228
228
228
228
228
228
229
228
227
227
227
228
229
230
230
233
227
225
229
231
228
228
230
230
230
230
230
229
229
229
229
228
228
228
228
228
228
228
228
228
228
228
228
227
227
227
227
225
230
227
221
224
227
211
189
170
150
137
154
158
129
120
140
131
117
136
130
118
99
145
152
139
128
129
135
143
160
165
198
229
229
228
227
227
226
226
226
226
226
226
226
226
226
226
226
226
226
226
226
226
226
226
226
226
226
226
226
226
226
226
226
227
226
226
226
225
225
225
228
228
229
229
229
229
229
229
229
229
229
229
229
229
228
228
228
228
229
229
229
229
228
228
228
228
228
228
228
227
227
226
226
226
223
225
226
226
224
221
219
218
179
132
103
96
73
89
105
124
108
92
80
123
156
135
114
111
124
114
126
87
103
109
99
121
120
125
116
117
146
156
226
229
220
221
223
226
228
227
225
225
226
227
227
227
227
227
227
228
225
226
227
228
228
228
228
227
228
228
228
227
227
228
228
228
227
227
226
227
227
229
230
231
234
227
224
228
230
228
228
231
230
230
230
230
229
229
229
229
228
228
228
228
228
228
228
228
229
228
228
228
227
227
226
226
219
228
225
218
219
222
206
181
147
150
122
120
145
140
126
134
131
121
152
134
109
116
129
131
139
126
148
127
137
158
167
204
225
225
226
226
226
226
226
226
225
225
226
226
226
226
227
227
225
225
225
225
225
225
225
225
225
225
225
225
225
225
225
225
226
226
226
226
225
225
225
228
228
230
229
229
229
229
229
229
228
229
229
229
229
229
229
229
229
229
228
228
228
228
228
228
227
228
227
227
227
226
226
226
225
224
223
229
225
221
217
225
200
171
114
112
138
112
91
86
119
132
116
101
96
112
144
151
129
119
94
86
103
93
143
125
114
100
124
128
101
137
171
213
200
213
224
211
226
222
221
230
224
225
226
226
226
227
227
227
227
229
222
223
233
228
225
231
225
230
223
225
227
211
231
228
223
220
222
202
220
228
227
223
227
228
235
221
229
241
230
228
228
230
225
230
231
233
225
234
229
232
230
229
229
228
228
229
230
226
228
228
226
227
230
229
224
226
229
221
238
205
200
180
150
139
130
135
133
138
143
129
127
142
116
152
112
108
117
114
139
133
149
133
140
149
131
158
190
214
227
225
225
227
224
227
225
225
225
226
226
226
226
227
227
225
225
225
225
226
226
226
226
225
225
225
225
225
225
225
225
225
225
225
225
225
225
225
228
228
229
229
229
229
229
229
228
228
228
228
228
228
228
228
228
228
229
228
228
228
228
228
228
227
228
227
227
227
226
226
226
225
227
222
227
227
229
226
221
183
152
134
126
120
112
102
92
93
94
96
105
104
92
87
101
117
121
132
94
70
70
94
102
124
102
100
133
107
128
164
178
185
210
218
211
226
225
220
230
229
226
227
227
228
228
227
227
227
224
217
220
229
223
220
226
226
216
221
207
223
211
201
224
217
209
215
207
210
225
216
218
213
227
228
222
222
227
217
230
232
231
227
230
229
230
221
230
228
229
228
228
229
228
228
228
229
227
228
228
227
227
228
228
226
226
214
218
225
216
171
160
141
140
124
128
129
127
154
133
120
135
127
139
107
100
119
131
139
148
141
119
146
163
128
156
193
214
227
226
226
227
224
227
225
225
225
226
226
226
226
226
227
226
226
226
226
225
225
225
225
225
225
225
225
225
225
225
225
225
225
225
225
225
225
225
228
228
229
229
229
229
229
228
228
228
228
228
228
228
228
228
228
228
229
228
228
228
228
228
228
227
228
227
227
227
226
226
226
225
232
223
223
221
228
232
231
195
135
145
138
116
120
115
130
138
138
136
115
91
92
111
122
123
100
136
145
94
58
59
54
130
84
48
105
87
112
198
193
158
185
209
210
213
218
219
230
221
226
227
228
228
228
227
226
225
218
210
213
221
218
214
218
221
214
217
200
215
212
182
213
218
197
207
200
201
212
211
209
206
210
213
218
217
217
208
223
226
230
226
231
226
230
223
229
230
227
228
230
230
229
229
228
228
227
227
228
228
227
224
225
227
236
222
200
198
187
154
141
145
145
128
131
132
117
155
138
119
122
134
129
122
110
125
140
135
161
142
110
150
169
124
149
180
214
227
227
227
227
223
227
225
225
225
226
226
226
226
226
226
226
226
226
226
225
225
225
225
225
225
225
225
225
225
225
225
225
225
225
225
225
225
225
228
228
229
229
229
229
228
228
228
228
228
228
228
228
228
228
228
228
229
228
228
228
228
228
228
227
228
227
227
227
226
226
226
225
229
223
225
218
220
227
235
206
132
131
122
121
104
68
77
91
89
111
130
142
142
127
120
135
144
126
141
139
108
98
45
60
127
69
103
95
94
151
156
134
148
184
199
202
214
220
232
228
224
225
227
228
228
226
225
224
214
204
206
211
212
210
208
214
216
206
204
200
208
181
196
208
186
196
179
194
192
209
198
206
193
204
201
206
209
205
206
219
223
219
226
220
230
228
229
231
226
229
230
229
228
228
228
228
226
225
226
229
226
221
221
225
222
227
197
173
166
155
132
128
138
130
138
145
123
140
146
120
115
129
121
136
122
125
130
132
160
150
106
143
150
125
148
171
214
228
228
228
228
222
226
225
225
225
226
226
226
226
226
226
226
226
226
226
225
225
225
225
225
225
225
225
225
225
225
225
225
225
225
225
225
225
225
228
228
229
229
229
228
228
228
228
228
228
228
228
228
228
228
228
228
229
228
228
228
228
228
228
227
228
227
227
227
226
226
226
225
222
222
229
223
220
217
215
181
130
114
108
137
120
99
106
112
122
105
91
107
138
139
118
108
118
108
110
144
137
106
99
69
119
120
101
87
95
129
146
141
138
175
192
199
211
216
221
226
224
224
225
227
227
226
225
223
214
204
204
204
207
208
200
205
205
198
202
192
205
181
186
183
180
181
166
184
187
200
185
198
187
200
179
184
194
201
185
211
210
207
214
209
226
229
223
226
226
230
231
228
225
227
228
228
227
225
226
229
226
221
218
219
209
212
192
135
152
143
135
117
125
122
130
147
137
125
152
125
112
124
121
127
122
121
113
129
149
150
103
140
130
131
155
182
216
229
228
228
228
223
226
225
226
226
225
225
225
225
225
225
225
225
225
225
226
226
226
226
225
225
225
225
225
225
225
225
225
225
225
225
225
225
225
228
228
229
229
228
228
228
228
228
228
228
228
228
228
228
228
228
228
229
228
228
228
228
228
228
227
228
227
227
227
226
226
226
225
226
223
227
221
221
215
203
157
123
118
114
123
98
105
113
104
88
110
120
111
107
113
123
129
127
117
106
105
137
115
118
86
69
91
96
112
88
141
195
134
118
171
181
174
185
221
220
214
225
225
227
227
225
224
223
222
214
207
207
198
202
206
190
194
189
197
197
196
207
183
191
164
181
169
173
171
194
185
177
182
179
189
170
175
186
192
168
190
197
194
203
194
217
221
213
219
223
229
232
228
226
227
230
228
227
226
224
228
228
221
212
206
197
184
160
123
127
132
127
123
133
119
109
120
132
113
147
131
108
125
129
115
132
124
106
123
140
144
115
154
136
139
153
184
218
229
227
226
227
223
226
224
226
226
225
225
225
225
225
225
225
225
225
225
226
226
226
226
225
225
225
225
225
225
225
225
225
225
225
225
225
225
225
228
228
229
228
228
228
228
228
228
228
228
228
228
228
228
228
228
228
229
228
228
228
228
228
228
227
228
227
227
227
226
226
226
225
228
223
224
219
220
216
204
156
118
132
140
124
102
105
99
86
70
64
77
107
128
135
137
139
132
120
111
94
123
134
116
113
68
99
95
127
116
110
123
132
101
151
149
146
166
227
225
223
227
225
225
225
223
221
219
218
210
208
211
194
192
197
178
183
181
185
198
193
196
187
192
169
179
168
178
162
187
173
168
168
170
167
172
171
181
177
164
171
178
178
189
177
199
207
200
211
213
222
226
225
223
226
226
224
228
225
223
223
224
218
202
188
166
150
137
143
120
132
116
121
137
119
99
100
122
115
129
135
112
127
127
106
151
122
107
127
150
146
135
155
142
142
154
181
221
230
225
225
227
224
227
223
226
226
225
225
225
225
225
224
225
225
225
225
226
226
226
226
225
225
225
225
225
225
225
225
225
225
225
225
225
225
225
228
228
228
228
228
228
228
228
228
227
227
227
227
227
227
227
227
227
229
228
228
228
228
228
228
227
228
227
227
227
226
226
226
225
223
222
227
222
220
214
203
156
106
106
111
88
95
94
86
89
108
100
97
97
104
125
137
127
133
126
91
105
95
112
93
92
101
62
74
126
101
119
133
121
133
149
129
149
166
212
204
228
225
225
224
221
218
215
213
213
204
208
212
188
184
189
169
175
177
165
201
180
174
189
182
182
172
168
170
153
167
166
157
161
170
151
174
164
170
163
172
168
161
163
175
160
181
192
187
205
199
210
216
217
216
218
218
215
226
223
219
218
219
214
194
174
159
129
136
133
118
121
125
128
121
111
105
104
126
129
113
135
126
126
113
96
160
111
110
141
168
155
145
133
132
143
167
189
223
230
224
224
227
225
227
223
226
226
225
225
225
225
224
224
226
226
226
226
225
225
225
225
225
225
225
225
225
225
225
225
225
225
225
225
225
225
225
228
228
229
228
228
228
228
228
228
227
228
228
228
228
228
228
228
228
229
228
228
228
228
228
228
227
227
227
227
226
226
225
225
225
223
224
227
227
223
212
179
142
111
108
111
104
109
98
94
84
89
123
143
129
128
112
111
112
99
86
88
74
98
100
84
97
97
74
63
118
94
113
126
115
144
127
108
130
158
188
199
235
216
223
216
210
217
212
205
209
199
216
198
198
158
181
160
193
174
145
203
164
164
174
170
176
159
166
183
151
158
161
161
147
157
154
152
173
153
162
156
154
154
153
160
147
184
172
170
190
174
203
210
207
192
205
211
210
220
206
218
217
221
199
163
153
157
141
125
119
132
116
121
124
130
108
110
116
109
110
120
134
122
131
102
106
159
127
131
141
150
143
139
118
131
150
156
188
225
226
227
226
226
226
228
227
225
225
225
225
225
225
225
225
226
226
225
225
225
225
226
226
226
226
226
226
226
226
226
226
224
224
224
224
225
225
225
228
228
229
228
228
228
228
228
228
227
228
228
228
228
228
228
228
228
229
228
228
228
228
228
228
227
227
227
227
226
226
225
225
225
229
226
223
219
218
211
180
141
123
125
136
128
116
97
115
137
142
134
107
88
110
106
110
129
121
81
101
117
90
91
98
95
93
74
69
93
115
118
95
116
133
108
109
126
154
167
191
213
210
220
212
197
200
205
201
198
194
204
188
191
159
176
163
182
181
158
182
154
141
146
157
168
151
163
186
152
152
144
149
142
148
157
146
152
150
157
136
146
148
157
140
149
169
168
172
160
163
181
187
189
184
192
200
188
201
191
212
185
201
182
163
138
154
154
119
112
143
124
111
113
140
110
111
125
120
108
122
131
109
134
94
122
178
113
118
171
164
140
124
141
138
147
148
195
217
223
230
231
229
226
225
224
225
225
225
225
225
225
225
225
226
226
225
225
225
225
226
226
225
225
225
225
225
225
225
225
224
224
224
224
224
225
225
228
228
229
228
228
228
228
228
228
227
228
228
228
228
228
228
228
228
229
228
228
228
228
228
228
227
227
227
227
226
226
225
225
225
225
225
223
220
220
212
175
130
125
132
130
105
90
83
88
86
96
107
123
115
98
80
84
88
121
150
134
117
108
89
57
70
84
93
56
83
125
118
101
118
122
92
104
109
142
150
189
197
199
207
201
188
181
189
190
185
187
188
175
179
161
165
163
164
163
158
164
159
146
147
166
173
149
157
176
146
146
133
141
137
131
156
142
134
151
161
126
147
161
142
120
157
156
164
162
154
147
163
175
177
160
160
182
173
180
174
203
173
179
168
166
147
152
159
120
116
146
131
117
104
143
114
111
126
127
111
129
117
118
129
105
157
180
113
122
152
152
141
124
136
124
140
155
191
213
222
231
232
228
225
225
224
225
225
225
225
225
225
225
225
226
225
225
225
225
225
225
226
225
225
225
225
225
225
225
225
225
225
224
224
224
224
224
228
228
229
228
228
228
228
228
228
227
228
228
228
228
228
228
228
228
229
228
228
228
228
228
228
227
227
227
227
226
226
225
225
225
222
225
225
222
219
210
169
122
95
80
84
107
122
109
99
96
69
101
118
132
152
135
112
116
86
101
115
122
106
111
98
56
40
64
56
70
107
97
123
125
113
96
99
97
138
146
179
177
186
191
188
184
168
171
174
176
181
173
165
166
159
150
164
154
149
154
159
157
151
146
155
152
157
155
153
137
136
133
132
127
119
151
144
130
147
160
126
147
162
114
119
155
140
166
155
165
145
159
170
172
139
141
166
166
163
147
169
167
160
154
147
145
148
152
131
130
135
131
138
109
147
129
122
128
135
130
148
111
127
110
118
181
171
121
137
154
142
136
123
113
118
140
173
183
216
222
227
227
225
224
226
227
225
225
225
225
225
225
225
225
226
225
225
225
225
225
225
226
224
224
224
224
224
224
224
224
225
225
224
224
224
224
224
229
229
229
228
228
228
228
228
228
227
228
228
228
228
228
228
228
228
229
228
228
228
228
228
228
227
227
227
227
226
226
225
225
225
225
226
225
218
213
204
169
128
92
98
97
99
114
139
150
145
148
118
106
116
122
136
142
133
128
112
89
106
155
157
148
148
80
48
65
45
112
105
109
101
105
111
96
96
141
149
154
147
170
179
178
173
153
162
167
172
173
160
157
153
156
139
160
151
149
150
158
139
149
146
143
138
155
152
134
134
125
130
121
117
118
143
147
134
135
143
126
133
130
103
131
149
127
158
155
151
152
156
163
167
133
143
153
156
155
129
146
154
153
145
134
128
144
150
134
134
131
136
146
124
146
134
121
127
135
135
147
109
141
108
133
184
161
117
133
181
150
128
112
118
131
146
174
188
219
222
224
224
224
225
227
227
225
225
225
225
225
225
225
225
225
225
225
224
224
225
225
225
224
224
224
224
224
224
224
224
225
224
224
224
224
224
223
229
229
229
228
228
228
228
228
228
227
228
228
228
228
228
228
228
228
229
228
228
228
228
228
228
227
227
227
227
226
226
225
225
225
223
224
225
223
217
204
168
130
135
121
105
103
90
89
101
128
147
161
144
119
106
109
104
110
122
92
111
109
81
76
128
154
151
100
58
54
117
128
90
98
103
118
89
92
135
144
140
139
156
172
164
158
143
162
165
170
163
147
151
141
152
134
152
151
146
143
154
132
153
153
140
141
140
145
130
136
126
130
123
117
121
135
141
136
123
127
132
131
115
112
139
159
126
130
144
132
146
149
166
159
130
144
145
154
136
125
158
140
149
136
140
130
139
150
128
124
137
144
134
133
145
131
116
128
131
129
133
119
148
112
155
180
150
133
147
163
142
133
119
136
127
146
162
198
217
221
225
226
227
227
227
224
225
225
225
225
225
225
225
225
225
225
225
224
224
225
225
225
224
224
224
224
224
224
224
224
224
224
224
224
224
224
223
229
229
229
228
228
228
228
228
228
227
228
228
228
228
228
228
228
228
229
228
228
228
228
228
228
227
227
227
227
226
226
225
225
225
222
220
223
228
224
207
169
130
103
112
107
100
81
83
78
80
83
100
119
128
106
110
105
90
102
122
115
92
108
102
84
113
121
116
68
73
97
122
89
125
107
113
86
94
125
127
139
147
148
156
144
154
151
161
155
170
157
139
145
132
146
131
139
148
147
145
141
133
147
142
122
133
134
139
131
131
133
129
132
121
127
131
128
131
120
119
145
145
116
120
142
155
119
122
135
143
147
143
174
142
133
144
143
160
127
131
160
129
140
133
136
128
132
133
123
122
132
141
123
132
140
138
126
136
129
134
133
144
130
118
166
171
154
159
170
139
139
145
139
135
123
151
162
204
215
222
227
229
228
226
226
224
225
225
225
225
225
225
225
225
225
225
224
224
224
224
225
225
224
224
224
224
224
224
224
224
223
223
223
224
224
224
224
229
229
229
228
228
228
228
228
228
227
228
228
228
228
228
228
228
228
229
228
228
228
228
228
228
227
227
227
227
226
226
225
225
225
230
221
218
223
222
208
173
137
103
102
94
94
78
79
83
98
103
73
65
102
105
96
100
129
154
136
136
116
90
108
91
76
92
83
103
62
101
129
86
108
112
108
94
109
127
114
136
145
146
138
126
162
167
158
141
171
155
136
143
126
145
129
128
141
149
147
128
136
142
138
124
148
143
139
131
120
135
124
133
112
133
135
120
126
119
113
149
153
110
118
146
129
96
141
145
167
164
139
170
121
140
153
148
158
150
144
147
130
142
147
129
119
126
111
124
131
118
134
124
127
122
138
130
128
116
136
132
153
125
149
172
161
169
150
151
140
164
150
142
125
143
164
173
209
216
223
229
228
225
225
226
227
225
225
225
225
225
225
224
224
224
225
224
224
224
224
225
225
225
225
225
225
225
225
225
225
223
223
223
223
224
224
224
230
231
228
228
228
228
228
228
228
228
228
229
229
229
229
229
229
230
228
228
228
228
228
228
228
228
228
227
227
227
226
226
226
225
225
223
220
218
223
220
182
133
115
81
80
70
55
50
48
74
111
137
117
109
130
145
156
151
122
106
128
158
140
100
110
92
75
62
67
58
93
111
80
89
94
125
76
111
136
121
108
119
146
132
130
132
154
155
145
166
141
157
144
109
114
133
130
138
138
140
149
138
133
127
117
135
141
122
136
121
132
130
133
110
139
107
120
118
119
124
146
131
105
136
116
112
101
126
163
169
173
167
151
126
165
148
135
167
168
134
141
132
143
149
134
124
110
120
132
115
127
132
102
121
109
149
132
102
131
135
118
150
130
160
169
162
163
138
141
163
171
133
151
131
151
144
199
200
205
226
233
225
223
226
227
228
225
225
225
224
224
222
222
222
224
224
223
223
222
223
223
223
222
222
222
223
223
222
222
222
223
223
222
222
222
222
221
230
230
228
228
228
228
228
228
228
228
228
228
229
229
229
229
229
229
228
228
228
228
228
228
228
228
228
227
227
227
226
226
226
225
224
227
226
218
212
206
176
137
106
108
91
92
85
61
57
53
56
78
109
110
102
85
80
116
135
129
132
143
156
117
84
80
112
73
43
48
43
107
103
91
84
112
83
93
120
101
111
121
128
122
113
128
149
146
142
141
150
156
140
106
111
122
142
133
135
124
149
158
133
129
125
133
138
117
138
116
117
150
133
122
134
128
113
109
132
110
153
119
114
126
128
106
115
145
143
169
179
165
162
149
162
154
127
135
146
135
146
127
135
140
148
123
121
129
120
120
128
134
123
123
110
144
115
100
114
151
127
140
140
172
145
183
147
156
158
172
151
166
140
137
131
171
173
185
214
220
224
226
228
224
224
229
225
225
224
223
224
222
223
223
224
224
223
222
222
222
223
223
221
222
222
222
222
222
222
221
222
222
222
222
222
222
221
229
229
228
228
228
228
228
228
228
228
228
228
228
229
229
229
229
229
228
228
228
228
228
228
228
228
228
227
227
227
226
226
226
225
219
223
227
227
226
215
173
125
124
103
105
107
95
64
38
47
58
66
83
80
83
85
75
85
107
113
102
114
129
120
111
59
54
109
72
56
42
92
81
70
72
92
87
85
89
113
106
134
137
128
118
134
147
158
156
147
148
165
142
103
116
112
137
137
138
125
150
171
144
140
131
145
149
135
142
118
102
149
126
117
132
136
114
92
131
104
152
115
121
122
131
106
134
153
135
160
165
175
168
165
186
167
122
150
141
143
158
134
135
131
158
126
136
129
117
118
122
130
117
116
115
136
114
107
103
146
135
141
143
149
145
157
140
144
171
170
156
168
128
149
133
166
150
180
210
218
224
228
229
225
223
227
225
225
223
223
224
222
223
223
224
223
223
222
222
222
222
223
221
221
222
222
222
222
221
221
222
222
222
222
222
221
221
229
228
228
228
228
228
228
228
228
228
228
228
228
228
229
229
229
229
228
228
228
228
228
228
228
228
228
227
227
227
226
226
226
225
229
225
221
222
227
222
183
135
101
91
80
54
74
88
43
31
26
41
64
113
124
93
76
62
63
75
90
69
76
107
112
117
46
75
73
65
40
80
120
61
80
96
96
89
80
107
107
111
127
120
119
134
123
156
147
145
140
182
150
106
133
125
122
153
133
135
142
160
149
146
122
148
149
148
137
124
102
134
133
120
137
129
129
83
114
118
145
129
118
123
116
114
146
136
143
138
132
159
147
155
189
155
127
170
152
148
166
148
140
139
159
138
150
129
139
125
135
136
111
135
123
123
122
114
114
139
147
149
144
137
156
135
129
151
163
173
172
144
138
149
147
136
151
176
199
221
232
227
225
227
226
225
225
224
223
223
223
222
223
223
223
223
222
222
222
222
222
222
221
221
221
222
222
221
221
221
221
221
221
221
221
221
221
228
228
228
228
228
228
228
228
228
228
228
228
228
228
228
229
229
229
228
228
228
228
228
228
228
228
228
227
227
227
226
226
226
225
223
224
224
223
223
217
184
144
122
101
98
91
63
81
107
61
45
52
44
65
100
131
149
134
98
82
77
89
62
57
93
92
108
67
61
69
36
47
121
72
69
83
102
86
93
80
125
89
107
126
122
149
116
146
146
142
153
183
157
122
143
154
123
163
144
147
147
158
150
156
128
143
157
148
147
132
111
121
128
126
140
125
141
96
99
130
142
139
116
117
111
122
143
120
147
121
144
162
155
166
191
161
172
176
156
149
165
151
141
163
162
149
138
128
140
124
143
120
109
151
124
120
126
119
134
156
157
144
146
146
156
115
138
152
156
160
162
145
152
137
144
126
154
166
204
222
229
224
224
227
226
224
224
224
223
223
223
223
222
222
223
222
222
221
221
221
222
222
220
221
221
221
221
221
221
220
221
221
221
221
221
221
221
228
229
228
228
228
228
228
228
228
228
228
228
228
228
228
228
229
229
228
228
228
228
228
228
228
228
228
227
227
227
226
226
226
225
219
219
221
223
225
214
175
130
104
108
94
82
85
73
81
128
128
103
92
81
77
79
99
151
159
140
110
85
84
70
41
88
77
79
58
63
56
49
87
107
52
50
107
88
78
92
122
102
105
143
130
158
122
135
164
158
170
170
160
142
143
173
142
161
168
155
165
172
154
168
152
142
172
141
166
141
121
123
117
135
135
130
135
111
99
130
138
131
124
115
123
130
139
123
142
119
135
165
151
146
183
166
176
158
159
161
170
150
146
184
167
151
153
164
150
149
157
114
134
159
121
146
145
126
141
171
157
141
154
165
142
112
156
144
154
138
145
157
142
137
129
130
135
168
217
219
218
221
227
225
221
225
223
224
223
222
223
223
221
222
222
222
222
221
221
221
221
221
220
220
221
221
221
221
220
220
220
220
220
220
220
221
221
229
229
228
228
228
228
228
228
228
228
228
228
228
228
228
228
228
229
228
228
228
228
228
228
228
228
228
227
227
227
226
226
226
225
231
223
215
213
214
206
171
128
128
124
120
91
95
96
60
75
132
136
135
113
110
110
92
102
116
136
142
151
132
101
74
80
83
81
64
60
47
57
75
85
69
52
106
104
62
106
115
106
104
129
139
137
119
127
160
167
168
168
171
160
154
175
156
163
176
160
170
168
155
168
159
149
171
136
165
150
135
135
129
153
135
134
125
111
109
132
127
124
129
123
132
135
141
127
132
120
121
154
146
136
173
168
158
156
169
177
176
159
165
187
172
153
163
177
152
169
156
127
153
150
139
173
162
119
154
174
164
158
167
186
132
144
150
151
140
136
146
150
125
140
112
126
131
178
206
213
218
224
228
224
220
225
224
223
224
223
223
222
222
223
222
222
221
221
221
221
221
221
220
220
220
221
221
220
220
220
220
220
220
220
220
220
221
229
229
228
228
228
228
228
228
228
228
227
228
228
228
228
228
228
228
228
228
228
228
228
228
228
228
228
227
227
227
226
226
226
225
220
224
228
225
215
198
163
126
103
110
138
157
132
105
93
70
59
107
119
122
124
109
105
101
122
101
108
130
129
119
80
81
90
68
72
63
42
51
76
86
81
74
85
113
81
96
154
108
114
113
169
134
135
146
155
179
155
181
187
173
173
169
159
171
183
174
172
158
164
169
158
169
178
155
161
163
143
132
138
148
143
135
124
102
118
143
118
128
123
135
127
133
144
122
126
115
125
128
149
154
155
162
154
162
173
183
176
167
184
180
175
160
162
168
159
187
159
167
181
163
166
181
160
99
175
179
179
181
171
167
149
139
149
130
125
131
154
135
125
132
98
119
153
180
181
210
230
229
224
225
223
225
224
223
224
223
223
222
223
223
222
222
221
221
220
220
221
221
219
220
220
220
220
220
220
219
219
219
220
220
220
220
221
227
227
228
228
228
228
228
228
228
228
229
229
228
228
228
228
227
227
228
228
228
228
228
228
228
228
227
227
227
227
226
226
226
226
225
220
214
220
233
225
181
135
130
108
118
131
151
159
128
120
103
88
98
109
113
113
96
81
86
111
103
115
117
118
91
52
56
84
71
64
51
61
77
77
93
77
69
130
108
92
133
118
130
110
133
141
156
154
177
163
159
178
187
160
176
187
167
188
185
180
164
159
157
167
159
171
169
171
154
168
154
144
146
149
154
130
132
112
128
150
120
113
131
132
128
130
149
130
119
130
123
110
149
132
165
153
149
169
182
185
173
180
194
188
179
158
177
185
190
196
163
195
154
177
184
194
126
146
205
176
172
184
181
148
169
153
150
106
122
146
151
121
129
105
103
131
146
158
204
217
223
226
227
227
224
227
223
222
222
222
221
222
223
223
219
219
220
220
220
220
221
221
220
220
220
220
220
220
220
220
221
221
221
221
220
220
220
228
228
228
228
228
228
228
228
228
228
228
228
228
228
228
228
228
228
228
228
228
228
228
228
228
228
228
228
227
227
226
226
225
225
217
223
222
218
216
202
166
128
100
100
125
133
136
156
161
164
130
116
118
124
129
130
117
110
78
83
82
69
85
119
99
79
51
73
80
81
56
63
90
77
82
92
97
121
117
95
121
128
137
136
128
154
157
177
163
159
168
169
185
169
170
188
179
180
187
178
166
163
169
166
165
164
172
177
153
173
163
155
155
148
152
154
146
132
143
138
121
115
141
133
131
130
146
128
122
142
109
127
140
133
155
149
152
155
175
179
167
178
192
182
178
160
190
183
194
178
183
189
136
201
194
163
150
194
181
176
166
161
195
172
157
165
130
109
140
166
113
119
115
101
142
124
131
179
203
215
222
225
227
225
221
224
223
222
222
222
221
221
223
223
219
219
220
220
220
220
220
221
219
219
219
219
219
219
219
219
221
221
221
220
220
220
220
229
229
228
228
228
228
228
228
228
228
228
228
228
228
228
228
228
228
228
228
228
228
228
228
228
228
228
228
227
227
226
225
225
224
229
225
216
210
213
204
164
123
100
82
74
82
95
103
119
143
125
125
119
103
106
122
127
135
119
98
106
88
74
82
88
86
49
53
52
95
81
34
76
93
65
102
118
97
104
111
123
112
146
137
151
144
199
167
169
167
175
159
179
176
157
180
186
167
184
176
170
174
185
166
172
162
172
183
148
170
166
157
161
146
155
166
142
140
158
137
129
112
135
127
133
130
141
124
116
142
110
141
146
142
152
153
146
152
172
177
163
182
190
180
174
162
179
189
183
162
192
175
168
206
168
167
179
195
174
174
161
195
180
160
169
148
100
163
177
128
96
119
129
136
113
127
163
185
192
207
218
223
227
226
224
227
223
222
222
221
221
221
223
223
219
219
220
220
220
220
220
220
219
219
219
219
219
219
219
219
221
221
220
220
220
220
220
228
228
228
228
228
228
228
228
228
228
227
227
228
228
228
228
229
229
228
228
228
228
228
228
228
228
227
227
227
226
226
225
225
225
223
224
222
215
206
190
165
143
132
119
94
109
138
123
108
117
137
126
119
115
112
96
85
103
108
100
89
90
97
80
90
80
55
53
50
68
95
64
61
80
86
89
103
107
111
114
125
113
137
149
133
161
176
193
161
161
176
159
175
177
145
166
182
162
177
173
167
187
195
172
179
168
167
181
148
160
166
147
165
147
159
158
136
146
156
138
139
110
115
115
134
132
138
122
110
130
120
138
161
146
148
150
123
152
171
178
156
188
184
180
166
160
184
183
178
165
179
164
196
182
170
187
203
188
168
163
179
199
178
165
153
132
156
168
128
92
101
122
105
90
157
160
159
163
187
203
214
222
228
227
225
227
223
222
222
221
221
221
222
223
219
219
220
220
220
220
220
220
219
219
219
219
219
219
219
219
220
220
220
220
220
219
219
227
227
228
228
228
228
228
228
228
228
227
227
228
228
228
228
229
229
228
228
228
228
228
228
228
228
226
226
226
226
226
226
225
225
220
217
217
217
205
178
153
140
152
149
130
125
135
146
153
151
129
135
139
136
141
133
104
93
84
105
79
56
74
68
81
90
64
36
50
34
87
117
67
72
94
103
104
122
122
131
145
142
151
154
155
150
179
193
180
141
170
167
170
174
141
155
174
167
174
171
154
185
198
189
185
174
157
176
153
154
172
140
168
152
161
144
145
163
144
137
142
113
104
115
136
131
135
127
121
130
138
155
181
159
154
151
128
154
167
173
151
188
174
181
156
159
188
159
174
169
173
176
191
178
172
202
183
185
185
169
192
186
168
171
142
168
187
113
103
98
106
93
113
165
150
143
141
182
188
204
216
223
227
225
222
224
222
222
221
221
221
221
222
222
220
220
219
219
219
219
219
219
219
219
219
219
219
219
219
219
220
220
220
219
219
219
219
226
226
228
228
228
228
228
228
228
228
228
228
228
228
228
228
228
228
228
228
228
228
228
228
228
228
226
226
226
226
226
225
225
225
228
217
212
218
212
183
145
122
118
121
157
175
154
150
147
121
111
115
108
85
87
106
111
113
95
92
109
83
53
48
55
69
96
72
61
42
55
86
86
64
66
114
114
115
124
150
162
173
164
161
166
174
172
181
177
160
159
168
159
167
139
146
165
166
170
171
145
168
194
209
193
176
149
168
155
154
175
140
163
153
160
129
139
172
139
147
144
111
108
123
133
126
131
130
141
145
155
185
193
176
163
158
156
156
166
166
158
180
168
181
155
167
174
174
166
166
177
184
187
171
168
197
156
189
187
180
200
196
173
152
148
186
161
124
121
92
119
132
166
155
146
147
158
157
185
201
214
221
227
226
223
225
222
222
221
221
221
221
222
222
220
220
219
219
219
219
219
219
219
219
219
219
219
219
219
219
219
219
219
219
219
219
218
227
227
228
228
228
228
228
228
228
228
228
228
228
228
228
228
228
228
228
228
228
228
228
228
228
228
228
227
227
226
225
224
224
223
220
221
222
219
203
176
146
127
122
88
90
88
73
73
80
91
101
87
95
104
94
76
67
79
86
57
87
110
84
69
53
45
66
92
69
59
45
72
126
103
77
89
107
121
139
150
153
183
163
164
162
176
159
167
164
169
156
164
148
163
138
142
157
154
157
176
154
142
181
214
200
179
158
170
149
154
169
145
151
152
161
133
128
174
137
151
141
112
113
126
126
127
135
133
158
158
165
184
185
182
157
164
158
155
166
159
174
167
167
174
159
179
175
202
169
167
178
176
179
157
194
176
172
204
167
183
211
185
176
173
194
187
134
124
108
141
157
166
146
159
148
142
139
169
181
197
211
219
226
226
225
228
222
222
221
221
220
221
221
221
220
220
219
219
219
219
219
218
219
219
219
219
219
219
219
219
219
219
219
219
219
218
218
228
228
228
228
228
228
228
228
228
228
229
229
228
228
228
228
227
227
228
228
228
228
228
228
228
228
229
229
228
226
225
223
222
222
219
215
206
199
197
185
155
126
117
104
85
61
72
71
51
78
88
72
64
54
64
94
97
81
93
97
64
77
85
70
61
76
68
67
70
80
64
59
70
113
110
82
118
124
142
165
158
154
172
184
169
154
160
186
176
152
162
163
144
166
139
143
156
142
143
181
170
127
168
209
204
184
175
178
144
154
161
151
144
153
162
152
133
180
131
138
136
122
112
127
125
138
147
137
168
164
179
171
181
187
154
177
148
165
168
153
186
154
164
164
160
184
177
172
170
170
180
182
172
179
195
181
189
184
189
207
197
179
210
190
188
163
127
159
167
152
158
185
154
149
152
153
172
181
182
198
211
219
224
224
222
225
222
222
220
221
220
220
220
220
220
220
219
219
219
219
218
218
218
218
218
218
218
218
218
218
219
219
219
219
218
218
218
226
229
228
228
228
228
228
228
228
228
228
228
228
227
227
227
227
227
229
228
227
227
227
227
226
225
224
226
228
228
226
222
219
217
221
223
220
205
182
161
146
140
119
99
80
75
75
73
65
57
82
101
95
81
68
64
62
103
68
64
84
66
72
76
67
60
88
80
79
71
87
89
93
90
121
112
120
147
140
166
179
160
158
175
165
173
154
157
174
167
130
173
159
155
152
127
136
142
146
159
168
143
142
204
207
192
186
190
144
145
172
137
145
153
163
157
135
165
148
140
135
122
130
139
134
137
155
147
157
157
169
175
177
175
148
185
143
174
173
173
179
167
177
140
190
169
171
168
152
168
194
168
174
182
178
175
193
186
181
204
184
205
201
176
168
157
174
171
166
178
196
164
156
156
163
173
171
181
194
207
219
223
222
223
223
222
221
221
220
221
220
219
216
217
218
218
218
218
218
218
218
218
219
219
219
219
219
219
219
219
219
218
218
218
218
218
218
229
232
228
228
228
228
228
228
228
228
228
228
228
228
228
227
227
227
229
228
227
227
227
227
226
225
226
225
225
226
226
225
222
219
217
208
207
212
202
171
140
123
119
102
84
72
60
49
48
53
40
70
95
96
94
74
52
57
88
58
39
67
63
89
73
63
74
101
86
78
108
97
118
97
107
161
151
154
148
154
166
180
178
169
163
165
182
156
167
168
138
167
149
156
156
119
149
135
138
165
177
153
132
186
192
193
186
172
165
157
173
163
155
161
165
153
143
166
150
148
138
136
128
134
127
131
149
135
143
154
175
171
172
163
148
164
150
172
161
178
177
163
165
163
187
182
172
169
148
182
179
164
167
178
200
166
186
171
202
200
210
198
164
188
189
185
182
177
202
185
168
175
170
185
174
155
174
175
192
206
218
222
222
223
222
222
219
220
220
220
220
220
219
219
218
218
218
218
218
218
218
218
219
219
219
219
219
219
219
219
218
218
218
218
218
218
218
226
224
228
228
228
228
228
228
228
228
229
229
229
228
228
228
228
228
229
228
227
227
227
227
226
225
227
225
223
223
224
224
221
218
218
207
198
193
181
159
140
131
122
108
90
73
52
35
34
43
27
30
72
89
96
91
78
46
56
102
88
57
46
47
82
79
82
112
98
71
73
128
115
116
112
155
133
151
166
171
171
159
168
177
167
162
164
157
152
166
165
139
158
161
169
146
148
157
140
165
186
162
142
168
181
192
182
164
182
174
169
173
169
175
172
155
155
169
151
151
137
144
127
138
132
131
149
137
143
159
177
170
171
162
161
154
174
180
176
190
169
144
163
182
174
170
174
169
163
203
168
168
179
197
175
164
179
194
195
196
190
157
189
193
190
189
208
193
173
179
181
176
182
179
166
161
169
184
193
205
219
223
223
224
223
223
220
220
220
220
220
220
221
221
218
218
218
218
218
218
218
218
219
219
219
219
219
219
219
219
218
218
218
218
218
218
217
227
225
228
228
228
228
228
228
228
228
229
229
229
229
229
229
229
229
229
228
227
227
228
228
226
225
227
225
224
223
222
219
215
212
209
214
210
195
177
162
143
128
126
113
95
78
61
45
35
31
41
25
48
61
71
88
96
79
54
50
130
95
71
49
51
62
91
117
115
126
75
116
155
155
122
155
165
178
177
158
166
165
147
169
171
168
152
162
151
158
171
130
132
157
173
146
142
165
156
161
184
165
163
157
168
177
175
174
184
180
165
160
173
184
180
165
162
174
152
143
133
137
113
131
130
121
142
137
142
157
164
166
165
161
165
150
186
174
174
184
160
140
186
191
173
167
172
154
171
189
158
173
184
194
163
179
176
197
171
203
185
173
193
194
219
200
179
187
186
188
183
162
169
165
165
172
160
166
192
204
218
222
221
222
222
221
222
221
220
219
219
218
219
219
218
218
218
218
218
218
218
218
218
218
218
218
218
218
218
218
218
218
218
218
218
217
217
226
229
228
228
228
228
228
228
228
228
229
229
229
229
229
229
229
229
229
228
226
226
227
227
226
226
225
225
225
224
221
217
213
210
200
205
203
191
176
159
136
118
123
113
96
77
67
56
41
26
39
51
40
41
63
75
68
99
83
70
63
96
109
94
70
85
89
107
105
119
142
103
114
148
151
157
165
158
192
179
167
167
158
145
167
167
173
167
168
150
176
138
133
139
155
158
127
172
170
161
170
172
171
155
150
159
171
176
178
172
165
161
160
184
182
172
161
178
157
133
134
130
110
120
124
120
139
134
137
155
156
170
161
162
159
157
186
166
168
180
160
166
200
182
171
174
174
146
180
166
166
181
183
172
186
191
191
177
179
194
183
196
200
207
173
178
201
194
184
175
181
190
184
187
172
159
181
182
189
204
216
219
219
219
219
218
221
221
220
219
217
217
218
218
217
217
217
217
217
217
217
217
218
218
218
218
218
218
218
218
218
218
218
218
217
217
217
223
224
228
228
228
228
228
228
228
228
228
228
228
228
228
229
229
229
228
228
226
226
227
227
227
227
224
224
224
224
222
218
213
209
200
193
187
182
163
137
126
129
111
102
87
70
61
53
40
29
42
29
35
52
51
78
84
80
92
73
67
95
98
144
123
98
108
78
107
126
142
146
151
157
154
148
171
145
161
169
177
174
173
154
158
159
152
163
174
148
161
189
132
146
152
150
169
175
171
163
153
176
168
161
140
151
164
163
172
156
165
177
146
175
176
169
154
175
159
131
137
129
126
117
124
127
141
132
133
152
148
168
154
159
154
173
186
173
181
178
154
182
187
175
170
180
169
165
199
168
183
183
186
175
183
187
198
181
192
181
173
204
205
188
184
203
190
178
179
184
195
187
175
168
160
159
167
165
191
205
216
221
220
221
221
220
220
219
219
219
218
218
219
220
217
217
217
217
217
217
217
217
217
217
217
217
217
217
217
217
218
218
218
217
217
217
217
226
225
228
228
228
228
228
228
228
228
227
227
227
228
228
228
228
228
227
227
226
227
227
228
228
227
226
222
218
219
221
219
211
204
195
190
191
190
167
133
117
122
97
81
66
61
59
50
38
31
25
45
30
23
67
88
72
92
102
98
69
69
90
103
130
126
128
140
126
140
119
127
162
153
171
162
175
161
149
160
174
162
166
170
154
157
129
148
165
157
143
177
164
149
139
155
166
176
172
164
148
158
168
162
143
138
149
158
164
148
155
178
151
165
172
156
151
165
155
133
134
130
131
117
124
119
126
126
129
134
135
151
143
151
150
181
176
177
181
161
164
188
181
181
184
186
163
193
187
168
183
170
179
175
177
188
186
184
187
190
196
215
182
202
212
191
182
199
185
210
179
180
198
172
145
150
157
183
191
204
216
220
221
223
223
222
221
221
221
221
220
219
220
219
217
217
217
217
217
217
217
217
217
217
217
217
217
217
217
217
218
218
217
217
217
217
217
227
225
228
228
228
228
228
228
228
228
227
227
227
227
227
228
228
228
227
227
226
227
227
229
228
228
230
221
213
213
218
217
207
198
195
185
179
174
162
136
111
97
89
62
48
55
63
52
36
29
29
37
53
34
40
66
90
85
99
94
123
91
74
83
105
136
133
120
126
128
144
146
156
158
164
175
155
166
174
170
157
162
155
156
155
164
160
133
159
168
134
158
187
163
138
146
153
168
181
162
150
131
172
153
145
116
134
165
156
148
143
163
167
158
173
146
149
156
149
134
126
128
133
126
133
110
113
133
136
121
137
148
148
155
160
188
171
181
176
156
209
208
190
176
183
173
179
219
158
163
183
169
171
162
187
195
183
177
192
198
208
174
192
197
178
183
175
180
190
195
194
177
145
137
143
161
190
189
186
200
213
218
218
220
221
221
223
224
224
223
221
220
218
218
217
217
217
217
217
217
217
217
217
217
217
217
217
217
217
217
218
217
217
217
217
217
217
227
227
225
227
229
229
227
226
227
229
227
228
228
228
229
228
228
228
227
226
224
224
225
226
225
225
226
222
213
220
194
195
231
198
193
186
178
178
147
128
108
104
67
76
39
29
48
49
40
25
34
39
39
59
51
25
66
83
78
104
116
113
114
110
100
95
143
153
155
148
148
158
166
169
158
171
155
158
157
167
164
145
150
144
157
157
179
168
148
151
152
144
166
171
149
145
153
152
184
178
159
140
161
168
134
116
112
168
156
136
134
155
164
159
149
162
140
150
145
128
129
114
118
117
124
130
88
137
142
120
161
139
143
152
187
196
160
186
170
170
193
198
187
178
185
170
195
165
165
186
194
174
177
169
187
181
180
188
194
192
188
189
200
178
168
160
180
198
207
188
158
148
149
161
174
182
182
175
189
197
206
215
219
223
223
223
220
222
223
222
220
219
218
218
215
215
216
216
216
216
216
216
217
217
217
217
217
217
217
217
215
215
217
220
221
218
217
227
231
229
229
228
228
228
228
227
227
227
228
228
228
229
228
228
228
229
228
227
227
226
222
218
215
222
225
222
203
208
199
172
191
186
181
169
162
142
134
108
87
96
71
72
48
18
28
43
48
45
54
44
46
79
84
36
108
84
91
107
121
124
125
125
121
103
123
140
157
169
158
151
165
164
160
172
159
129
148
177
150
153
149
146
156
142
184
181
136
149
141
142
157
162
121
148
150
172
196
177
164
120
150
134
120
108
146
179
151
124
151
166
151
159
158
153
135
156
127
133
105
101
118
117
126
99
140
129
122
152
152
167
155
183
179
171
168
176
171
187
191
180
183
165
196
190
170
191
197
198
177
172
200
204
175
183
200
185
177
179
166
161
167
179
197
206
206
184
160
170
186
181
177
189
177
164
178
188
189
201
219
222
214
215
225
219
220
221
222
222
220
220
221
219
219
219
218
218
218
218
218
217
217
217
217
217
217
217
217
216
215
217
219
219
217
216
224
233
230
228
227
227
229
229
228
225
228
228
228
229
228
228
228
227
228
228
228
228
228
226
223
221
205
202
223
205
199
203
172
178
183
181
171
161
140
132
113
96
65
74
84
62
39
31
25
41
38
38
99
69
48
54
82
130
112
107
91
99
120
118
123
154
155
148
146
142
137
149
163
162
175
159
168
169
173
155
163
181
173
147
155
177
157
153
187
170
166
159
137
118
172
175
153
153
159
188
180
174
139
123
146
112
109
151
191
172
119
144
167
155
164
154
155
116
146
127
131
101
100
122
105
104
100
134
118
132
146
142
157
174
192
158
167
175
171
179
186
185
188
180
159
206
180
189
201
183
185
181
189
214
193
194
190
182
180
183
173
157
183
195
196
204
194
196
185
191
196
188
180
178
182
184
186
187
179
192
203
205
206
210
216
219
220
222
223
222
222
220
222
223
220
220
219
217
217
217
217
217
217
217
217
217
217
217
217
217
216
215
216
217
217
215
215
230
233
229
228
226
226
227
228
227
226
228
228
228
229
228
228
227
227
230
229
226
226
226
227
228
228
214
192
195
204
187
192
202
176
173
171
169
154
121
98
93
96
69
63
66
82
62
36
36
19
38
36
27
72
105
74
39
55
139
126
125
133
133
140
139
125
157
178
168
153
164
166
161
172
166
178
177
166
192
174
139
153
165
158
158
157
171
162
177
171
164
185
175
137
157
201
169
166
158
163
183
171
179
132
136
128
89
142
165
175
123
138
157
162
149
149
148
116
130
138
124
101
108
122
101
87
102
123
115
134
123
142
148
171
181
167
167
178
168
190
184
176
195
161
171
195
185
198
185
179
187
186
214
203
193
195
191
189
186
168
167
193
188
201
203
208
201
192
181
191
203
187
183
187
186
186
183
170
177
192
197
190
191
207
218
218
223
223
224
223
222
221
221
221
220
219
218
216
216
216
216
217
217
217
217
217
217
217
217
217
217
216
215
217
216
215
215
230
223
230
230
230
228
226
225
226
227
228
228
229
229
228
228
227
227
231
229
226
223
221
220
219
218
232
216
176
181
185
171
185
183
185
181
175
155
122
96
89
88
85
67
52
70
66
39
48
65
54
86
44
38
78
126
117
51
77
124
141
134
151
164
168
180
168
167
184
193
174
160
164
166
164
160
174
180
173
180
156
142
149
170
162
155
159
180
163
175
185
178
176
187
159
185
198
146
149
162
190
169
172
175
117
159
96
112
154
177
141
146
157
170
130
142
148
125
129
145
122
103
110
114
108
86
116
122
118
123
120
143
149
165
178
160
155
186
178
186
179
171
185
150
173
192
200
178
175
198
205
195
213
192
194
193
202
196
170
167
190
207
206
199
190
184
195
191
195
204
189
203
197
188
189
176
168
185
183
181
182
189
196
203
215
225
221
222
222
223
222
222
221
222
221
220
219
218
217
217
218
219
216
216
216
216
216
216
216
216
218
216
216
217
216
215
215
222
228
232
233
233
230
226
224
226
228
228
229
229
229
228
228
227
227
227
227
226
224
221
216
211
207
203
221
200
172
169
166
167
184
188
181
168
141
124
111
98
75
91
79
49
38
77
80
42
50
61
25
93
70
55
87
110
121
77
92
129
158
154
149
155
158
163
172
165
169
187
183
174
186
179
151
154
177
170
192
191
177
169
162
173
171
163
161
157
184
181
194
189
183
181
173
184
180
124
168
171
158
165
188
141
143
152
102
169
183
155
151
165
175
130
137
147
116
128
135
127
109
114
114
109
86
124
128
124
120
128
141
159
166
181
139
153
195
179
175
183
181
179
162
164
192
196
154
184
194
192
198
193
184
187
202
195
173
177
202
207
193
196
196
202
195
201
190
198
205
188
197
197
189
182
176
183
201
178
179
180
187
197
207
214
218
216
218
220
223
222
223
222
224
220
220
219
218
217
217
217
218
216
216
216
216
216
216
216
216
218
216
215
217
216
215
215
225
239
229
229
228
227
226
226
228
229
229
229
229
229
228
228
227
226
226
226
226
224
221
215
209
204
177
193
202
177
165
176
178
187
194
184
171
139
126
118
115
97
76
80
97
73
51
63
54
32
64
79
23
70
109
79
72
116
126
112
99
123
158
164
158
171
181
178
179
181
185
188
174
151
175
183
159
146
166
194
196
182
189
168
171
161
174
169
174
161
201
177
186
188
170
183
201
177
138
150
155
153
170
174
174
120
170
114
153
187
160
147
165
170
140
136
139
107
129
126
126
104
117
123
100
79
120
134
119
123
123
158
170
160
160
143
181
175
155
177
192
179
182
171
171
188
175
149
192
182
175
188
176
179
188
190
174
181
211
207
188
197
189
192
200
198
189
187
197
203
199
190
197
201
191
189
189
181
179
183
183
183
189
202
207
203
212
215
218
221
223
223
223
223
220
220
219
218
217
216
216
215
216
216
216
216
216
216
216
216
216
214
214
216
216
215
215
222
225
223
221
220
222
226
229
230
230
229
229
229
229
228
227
227
226
231
229
225
221
216
211
206
202
199
174
157
172
189
184
183
198
188
177
166
131
106
88
102
110
86
82
66
72
75
77
86
73
45
73
92
50
78
120
101
95
117
145
151
132
135
166
186
184
194
186
172
167
168
164
169
188
165
183
165
153
179
173
188
203
187
191
171
184
185
185
183
182
160
214
173
195
184
152
161
190
189
125
169
165
159
171
170
134
134
128
116
201
179
155
170
172
140
138
134
118
136
130
117
89
112
130
93
76
119
139
108
119
136
161
155
174
151
142
188
163
131
190
192
155
179
163
193
183
161
152
187
195
190
173
166
180
177
180
193
207
204
191
186
192
197
189
185
196
193
208
207
201
203
202
189
186
200
198
190
197
191
181
176
183
186
184
189
199
211
214
219
221
223
221
221
219
225
224
224
221
220
218
217
216
216
216
216
216
216
216
215
215
214
213
213
215
216
214
214
215
213
219
223
227
227
225
224
225
226
227
229
228
231
227
224
230
223
228
225
223
225
226
220
207
196
180
190
170
158
172
147
155
179
173
163
146
129
121
97
69
75
82
87
91
39
85
73
51
90
91
73
97
101
61
74
109
137
121
123
137
174
181
169
176
171
162
185
178
178
164
172
177
170
181
190
174
171
187
168
154
183
209
193
196
184
191
182
179
196
189
162
194
191
207
173
145
157
190
162
135
161
143
191
156
160
123
135
90
159
196
152
149
169
153
140
139
115
122
139
114
96
140
107
104
96
125
125
106
126
145
157
167
171
144
141
189
159
155
197
166
163
173
179
183
173
162
169
184
182
149
146
169
171
172
207
193
209
192
171
190
210
207
188
195
188
194
211
199
197
198
197
193
202
196
186
197
197
189
189
186
186
188
187
193
206
199
205
211
216
222
228
227
224
225
225
224
222
221
220
218
214
218
215
214
214
216
216
214
212
214
214
213
213
212
212
212
227
236
229
230
228
225
224
225
229
232
224
226
226
231
227
226
234
229
230
220
213
218
228
229
217
202
181
177
160
165
181
169
163
158
174
171
166
133
111
118
100
65
53
51
89
109
55
62
77
75
98
101
75
93
108
73
75
105
142
154
157
154
158
176
190
180
165
168
161
174
174
169
170
166
158
188
197
176
171
188
184
158
170
195
200
187
202
191
170
178
200
197
134
181
179
191
168
132
143
185
163
139
146
172
168
146
136
157
95
157
188
156
160
152
145
140
139
117
117
136
115
85
133
122
90
76
114
105
110
140
149
186
197
165
143
160
186
146
165
182
164
164
172
170
175
164
167
176
165
159
140
172
175
185
197
181
208
190
158
199
203
212
181
183
183
183
202
197
178
200
200
187
202
195
189
195
184
195
198
198
193
188
188
187
189
195
200
205
209
210
214
221
224
227
224
225
223
222
222
221
220
217
216
215
216
217
217
216
214
212
214
213
213
213
212
212
212
210
209
227
227
228
229
229
229
229
229
225
227
226
230
225
222
230
226
226
218
210
210
216
220
219
215
211
192
160
149
142
156
177
182
187
171
156
140
129
116
111
134
99
70
55
92
117
97
88
85
77
85
100
83
122
119
115
99
100
125
160
177
172
158
154
171
170
175
172
170
179
180
182
167
155
158
182
199
191
184
187
185
164
176
184
179
163
186
199
170
167
201
170
161
150
181
169
157
125
165
181
171
137
149
158
166
142
148
129
143
185
136
165
152
140
139
143
122
112
135
118
84
123
122
78
75
114
94
119
136
150
175
175
153
146
178
163
149
181
175
156
168
166
169
167
163
178
170
157
159
171
172
192
184
179
191
160
149
190
186
200
172
166
186
202
197
189
190
195
201
187
195
202
206
198
196
206
208
205
196
189
192
195
185
178
183
190
199
208
212
215
219
223
224
226
226
225
223
222
223
220
217
215
217
218
218
217
215
214
213
214
212
212
212
212
212
212
207
230
220
220
223
227
230
229
227
226
226
228
227
230
224
220
228
225
221
218
211
207
205
203
200
198
213
216
201
188
163
171
182
194
189
184
159
126
115
101
90
111
120
106
96
95
96
137
90
79
90
83
96
120
96
131
120
131
144
153
168
172
182
183
168
178
170
179
185
173
184
190
200
188
179
163
152
168
192
198
197
202
194
188
176
199
190
178
179
181
178
160
194
176
166
157
136
143
139
138
155
176
145
150
159
184
154
124
152
139
178
133
150
158
140
135
154
134
116
144
123
99
124
112
74
89
121
98
125
131
167
173
153
145
139
170
123
155
183
172
144
164
162
178
165
172
172
151
171
164
179
172
186
169
176
175
165
168
184
172
193
173
210
207
202
198
194
197
193
167
193
194
181
193
198
200
211
195
184
193
194
184
174
169
176
190
188
195
203
210
214
217
220
222
229
229
228
224
222
222
220
218
216
217
218
217
215
214
214
214
212
212
212
212
212
212
212
231
218
225
221
218
221
224
226
228
231
225
225
225
230
226
221
229
227
222
215
210
210
210
200
181
164
178
198
190
182
172
177
169
178
176
161
151
131
120
130
122
101
98
128
107
124
87
88
140
107
91
107
94
91
102
96
120
124
129
144
162
161
163
161
150
165
173
168
176
172
178
169
174
178
185
193
192
182
173
170
172
176
180
197
193
198
185
194
196
174
182
151
163
193
169
157
146
113
102
120
143
151
166
153
150
168
173
128
133
145
168
164
142
144
144
133
168
154
133
163
127
117
128
111
73
91
123
103
119
148
168
180
167
126
129
150
123
172
170
166
140
151
168
182
169
172
142
155
181
154
154
187
163
170
176
177
165
182
178
188
188
198
185
194
185
192
204
188
182
200
194
196
219
210
198
201
192
199
190
199
189
172
175
192
195
189
192
191
192
196
203
211
219
224
226
227
226
224
222
220
220
218
217
217
216
215
213
212
214
215
212
212
212
212
212
212
212
224
234
227
223
222
226
228
227
227
229
225
223
221
227
222
215
220
217
218
214
209
208
205
197
186
175
172
184
179
168
175
190
190
206
214
174
138
114
106
104
108
124
118
89
101
104
120
96
121
137
116
117
105
128
149
141
134
155
169
158
153
156
169
176
173
178
181
178
187
183
186
185
180
180
182
162
176
197
191
186
183
166
179
151
166
200
178
170
190
191
175
178
154
173
170
159
157
156
110
79
112
138
142
160
114
161
169
139
120
132
160
171
157
127
147
138
171
165
147
172
128
118
122
115
73
91
120
107
110
163
160
159
156
95
132
129
141
183
165
162
151
149
177
172
170
150
126
181
169
159
177
170
172
182
172
139
193
176
184
212
183
184
192
188
182
185
198
198
186
184
218
190
172
169
183
201
202
196
200
189
179
185
199
198
185
178
178
177
180
189
200
209
217
223
219
222
223
222
221
221
221
220
218
217
216
214
214
214
214
215
212
212
212
212
212
212
212
226
218
224
222
225
231
232
227
225
226
228
223
220
225
220
210
211
206
208
207
204
199
194
191
190
190
155
162
182
182
191
201
200
198
177
184
172
150
146
126
100
109
109
102
101
112
106
116
101
92
110
103
136
117
141
158
157
140
158
180
182
164
150
160
170
158
156
166
178
171
168
186
184
188
199
188
192
189
171
175
187
181
175
171
174
178
190
176
156
156
193
185
164
163
189
168
141
170
170
90
62
116
103
164
113
145
161
141
125
113
145
159
160
126
149
148
155
155
145
166
125
103
126
104
64
99
105
114
126
154
163
145
133
80
130
108
136
168
163
157
150
162
165
161
166
126
146
185
156
174
192
149
185
177
147
185
202
182
202
176
178
184
177
182
198
181
173
199
204
193
186
186
173
195
204
198
208
192
182
183
192
201
188
160
157
179
166
171
178
191
201
205
210
215
217
221
225
225
224
225
223
223
219
217
217
217
218
217
215
213
212
212
212
212
211
211
211
220
210
225
221
220
224
226
224
226
232
228
223
219
227
223
213
214
207
202
197
192
191
192
187
177
168
170
151
167
164
174
192
201
187
174
159
155
143
132
127
121
122
102
124
108
91
115
107
105
111
108
108
101
125
115
131
153
159
164
171
176
186
167
150
163
164
173
177
184
180
159
163
165
192
190
194
192
192
190
176
182
213
195
170
176
166
177
182
157
117
152
179
184
179
166
202
172
115
138
166
79
116
111
137
141
107
168
144
127
112
122
165
140
130
152
158
136
138
133
152
122
86
144
90
52
103
80
118
157
139
152
149
128
88
117
106
139
165
156
147
134
176
142
160
166
119
172
164
158
173
143
162
169
159
184
195
189
196
150
168
169
181
188
190
186
159
172
194
180
187
189
180
192
191
185
188
188
203
198
207
203
186
174
169
171
177
179
180
185
190
193
195
200
208
220
225
228
228
227
226
226
224
219
217
218
219
220
220
216
212
213
212
212
212
211
211
210
214
213
214
215
220
227
229
227
226
228
226
219
222
222
221
216
204
203
192
196
188
202
182
171
167
156
172
174
171
180
188
190
196
189
155
144
129
118
116
119
122
122
123
123
124
122
115
109
113
122
118
129
141
144
137
131
138
149
160
150
152
169
187
190
188
187
177
172
153
153
175
178
175
189
194
201
205
203
203
200
187
171
181
190
176
158
174
164
168
177
143
163
187
198
159
138
180
157
111
136
134
87
90
109
144
118
141
159
146
113
111
142
152
141
148
144
155
141
138
144
114
91
135
68
69
89
81
134
126
138
153
142
101
108
137
114
135
153
142
136
165
164
140
185
140
158
177
144
153
142
144
171
168
187
178
189
188
154
162
181
175
181
192
176
165
171
165
188
193
180
188
193
189
186
188
197
209
210
209
196
182
177
171
163
160
163
169
175
179
180
183
190
202
211
219
222
225
227
229
230
227
224
226
221
219
217
214
212
212
215
212
212
211
211
211
211
211
220
206
212
216
224
232
233
230
230
232
235
221
219
219
221
217
200
196
184
175
165
162
189
175
159
163
151
157
159
170
180
184
192
186
162
148
123
108
112
127
127
115
112
115
122
129
131
128
122
120
133
137
142
146
152
160
164
163
167
169
166
160
157
165
180
192
192
187
192
195
187
185
188
186
180
180
186
196
200
198
198
202
192
182
188
178
165
196
157
140
166
161
151
164
187
149
123
170
171
127
136
94
94
122
139
131
118
131
142
112
89
110
150
136
138
128
163
140
138
144
114
111
126
88
92
76
87
135
142
134
142
141
100
127
126
105
152
145
136
166
159
142
163
161
126
166
152
146
145
131
185
166
177
163
176
192
170
160
159
183
197
206
179
152
165
180
197
177
180
175
206
193
186
198
206
201
199
199
197
188
174
164
160
165
173
179
186
186
184
181
181
189
200
209
214
219
223
225
227
228
226
224
219
217
217
219
217
214
212
213
211
211
211
210
210
210
210
197
216
209
213
221
226
227
225
225
227
217
228
230
209
206
222
217
206
186
152
166
160
154
150
155
157
151
158
160
169
175
175
179
171
156
141
128
122
118
116
122
135
128
126
122
119
121
127
132
134
126
140
150
149
150
161
171
174
166
167
171
176
173
167
166
170
181
169
165
170
178
192
197
188
182
171
167
179
192
194
189
186
206
176
152
158
187
193
187
192
157
166
189
92
145
197
149
110
171
162
109
108
92
91
128
139
117
120
132
105
129
87
129
150
151
133
138
133
135
144
115
112
122
93
89
62
98
109
125
112
157
116
84
128
111
118
160
149
138
156
149
140
159
123
139
150
130
151
131
165
155
156
152
174
174
168
173
149
174
193
189
169
163
184
195
193
181
168
163
174
172
185
200
206
202
196
191
189
189
193
190
182
177
181
182
180
169
170
172
174
178
186
195
202
208
215
221
224
226
227
226
225
217
216
216
218
216
214
212
213
211
211
210
210
210
209
209
207
207
218
219
222
225
227
227
228
229
223
212
216
218
211
202
205
225
210
191
165
157
154
163
152
168
183
189
188
193
195
191
187
173
161
140
125
128
129
118
112
115
133
142
147
144
141
143
148
150
150
146
138
135
142
153
155
149
157
162
171
183
194
194
185
175
184
201
196
188
197
194
183
189
205
205
196
179
170
176
189
198
181
187
169
149
165
153
172
183
198
159
158
181
143
165
181
146
141
179
150
101
91
94
90
120
129
126
133
108
111
100
156
153
160
151
112
141
137
137
120
110
125
97
85
76
127
104
112
100
164
94
95
119
104
157
155
155
145
128
143
153
139
105
159
136
153
126
133
136
157
144
177
164
160
163
136
177
172
164
164
147
172
222
192
165
176
184
158
178
187
191
194
186
186
193
189
184
182
186
185
180
175
173
169
164
167
167
171
177
183
189
194
199
204
212
220
224
226
227
227
226
223
221
218
215
213
212
213
214
211
211
211
211
210
209
209
230
221
215
217
219
223
228
229
227
224
234
212
210
217
212
194
184
200
202
200
163
151
140
147
155
165
165
171
171
178
183
180
171
154
144
143
138
131
134
142
134
120
131
137
138
133
132
140
152
160
163
152
142
144
153
162
165
165
164
172
172
162
163
176
184
182
183
199
192
183
196
201
201
211
194
198
201
202
202
199
188
178
166
151
172
183
167
189
166
163
151
181
168
151
146
157
133
175
108
140
162
106
103
108
117
103
116
126
125
136
108
117
140
150
145
149
123
148
139
122
122
129
114
99
80
93
137
111
118
113
146
94
127
128
120
183
145
146
141
127
136
146
133
116
155
144
122
128
112
146
138
151
179
158
163
157
173
156
165
163
177
178
190
156
172
179
170
163
190
184
186
178
186
186
180
171
161
168
188
180
169
161
160
162
165
169
165
165
170
179
187
194
201
207
202
210
219
223
226
227
228
228
226
225
221
217
214
213
213
213
211
212
212
212
211
211
210
174
201
201
206
213
220
225
227
222
216
213
217
222
210
202
199
184
173
186
188
189
172
146
133
162
147
150
159
162
171
179
177
169
150
133
138
140
138
138
143
146
146
139
141
142
142
144
144
141
137
135
141
152
162
164
161
161
165
178
173
175
179
176
170
173
182
189
189
198
204
204
203
189
165
182
187
196
199
187
175
184
203
203
156
138
146
155
169
164
169
162
155
171
171
177
138
145
144
129
82
133
144
96
115
137
139
124
119
122
139
146
119
114
145
145
133
137
130
131
111
114
146
115
87
62
93
113
88
113
145
138
92
122
143
153
168
136
139
127
126
130
133
122
127
140
141
124
99
134
146
164
185
138
156
159
174
146
161
164
181
184
164
139
168
177
155
154
176
184
166
172
162
162
146
139
156
172
202
198
192
184
182
181
178
175
174
158
160
171
183
190
191
192
196
202
208
216
221
224
227
228
227
222
224
223
221
219
216
214
211
211
211
212
212
212
211
210
195
211
198
206
214
219
222
224
223
220
202
200
210
211
201
187
174
180
165
176
169
153
168
151
139
135
159
172
176
183
186
183
174
155
155
134
123
132
139
133
127
129
151
143
134
128
125
123
125
127
127
132
142
154
162
157
141
127
153
143
147
168
179
170
164
167
180
182
189
186
177
177
180
176
170
165
167
172
164
146
140
144
145
168
173
163
179
163
171
156
148
144
170
168
144
179
149
109
144
123
98
157
114
80
134
136
136
107
130
112
115
126
145
134
150
133
128
125
123
114
103
141
125
83
62
101
103
82
118
165
124
80
113
144
164
144
139
143
112
127
136
134
116
131
129
123
112
139
148
177
170
144
157
157
155
130
141
153
179
163
141
152
158
154
147
168
158
157
143
153
153
145
150
142
160
193
192
195
192
199
202
200
195
186
171
158
167
168
174
182
184
180
178
182
201
205
212
217
221
225
225
224
220
223
223
220
218
216
214
210
209
210
211
212
212
211
210
190
168
195
204
210
210
209
213
218
220
200
197
198
190
188
189
172
161
163
155
162
164
151
167
161
169
174
190
195
199
196
189
181
165
150
143
138
138
137
135
137
140
131
136
142
145
138
128
125
128
123
140
154
157
159
164
167
166
167
171
160
143
151
175
180
166
179
183
171
169
189
193
189
198
189
193
191
178
156
137
128
124
147
135
162
175
157
167
152
150
136
125
127
161
143
139
145
140
106
135
113
86
137
85
95
98
92
101
112
114
103
137
124
149
137
145
117
151
126
122
99
129
111
84
81
113
114
106
132
151
88
74
136
139
151
139
152
148
98
144
148
139
134
139
119
114
115
130
153
144
115
155
156
131
118
155
175
160
149
152
154
177
158
153
163
156
143
122
135
151
145
138
160
169
179
186
170
178
190
199
199
188
180
177
167
154
158
153
151
155
162
170
185
199
198
203
208
213
219
223
223
221
223
224
221
216
213
214
212
210
209
209
210
211
211
211
210
126
155
178
162
187
209
205
208
217
222
212
184
183
189
185
161
162
162
163
152
148
151
152
150
156
168
170
182
191
187
175
165
163
165
152
141
142
134
135
149
148
150
153
162
151
150
147
147
132
132
130
135
146
162
171
163
157
163
162
166
184
193
180
177
190
198
200
193
183
182
185
197
202
180
173
176
180
178
162
141
133
134
156
168
169
175
149
144
147
132
158
137
116
134
132
149
158
142
130
93
141
109
100
91
89
92
76
110
97
115
116
132
145
118
115
167
125
130
129
118
106
108
110
82
100
113
129
95
121
109
74
96
134
133
157
128
112
153
153
148
136
117
145
143
100
129
117
135
146
116
134
121
95
129
160
195
170
161
168
169
151
141
146
148
140
124
124
145
154
145
145
147
160
166
158
160
176
184
186
183
182
182
175
165
159
159
171
166
166
174
181
184
181
179
183
190
205
217
216
214
219
228
229
228
225
221
217
215
216
217
215
212
209
209
211
212
212
136
149
160
185
191
205
213
201
206
218
204
188
172
168
165
168
162
153
167
162
152
147
152
157
149
137
163
170
179
183
180
171
157
145
154
144
147
143
140
147
144
147
149
152
150
145
149
151
152
153
149
156
157
155
157
157
157
161
169
159
160
169
178
192
197
190
186
196
200
200
191
185
192
189
196
194
186
178
178
182
176
167
167
190
147
128
134
120
102
123
146
137
108
111
110
107
115
148
139
128
134
125
109
81
85
91
81
105
115
132
108
114
132
113
107
131
136
152
100
112
146
119
90
90
121
108
120
88
87
136
81
132
150
123
154
116
133
160
158
129
103
118
141
101
107
116
95
145
113
108
126
113
142
145
171
142
144
166
149
140
132
132
139
130
132
150
154
128
115
132
144
149
140
136
158
184
185
170
171
184
199
202
190
176
172
178
178
178
176
174
171
170
172
174
194
201
205
203
206
217
225
227
225
222
220
222
224
223
217
211
213
213
211
211
213
213
212
138
164
161
168
160
184
192
186
204
200
194
199
182
171
153
158
149
150
140
147
149
146
151
166
175
177
196
203
207
203
192
178
165
155
156
150
156
155
149
146
141
143
139
138
149
143
147
140
145
137
154
172
174
164
166
175
177
174
190
187
182
173
167
178
188
187
196
191
179
186
197
196
198
197
182
193
198
189
176
165
154
145
147
167
180
182
160
167
150
95
124
135
152
135
91
90
107
121
143
140
106
108
100
77
77
101
110
97
113
134
106
118
127
110
92
142
142
132
113
124
130
95
89
99
94
101
121
92
88
117
82
150
144
134
149
93
121
149
135
119
95
136
117
101
110
96
100
129
102
119
147
148
152
135
113
129
154
160
149
139
122
148
136
142
150
135
115
128
147
141
162
180
166
153
161
149
139
159
197
196
195
192
188
185
185
188
178
178
174
170
171
180
192
201
196
199
200
200
208
221
226
224
229
224
219
218
220
221
218
215
211
212
213
213
212
211
210
152
134
158
186
186
176
169
184
208
193
204
192
169
171
175
171
155
156
151
155
158
150
137
135
149
167
182
189
193
187
176
166
161
157
139
130
134
139
138
141
148
155
166
154
154
147
145
147
159
155
151
141
142
159
165
153
158
181
178
185
195
200
202
205
204
199
176
186
183
188
190
178
176
180
173
156
139
135
134
135
141
148
144
143
150
172
170
176
170
157
145
145
148
148
146
124
99
121
103
120
81
68
105
104
63
79
120
84
80
112
94
125
113
112
102
118
116
95
101
112
126
91
81
92
93
115
101
88
98
98
103
156
123
127
111
83
114
141
106
111
123
134
101
119
107
92
111
116
78
118
142
133
132
114
116
123
135
126
129
165
169
151
171
170
140
118
135
148
144
143
157
114
118
149
154
170
191
185
170
176
186
198
201
187
159
137
157
163
171
180
188
193
193
190
197
193
192
202
209
209
210
215
222
226
228
228
223
217
214
213
213
215
215
214
212
211
211
136
145
129
153
155
154
176
180
173
185
189
182
177
167
165
145
144
158
144
145
150
157
160
165
174
186
198
197
193
186
176
163
150
138
171
156
144
141
135
134
144
150
149
139
135
141
136
149
156
156
160
158
155
158
164
164
165
173
162
170
180
188
188
183
183
189
175
188
183
180
176
160
154
153
162
155
151
152
150
140
133
132
164
159
133
125
126
128
117
133
131
144
138
111
124
138
117
112
98
92
112
99
72
92
112
69
99
80
69
101
87
126
96
126
104
100
118
104
120
103
116
98
87
78
97
107
91
111
91
78
115
144
122
113
91
105
128
125
98
111
142
100
107
114
107
98
101
97
120
140
141
137
99
120
136
144
135
131
143
154
167
165
158
134
131
133
118
118
133
137
132
150
162
161
156
153
152
154
164
173
181
183
180
175
165
158
170
180
190
189
181
175
178
187
184
181
185
194
203
208
217
226
224
226
227
224
219
216
219
222
218
218
217
215
212
212
212
120
118
135
117
120
145
178
185
170
174
179
170
168
158
168
156
147
132
145
148
152
156
167
182
191
194
181
182
180
172
164
158
153
149
149
143
138
143
141
139
146
143
146
148
150
166
160
167
159
157
153
154
133
108
115
144
162
164
170
176
180
183
182
177
182
198
195
187
171
177
191
190
180
163
168
176
177
163
148
140
135
130
130
135
154
152
127
147
140
108
115
106
121
114
97
91
102
105
111
111
104
100
90
63
99
95
79
84
75
103
95
129
86
123
136
100
126
102
90
105
138
94
66
94
99
101
92
100
83
86
114
109
123
108
103
117
131
115
89
139
135
86
112
122
110
93
98
121
108
114
109
99
119
131
128
148
125
131
165
136
118
127
126
128
114
110
126
132
128
134
132
144
146
133
130
145
159
161
165
178
188
188
186
186
182
177
180
156
135
136
149
157
158
158
175
185
194
198
205
216
223
223
222
220
219
219
223
224
224
223
218
216
213
211
210
210
211
144
138
136
128
132
134
129
148
166
147
149
158
167
162
161
164
163
154
139
142
145
146
147
153
164
173
179
181
177
165
152
145
144
143
142
148
149
157
154
149
154
145
147
149
148
150
148
145
141
147
149
142
146
166
175
163
161
175
191
186
175
176
187
181
163
155
155
157
162
178
177
165
162
154
147
142
135
134
145
157
156
147
135
124
136
146
126
122
110
112
97
111
105
89
98
89
85
81
97
89
69
77
97
60
66
70
71
84
79
94
91
119
82
107
107
106
103
80
98
128
110
80
69
100
68
84
109
109
91
85
117
96
113
98
101
109
117
116
75
148
119
94
111
126
96
91
106
118
118
96
105
115
116
130
129
137
150
137
118
107
121
118
100
104
118
122
109
106
112
111
121
128
116
116
137
136
133
154
162
171
178
181
186
188
175
159
139
138
144
152
149
144
157
178
187
198
206
206
204
208
208
205
210
215
224
231
234
227
215
208
214
212
210
210
211
211
211
104
115
140
120
101
129
134
112
134
154
153
146
137
139
130
146
148
143
145
142
150
165
166
155
158
174
174
172
169
168
168
164
150
137
134
142
142
149
150
154
172
169
164
172
180
176
182
165
162
167
159
168
172
174
180
184
183
186
176
179
166
156
166
176
182
189
176
175
183
190
165
142
149
157
159
144
133
134
142
153
168
181
182
165
168
165
135
128
114
116
97
79
77
79
68
53
80
76
49
88
97
52
56
57
58
91
76
90
95
90
87
107
90
109
124
100
86
95
91
123
97
85
68
81
76
80
102
113
88
106
100
106
121
106
100
115
102
97
76
120
108
92
117
99
73
103
101
105
102
70
89
104
108
127
117
111
113
83
85
94
91
86
106
125
124
109
115
135
137
123
134
114
119
135
136
143
154
152
152
164
174
181
187
184
163
139
153
142
144
163
174
170
171
180
182
181
185
195
200
201
210
221
224
226
226
221
215
211
214
219
213
212
211
213
216
216
214
111
111
94
96
88
117
115
123
123
157
159
151
151
150
139
138
140
134
147
153
157
158
159
163
165
166
179
179
182
181
171
169
171
171
173
173
173
176
180
181
181
180
173
169
171
166
180
178
174
158
157
151
158
163
176
165
160
151
157
149
151
163
158
173
172
175
191
172
166
164
171
165
149
162
147
142
135
139
145
139
133
137
122
114
110
124
119
108
112
102
108
93
85
77
79
61
73
94
54
21
50
60
33
56
57
75
80
95
114
81
71
103
101
95
114
77
69
103
86
106
69
95
63
76
82
77
93
88
108
129
83
120
112
82
89
99
94
90
89
145
117
111
116
85
93
107
97
70
82
92
90
69
107
106
107
85
79
88
91
103
113
91
85
87
104
116
111
109
111
107
103
97
107
119
99
124
119
123
138
162
170
171
167
162
169
175
178
174
176
172
159
157
159
154
161
174
183
184
187
200
209
212
217
220
223
225
224
223
220
221
213
211
210
213
214
212
211
118
111
89
95
89
95
84
90
97
121
144
148
152
150
146
148
146
138
134
132
139
153
162
167
179
194
186
186
181
172
162
153
148
147
151
160
170
172
169
165
165
168
179
174
166
176
168
168
165
174
187
176
172
169
179
172
169
160
172
164
144
134
154
159
145
139
134
143
158
150
128
128
138
148
148
170
160
141
146
146
130
124
106
107
105
114
120
126
126
101
74
81
91
92
77
73
76
76
75
46
48
69
48
18
73
63
74
98
96
103
84
105
90
94
83
60
56
87
75
102
93
102
65
77
79
102
72
91
120
80
92
105
85
85
96
113
76
63
124
144
102
103
97
117
76
96
86
58
77
63
87
88
109
118
94
77
99
100
89
90
87
100
115
113
119
114
99
96
99
96
99
124
112
119
119
128
130
159
169
169
151
151
164
170
178
184
169
164
160
146
126
128
144
151
161
160
165
178
188
194
203
213
223
225
227
227
224
220
216
213
212
209
207
208
208
207
207
116
87
86
73
80
105
113
107
108
117
130
143
143
134
136
142
143
140
151
145
146
152
153
153
161
173
177
179
168
157
155
147
140
144
145
154
165
171
173
177
186
194
176
174
168
176
166
165
160
168
182
179
181
177
180
170
158
143
125
124
156
153
138
149
182
164
170
158
151
149
143
153
162
144
142
135
142
150
144
135
126
115
137
105
97
124
121
90
86
95
95
104
81
82
89
83
53
59
56
67
55
48
75
25
38
93
50
91
119
84
85
105
82
110
81
54
58
95
93
88
82
81
81
90
119
98
49
111
120
108
91
99
100
70
94
94
83
85
128
138
86
90
107
112
88
94
63
60
62
78
98
139
113
80
88
114
115
111
92
91
122
133
111
80
66
80
99
107
104
95
85
117
102
116
120
118
125
151
136
157
161
167
175
166
169
183
180
177
171
156
141
147
168
181
168
170
180
195
203
203
205
211
205
210
216
221
223
224
223
221
220
217
215
214
214
213
213
144
133
132
86
77
100
131
131
127
111
134
150
152
144
145
141
134
133
119
127
135
140
151
168
181
184
182
184
169
158
163
158
152
161
169
170
171
173
176
179
182
184
172
169
164
146
159
167
174
162
156
177
192
180
156
137
133
133
111
132
160
164
162
166
187
182
174
171
157
149
127
112
124
125
130
153
145
123
118
113
112
124
101
117
112
90
82
99
106
94
93
134
117
81
80
92
67
53
69
55
70
74
67
70
58
100
37
77
90
80
93
101
122
94
81
46
44
68
85
71
62
69
67
79
87
69
49
96
114
87
70
102
108
59
86
86
83
104
125
141
101
100
125
89
83
101
74
67
76
96
79
119
88
74
113
138
102
111
122
126
140
111
119
114
116
125
129
124
113
103
119
125
136
164
148
141
135
121
141
152
138
139
156
160
164
173
183
166
149
146
157
171
169
159
162
178
191
194
193
196
201
202
206
211
217
221
223
222
220
218
218
216
214
214
213
212
211
127
110
103
110
127
115
110
114
141
144
136
146
146
143
145
143
143
152
143
148
153
152
158
171
179
179
186
190
180
174
183
180
176
185
178
180
181
181
179
175
170
166
166
177
186
174
185
183
168
138
147
144
139
141
147
152
142
128
135
160
180
191
166
160
172
173
162
163
141
148
166
156
146
140
135
126
133
135
120
125
136
127
117
115
110
98
87
84
89
101
89
79
105
113
92
75
76
59
67
47
44
74
55
83
106
85
54
62
101
120
73
88
106
84
75
61
61
53
79
83
57
71
71
65
73
70
52
89
104
81
57
99
75
70
96
109
62
86
113
117
101
106
121
88
61
111
97
57
74
76
100
102
81
101
89
112
122
140
144
143
126
128
114
137
144
129
116
116
114
108
124
96
107
119
104
125
137
129
112
141
148
151
157
153
151
152
150
165
173
169
162
157
154
154
161
170
177
175
176
183
195
204
214
218
223
226
226
224
221
218
215
215
215
214
213
213
210
107
114
121
122
132
124
124
118
128
127
136
140
140
138
138
136
139
148
154
150
152
159
164
169
177
185
189
191
181
173
172
163
154
156
158
164
170
171
169
169
172
176
154
158
155
163
160
172
170
174
182
184
176
168
149
135
114
103
124
126
142
175
152
158
166
136
153
171
153
143
157
147
131
132
136
119
108
119
125
105
92
101
107
105
107
106
111
112
106
114
102
83
99
102
93
80
79
53
65
88
61
59
86
83
112
108
89
57
106
87
90
119
74
87
62
61
66
57
66
73
37
66
60
64
70
71
59
90
67
90
65
92
67
79
108
100
69
104
121
104
91
111
139
88
95
115
58
93
76
83
98
68
87
116
78
110
117
141
146
157
151
153
161
155
139
126
117
101
86
84
77
74
94
103
111
131
129
137
160
167
160
154
150
141
134
121
144
142
129
117
124
138
147
153
170
164
165
177
186
188
194
206
206
210
217
222
225
226
225
224
219
220
219
218
217
217
214
125
133
119
105
103
115
127
119
127
146
137
144
153
154
145
140
135
127
141
141
146
156
165
172
180
186
178
177
175
174
176
177
181
183
179
181
181
179
177
178
182
187
180
175
168
175
160
153
150
164
175
173
163
158
134
115
89
79
82
122
125
131
132
127
140
147
143
150
143
132
138
133
118
124
136
130
132
120
101
115
138
134
113
118
126
127
140
145
125
122
138
124
116
118
109
78
63
73
73
82
88
68
88
66
90
88
74
72
78
67
116
97
90
112
74
66
56
67
56
76
57
85
51
87
55
78
101
90
71
69
73
84
80
85
106
75
93
122
124
89
76
110
123
58
116
84
75
123
73
88
71
57
84
81
95
134
120
129
118
133
156
157
153
153
155
158
148
114
90
93
96
109
111
111
129
138
135
145
133
144
156
161
145
136
151
157
135
153
158
155
158
159
157
160
163
157
163
179
190
189
190
198
209
212
217
221
222
221
219
219
219
219
217
213
212
213
211
130
119
118
113
110
122
136
129
120
127
127
129
134
131
129
148
164
161
153
164
171
172
180
192
194
188
178
169
160
151
144
147
154
156
174
170
167
167
169
166
159
153
168
155
155
151
153
136
143
150
164
160
145
136
110
106
106
120
125
138
134
123
126
136
176
167
177
158
162
167
171
162
139
141
137
117
109
115
124
132
131
123
130
142
154
148
159
164
140
131
133
130
121
122
111
108
73
37
63
59
74
83
106
78
95
75
108
63
52
96
113
85
78
90
72
74
57
74
48
84
68
56
67
75
80
70
79
70
73
70
70
75
69
96
97
80
93
89
128
80
87
138
101
81
130
100
104
88
120
118
78
73
84
95
134
118
111
123
128
157
136
145
144
167
170
157
156
150
133
121
107
120
108
111
129
136
144
137
127
117
127
152
150
143
152
150
154
170
168
161
161
159
151
151
153
157
165
172
177
187
196
202
211
214
220
224
226
227
227
227
223
222
218
212
211
213
212
120
117
123
122
124
127
126
121
123
126
130
135
137
136
138
146
149
147
149
151
145
150
155
158
167
168
173
179
180
170
163
165
170
173
172
182
160
160
158
165
162
153
162
165
163
164
172
176
176
179
171
167
145
135
117
118
145
132
144
147
143
163
165
138
145
164
145
127
128
108
100
126
136
127
137
125
138
124
124
132
144
145
161
143
144
151
152
148
131
114
110
106
114
111
95
87
78
69
66
86
96
87
81
74
132
61
95
70
87
99
79
73
93
71
54
89
56
53
75
86
41
52
99
78
86
54
73
69
77
65
73
75
81
71
84
89
100
97
125
68
115
131
85
81
65
97
145
105
106
99
74
91
99
112
89
95
117
116
117
136
136
136
139
149
152
164
158
163
144
126
108
109
127
139
142
140
142
156
188
161
145
163
165
149
148
147
155
174
157
157
147
145
127
146
159
151
148
159
174
177
185
199
195
204
213
217
220
224
225
222
214
213
211
211
209
209
210
148
134
102
113
113
100
103
122
134
130
146
149
152
150
147
145
147
153
149
151
147
153
159
165
179
183
185
175
165
161
154
150
159
172
167
179
169
174
160
145
139
140
145
147
150
157
159
150
140
138
130
149
128
126
146
153
150
126
134
138
143
129
133
141
125
128
111
122
136
137
140
144
132
120
121
123
139
120
116
132
150
154
136
139
145
139
127
128
130
128
133
108
92
95
92
80
76
74
85
83
90
87
63
49
87
80
99
41
81
75
100
84
83
73
49
77
54
43
77
65
70
57
75
73
91
67
63
92
59
75
73
89
71
66
69
107
100
89
115
73
118
104
87
93
111
120
114
127
111
94
101
105
120
87
65
108
122
121
130
123
113
118
112
127
145
166
172
170
138
121
113
103
103
108
123
138
142
149
155
139
140
139
140
148
146
149
149
149
140
136
120
143
152
150
139
142
150
165
182
185
186
195
202
207
214
217
218
219
218
216
217
215
212
211
211
210
210
112
92
108
106
112
125
132
132
135
141
137
128
128
139
151
152
149
148
147
143
137
155
178
191
195
186
174
172
171
167
156
143
145
156
158
169
168
176
169
161
161
169
162
160
157
158
163
170
177
182
173
176
167
164
147
134
138
122
126
121
129
128
138
141
122
124
166
173
152
137
136
129
125
129
120
113
124
127
147
159
147
125
133
154
151
145
144
111
95
123
128
132
111
101
93
82
84
77
79
58
59
76
68
58
50
67
99
44
64
71
113
78
91
78
37
57
63
56
80
64
81
52
78
58
83
45
70
87
66
83
67
87
66
60
65
107
99
91
146
75
102
98
94
93
156
124
97
104
82
97
122
117
106
65
93
123
128
129
115
97
109
115
127
131
140
145
152
162
131
111
120
110
108
108
120
137
139
141
144
129
131
140
141
140
139
141
117
124
116
122
136
133
126
145
178
182
177
169
164
166
181
201
208
211
217
224
226
225
226
228
221
218
216
213
213
211
210
93
73
92
114
135
140
132
126
127
127
122
126
134
138
136
134
137
144
137
154
163
174
176
172
176
172
162
158
152
153
166
181
186
183
179
184
175
169
169
171
164
158
150
155
156
150
152
164
169
162
167
160
166
174
148
136
152
150
129
123
115
138
147
138
151
162
151
155
132
125
125
118
127
135
123
111
109
116
131
147
155
158
157
140
121
118
120
127
125
103
122
150
133
116
101
85
89
77
93
89
79
70
63
58
39
62
79
51
60
83
91
68
79
63
40
45
76
78
72
81
70
48
72
45
74
51
88
70
76
69
70
77
73
61
77
84
93
99
128
71
96
91
107
86
76
73
99
110
88
122
92
138
73
57
90
92
91
121
120
60
55
110
112
113
128
118
118
152
155
146
122
120
124
120
119
123
124
133
124
130
124
127
114
107
131
138
145
130
137
146
135
135
164
187
160
156
149
153
175
191
195
196
199
200
208
218
222
222
225
230
221
221
219
216
213
210
209
152
153
138
99
80
101
120
117
116
124
132
126
120
122
133
143
142
134
142
160
170
175
170
163
164
160
170
177
179
178
178
175
167
159
142
143
141
140
153
161
156
150
158
160
169
174
172
176
178
171
142
152
145
145
156
155
142
128
130
144
143
146
141
136
148
141
114
117
112
121
119
109
115
110
121
130
140
159
170
162
133
106
119
127
116
114
115
111
127
142
119
126
104
104
106
89
91
84
55
77
71
56
71
75
77
89
65
49
86
90
69
77
62
49
54
47
73
80
66
82
70
55
63
56
71
77
62
73
76
71
85
82
83
66
79
69
85
98
105
75
66
109
92
70
89
95
98
82
111
105
118
73
53
94
93
76
87
76
46
56
76
76
90
97
134
131
112
130
155
155
133
120
119
119
119
120
119
129
118
123
112
89
89
115
132
122
120
113
121
128
133
147
159
151
125
141
152
157
164
168
172
178
194
196
202
211
215
215
218
224
220
221
221
217
211
208
208
133
124
102
109
105
95
103
121
125
112
118
126
129
126
128
141
156
163
167
169
164
172
183
188
187
173
162
155
151
151
147
142
150
162
158
147
148
143
150
145
147
160
153
138
142
152
144
137
142
146
152
148
142
134
127
121
113
105
109
121
145
136
130
144
139
135
131
121
108
107
101
97
103
100
126
148
146
147
147
156
156
150
128
118
120
124
95
83
88
52
77
80
68
76
91
96
102
92
46
66
63
50
69
57
67
68
68
62
88
75
65
75
77
54
57
54
67
72
80
67
77
62
68
66
77
76
48
89
80
78
95
91
77
71
62
74
81
87
102
151
96
105
93
93
82
73
55
93
89
74
92
56
49
82
59
44
57
60
61
73
80
100
94
94
125
145
140
130
140
138
130
108
103
114
128
130
118
118
114
103
112
99
104
126
108
98
105
127
126
134
151
151
132
133
156
163
165
172
185
191
191
193
194
198
205
213
217
219
223
226
220
221
220
216
211
208
209
126
121
130
116
98
90
96
109
121
128
133
132
131
135
143
151
155
155
146
157
157
160
161
162
166
160
170
152
142
154
171
172
163
158
161
150
153
137
135
126
132
155
177
166
173
177
158
142
136
126
122
106
119
122
103
106
126
131
138
125
130
117
108
120
116
114
118
112
102
100
113
120
115
123
134
145
133
148
154
146
124
108
105
136
113
81
76
85
84
50
34
42
44
45
56
79
91
83
71
78
80
62
57
32
51
70
62
71
64
49
64
61
81
67
59
60
70
65
92
62
67
69
57
67
79
78
85
88
83
73
97
95
77
85
54
80
77
79
127
85
79
89
70
82
49
87
72
84
68
77
93
35
43
44
32
18
25
20
5
17
30
21
32
42
48
80
122
114
119
120
112
102
107
116
125
124
109
104
92
92
105
122
110
91
92
99
113
117
118
122
101
118
135
147
147
158
163
165
166
165
169
180
186
194
202
208
214
220
224
225
223
220
217
214
212
211
211
111
111
133
128
121
114
112
113
113
112
116
120
130
140
142
137
138
142
144
154
159
170
181
183
181
166
153
156
153
147
145
149
152
154
161
160
168
142
137
130
129
139
124
132
150
153
146
155
156
137
114
119
119
115
126
135
121
108
111
115
109
118
121
123
125
95
117
123
117
113
142
146
122
134
152
155
140
156
141
110
96
109
135
109
58
53
55
34
31
26
36
19
20
23
27
43
56
64
91
78
82
78
76
55
46
49
57
65
66
45
70
78
63
86
69
64
78
60
86
68
48
81
50
80
65
83
99
63
85
93
103
98
90
102
61
75
71
74
61
86
66
72
66
73
85
67
71
61
65
92
74
44
60
22
15
35
41
55
52
27
15
4
10
49
34
48
104
100
109
117
108
117
132
128
121
115
108
112
105
105
61
99
108
87
130
111
114
131
105
117
155
196
162
139
148
141
132
137
154
165
173
181
188
197
205
209
214
222
224
223
225
220
214
212
213
215
213
121
110
88
97
112
118
117
121
125
124
124
128
128
125
129
137
141
138
147
160
172
177
174
167
157
149
150
148
146
150
154
154
152
150
135
148
146
155
158
148
152
150
168
165
168
149
140
137
146
137
141
133
130
111
101
94
106
109
88
104
88
85
78
90
95
87
110
135
133
137
129
117
126
111
106
130
130
109
97
85
118
142
94
50
34
22
9
9
17
37
34
43
26
20
12
11
44
60
65
76
77
109
63
65
63
58
49
57
62
65
73
68
56
75
66
83
77
70
67
67
56
67
72
67
57
75
68
72
84
80
118
94
83
102
47
78
84
97
71
64
96
72
66
83
67
41
66
68
72
87
48
41
24
15
49
62
57
56
67
72
66
48
9
4
33
64
74
84
110
129
110
93
100
109
90
92
97
84
77
95
113
146
135
126
117
123
114
137
148
134
125
129
128
118
139
153
141
145
153
164
188
181
190
195
200
205
207
211
216
220
220
221
223
222
217
213
207
158
139
127
123
124
126
126
127
120
109
112
108
114
129
136
136
141
152
155
161
165
161
154
150
145
142
141
149
162
167
163
159
160
163
157
149
132
134
147
152
152
148
124
135
148
135
132
133
145
142
133
115
94
104
98
112
98
93
105
111
87
89
108
113
99
82
73
83
93
120
128
115
118
116
106
108
122
122
92
101
107
53
29
29
22
13
25
45
54
65
65
59
58
54
34
10
17
43
46
64
61
81
65
50
45
60
49
61
74
54
68
85
59
69
76
65
87
89
74
49
60
71
78
95
63
69
80
82
76
84
104
101
98
94
49
77
69
67
57
62
74
56
61
67
46
46
64
111
69
51
50
20
15
69
90
93
45
47
54
55
99
100
89
12
3
61
79
49
68
90
113
115
130
112
67
97
84
91
86
112
137
133
98
94
120
106
125
130
109
111
136
130
126
145
122
122
127
155
156
151
176
183
188
192
199
203
208
213
218
220
224
222
220
216
211
208
206
143
132
139
120
105
99
102
114
120
117
101
109
117
125
134
142
147
151
146
155
165
169
168
167
165
164
161
154
149
150
156
160
158
154
152
149
145
140
145
155
159
171
158
152
161
173
175
149
140
146
115
110
116
100
109
106
120
111
78
65
69
81
85
94
110
93
83
72
74
94
106
105
109
118
109
123
107
91
57
48
36
27
22
5
13
63
94
82
73
79
64
75
84
66
55
34
8
29
25
58
62
58
63
63
57
49
49
49
52
58
82
78
65
83
83
83
79
105
77
66
45
81
89
90
73
87
68
81
82
64
112
96
88
88
78
99
76
81
63
51
64
69
59
63
62
62
49
98
62
49
42
9
32
85
89
61
20
12
20
34
70
98
115
56
2
21
61
68
93
87
77
88
100
82
97
100
127
107
81
119
102
126
119
112
109
132
108
111
110
134
146
137
139
132
133
158
156
153
151
156
171
164
187
190
196
204
210
216
220
222
221
219
216
212
209
207
206
150
124
102
101
108
115
116
118
116
108
114
123
128
124
126
134
137
134
137
143
152
158
159
155
148
144
127
133
137
137
135
135
136
137
146
140
143
140
154
170
166
175
162
152
126
108
126
145
149
148
166
144
129
135
118
107
105
119
110
93
106
99
77
64
87
82
83
79
82
82
90
102
101
103
96
106
79
28
18
83
84
6
4
27
61
98
95
76
70
46
40
61
68
55
67
58
22
25
39
34
44
60
61
60
66
59
57
79
53
64
86
69
86
77
76
72
72
71
89
76
55
71
87
68
65
89
50
79
108
83
120
100
85
90
93
106
71
88
76
43
45
63
51
53
66
67
62
65
47
47
15
21
73
92
70
32
5
3
20
40
55
83
99
75
3
22
62
80
95
96
128
124
88
97
113
105
114
86
103
115
113
115
139
127
139
110
115
131
132
126
110
116
135
115
140
161
145
138
153
157
168
184
184
187
192
199
208
215
220
222
222
222
222
219
215
209
206
147
138
126
116
108
103
100
108
120
126
118
115
119
128
130
127
133
144
155
152
150
152
154
151
145
142
145
151
154
150
146
146
147
148
137
146
159
147
143
150
153
174
181
176
161
151
138
117
108
121
116
122
133
148
138
128
103
85
117
120
112
100
116
94
82
96
98
102
103
91
90
104
106
106
100
91
101
87
63
51
37
3
2
60
83
77
70
68
55
20
27
20
34
56
66
62
40
16
39
30
36
41
35
50
63
62
61
77
50
68
85
59
92
85
98
73
85
73
82
80
63
43
70
83
67
84
75
80
89
101
99
108
105
107
103
112
77
91
88
61
40
44
54
47
46
62
53
46
36
36
14
43
76
87
49
32
3
3
19
33
70
81
108
63
2
39
54
83
104
123
164
136
114
109
127
130
118
117
110
127
114
134
124
124
122
116
121
150
142
127
127
129
136
134
148
149
147
154
164
166
171
175
181
182
187
194
203
212
218
221
229
229
228
224
218
210
205
135
120
132
119
109
105
104
108
115
114
119
121
124
129
131
133
137
142
153
150
151
158
164
165
161
158
149
145
139
135
138
144
144
139
145
141
137
133
142
146
130
122
132
143
133
122
129
149
136
114
110
106
110
91
108
118
132
114
97
95
92
92
118
117
104
112
120
121
114
106
103
110
124
133
151
113
122
103
67
48
47
18
18
69
73
66
85
76
45
31
25
4
30
63
56
61
57
10
20
43
49
23
22
48
54
46
59
46
49
71
86
61
92
108
119
104
97
92
81
91
51
45
65
93
70
75
88
76
72
99
99
104
107
118
123
121
102
106
97
69
67
63
68
59
52
47
28
33
41
47
45
62
73
77
66
55
29
18
27
49
79
99
113
35
2
42
39
105
140
146
149
132
124
106
132
123
126
112
90
103
119
124
147
108
116
140
155
141
138
144
149
151
158
164
164
135
136
142
135
156
183
176
181
183
189
195
203
212
219
223
225
224
222
218
213
208
207
156
147
129
117
110
109
108
110
114
112
124
134
136
131
129
133
130
120
129
132
140
150
154
147
139
133
113
129
144
145
140
139
140
141
122
130
125
125
130
127
120
111
128
140
145
143
119
119
122
129
156
129
102
118
107
112
105
114
122
112
119
114
99
106
101
94
101
107
101
110
114
116
135
139
144
155
149
118
107
84
41
28
3
55
87
76
71
72
54
45
34
30
56
66
62
62
44
35
45
26
42
37
43
38
46
50
56
59
73
72
80
81
117
104
104
101
93
69
85
97
66
76
78
82
62
59
75
75
97
107
121
104
105
108
129
110
115
96
96
67
93
70
62
59
57
31
39
42
41
38
64
52
75
84
78
65
66
42
44
66
67
92
70
2
19
57
60
114
122
131
135
144
116
128
112
125
121
112
98
101
130
135
122
141
144
129
150
129
158
171
153
150
138
125
110
90
110
144
149
150
161
171
181
185
192
199
206
213
218
223
219
218
216
213
210
207
209
162
146
128
117
108
102
95
96
106
110
103
106
117
133
139
137
134
135
135
141
151
161
160
151
142
137
146
153
155
153
151
150
145
137
128
133
118
123
137
143
150
141
133
129
123
127
121
137
128
111
101
129
150
126
104
99
108
103
90
103
119
118
103
114
102
105
116
118
94
94
99
109
136
134
131
127
142
136
98
87
56
32
11
22
79
89
61
72
74
51
54
64
76
68
85
52
7
77
74
11
36
33
40
38
66
48
45
50
57
80
87
75
132
109
109
104
81
78
52
117
86
90
87
88
78
73
89
85
98
85
116
113
125
101
127
111
138
90
101
86
103
48
52
47
43
38
39
54
23
4
71
22
43
68
79
81
67
66
70
72
79
81
12
6
56
49
73
131
117
125
161
149
158
134
116
131
133
157
132
118
137
125
141
149
148
153
133
147
172
145
130
142
128
132
128
149
142
123
142
156
153
169
177
184
193
200
205
210
215
219
223
223
221
217
213
208
207
150
145
129
120
111
102
94
97
105
108
111
114
121
133
144
144
144
152
155
166
163
158
161
154
153
166
159
155
154
152
143
134
136
146
142
126
121
132
137
129
129
139
110
87
108
123
103
101
129
154
130
97
88
122
137
123
111
96
103
99
104
102
98
128
96
105
118
112
109
105
145
124
117
124
129
157
144
136
125
97
74
45
37
3
32
78
68
68
86
77
70
83
75
58
60
29
18
101
69
31
31
44
41
61
54
63
53
55
77
81
87
101
121
105
103
118
83
90
85
96
71
86
80
91
88
88
92
103
96
103
123
124
132
119
97
124
129
111
116
96
113
60
67
41
40
41
42
46
28
11
43
34
20
36
67
82
76
73
78
89
75
15
11
40
58
65
97
110
129
157
154
139
122
118
147
146
137
134
109
118
125
137
127
117
124
118
145
154
166
133
146
132
132
158
147
126
130
140
151
165
166
177
172
175
180
188
195
204
213
219
220
223
224
221
217
212
209
169
169
156
142
128
115
106
109
117
119
125
131
127
120
124
134
140
144
138
139
136
141
151
148
139
139
146
138
134
138
139
132
121
114
127
113
108
119
127
121
114
113
129
117
96
81
103
109
105
123
138
139
145
116
93
117
126
112
117
137
121
126
118
132
143
134
150
117
101
114
121
125
138
154
166
164
149
149
146
144
121
51
48
26
10
25
55
70
70
69
78
78
69
67
27
14
58
54
38
30
28
43
49
57
59
42
41
69
97
93
93
92
104
104
84
97
116
116
88
96
92
54
68
102
89
101
113
85
88
119
126
118
127
147
118
150
115
115
95
103
102
95
69
29
64
43
41
48
17
3
9
25
9
7
18
47
51
38
40
38
4
13
26
50
36
74
112
143
140
139
148
124
149
156
132
125
135
104
112
132
145
121
119
125
104
105
145
159
167
142
119
140
148
114
98
116
142
155
159
160
153
153
158
164
178
194
208
218
219
218
224
225
223
218
213
210
210
162
153
146
140
138
136
128
122
114
104
119
129
132
129
133
139
142
144
154
154
155
157
156
150
144
142
151
148
141
128
115
108
106
109
106
117
118
107
104
108
104
90
76
90
103
93
115
124
133
144
119
117
147
154
148
134
110
131
116
129
108
116
117
125
142
107
110
115
121
122
107
107
108
107
145
163
154
142
121
106
124
133
83
57
27
10
13
29
39
37
42
34
34
22
5
21
43
22
35
41
41
37
48
66
66
45
58
75
87
95
114
104
93
92
115
89
97
114
93
81
79
69
64
89
108
102
92
87
94
129
123
96
121
137
132
143
107
123
117
110
90
94
68
45
60
49
42
45
21
17
21
33
18
15
8
4
13
10
21
34
20
14
47
72
71
72
107
103
132
131
117
162
159
114
123
136
136
127
135
160
148
133
145
138
128
141
163
155
137
128
165
153
83
82
122
124
126
149
163
154
159
176
180
180
181
184
188
197
206
213
217
219
220
217
214
215
214
170
168
157
140
125
115
112
118
126
125
115
113
111
116
121
121
125
136
128
127
132
135
128
127
131
133
137
139
143
147
153
157
153
147
140
125
121
126
113
91
88
103
137
81
76
98
127
119
126
141
131
143
145
124
127
137
124
133
142
128
126
111
108
124
128
109
101
107
125
139
156
129
131
157
140
149
143
155
164
145
138
147
133
76
56
65
51
27
20
17
16
20
28
13
34
45
34
44
45
47
49
29
41
78
61
63
60
71
87
105
114
98
99
124
108
106
103
113
89
100
75
58
93
111
126
122
90
93
98
120
103
112
135
113
117
144
120
117
138
106
79
100
105
74
54
80
48
45
38
48
44
40
38
39
37
38
36
37
58
57
91
93
70
93
93
112
119
117
116
121
140
135
138
141
147
122
122
140
150
150
148
123
127
131
123
167
147
122
138
156
141
96
126
127
111
145
142
137
141
143
159
166
141
152
165
174
178
186
199
210
210
215
221
222
221
218
213
170
169
147
138
132
129
126
126
125
118
120
120
123
132
141
140
139
147
143
136
136
140
139
141
143
141
142
147
145
130
112
108
114
123
122
126
126
123
122
121
109
91
89
105
126
126
142
143
133
127
124
95
107
143
145
138
141
136
139
123
148
146
143
149
121
103
130
124
111
104
136
146
138
123
145
129
123
130
131
132
121
86
105
122
115
80
59
59
57
40
50
55
59
52
54
38
44
40
38
43
30
24
37
63
43
59
65
67
83
106
107
97
92
96
88
93
105
104
78
112
110
90
88
131
95
136
123
94
101
116
89
115
110
118
107
129
95
107
131
101
87
120
123
64
48
70
64
51
41
38
38
39
59
55
48
31
43
65
53
69
128
129
123
114
109
112
117
124
116
135
145
139
145
131
124
133
148
132
143
171
148
150
137
117
149
141
155
161
180
143
144
142
147
161
140
153
139
145
165
164
159
149
166
173
184
189
189
189
194
198
213
219
225
226
223
217
209
165
173
148
133
119
107
99
103
111
113
114
127
134
136
143
143
135
129
133
134
134
135
131
126
126
129
137
134
135
143
151
150
137
125
127
113
100
95
93
93
98
106
99
91
117
147
148
145
145
152
139
149
117
106
124
115
117
143
137
135
141
146
138
144
148
147
130
123
130
150
115
115
126
141
123
138
153
148
131
125
131
137
147
129
121
114
101
102
97
76
69
62
70
63
76
70
71
61
67
82
35
52
71
58
61
75
72
80
84
87
79
92
109
124
86
69
89
98
108
100
97
110
79
108
87
123
115
111
118
119
111
123
109
127
133
132
105
132
135
103
124
101
81
80
63
46
82
49
30
40
56
54
85
85
68
81
65
56
63
102
86
102
129
115
139
123
132
119
112
129
130
146
149
146
160
134
124
145
166
146
126
129
129
138
157
148
154
158
131
143
167
184
188
150
152
142
137
153
159
142
152
181
191
184
179
180
188
199
209
215
215
220
224
223
221
217
211
159
157
159
149
138
126
116
119
128
132
137
143
138
125
120
120
118
119
118
130
133
135
137
133
134
146
145
141
137
132
125
117
115
118
107
121
124
108
94
89
85
78
100
86
105
135
124
140
146
154
127
127
159
155
109
108
125
113
109
137
137
141
116
116
130
141
158
151
144
150
122
145
147
135
154
156
139
121
121
114
112
134
143
135
150
155
133
125
118
96
114
104
96
84
110
91
78
75
78
88
35
53
93
48
68
84
104
108
103
115
121
115
91
87
118
101
97
78
97
96
87
101
109
110
129
118
99
121
119
115
103
130
127
98
120
136
118
138
137
107
146
90
74
130
104
67
80
47
29
62
81
76
98
104
87
97
112
109
101
137
136
134
125
120
119
129
124
142
124
133
148
151
158
156
152
123
127
155
142
138
121
153
160
151
162
133
143
125
127
135
127
138
155
156
149
153
158
152
155
165
167
170
168
165
165
169
178
188
194
197
214
218
221
221
219
219
216
158
147
133
135
141
141
131
127
126
124
126
128
129
127
122
113
115
128
131
134
128
130
146
145
139
146
127
122
120
121
117
111
114
121
128
116
113
119
117
110
118
134
132
134
121
141
134
121
94
132
154
120
115
112
125
143
134
143
163
162
136
136
132
149
123
110
146
147
144
140
137
133
135
143
113
127
145
135
122
128
121
100
107
107
99
109
125
104
86
106
102
114
90
113
122
67
105
91
72
72
44
53
113
61
74
98
89
99
92
112
122
104
89
123
103
94
120
123
102
119
106
94
115
126
140
121
119
102
103
117
110
125
121
115
112
127
91
154
121
116
134
122
113
130
107
78
63
56
37
64
71
79
92
85
109
87
107
127
124
95
126
119
101
113
128
126
130
120
114
100
110
149
169
152
152
146
146
145
140
159
160
138
124
135
145
140
120
125
126
119
140
142
168
145
137
150
172
156
138
142
145
156
164
170
179
184
188
196
205
214
213
219
223
223
222
220
216
168
166
157
143
126
115
111
112
114
116
124
117
119
110
111
122
124
136
134
137
141
146
149
146
136
126
124
113
113
111
103
109
113
97
97
99
98
118
134
133
139
148
149
147
131
117
130
128
132
120
139
144
126
138
113
95
117
140
118
141
152
154
137
129
111
105
108
148
149
107
111
132
127
136
121
109
120
110
122
126
121
112
103
92
109
101
124
115
105
101
110
110
119
124
118
72
118
88
80
48
48
58
77
66
103
118
111
113
106
124
121
117
115
124
138
120
112
156
117
115
113
106
105
131
118
134
127
117
100
124
148
106
110
134
131
135
134
153
150
159
129
127
136
120
112
100
56
45
61
95
52
76
92
105
92
95
97
107
114
133
122
118
118
120
122
138
117
110
82
92
137
174
147
121
148
138
138
152
159
151
101
114
163
156
105
110
148
170
133
132
143
141
137
142
148
122
102
114
144
156
153
152
168
157
169
182
170
171
189
201
198
208
217
219
222
223
218
181
179
173
168
159
145
128
114
109
110
110
114
131
135
137
137
126
126
124
130
132
127
120
120
127
134
134
124
126
126
117
119
121
109
102
105
124
138
124
127
149
142
139
152
156
152
144
128
130
130
119
106
101
126
137
134
133
138
144
125
125
146
137
137
133
129
122
115
152
166
136
135
137
131
131
129
131
116
99
95
87
95
104
94
91
94
90
64
72
96
128
131
122
122
83
99
93
81
63
61
58
49
67
87
106
83
88
114
106
123
92
85
121
100
85
125
110
102
87
128
116
94
146
97
107
132
146
112
117
141
149
104
142
118
138
163
139
139
153
139
128
116
112
149
147
114
98
63
50
94
66
71
86
73
76
75
98
107
116
111
100
132
101
102
104
96
96
91
104
144
150
140
124
138
164
175
160
135
120
119
140
150
119
113
114
131
157
116
121
152
135
132
139
119
118
135
150
155
152
146
156
175
172
152
149
156
162
171
187
196
212
218
223
222
222
223
220
163
166
163
157
145
129
111
101
102
108
119
115
116
111
113
123
128
138
129
127
124
125
132
138
138
135
135
133
140
135
115
109
116
118
135
138
136
138
137
136
129
105
123
143
140
135
136
148
145
125
125
135
144
122
117
127
131
132
126
130
126
133
130
133
131
143
154
153
163
164
133
128
126
138
132
133
125
124
109
114
100
111
111
127
120
123
100
81
98
122
121
115
104
87
83
113
83
47
63
63
62
67
83
107
118
94
90
146
128
116
135
119
95
117
95
92
91
104
88
109
107
114
104
101
93
108
132
147
116
115
128
101
101
120
121
149
131
134
138
152
142
124
152
155
106
141
124
76
59
72
63
72
71
66
79
63
90
95
117
102
81
117
107
79
90
111
123
127
125
120
153
151
150
164
167
156
113
95
147
164
159
123
112
142
136
123
98
124
171
156
115
109
124
126
149
155
154
147
141
136
143
157
160
152
149
157
176
186
191
196
204
211
217
218
219
220
218
156
156
164
160
154
147
139
132
128
128
105
113
125
129
127
123
119
119
114
121
125
124
121
117
114
112
116
100
98
109
119
127
130
125
113
103
106
113
108
134
165
149
140
128
110
119
106
108
123
143
111
109
123
123
124
107
110
116
135
120
128
144
127
142
149
133
119
147
143
147
154
146
113
122
113
126
126
129
112
112
107
127
107
100
80
95
118
128
116
96
72
102
117
90
89
86
96
80
79
72
73
106
114
122
126
123
114
111
125
117
91
89
99
115
98
97
106
106
93
126
127
122
105
124
103
133
143
168
128
125
158
116
118
120
126
122
122
141
129
128
157
133
118
128
110
106
114
135
79
70
83
62
71
78
58
86
116
86
84
96
90
88
89
93
86
102
99
111
110
152
158
121
124
147
151
127
115
149
174
152
116
129
149
111
86
119
165
171
144
109
129
122
111
115
113
118
120
127
139
145
145
147
146
157
158
162
175
178
176
187
204
212
220
222
221
218
212
159
162
164
158
150
141
130
120
116
117
121
127
128
125
118
113
118
121
116
120
122
122
121
121
118
117
117
118
125
131
130
131
140
148
152
164
135
117
124
110
102
116
123
141
148
159
140
137
132
122
135
142
128
116
124
125
143
124
116
124
127
140
133
125
133
169
154
130
117
145
159
162
155
156
147
145
135
134
127
120
111
109
116
113
118
104
96
81
76
89
119
118
94
90
84
93
71
63
98
93
92
123
123
131
129
121
128
118
85
93
102
90
102
98
120
110
112
124
129
114
96
126
107
144
119
114
168
132
110
140
129
130
109
118
129
122
156
145
123
139
152
130
145
127
112
118
122
99
111
97
71
75
84
77
78
75
84
103
87
90
111
129
112
90
97
129
116
137
134
134
134
119
162
154
128
119
147
155
135
142
127
128
116
101
139
164
121
143
123
95
92
75
92
98
109
109
109
122
145
156
153
150
158
170
162
153
157
160
164
183
192
201
211
218
219
218
215
165
174
177
172
161
143
123
111
112
118
125
130
126
123
115
105
110
108
107
105
105
111
122
126
120
112
91
92
98
110
122
127
128
129
124
133
136
151
159
145
133
125
117
106
113
143
133
112
112
117
119
121
115
132
132
105
118
116
121
109
111
131
128
139
145
146
150
124
125
150
152
146
155
149
141
125
110
121
134
141
131
105
96
96
108
92
91
91
83
92
97
80
78
81
77
98
69
88
112
101
92
115
117
128
132
126
117
118
121
117
118
120
129
118
112
120
134
127
121
118
111
106
93
144
151
121
166
131
122
130
116
113
118
116
111
141
115
122
129
131
142
140
147
119
124
133
146
136
105
101
96
67
62
63
64
75
76
99
89
92
87
58
65
65
78
89
107
120
130
149
147
146
161
125
139
150
160
122
122
140
135
131
124
119
140
122
133
126
91
89
108
117
139
122
134
129
122
124
138
150
160
171
161
166
154
146
156
162
170
189
184
192
202
210
214
216
218
146
148
162
166
168
163
148
132
125
125
131
131
116
113
108
100
106
101
98
112
122
123
115
111
112
115
118
129
134
132
131
129
131
136
126
142
132
132
142
125
113
121
117
125
139
141
128
122
135
125
125
128
110
104
99
101
101
89
105
132
128
126
134
141
132
146
132
142
143
135
146
139
156
155
150
155
148
152
118
116
110
88
88
85
76
80
92
103
84
71
77
67
87
79
88
88
84
94
104
99
101
120
117
117
126
126
113
106
129
108
115
139
133
124
107
112
137
131
110
119
148
125
106
109
162
156
129
144
144
119
112
117
126
126
141
122
131
122
140
146
148
133
121
146
163
148
158
123
126
124
118
118
91
101
74
74
68
83
93
91
94
101
94
87
110
114
101
113
133
136
144
156
157
142
157
119
110
113
98
146
157
119
115
117
132
152
115
102
89
113
118
102
105
120
114
124
129
125
113
102
108
127
148
150
146
150
161
164
165
175
199
205
212
216
216
213
213
144
145
134
134
136
138
138
133
128
126
120
118
102
103
102
93
94
82
95
103
110
113
115
119
122
124
125
124
116
114
125
131
127
123
117
101
88
105
129
144
142
121
113
95
97
105
121
128
143
123
107
112
116
121
117
134
135
146
113
125
119
126
130
130
123
143
139
140
134
118
138
133
156
147
119
139
143
159
104
107
102
82
83
73
48
81
79
74
64
70
78
78
76
80
91
82
95
79
80
106
132
139
121
110
112
97
97
139
149
134
144
130
131
133
136
134
138
133
118
98
132
146
122
151
174
116
124
169
140
146
117
146
132
140
125
107
117
111
124
121
116
129
130
168
157
141
163
136
159
164
132
132
108
92
83
74
67
72
113
100
71
76
73
79
87
99
83
114
125
141
133
149
141
118
109
104
129
132
143
138
130
95
133
148
107
96
123
109
113
119
101
114
117
114
125
123
128
146
164
163
154
156
155
157
158
163
166
158
152
156
186
194
206
215
217
215
213
142
141
147
152
142
125
128
145
141
119
120
114
107
102
98
95
96
99
128
124
126
133
134
127
120
116
109
107
106
107
107
110
120
132
134
121
110
101
93
104
117
116
129
118
121
110
102
101
92
98
94
113
115
121
125
103
107
156
143
113
113
115
119
97
114
108
102
134
150
128
133
134
133
121
132
135
109
117
116
106
89
78
67
79
109
106
70
71
88
76
80
73
71
95
100
102
97
107
135
126
113
109
144
129
110
127
123
132
165
131
105
143
148
130
134
109
107
143
133
132
196
151
155
132
121
121
159
161
124
147
128
109
138
122
126
106
124
136
121
136
139
145
146
178
142
123
153
157
144
144
115
111
90
87
77
72
55
64
73
79
70
83
77
102
101
83
99
124
127
137
148
131
134
117
118
141
133
121
113
125
121
107
121
108
112
130
130
108
119
117
110
118
122
130
129
153
135
143
151
149
144
152
140
136
124
148
157
162
169
183
173
180
191
204
214
220
221
148
150
151
149
149
140
123
114
114
114
110
108
106
102
95
91
93
97
95
95
99
108
115
117
114
112
125
129
130
132
137
140
126
110
120
143
143
135
135
122
108
114
114
93
102
117
115
112
108
103
122
133
141
134
114
95
89
92
108
101
97
107
111
91
112
101
109
117
118
110
122
132
134
126
113
145
158
124
118
114
110
99
84
90
87
84
84
81
71
65
77
94
99
91
90
87
103
131
117
133
136
134
143
129
125
182
221
139
133
146
136
149
144
116
94
139
133
118
118
140
165
107
131
125
140
113
131
128
119
152
131
122
130
119
138
122
141
168
130
151
136
122
150
148
145
162
152
168
153
140
138
136
93
97
103
99
92
82
64
64
63
58
90
99
110
118
129
135
125
146
140
111
120
116
123
140
115
105
109
103
126
122
114
110
129
113
105
124
124
123
132
126
108
98
86
77
75
94
96
117
139
125
131
152
151
156
151
159
168
177
188
192
201
212
220
223
220
145
145
153
140
143
146
130
111
104
99
98
96
97
99
98
97
99
101
97
116
134
138
130
124
126
130
124
129
123
110
103
109
116
118
117
90
84
107
121
115
111
113
99
112
101
91
97
100
107
115
89
93
110
126
128
122
121
124
116
84
91
114
134
124
111
120
120
125
113
99
104
134
134
112
138
116
127
130
142
120
99
109
107
119
102
77
74
81
84
89
96
102
100
90
115
115
118
122
140
127
148
144
108
121
113
106
156
146
136
132
131
121
107
101
119
116
102
109
109
128
155
147
83
107
150
103
130
148
131
115
139
117
127
132
124
123
142
121
94
97
103
117
146
139
150
132
143
153
164
146
144
145
107
99
91
95
89
84
93
83
95
133
67
95
123
117
111
138
126
129
123
95
112
120
120
126
107
114
103
110
131
133
131
104
112
129
126
128
102
103
111
97
95
93
79
76
106
131
126
136
157
134
137
161
161
157
149
152
156
157
169
188
210
220
218
216
221
153
156
152
140
139
139
132
131
125
110
96
90
88
93
99
102
100
99
104
108
108
106
107
108
104
96
99
97
100
106
108
104
100
99
96
89
83
69
62
86
104
92
108
103
92
93
93
108
123
101
104
107
98
103
116
101
87
102
134
148
119
107
97
90
104
95
120
118
124
134
104
96
108
133
133
115
110
125
122
117
97
108
104
99
106
108
97
97
113
123
129
119
111
103
113
114
122
128
141
131
132
116
116
148
137
137
132
149
153
139
115
116
124
98
135
119
111
128
128
142
153
170
147
122
162
156
166
139
123
146
117
154
147
140
149
137
131
131
125
151
132
124
141
138
135
147
134
158
165
149
177
168
135
139
110
108
108
105
109
74
73
104
99
100
113
102
85
113
108
118
129
115
122
133
114
103
95
102
107
108
127
137
120
118
130
131
98
84
84
108
114
120
142
144
144
145
151
148
156
151
156
150
159
143
117
120
134
140
146
148
149
153
166
183
200
212
215
149
137
155
161
167
157
137
126
116
103
110
104
100
99
99
100
100
101
112
115
116
113
112
112
105
98
102
104
102
92
77
74
87
106
93
123
124
111
125
135
118
102
97
111
92
91
96
77
87
115
123
124
105
97
118
122
105
96
114
120
130
104
96
112
102
110
115
96
96
124
117
115
115
127
126
116
105
128
116
101
102
117
120
110
95
75
73
96
103
88
106
95
102
119
104
102
114
128
120
109
115
107
123
130
134
161
158
137
116
122
112
106
129
131
100
120
111
107
127
139
120
149
148
139
147
136
148
175
150
135
134
153
133
134
145
136
127
128
129
134
124
117
147
159
143
153
155
144
154
160
160
153
166
135
107
79
86
78
63
66
94
88
88
81
99
107
103
124
111
107
93
96
90
115
102
95
101
94
111
148
134
110
106
158
139
96
108
102
117
117
112
123
123
117
122
134
132
109
114
107
117
139
139
147
148
151
145
136
163
192
189
188
189
197
207
216
219
140
153
155
158
155
145
132
121
120
127
106
106
105
100
91
90
97
107
114
124
130
121
105
98
101
107
98
99
97
100
113
129
129
119
107
109
107
102
99
101
113
133
125
109
94
94
91
88
94
94
110
117
131
123
91
81
94
100
102
93
91
110
117
101
104
102
83
95
103
103
99
115
128
131
106
116
111
102
109
110
124
95
92
116
109
85
91
106
101
88
92
85
100
136
127
127
124
128
156
126
129
135
159
161
154
134
132
135
116
119
121
104
115
137
124
117
102
97
121
142
131
144
134
156
163
168
147
159
144
148
181
161
137
145
150
131
119
126
125
114
146
140
136
129
137
147
144
153
145
146
146
128
152
144
122
105
108
106
99
104
118
111
89
100
126
128
118
110
91
69
84
93
81
96
77
81
98
95
137
149
123
141
152
144
104
125
99
96
98
91
102
108
100
122
116
126
146
139
127
119
116
119
124
126
125
133
151
149
156
155
182
196
212
218
213
211
215
153
155
146
155
156
159
158
131
97
88
91
92
93
90
85
87
98
109
123
110
96
87
85
87
90
93
97
108
112
109
111
115
113
106
119
104
101
95
92
106
105
75
83
105
98
81
89
91
77
84
99
75
83
106
107
110
122
124
113
106
127
98
93
108
122
135
104
91
84
89
102
100
105
116
106
94
103
110
110
96
108
113
106
99
97
100
89
72
80
109
100
106
108
112
115
116
117
126
126
131
106
112
159
171
156
137
121
114
132
141
116
111
116
92
133
121
122
111
118
141
136
106
136
150
139
168
160
164
155
162
172
127
149
164
130
119
135
129
146
134
115
103
123
128
136
159
142
148
157
160
150
146
169
155
146
149
122
107
111
106
101
126
110
107
114
115
115
94
104
100
81
89
90
99
81
102
117
129
122
129
151
166
143
137
135
128
124
110
97
101
109
95
84
102
111
100
118
137
144
162
152
135
133
130
119
111
128
133
149
150
159
166
182
203
221
230
228
129
128
137
147
137
133
150
147
130
130
103
98
96
98
102
108
115
121
104
101
102
108
111
105
98
96
96
98
105
112
115
112
112
114
102
106
106
111
125
126
120
124
125
117
106
89
96
100
85
91
91
91
83
80
87
94
104
118
124
111
128
104
96
95
119
123
114
100
86
73
90
85
87
91
114
100
103
109
103
120
112
114
111
93
102
108
98
112
123
101
112
129
119
105
140
147
139
137
126
149
161
175
137
124
141
137
135
119
129
150
142
121
123
140
120
125
141
142
149
127
117
121
140
168
147
166
161
162
150
136
149
130
122
121
151
146
123
128
133
127
107
124
113
141
151
133
152
161
153
148
162
162
135
116
119
146
133
114
107
118
112
119
98
109
97
73
100
112
129
85
89
83
96
105
92
119
102
109
133
130
156
167
151
108
104
114
108
97
92
110
118
123
135
116
114
119
132
133
118
130
124
135
142
147
147
140
144
135
156
168
174
174
178
188
200
212
218
132
137
137
126
126
122
99
92
83
108
105
102
92
94
111
110
100
101
99
101
100
97
94
94
94
93
93
91
95
103
110
107
98
90
101
107
113
120
119
116
123
125
98
88
85
96
85
86
83
90
105
122
117
95
95
109
99
74
96
108
87
113
117
98
90
102
118
100
114
115
112
87
103
91
103
126
97
113
123
106
94
92
62
80
102
112
112
115
89
102
114
126
124
143
146
111
97
103
111
99
99
86
106
147
153
163
165
140
139
109
123
106
125
144
146
127
141
132
152
131
127
144
170
144
187
191
147
164
144
157
143
121
141
136
133
126
131
111
107
143
142
131
127
140
128
125
153
130
133
160
152
138
109
103
118
161
142
125
124
120
107
121
114
123
125
123
143
104
106
110
94
106
90
89
133
111
100
142
146
149
143
115
99
74
82
103
114
122
109
92
106
125
129
141
136
120
137
145
140
146
143
142
137
139
141
149
153
146
156
184
187
199
212
215
212
212
214
141
140
145
149
150
148
132
125
100
91
98
89
95
101
96
96
99
90
96
104
108
97
82
73
74
78
74
104
106
98
112
120
115
120
122
110
107
95
77
95
107
74
77
74
98
86
70
79
79
80
80
77
99
113
102
105
112
101
98
112
97
99
98
99
97
73
94
110
94
93
113
117
108
106
104
84
110
116
95
94
91
73
104
132
104
106
136
129
108
136
130
144
118
88
94
112
116
110
132
116
113
135
182
189
149
136
148
129
134
98
118
125
118
111
120
165
149
133
139
139
151
170
176
175
165
175
180
163
178
166
137
136
170
144
138
138
124
145
156
151
152
160
147
135
130
133
126
142
155
168
162
165
148
122
153
127
116
120
121
132
123
136
130
121
122
134
125
114
113
108
117
95
107
130
138
115
124
144
132
130
130
112
99
103
117
115
120
97
118
116
105
102
86
103
123
124
117
118
133
132
125
133
119
129
134
143
156
156
152
156
163
172
184
198
210
220
222
140
140
146
149
144
155
141
131
126
130
101
100
108
106
92
96
112
113
113
106
96
90
91
97
102
103
110
95
89
96
105
111
101
78
88
96
83
63
63
70
79
96
96
97
83
77
98
87
99
113
106
95
103
105
89
92
107
104
103
103
106
108
98
87
103
87
79
101
82
83
111
121
108
103
129
98
89
100
98
75
109
131
146
126
129
139
126
116
107
131
123
115
107
111
128
131
117
119
100
129
146
158
164
133
108
128
135
132
129
133
144
133
149
150
141
146
140
153
144
136
151
158
149
145
189
175
206
165
190
197
161
153
175
156
181
141
162
163
126
114
128
139
137
141
150
138
131
138
136
154
157
164
166
151
125
113
117
116
114
139
140
138
128
118
127
142
137
134
121
115
105
99
139
153
118
95
107
103
140
140
136
119
89
82
83
78
113
120
82
88
111
107
116
108
109
120
132
131
115
111
124
126
125
114
110
125
139
139
146
165
179
186
195
199
202
209
214
143
147
147
149
140
155
136
112
106
108
111
115
103
99
111
109
96
92
94
101
109
109
103
96
88
82
78
77
104
117
96
96
114
113
103
71
62
73
89
103
99
87
94
77
106
96
82
70
58
75
72
80
80
83
98
105
107
116
100
98
110
109
106
87
109
103
92
76
86
107
130
125
119
84
99
131
116
114
137
123
132
140
163
165
123
133
146
135
147
134
98
113
133
131
132
130
109
107
140
164
163
151
138
120
127
151
148
109
112
118
124
125
114
136
146
112
133
133
125
125
152
173
151
133
176
176
161
186
150
153
148
155
159
184
158
147
167
151
147
134
136
122
125
138
151
128
159
146
124
147
161
158
168
161
142
139
127
126
123
119
129
147
163
154
153
136
156
143
127
137
134
119
111
104
103
119
146
157
151
149
132
110
79
89
94
92
105
93
59
68
110
112
102
122
135
121
125
115
98
109
117
107
136
139
131
121
131
150
154
147
166
183
202
214
218
221
221
131
133
145
146
130
146
156
161
146
119
93
111
110
98
93
87
89
107
113
108
97
88
84
88
94
97
103
114
111
101
104
106
96
84
50
63
96
108
110
114
104
97
90
107
80
83
98
90
70
65
76
73
64
70
89
92
101
127
116
96
103
110
127
94
102
110
102
88
106
108
82
78
124
133
102
113
138
135
134
154
132
126
149
128
131
141
140
118
97
96
146
116
100
96
113
125
112
113
156
156
158
166
162
151
139
120
84
105
114
148
153
146
146
120
108
115
131
118
137
154
146
137
165
173
192
166
160
166
161
138
159
145
149
144
125
156
154
139
137
121
120
119
131
126
131
127
146
158
145
148
154
151
162
146
123
121
120
101
117
146
137
125
119
131
150
151
171
154
123
123
112
111
106
110
114
117
133
164
144
122
96
96
89
89
65
46
62
77
85
87
91
104
110
98
121
127
142
135
147
153
125
124
106
107
126
151
161
162
173
187
171
177
188
201
213
221
220
136
137
129
145
144
143
121
118
128
142
112
92
87
92
91
98
101
90
72
73
76
85
98
104
100
91
101
98
91
89
95
100
94
82
102
106
100
85
97
98
84
109
91
83
102
99
74
77
51
54
63
70
84
88
81
80
81
75
92
90
100
91
105
89
95
97
96
106
102
111
88
92
97
102
123
99
103
121
112
129
128
134
128
136
128
145
147
111
127
146
144
148
135
97
88
112
123
120
144
132
135
128
103
100
114
119
125
130
146
135
121
136
143
145
127
124
104
129
136
155
151
131
150
167
151
172
185
181
146
149
171
139
139
123
161
147
148
136
154
135
124
119
122
118
127
137
127
153
152
135
128
125
149
154
162
99
121
118
124
140
111
108
128
135
146
164
144
140
110
96
112
107
103
115
128
145
143
139
127
115
115
84
34
65
102
78
95
95
77
99
95
78
119
143
134
137
150
141
139
154
156
164
143
127
106
93
103
132
149
142
173
179
187
194
200
207
211
138
140
144
136
134
145
140
135
121
127
121
101
98
104
95
88
82
70
72
92
110
116
109
101
97
96
91
72
75
89
93
99
102
92
84
68
84
84
76
80
73
75
91
83
71
78
79
71
76
92
74
87
95
88
88
104
114
105
76
110
132
91
87
116
134
103
98
121
104
109
100
106
98
109
95
108
100
109
125
136
136
120
127
110
143
130
117
142
141
98
82
81
88
102
102
100
118
133
163
159
165
142
123
130
135
144
155
144
129
135
126
113
136
125
117
111
113
158
134
133
147
152
149
145
167
183
202
166
133
178
129
133
135
163
160
140
133
142
120
126
141
149
132
131
125
108
133
141
142
126
125
120
146
173
176
143
143
114
113
140
148
141
128
141
147
172
153
150
126
106
112
132
130
121
114
131
130
126
152
126
77
73
101
66
53
108
91
95
117
110
120
125
100
113
129
126
128
133
114
114
131
113
137
144
164
167
139
118
128
144
149
168
193
208
212
217
221
150
150
143
144
148
147
144
155
134
130
143
126
98
88
95
91
91
109
117
120
116
105
93
85
81
81
88
100
86
77
94
97
80
74
72
100
112
79
73
84
74
91
88
86
112
99
88
88
102
108
108
112
90
79
91
83
70
82
95
85
110
108
96
104
127
117
94
98
90
96
111
115
122
126
115
98
111
102
128
146
137
144
145
127
133
129
141
136
128
123
112
120
117
121
115
118
144
150
141
149
152
125
133
156
133
120
125
122
137
144
129
105
114
108
125
134
137
114
116
134
135
150
166
146
136
163
162
172
145
170
135
118
147
134
119
155
154
157
145
136
145
149
111
120
131
116
128
128
134
126
142
140
145
157
155
171
128
101
106
100
138
133
124
139
119
118
131
120
114
111
109
129
113
111
123
142
147
175
158
119
101
84
80
82
96
84
106
92
106
111
107
126
137
120
93
133
123
129
111
84
116
119
131
129
144
159
163
170
177
173
189
193
196
199
203
210
217
138
133
142
143
143
142
143
140
131
122
112
139
128
99
103
122
122
116
102
104
94
85
82
77
81
97
92
79
90
97
94
89
89
112
88
93
93
89
83
75
79
92
103
121
100
105
101
97
92
77
84
68
55
77
75
84
83
67
96
95
103
101
112
105
89
132
103
80
97
93
124
115
103
113
104
122
117
103
86
117
117
136
143
138
147
117
108
102
109
142
133
141
124
110
122
127
122
131
137
146
142
132
120
126
109
107
91
122
124
88
123
106
112
127
110
89
102
130
149
140
146
147
138
129
132
160
148
165
138
118
123
126
149
134
142
148
139
141
141
122
162
144
108
120
130
107
118
165
157
134
123
150
139
151
167
158
160
124
92
117
118
134
151
148
148
152
125
110
93
99
99
145
114
112
123
147
144
152
145
141
100
100
99
114
94
77
95
86
89
119
107
104
116
128
115
121
114
110
130
147
135
112
131
119
116
133
134
153
169
187
197
200
204
208
212
216
217
151
155
145
145
140
133
128
129
128
128
98
98
116
125
110
102
107
107
105
102
92
91
96
85
72
70
74
84
94
79
82
103
97
78
73
95
98
79
72
87
105
117
104
97
117
103
79
86
76
88
56
69
85
109
81
70
84
84
110
138
137
127
111
90
102
131
125
106
111
101
96
97
97
119
91
105
123
121
85
90
112
111
121
141
120
109
99
123
153
102
101
100
86
85
118
118
142
149
152
131
137
156
151
138
120
121
143
136
111
114
90
112
110
118
131
146
148
142
160
145
131
131
132
122
114
134
136
156
167
146
150
128
129
129
134
142
145
154
153
144
134
118
157
135
125
134
125
128
129
143
136
136
126
139
142
137
156
150
102
132
156
144
121
131
160
127
114
100
76
85
104
114
111
110
123
143
146
168
124
114
86
44
64
91
128
116
122
144
124
110
118
129
133
143
131
137
120
95
96
118
138
147
146
141
143
143
143
150
171
186
192
199
207
214
219
221
219
136
141
144
146
145
140
135
130
124
121
111
87
95
119
113
96
94
99
103
105
96
82
70
62
66
80
101
80
80
84
83
85
82
82
93
89
88
99
115
115
109
111
85
81
84
73
75
72
68
80
75
99
109
68
53
81
70
68
90
102
102
112
121
118
117
114
83
115
119
115
102
90
60
93
115
93
118
123
118
105
80
87
117
118
91
120
130
110
104
123
75
112
108
105
132
154
176
150
127
122
145
136
113
124
138
123
115
116
131
138
130
113
111
112
118
115
130
125
124
138
155
134
133
154
173
184
185
179
193
147
177
165
162
157
139
135
147
163
176
161
139
120
133
122
129
116
146
138
122
133
139
116
102
126
161
158
144
146
114
135
142
117
117
142
125
112
116
102
131
129
110
99
130
130
142
151
139
153
133
100
97
98
80
70
111
126
142
130
131
137
127
114
126
125
119
123
123
121
116
108
108
118
122
137
160
155
153
145
165
179
195
204
213
219
221
220
217
132
132
133
134
137
139
139
133
120
109
123
113
93
90
101
94
81
85
86
85
81
77
77
79
88
97
94
91
98
92
79
85
99
103
93
99
95
89
95
101
87
70
85
52
56
96
92
63
90
74
89
96
44
50
83
75
80
92
78
96
141
139
121
112
99
116
114
82
70
94
80
75
74
118
124
97
91
113
104
110
135
123
100
105
115
123
113
120
123
124
130
117
101
152
157
149
130
132
159
161
148
127
141
113
95
122
143
151
126
130
146
136
117
142
148
116
109
131
155
138
146
177
175
171
174
162
185
188
201
140
166
179
173
156
153
145
155
159
128
162
175
172
148
147
139
138
150
142
150
155
141
135
144
133
151
169
172
177
128
122
113
102
141
145
126
121
118
132
113
84
127
114
131
126
143
155
140
149
116
115
94
97
99
100
97
103
117
135
134
131
146
123
116
121
122
134
132
125
131
141
138
128
115
130
151
159
166
158
166
177
198
206
214
217
218
218
217
140
140
134
132
130
130
129
128
125
124
103
119
108
92
98
106
99
95
103
96
90
86
87
89
91
89
100
94
82
73
73
88
92
74
64
77
83
85
97
106
98
87
59
80
98
62
61
78
85
83
84
67
59
82
106
83
70
98
68
85
127
123
111
117
105
109
107
93
64
76
121
127
96
99
113
121
110
91
102
123
76
85
89
78
80
106
110
96
122
131
113
128
132
132
115
139
125
132
126
129
136
114
111
109
126
146
129
138
136
142
141
133
125
140
160
161
157
148
164
162
157
149
163
154
173
151
161
145
162
145
148
175
168
143
160
146
154
169
173
158
164
175
167
179
148
131
143
156
139
131
139
132
136
146
138
142
181
198
133
131
136
132
108
130
136
121
93
121
146
137
133
134
124
133
150
146
121
120
80
84
103
109
111
120
133
103
88
128
149
151
161
131
125
131
154
143
132
134
139
134
129
134
145
138
132
148
160
168
165
177
192
200
209
214
216
218
219
138
144
141
140
137
131
121
116
119
125
104
104
108
102
95
105
108
88
79
76
79
83
87
95
102
98
80
75
74
92
95
74
57
46
82
77
78
89
95
83
71
72
116
96
80
96
96
89
104
67
51
78
85
98
92
82
106
74
80
120
137
120
94
94
114
112
112
123
129
101
89
106
128
114
105
113
89
105
104
112
95
83
106
97
94
93
115
103
115
153
130
110
122
124
151
156
132
132
139
118
107
108
127
123
118
134
127
115
154
163
127
133
171
165
156
137
155
166
158
140
140
126
148
117
123
116
134
119
140
168
112
120
114
113
146
129
120
147
122
115
158
153
158
166
159
147
183
161
139
151
137
119
125
124
142
142
168
172
137
133
137
144
123
116
115
134
131
106
121
90
101
121
119
159
179
149
117
105
117
87
86
112
89
93
119
126
112
105
114
139
154
148
137
106
112
94
90
113
133
128
125
136
154
155
143
155
160
170
170
190
193
201
210
215
216
215
214
138
144
138
139
140
139
130
116
107
105
117
104
99
95
83
82
79
64
80
73
77
85
90
92
83
64
72
99
93
78
69
64
85
105
89
98
91
74
69
77
86
93
84
75
106
92
87
93
47
70
88
77
100
82
78
81
69
67
88
117
127
120
104
97
109
112
120
115
122
138
147
122
101
87
87
103
113
117
120
120
91
115
113
84
103
104
89
95
112
138
133
122
135
135
156
133
111
119
110
123
135
122
110
128
119
97
134
116
118
152
129
150
148
136
140
153
148
133
147
132
113
107
95
100
105
113
125
110
141
191
156
127
107
124
134
115
73
87
100
117
121
94
144
147
150
172
158
165
136
156
157
126
103
109
124
156
170
166
155
128
126
133
120
92
124
142
162
147
122
138
140
149
148
159
154
110
94
73
90
110
73
78
90
89
63
79
79
120
115
101
109
124
127
127
107
114
102
86
97
124
136
134
142
165
174
173
180
187
193
211
206
212
215
217
217
216
211
133
130
144
141
144
152
154
141
120
105
96
105
101
95
95
84
79
93
93
95
99
90
69
68
80
82
88
107
85
75
88
88
88
85
86
67
53
62
78
80
78
85
80
78
46
67
61
51
67
71
82
68
77
64
100
95
62
95
103
96
120
130
135
124
95
105
138
117
109
115
120
134
134
100
97
100
97
80
84
109
111
90
77
102
77
94
94
93
118
121
112
140
134
113
115
117
113
116
126
140
120
111
119
122
105
134
138
132
114
102
165
135
119
129
146
136
133
122
122
117
105
74
64
91
74
82
95
85
104
129
142
127
131
150
107
98
74
117
115
97
92
107
128
125
143
155
157
177
144
149
140
138
129
126
131
145
149
159
168
156
170
136
118
135
127
131
139
143
130
150
149
152
159
136
118
89
95
66
55
76
105
86
75
68
103
95
56
65
82
115
109
113
115
108
114
123
137
141
126
108
118
148
133
160
174
168
193
203
210
212
216
218
218
217
217
220
219
149
147
138
133
136
147
150
138
125
120
105
98
95
95
90
82
82
89
85
81
77
76
80
87
92
96
106
81
69
73
78
88
90
83
64
64
76
64
58
69
64
64
54
74
80
55
65
67
68
68
67
66
83
74
112
81
74
110
100
96
95
131
124
125
118
135
130
128
122
109
109
111
130
125
102
103
113
113
87
93
93
73
64
116
127
100
105
108
125
129
126
126
137
125
129
134
116
118
138
123
106
111
116
131
132
146
136
127
143
172
171
153
126
145
117
128
131
115
100
84
67
71
68
76
84
87
78
65
60
61
87
79
55
76
87
104
86
92
100
101
91
84
110
117
115
162
173
156
159
153
151
138
137
128
129
149
150
174
144
163
141
91
116
126
121
140
115
134
128
135
159
173
163
120
99
86
87
67
45
50
58
89
99
63
80
84
100
96
78
96
116
99
107
123
110
86
96
120
150
163
120
139
155
161
164
172
189
200
204
208
214
215
213
209
205
205
203
146
143
148
142
140
141
138
129
121
119
102
98
97
96
89
78
77
84
72
74
78
85
91
95
95
94
86
79
90
101
93
86
92
100
87
89
64
58
78
71
47
40
84
79
63
73
61
67
65
42
60
70
62
114
98
73
109
78
112
87
79
102
121
122
112
100
113
117
126
111
104
103
116
116
111
104
110
119
110
97
99
108
109
119
113
112
118
102
109
130
133
147
129
117
118
137
152
147
119
113
127
111
106
132
167
157
163
152
136
134
140
169
167
166
171
144
110
79
76
81
68
61
66
71
80
86
83
75
71
71
72
93
77
63
62
90
80
69
93
75
71
86
76
84
123
125
157
149
116
130
151
153
166
139
117
121
161
146
164
113
131
122
153
141
132
124
104
141
159
163
157
158
162
115
109
95
78
58
63
69
76
60
81
96
91
83
69
81
137
126
112
114
119
98
116
130
119
106
144
177
144
156
154
166
176
185
199
206
207
209
219
219
216
211
207
206
204
147
148
136
136
135
134
130
125
120
117
111
103
101
103
102
92
82
79
72
74
80
87
94
95
93
90
89
93
96
91
90
97
94
77
73
78
67
65
46
31
66
97
94
56
49
56
55
76
63
61
67
59
78
94
67
97
75
94
104
81
83
85
111
110
107
78
51
63
110
128
133
123
116
121
104
104
107
80
103
99
117
117
127
114
91
104
119
118
120
134
136
143
140
119
102
126
117
123
137
119
112
124
142
120
129
164
149
149
134
128
132
162
168
144
128
99
90
88
77
66
69
90
74
73
76
77
77
76
76
77
66
78
72
61
62
72
72
68
68
89
67
74
97
86
91
117
147
170
161
117
103
130
146
151
140
121
149
182
151
137
141
155
150
154
130
129
139
149
163
167
136
167
130
116
73
58
57
50
63
81
73
62
71
85
111
112
111
95
68
117
103
138
160
133
93
99
121
138
130
124
123
152
162
173
182
190
202
211
217
223
217
217
213
208
206
205
206
153
156
151
151
145
137
133
131
128
124
104
98
97
100
98
88
77
71
80
79
79
83
87
91
91
91
93
87
91
101
97
89
88
95
74
71
60
58
63
88
112
100
69
77
64
67
75
45
54
58
75
74
62
44
71
68
82
99
79
79
98
91
102
101
105
77
46
30
53
66
105
129
115
103
111
109
81
97
89
112
105
121
97
117
118
126
115
115
122
135
137
129
114
110
94
118
116
130
134
118
113
144
131
134
137
146
131
133
133
146
142
145
152
127
83
77
81
72
67
80
85
82
79
77
76
75
75
74
74
76
69
55
56
64
78
68
72
82
68
71
80
78
87
86
73
93
115
150
179
126
113
142
146
157
167
114
126
171
153
164
149
134
131
149
131
146
143
152
171
115
134
151
92
96
58
58
64
59
43
39
38
67
68
59
96
112
135
114
93
83
84
87
97
112
125
115
121
136
130
140
155
150
162
171
177
183
194
203
210
217
215
214
209
206
204
203
202
140
137
136
139
139
136
135
133
124
113
113
109
107
103
96
88
84
85
81
81
82
85
90
93
96
96
91
105
107
96
94
100
95
82
63
77
84
88
109
106
78
79
55
63
86
65
65
55
53
82
80
50
45
54
35
92
67
91
55
82
108
104
97
101
102
85
60
47
51
32
59
105
117
113
97
106
123
116
113
115
132
133
98
105
98
107
106
121
125
118
134
144
91
110
93
94
131
119
92
121
127
134
98
117
144
156
154
145
136
138
140
145
148
117
79
65
74
83
77
74
77
83
78
81
82
82
80
77
73
70
66
54
60
63
77
70
76
75
83
65
84
84
71
78
78
75
106
140
167
130
107
115
164
182
158
141
164
163
153
128
125
140
145
152
120
138
152
146
127
121
133
121
135
104
84
68
60
69
58
51
69
58
58
99
94
69
111
161
160
102
108
121
126
119
130
124
112
125
148
145
145
144
165
176
181
189
199
204
204
205
217
215
211
205
202
202
201
150
152
153
147
136
127
127
132
134
131
122
107
92
87
88
87
83
78
82
86
91
94
95
94
93
92
105
94
85
90
93
80
70
76
69
74
93
93
92
81
59
70
75
72
52
60
46
56
70
55
46
36
56
57
60
53
77
63
45
93
120
113
90
95
99
102
57
47
64
59
65
77
102
127
103
113
109
99
99
129
124
90
90
107
104
93
86
117
137
119
111
142
119
120
84
79
115
104
94
102
84
100
126
142
162
177
136
134
124
118
141
160
144
86
42
74
99
84
71
84
88
84
87
86
82
76
72
70
68
66
59
55
66
66
69
61
69
67
70
86
74
81
94
84
84
83
89
117
179
142
102
121
144
141
146
124
132
157
159
157
155
164
167
126
137
156
150
157
122
138
158
105
90
69
62
60
62
57
62
66
77
70
69
105
116
112
96
118
124
172
159
108
112
128
133
154
152
125
123
142
170
166
167
177
184
192
204
212
213
215
216
214
210
207
207
208
207
135
137
135
140
146
147
141
128
112
100
128
114
100
96
100
101
95
88
90
93
94
92
87
84
84
85
76
85
82
76
80
81
81
87
74
87
96
75
60
82
92
75
61
49
54
64
63
82
61
38
24
60
59
59
65
43
67
56
54
100
115
101
86
91
97
113
82
39
34
49
60
51
72
103
136
142
147
115
108
85
103
114
103
118
125
112
108
129
143
108
117
124
134
112
80
95
115
125
122
129
124
128
111
133
166
148
105
106
114
113
138
144
113
67
68
72
79
74
76
82
80
87
86
82
74
67
66
66
62
57
52
47
59
67
62
52
58
61
60
67
65
82
89
89
97
82
61
82
179
147
71
122
145
168
146
124
132
139
135
129
153
150
135
143
161
145
158
172
131
139
114
96
84
113
82
71
92
76
78
69
50
81
83
55
64
112
144
111
126
130
159
150
142
141
126
108
127
139
130
118
131
136
155
168
177
187
201
209
214
219
213
213
210
208
209
211
209
140
141
140
139
138
136
133
132
134
137
108
113
118
112
102
94
96
101
96
94
88
79
71
72
79
87
92
82
75
91
113
107
89
85
95
81
57
81
110
95
74
61
62
84
91
78
79
54
41
34
51
68
63
48
52
69
57
57
72
97
91
76
87
96
97
106
91
62
45
42
46
45
84
115
113
136
114
99
97
110
101
115
98
103
124
120
100
98
143
155
167
143
124
112
95
90
96
81
100
124
98
124
121
150
147
133
148
129
132
121
117
87
59
59
71
79
79
69
78
88
78
76
69
69
69
71
74
71
59
47
46
46
55
60
54
55
56
47
67
56
69
69
77
96
92
90
92
70
126
160
88
128
150
162
130
154
136
131
128
135
153
173
138
133
143
154
163
132
131
143
96
66
84
99
78
64
95
85
49
78
65
45
89
122
68
68
125
154
139
144
120
111
115
129
136
129
131
129
148
135
128
143
150
168
186
199
208
211
211
214
217
215
212
208
206
207
203
155
157
135
136
138
142
143
138
129
124
115
111
114
113
105
101
103
106
84
83
77
76
83
85
82
81
73
93
99
89
79
74
84
81
72
79
93
111
84
52
47
76
97
89
82
71
46
30
37
49
67
67
63
71
77
65
38
59
65
75
62
73
85
111
70
102
105
74
52
34
38
27
60
59
66
106
108
103
96
101
109
118
97
100
109
129
102
116
114
110
127
124
102
106
117
122
98
93
124
124
118
138
144
155
146
129
149
142
125
117
112
72
64
50
67
72
75
74
72
73
75
76
65
69
62
74
60
65
45
40
31
59
46
61
44
49
55
61
49
60
57
53
65
77
84
92
105
95
83
122
119
107
89
162
148
136
142
155
147
127
131
152
159
156
152
149
150
117
145
132
84
63
96
79
68
61
62
117
97
71
83
75
75
122
124
108
76
127
140
138
127
123
127
102
124
129
132
141
159
169
170
170
180
186
195
201
205
210
214
215
216
214
210
207
206
204
203
160
153
160
148
135
133
137
139
136
131
114
110
113
116
111
102
91
81
98
95
91
92
90
77
68
73
84
76
56
67
65
72
80
90
98
110
91
76
69
78
83
100
88
82
70
54
42
48
58
62
57
56
68
78
69
30
63
71
78
56
55
92
89
68
90
107
106
75
55
34
41
40
60
75
111
117
139
142
136
96
113
124
132
136
123
119
129
132
122
123
112
119
128
109
88
105
131
126
111
119
135
145
137
145
138
145
135
125
136
144
118
41
45
77
74
74
75
79
80
78
74
71
73
56
74
73
53
47
61
44
43
33
49
52
54
71
37
47
64
59
53
54
59
63
70
83
93
106
84
100
129
144
144
132
162
158
183
171
144
118
134
132
158
147
144
157
146
128
120
81
88
64
65
77
70
63
59
76
122
84
101
110
67
62
100
144
130
116
134
176
160
127
132
119
127
130
126
119
123
136
155
173
178
188
200
207
211
215
218
219
218
214
209
205
203
204
205
141
133
134
145
153
150
137
128
128
133
123
113
106
106
107
113
109
98
91
100
92
73
68
76
84
89
90
77
78
77
83
59
77
88
83
73
68
79
76
88
81
69
72
68
64
59
56
60
60
53
31
58
64
48
47
88
62
56
67
51
47
93
83
92
101
83
95
99
102
78
64
57
61
102
136
110
108
124
132
132
85
125
121
127
142
127
121
94
99
103
124
123
124
106
105
101
113
113
99
121
137
111
120
175
168
151
149
137
142
131
100
44
56
91
76
74
74
77
77
72
68
68
61
82
60
64
62
69
44
57
38
42
61
55
53
59
41
42
51
49
55
62
65
69
75
78
91
105
63
114
117
123
135
128
169
157
159
168
165
129
120
135
145
142
152
165
110
95
84
76
69
60
54
52
88
112
61
85
86
104
82
121
113
97
95
106
140
149
128
129
146
143
141
135
124
140
147
144
142
143
152
163
177
190
202
209
212
213
214
214
215
212
208
205
204
205
205
153
156
154
142
131
131
140
142
129
114
121
116
113
109
104
105
99
87
84
90
83
75
89
102
94
77
68
95
82
80
69
90
74
45
60
81
83
92
86
65
52
83
82
67
62
64
59
56
56
60
66
62
53
62
74
47
54
80
58
64
90
82
74
125
80
93
85
98
83
57
42
41
35
66
73
67
79
105
121
121
130
109
117
110
128
124
119
92
108
119
126
121
117
118
135
125
114
108
129
122
125
124
145
164
137
120
126
136
141
127
96
75
64
61
74
72
74
76
74
68
71
79
77
75
76
66
66
66
64
48
50
46
52
54
61
54
59
54
67
67
66
54
44
56
66
60
88
101
64
140
141
111
117
135
151
168
159
163
142
145
128
131
155
169
167
146
95
109
92
83
105
102
100
72
111
142
66
70
84
119
128
85
131
124
133
111
121
132
137
129
105
100
117
112
115
131
141
149
159
166
175
185
190
201
213
218
217
216
215
215
209
209
209
209
209
207
204
143
149
149
157
159
147
132
122
121
123
125
121
113
100
88
93
101
100
99
100
101
105
105
91
82
86
106
86
82
80
87
54
62
64
68
69
74
81
71
84
84
73
76
68
68
71
63
53
56
60
60
49
52
58
55
50
67
52
63
82
51
64
80
51
78
70
89
111
83
63
42
34
29
40
59
75
81
63
95
125
130
135
96
116
118
111
116
95
88
112
121
130
146
143
111
111
112
102
129
138
133
129
144
152
145
133
108
133
136
134
89
82
74
72
75
71
72
78
80
79
78
79
78
69
83
83
75
63
70
63
49
31
57
57
61
56
65
85
74
78
85
76
62
63
67
58
78
97
71
94
146
117
124
124
148
139
148
160
121
150
149
111
125
138
135
121
106
116
96
114
102
109
123
104
89
95
107
101
66
72
138
124
118
157
145
152
141
123
119
127
123
118
115
100
108
118
125
132
146
160
172
183
199
208
216
218
216
214
213
212
208
207
208
209
209
207
204
142
140
143
154
163
162
154
140
122
110
94
102
114
118
112
109
108
102
101
107
104
93
81
76
87
106
90
92
71
68
47
53
62
75
63
90
86
84
91
97
81
83
60
67
74
68
57
54
55
51
62
60
78
81
56
74
66
88
95
67
47
78
81
56
72
73
87
111
97
88
53
35
33
31
45
73
63
88
74
103
136
110
108
133
137
129
115
112
96
91
112
130
139
144
117
102
93
107
137
139
126
121
131
124
139
153
93
132
138
147
100
88
78
61
76
70
68
73
81
78
63
49
25
4
26
74
62
62
59
48
31
47
68
60
52
54
75
66
9
18
45
75
78
67
60
60
81
119
94
104
135
110
108
130
152
122
134
147
144
147
146
109
156
169
156
125
101
80
62
98
90
89
115
109
90
74
97
107
114
88
107
110
115
118
131
142
143
152
135
116
120
124
126
136
122
136
146
152
161
170
181
192
201
207
212
213
211
210
209
209
209
208
206
206
206
206
206
153
148
147
149
149
151
156
155
140
125
111
104
102
106
105
106
107
102
91
96
85
75
86
103
98
84
92
74
67
73
93
89
97
92
96
86
75
83
79
82
68
57
75
73
69
58
49
56
71
76
95
84
58
57
85
67
87
80
73
59
65
95
68
71
77
83
110
96
91
89
60
47
45
36
22
37
65
49
63
79
116
140
132
117
114
117
111
133
131
101
101
110
105
127
152
126
105
139
99
117
120
103
128
144
139
128
118
135
118
120
94
83
89
50
70
69
66
66
68
62
42
21
2
2
5
17
94
79
61
58
42
60
58
52
60
74
70
7
2
2
20
52
72
65
62
73
54
119
98
139
122
102
84
113
140
155
161
139
151
143
140
128
170
189
152
96
71
80
62
60
73
65
77
96
121
118
97
99
108
131
95
121
116
122
128
138
152
120
119
123
108
110
118
113
117
130
140
148
161
176
190
204
210
214
217
217
216
216
213
210
209
207
206
205
205
206
206
151
148
140
149
153
151
149
150
151
147
131
112
102
107
113
117
114
105
94
100
97
91
95
97
91
85
87
88
84
101
108
105
98
88
84
95
91
90
82
82
78
90
85
74
71
74
72
74
90
102
77
54
67
90
86
95
88
80
76
50
84
77
86
98
87
88
102
80
107
111
71
47
43
46
31
27
42
56
61
93
109
118
119
115
116
123
130
129
128
128
125
119
116
118
133
111
105
117
143
119
126
127
152
139
110
122
133
131
113
129
125
91
97
47
59
66
68
63
58
53
38
23
10
19
3
2
47
79
70
53
60
40
64
57
63
82
35
1
8
14
23
45
68
66
57
61
50
122
95
116
117
135
138
116
140
131
131
143
150
142
141
151
186
173
130
112
82
78
68
81
58
73
56
80
72
82
127
125
107
115
139
122
126
143
128
119
119
110
106
103
108
114
117
128
135
148
161
174
191
199
200
202
213
215
217
216
216
215
211
205
205
206
207
208
208
207
204
141
156
148
144
135
137
146
140
129
129
135
137
135
121
108
109
109
100
102
98
92
90
94
99
99
94
111
104
109
125
100
78
100
107
114
107
96
87
86
96
96
85
89
96
100
90
92
114
104
59
69
79
102
101
110
78
59
91
93
89
72
62
94
95
94
99
87
93
110
106
85
57
36
34
31
36
67
73
75
99
111
119
117
126
122
115
130
90
118
115
94
114
127
122
128
130
136
122
117
121
115
124
151
173
125
146
113
130
133
128
124
120
101
62
64
60
73
66
63
57
53
18
2
3
2
2
17
90
64
52
46
45
71
55
76
62
1
6
3
21
37
57
68
63
59
54
70
131
119
108
104
88
133
142
138
125
127
133
131
143
142
166
198
161
90
89
82
83
82
182
93
83
80
87
110
94
97
117
151
201
182
111
138
114
112
108
102
104
103
86
102
119
130
112
128
144
155
163
180
199
211
219
210
213
216
217
215
211
207
205
206
206
206
206
207
208
209
147
143
159
161
145
131
134
139
136
138
113
120
126
116
102
102
104
99
89
97
107
111
108
104
103
104
114
105
93
85
97
118
119
108
94
89
93
97
89
80
82
89
107
113
109
112
108
71
67
117
90
124
118
95
90
70
80
83
101
86
89
93
88
80
84
82
97
98
107
100
80
59
45
53
69
83
71
48
74
57
63
73
116
118
130
101
124
125
138
141
142
126
113
113
134
120
116
134
125
89
99
131
131
151
126
133
137
122
159
138
116
125
136
106
45
69
62
67
82
60
34
1
2
2
3
8
18
87
69
62
53
49
65
57
83
36
1
1
5
8
40
68
60
55
62
53
94
129
131
123
101
85
127
160
129
134
148
153
116
105
127
118
152
156
103
86
100
85
97
80
97
77
97
98
115
124
91
123
129
140
163
144
121
153
114
108
106
95
89
110
94
115
120
126
134
149
163
173
188
198
204
209
216
216
214
211
212
210
211
212
206
206
206
205
205
205
205
150
135
131
130
130
137
141
128
114
114
138
108
96
106
102
89
91
103
104
120
127
116
104
101
99
95
96
95
103
104
118
119
90
89
80
94
102
95
91
105
116
111
112
106
104
92
87
108
107
73
109
102
78
76
88
79
90
88
78
98
97
85
78
83
89
102
108
107
108
95
83
78
68
68
46
48
40
48
65
53
87
72
62
71
126
119
123
122
125
120
104
113
125
103
90
75
87
126
108
102
109
120
125
151
125
124
109
119
115
104
125
141
96
140
79
52
57
59
44
34
2
2
2
2
8
16
16
74
65
59
55
52
63
62
87
8
2
2
7
2
25
63
75
79
86
86
125
97
137
121
123
107
105
128
144
119
140
156
155
139
117
147
177
140
103
95
96
102
101
84
99
139
99
106
116
133
155
126
105
100
123
98
112
147
108
104
103
121
94
97
94
126
125
155
149
164
177
191
205
210
213
218
219
217
214
210
208
208
210
212
207
206
206
205
206
206
207
158
152
144
135
130
135
135
119
101
93
102
112
119
114
107
113
121
118
123
102
79
75
90
106
106
97
102
100
114
119
109
89
80
101
122
111
107
108
102
97
94
91
91
90
92
98
101
99
100
108
91
93
102
77
62
69
79
95
91
104
88
92
110
123
96
83
113
105
99
94
107
107
63
17
34
34
39
56
14
16
69
72
61
74
106
124
135
117
129
145
126
125
143
117
108
108
99
101
89
103
126
116
98
128
117
97
138
139
131
129
139
158
95
102
104
66
67
57
7
6
2
14
16
13
28
40
32
75
70
62
50
53
65
67
81
2
3
6
3
2
3
21
52
58
55
79
78
99
160
146
133
137
127
105
138
125
135
123
131
152
113
155
194
131
95
77
82
63
101
104
98
108
126
132
140
150
124
122
128
82
97
93
100
89
117
110
94
123
116
98
118
133
136
144
158
169
181
193
205
209
213
221
215
215
213
211
208
205
205
205
206
206
206
206
208
208
209
155
154
147
152
144
126
118
123
115
94
85
90
92
94
104
121
117
96
79
79
94
115
115
100
97
107
116
114
110
106
92
97
120
117
115
98
90
94
99
102
103
100
96
93
90
95
106
118
119
113
116
88
85
86
87
93
82
84
110
90
89
107
95
103
109
112
127
130
132
117
104
91
61
39
45
49
35
30
10
12
33
78
123
134
117
110
135
124
118
143
108
110
130
114
111
93
78
104
91
120
139
134
127
129
121
145
154
135
147
122
137
153
147
89
87
124
91
85
44
28
27
27
31
30
48
62
51
78
72
61
49
52
64
67
73
23
11
13
7
14
11
9
31
34
37
77
95
133
139
158
122
126
151
137
151
143
120
122
110
143
134
142
134
128
122
127
93
125
83
92
113
117
107
124
138
123
149
154
101
113
112
125
103
87
99
94
108
88
115
125
135
136
165
157
166
175
183
193
203
205
207
215
212
212
211
211
208
206
205
203
206
205
205
205
206
207
208
155
149
129
136
140
129
115
116
114
105
105
96
99
107
99
90
97
110
112
112
112
114
119
120
114
105
116
116
111
113
103
113
132
105
86
95
104
106
104
106
95
75
93
99
96
102
115
102
93
110
98
80
72
108
105
84
91
107
101
93
101
120
121
124
123
121
129
110
101
97
97
88
68
62
40
44
47
38
53
33
13
51
58
73
98
90
96
135
133
129
107
112
106
97
129
106
72
97
130
116
148
154
109
112
132
127
139
138
134
138
170
159
136
88
87
110
94
101
68
57
54
46
47
51
65
75
61
75
64
52
47
50
58
65
76
62
40
33
31
25
34
37
50
63
73
106
90
91
128
138
146
123
110
95
157
150
125
131
138
168
147
171
132
134
82
97
89
95
131
134
135
139
140
134
135
124
138
132
102
135
107
100
102
112
92
114
139
113
122
132
130
129
149
153
170
183
193
201
209
212
212
216
213
213
211
209
208
208
209
210
210
208
208
207
207
207
208
160
154
147
133
132
132
115
101
103
108
99
97
97
98
98
105
106
97
106
121
125
114
109
115
117
110
120
114
112
111
105
105
107
97
103
86
83
89
83
77
85
99
92
83
101
108
89
89
93
72
70
92
92
104
93
87
94
95
85
104
107
95
97
97
102
108
89
87
99
106
107
99
80
75
49
33
45
37
24
21
34
77
77
91
120
116
85
107
113
99
130
135
122
107
126
115
97
96
114
115
126
125
123
142
150
139
124
113
99
135
145
159
154
139
102
66
74
85
55
56
47
57
63
74
82
83
69
73
64
56
44
54
59
64
77
76
64
51
42
29
35
43
63
71
69
104
101
116
173
120
143
143
127
119
125
157
152
111
134
166
139
173
196
155
104
114
80
75
87
112
146
135
148
137
119
103
82
83
90
75
84
108
121
117
107
118
103
123
128
128
143
151
154
165
173
188
197
203
211
214
214
215
214
213
212
210
208
209
210
211
212
211
210
210
209
210
211
140
137
141
128
127
130
121
113
106
94
116
104
99
99
96
99
114
127
119
110
111
118
113
102
107
124
114
113
112
98
103
108
91
92
82
84
90
92
88
88
87
81
83
100
96
87
90
87
78
82
78
81
95
104
101
104
82
90
104
89
103
108
108
104
107
84
78
85
94
89
94
101
83
65
60
42
56
90
63
51
17
17
33
75
67
101
111
90
95
119
122
110
118
111
96
100
130
120
129
127
120
117
140
156
145
126
95
123
143
152
158
163
158
143
107
90
73
80
71
57
47
62
58
74
81
77
66
69
64
62
43
62
65
65
70
61
65
53
35
38
35
37
67
60
47
111
144
169
143
134
118
108
117
142
139
146
127
116
146
145
156
157
117
99
126
131
125
111
118
103
87
114
123
104
90
113
96
68
40
72
56
53
76
108
118
132
133
149
161
145
151
156
174
177
188
201
207
206
211
216
216
216
216
216
215
213
209
208
207
207
208
209
209
209
210
211
212
107
114
122
119
120
120
117
112
108
106
105
106
102
99
108
120
120
109
117
120
114
109
105
110
119
108
117
104
105
101
103
105
91
93
102
120
113
93
89
86
79
82
77
76
95
100
102
92
66
70
81
82
80
74
86
95
87
92
91
102
117
103
110
98
79
83
97
83
87
79
85
83
91
98
104
89
61
55
41
41
25
4
17
30
46
80
86
75
93
106
115
126
119
118
145
154
144
158
144
110
138
148
157
127
124
146
154
151
153
152
129
119
137
138
151
122
81
74
58
54
54
63
64
63
82
66
58
56
60
64
48
58
66
65
65
71
61
38
34
48
48
45
44
52
65
126
155
159
124
121
117
111
139
126
136
137
124
143
164
135
151
155
94
136
116
128
118
137
132
114
111
80
90
123
100
94
103
111
107
59
78
82
84
100
119
111
139
157
161
151
154
168
181
187
198
205
211
212
211
213
215
215
214
213
213
213
213
211
210
210
212
211
211
211
211
211
211
115
108
97
100
104
104
102
100
102
105
95
94
99
108
108
105
109
118
124
125
99
99
122
115
103
106
97
94
99
94
102
117
110
105
106
107
102
96
88
74
75
93
84
102
99
102
96
83
94
98
91
101
84
93
93
75
90
96
102
92
93
89
100
86
80
102
98
79
87
83
89
96
104
101
75
71
50
57
33
16
32
16
6
41
22
40
88
92
104
72
81
95
134
122
121
129
136
147
143
138
118
139
130
125
132
140
125
129
142
129
142
125
135
154
144
134
93
50
57
63
48
46
54
53
66
60
64
65
65
58
48
58
67
68
65
62
62
65
62
44
56
61
41
74
112
142
160
146
114
110
117
123
152
139
111
150
161
168
147
145
128
115
108
120
131
111
163
118
121
133
99
86
102
79
88
109
94
70
88
114
90
67
90
92
95
113
109
135
153
160
167
176
183
188
199
207
213
214
213
213
213
212
212
212
212
212
214
214
213
212
212
212
212
212
212
212
212
140
133
112
105
98
97
100
103
101
98
102
103
102
100
104
113
118
120
87
94
106
125
118
96
100
114
112
108
117
117
104
88
82
95
100
96
88
82
80
82
85
89
98
101
81
81
90
95
108
104
92
99
77
80
76
59
69
66
62
75
80
69
90
107
104
100
107
95
111
108
101
103
106
94
93
80
52
60
65
26
21
31
12
21
38
62
91
99
100
76
79
98
124
113
130
115
117
127
124
128
140
143
134
117
127
156
138
141
124
133
114
134
172
145
122
101
96
61
50
55
58
44
43
52
62
59
61
58
67
54
49
58
58
57
61
58
55
62
39
59
60
52
55
92
124
167
140
132
130
139
148
138
144
137
118
136
146
174
170
161
125
146
122
121
115
120
143
127
102
121
56
66
70
61
65
59
82
96
97
109
118
120
123
132
116
125
150
152
149
154
173
188
192
192
200
207
213
215
214
214
213
212
214
213
212
212
213
213
212
213
213
213
213
213
213
213
213
110
125
113
108
102
98
99
99
93
87
93
103
108
106
107
110
101
89
101
114
118
111
105
120
134
116
90
110
121
108
97
102
105
104
103
91
88
93
94
96
105
113
100
87
86
89
110
122
95
85
96
79
74
79
88
89
78
82
77
80
89
93
93
71
58
63
75
79
92
85
82
90
99
105
101
96
113
72
55
61
39
4
47
58
61
57
5
7
84
102
86
110
114
131
154
123
117
118
105
148
148
140
140
132
168
161
134
126
98
97
173
180
142
146
148
123
123
93
47
38
61
51
44
56
60
57
58
52
66
49
50
68
64
56
66
68
57
53
62
52
48
57
77
133
148
125
141
134
123
130
141
134
124
142
141
150
131
127
162
161
124
125
130
127
142
128
105
110
124
106
88
76
82
93
79
69
59
88
101
115
85
114
113
116
140
145
134
146
155
163
173
182
192
205
202
206
212
214
214
213
212
213
216
215
214
213
212
212
212
212
214
214
214
214
214
214
214
110
93
94
104
111
107
97
94
96
99
101
102
109
114
105
91
90
98
111
119
104
107
126
116
98
92
120
105
98
108
111
103
106
115
95
111
117
105
97
103
101
84
89
91
109
105
100
93
83
101
117
95
93
101
100
91
82
91
107
116
110
97
89
90
94
97
64
80
87
81
85
87
78
90
94
102
104
53
47
51
52
72
38
20
28
8
4
63
69
85
103
85
83
107
120
142
135
122
160
112
108
136
158
172
128
141
178
91
38
178
149
118
95
154
142
152
136
118
78
59
57
44
50
51
46
46
57
56
64
41
43
63
64
56
62
62
54
55
49
41
55
100
133
163
143
93
130
142
122
130
156
171
138
154
166
172
156
146
151
140
120
97
91
81
93
114
93
118
135
78
94
118
82
101
88
84
110
71
88
97
114
134
113
135
132
134
137
140
146
162
185
197
197
198
209
210
213
213
214
213
213
216
217
216
214
213
213
213
213
213
214
214
214
214
214
214
214
101
110
109
113
112
103
97
100
109
115
115
108
102
100
99
102
111
121
118
106
95
111
115
97
102
125
105
113
107
106
113
122
124
109
114
116
99
75
76
95
97
83
102
98
81
92
101
91
96
95
87
105
102
105
98
98
122
112
107
103
92
107
115
114
99
79
80
88
87
90
99
101
81
85
79
97
105
91
70
78
91
40
9
37
8
38
96
79
14
46
110
90
93
84
87
141
125
140
98
70
71
96
122
128
141
145
127
58
159
140
116
108
146
85
112
101
99
123
100
85
74
60
54
49
47
44
51
50
53
38
48
48
42
45
54
52
48
54
57
60
103
155
138
134
136
109
123
152
135
125
136
157
132
137
165
151
171
194
133
98
112
118
80
71
84
80
76
58
118
111
86
92
93
87
87
95
133
119
101
101
96
136
122
135
160
155
160
169
175
174
177
184
197
214
216
215
214
216
215
213
214
217
215
215
214
215
215
215
216
215
215
215
215
215
215
215
215
114
112
117
112
102
95
99
108
111
107
102
102
99
98
105
112
107
96
79
87
97
106
104
116
124
103
115
116
114
126
126
112
113
110
104
91
88
108
121
105
93
103
87
104
101
105
98
82
91
96
94
112
103
100
96
108
131
108
106
107
84
85
100
129
122
85
74
61
57
70
78
102
103
105
107
109
97
116
98
68
59
22
34
27
68
78
35
4
29
87
60
86
108
89
68
79
76
122
125
63
74
57
86
78
107
112
106
162
142
94
95
143
89
72
126
72
88
104
79
74
77
91
60
52
60
52
51
44
41
36
61
47
38
45
58
65
66
68
113
131
120
127
125
120
116
124
132
157
174
167
149
131
119
107
140
141
174
151
82
68
99
108
112
116
97
124
91
90
80
90
111
108
96
114
127
103
124
120
104
99
88
100
127
141
125
169
165
172
174
179
190
199
202
204
216
214
215
217
217
213
215
217
214
214
216
216
216
215
216
215
216
216
216
216
216
216
216
103
97
92
98
104
108
114
118
113
104
111
105
104
110
105
93
86
87
91
105
105
117
125
110
110
124
123
124
111
115
121
120
124
112
107
135
131
106
101
103
103
105
114
101
92
75
77
86
74
78
98
64
60
74
89
100
98
95
98
90
88
122
113
92
87
92
91
69
78
94
79
93
91
78
73
82
106
115
63
50
50
31
53
80
54
11
18
13
70
91
83
85
86
101
76
60
96
109
90
114
132
99
68
61
105
82
129
106
134
104
110
94
62
100
110
84
115
84
66
56
42
83
70
51
61
55
60
54
40
32
49
49
50
49
55
74
88
88
104
111
109
115
104
126
131
88
143
125
152
159
147
118
149
145
147
157
182
99
78
78
101
111
123
109
91
90
81
106
96
91
101
109
101
99
106
120
105
124
134
133
138
138
127
146
148
151
160
173
180
182
190
201
207
211
210
209
211
216
216
214
215
217
216
216
217
217
216
215
214
213
216
216
216
216
216
216
216
96
106
103
115
121
119
116
112
110
113
110
105
100
95
90
87
90
95
101
111
116
111
110
117
127
130
118
121
122
121
120
119
116
112
122
107
107
111
104
109
118
115
106
81
88
98
90
72
60
75
85
86
89
61
69
42
63
50
53
70
85
78
65
85
82
93
99
91
96
74
66
70
65
69
78
109
87
106
106
54
44
97
91
40
18
22
21
22
91
90
95
81
64
78
89
76
98
78
79
146
110
92
58
109
121
90
102
122
116
99
123
112
127
115
82
89
90
103
49
64
57
53
52
53
60
43
51
42
46
39
54
54
51
66
62
58
69
56
86
76
95
102
109
107
146
129
135
136
118
153
145
168
142
161
169
193
113
95
100
76
102
97
95
119
102
87
88
102
114
103
112
119
145
145
127
93
101
109
102
111
126
143
151
154
160
167
173
181
180
190
204
208
213
214
218
215
214
215
216
217
217
217
216
216
216
216
215
214
215
214
216
216
216
216
216
216
216
97
110
122
118
106
101
108
113
111
110
109
107
104
101
97
96
100
107
99
106
112
115
120
124
126
124
134
129
123
117
111
105
105
108
104
112
115
101
99
125
130
102
92
93
107
100
78
79
84
82
71
66
65
72
84
69
77
71
61
69
63
63
54
63
78
93
74
78
100
101
109
81
71
53
94
89
77
101
106
104
92
72
56
24
15
29
9
55
107
93
77
97
76
75
97
113
88
78
90
65
70
55
94
112
123
125
107
113
82
91
111
115
129
102
69
70
78
69
66
66
79
71
61
63
57
57
40
65
62
44
60
48
62
59
62
66
59
61
77
79
85
85
105
111
142
160
151
143
160
161
155
176
164
168
191
143
103
145
171
132
133
118
119
136
115
96
120
91
71
127
115
115
114
128
180
163
149
157
130
125
125
130
137
146
158
168
176
185
185
197
208
211
216
217
219
217
217
217
218
218
218
218
217
217
217
217
216
216
215
215
217
217
217
217
217
217
217
88
98
96
98
98
100
111
117
116
117
109
107
105
102
99
99
103
109
108
106
107
113
121
125
122
120
112
112
115
118
116
111
111
116
116
100
106
125
127
122
122
121
118
103
96
101
94
86
91
90
67
79
82
100
91
87
87
94
103
99
73
80
84
85
82
62
78
69
69
63
65
76
70
117
98
89
77
90
113
133
105
59
67
47
22
21
13
97
105
86
84
85
91
82
77
96
84
102
69
85
120
109
105
72
124
126
102
122
117
85
93
139
90
75
107
93
91
53
80
69
65
55
67
48
63
74
64
64
77
64
81
66
72
58
70
65
61
67
71
79
98
91
84
112
147
160
170
117
180
185
174
161
152
185
175
97
81
105
135
90
137
120
134
159
163
107
113
100
84
134
100
107
112
126
111
116
170
122
100
116
137
148
148
148
162
176
176
187
189
200
210
211
217
218
217
218
218
218
219
219
218
217
218
218
218
218
218
217
217
217
217
217
217
217
217
217
217
94
96
100
109
117
121
126
122
114
111
110
107
104
103
102
103
104
105
110
106
105
108
112
112
110
109
111
117
122
123
119
114
111
111
112
110
121
131
125
113
103
95
83
91
101
105
86
85
98
73
75
98
101
103
86
99
107
119
109
103
92
101
98
82
79
76
68
63
77
67
67
57
103
84
81
102
117
115
114
115
101
92
66
65
38
7
42
115
96
87
102
86
105
81
68
66
83
118
101
89
64
96
118
81
80
127
84
101
89
107
107
95
88
134
105
114
94
68
87
73
65
63
76
74
89
58
67
80
122
113
71
69
62
62
86
66
82
81
72
78
107
106
79
107
130
145
156
173
142
172
172
179
170
165
121
99
122
102
101
96
115
107
101
92
120
110
144
151
108
63
108
115
123
134
135
129
108
122
136
131
132
141
151
157
164
169
178
190
193
203
211
210
216
218
216
217
217
218
218
217
217
215
218
218
218
218
218
217
217
217
217
217
217
217
217
217
217
109
114
120
120
117
116
122
120
109
103
111
107
104
106
110
112
110
105
97
98
100
102
98
96
98
103
129
132
129
118
111
113
115
115
115
127
133
119
102
92
81
66
81
122
97
87
109
89
69
83
104
104
95
84
78
91
91
89
91
76
93
118
119
90
62
66
64
70
62
41
45
83
71
69
75
70
88
97
108
118
109
82
57
62
73
29
85
107
97
92
92
107
97
62
72
71
71
79
87
126
78
61
78
81
125
73
51
51
98
113
50
85
153
107
84
77
120
72
72
92
46
91
70
71
72
70
83
67
78
104
72
72
69
72
95
72
86
87
88
95
98
105
108
125
126
163
139
173
186
138
196
181
156
118
77
88
124
116
109
149
89
110
121
102
108
116
136
103
108
133
123
129
121
146
121
152
149
123
178
164
149
147
152
162
177
186
187
200
202
210
215
211
216
218
216
215
216
216
217
218
216
214
217
217
217
217
217
216
217
217
217
217
217
217
217
217
217
107
109
106
109
106
103
107
109
108
111
111
108
106
106
110
110
104
96
93
95
95
90
88
93
105
117
120
122
120
114
113
120
127
130
140
130
121
113
101
90
94
109
136
110
107
122
110
97
97
85
88
79
84
90
102
107
99
96
90
98
120
96
78
77
88
113
98
106
87
79
105
65
73
68
58
72
77
75
97
108
110
99
78
54
79
66
107
97
103
86
92
106
84
73
64
75
68
46
62
106
109
100
57
94
81
67
72
88
110
93
92
96
90
88
98
103
100
84
81
56
72
66
67
87
79
51
92
83
82
94
81
65
78
74
90
87
90
109
102
107
97
97
114
156
164
168
164
172
170
186
176
151
134
79
71
61
49
75
104
120
118
155
177
116
91
108
116
101
124
105
104
103
147
178
139
154
113
143
139
147
158
161
157
158
171
187
197
208
208
214
216
212
214
215
218
216
216
217
218
218
218
217
216
216
216
216
216
215
216
216
216
216
216
216
216
216
216
98
95
100
109
113
111
110
110
112
119
110
110
110
108
108
105
97
88
97
100
98
92
92
103
116
124
116
114
117
124
126
124
126
132
137
134
121
106
108
119
129
135
98
110
130
121
103
105
104
91
92
92
101
103
102
103
92
94
85
103
110
83
86
105
115
104
67
49
79
108
79
70
82
75
94
106
85
74
106
111
121
119
92
55
50
87
107
98
102
94
111
93
87
98
68
72
78
54
85
89
62
55
155
107
110
103
100
110
78
86
124
85
66
90
119
96
90
87
85
70
112
92
84
100
104
98
142
100
76
88
114
97
111
112
109
100
94
107
114
122
119
115
122
163
178
148
160
177
177
138
120
86
114
108
88
83
86
140
144
98
109
103
118
168
130
98
125
116
117
136
87
112
113
127
117
135
127
142
156
155
159
169
178
182
185
187
199
209
208
214
218
212
215
214
218
217
216
216
217
217
217
217
217
217
216
216
216
216
215
215
217
216
216
216
216
216
216
91
104
95
98
99
105
118
125
123
124
108
113
116
114
112
109
102
95
92
101
106
105
109
115
115
111
119
112
117
133
138
130
131
143
120
122
118
113
122
128
120
111
117
126
112
89
98
94
77
105
92
92
84
66
54
74
68
72
100
106
102
100
112
103
106
84
88
123
115
91
102
96
103
89
109
97
86
81
71
70
117
115
106
89
47
118
112
103
89
109
108
88
89
84
84
72
71
59
86
75
48
74
93
63
115
124
137
105
128
143
160
153
113
132
109
67
94
92
75
102
147
160
168
196
171
167
152
123
66
74
98
110
133
177
179
162
166
160
140
161
155
163
174
162
157
154
131
177
66
25
147
74
85
79
93
76
100
144
96
136
135
150
107
145
148
137
129
134
141
133
125
114
99
101
107
132
143
157
157
156
159
167
174
180
186
195
199
208
207
214
218
217
218
218
217
215
214
214
215
216
215
215
216
216
216
216
216
217
215
215
215
215
215
215
215
215
215
73
80
93
106
115
117
120
120
115
111
116
116
119
118
107
94
91
97
110
102
102
107
106
97
100
110
113
107
125
139
126
135
152
136
120
113
117
126
128
117
110
118
94
112
107
83
79
94
99
93
74
61
64
71
100
83
72
109
86
83
122
140
72
75
117
110
112
117
67
96
81
82
88
113
69
75
88
78
93
72
90
118
123
105
86
117
100
95
100
111
97
89
71
78
83
70
68
64
88
69
47
84
60
40
81
91
61
81
101
129
105
140
129
180
161
95
82
74
84
112
153
134
168
167
151
104
122
82
45
74
82
73
98
141
131
156
169
188
159
172
160
168
153
134
87
71
93
81
64
154
136
95
118
84
106
146
102
147
108
122
115
203
147
113
127
144
144
121
113
114
120
129
118
110
109
125
122
140
156
159
162
165
171
182
195
207
214
217
219
220
217
215
215
215
217
217
216
216
216
216
216
216
215
215
215
215
215
216
216
214
214
215
216
216
215
214
213
100
103
112
109
109
103
95
103
113
109
112
112
113
111
105
103
111
122
106
101
98
99
99
99
103
108
93
119
137
122
127
147
137
126
125
138
123
112
109
105
96
74
105
87
77
96
120
117
96
84
83
83
99
87
79
84
88
70
95
67
51
54
76
106
96
82
75
76
90
71
70
62
85
61
71
93
100
95
101
81
86
121
128
113
98
110
103
101
107
102
97
88
72
81
89
76
68
58
92
68
51
80
44
49
91
83
47
81
86
91
51
63
70
122
103
121
99
106
88
75
133
78
114
122
100
74
80
42
39
36
18
56
84
83
70
114
140
154
115
77
44
103
68
43
64
6
55
94
165
138
137
132
115
117
103
130
159
133
192
158
112
171
187
146
145
138
122
135
142
116
117
113
128
129
126
137
144
142
155
164
174
181
186
193
203
212
214
216
218
219
217
216
216
216
216
216
215
215
215
215
215
215
214
214
214
214
215
215
215
215
214
214
214
215
216
217
218
97
106
98
110
104
98
110
114
116
126
124
116
107
106
111
115
114
111
99
99
97
95
96
99
100
99
122
123
106
127
146
130
124
120
118
123
124
104
105
99
82
108
73
82
129
149
114
99
100
80
80
97
93
85
91
69
72
96
50
61
84
83
102
96
82
122
110
104
67
74
85
118
89
101
106
83
78
81
69
89
87
51
98
111
117
110
104
101
108
96
98
88
74
82
90
81
71
59
95
67
59
77
37
66
104
75
53
102
94
85
50
41
70
114
37
70
91
86
62
50
85
69
108
95
97
66
58
45
36
25
16
50
71
65
78
116
130
134
52
23
42
66
25
56
58
13
45
82
125
74
115
103
98
120
87
103
131
168
135
83
118
147
152
155
147
122
125
160
168
158
139
121
135
132
139
146
158
154
160
165
175
186
198
204
207
208
214
215
215
217
215
215
216
217
214
214
214
214
214
214
215
215
213
213
214
214
215
215
216
216
214
214
214
214
215
217
219
87
106
102
100
113
118
106
109
113
100
111
107
103
108
117
121
111
99
90
94
99
103
108
111
111
111
106
103
130
127
122
136
130
134
126
124
110
112
104
110
121
85
105
132
126
105
102
94
83
89
109
109
104
92
81
99
113
69
83
90
99
75
99
125
125
120
98
74
103
101
114
83
85
73
54
31
24
48
54
45
44
66
81
106
119
110
98
103
105
95
101
88
79
82
86
83
76
65
92
65
63
70
50
80
107
69
49
106
87
78
65
48
86
108
48
53
111
62
53
66
70
96
116
87
95
63
53
49
32
26
41
48
71
80
107
124
127
118
34
46
43
98
55
58
58
15
37
118
109
79
119
48
54
83
102
146
98
162
114
74
90
84
109
155
168
143
127
128
123
138
127
139
152
149
155
144
146
168
166
172
181
191
198
204
209
210
215
215
216
216
215
215
216
217
214
214
214
214
214
215
215
216
214
214
214
214
215
215
215
215
215
215
214
214
215
215
216
94
100
110
122
117
110
115
107
96
103
102
110
116
116
113
110
108
106
118
116
115
114
105
94
90
92
99
109
114
139
131
113
127
120
113
111
117
108
122
132
105
107
107
117
108
99
103
94
94
121
121
117
77
92
136
119
82
74
72
76
95
102
111
107
113
105
115
109
95
93
56
50
39
25
33
53
69
79
96
85
72
74
99
111
106
104
95
114
103
99
103
91
89
87
83
81
75
66
89
68
61
61
68
80
97
68
53
104
80
68
67
46
82
87
50
67
110
45
52
67
80
84
99
84
63
58
54
32
34
29
40
51
94
101
108
117
118
91
33
47
12
82
48
54
65
26
124
124
129
110
105
75
119
55
81
148
74
131
153
59
105
96
111
109
128
133
128
133
140
146
151
141
131
146
169
177
157
162
170
183
197
203
203
205
215
223
217
216
216
215
215
216
215
216
215
215
215
215
215
216
216
217
216
216
216
215
215
215
215
214
214
215
215
215
215
215
214
105
102
112
106
115
120
111
116
125
119
122
124
125
122
117
115
116
119
117
112
110
110
106
100
101
109
118
122
124
107
118
129
104
102
128
142
121
125
127
90
89
115
136
94
92
109
106
122
141
128
110
77
80
127
120
87
83
101
97
113
102
84
94
101
95
68
69
87
72
59
39
35
44
59
89
81
95
102
95
82
96
108
105
114
106
110
100
116
100
107
101
92
98
92
80
79
72
62
88
79
61
65
80
77
90
76
68
107
88
71
70
54
82
83
52
68
98
52
68
72
93
97
92
73
62
62
59
40
33
47
49
47
92
115
123
117
95
50
19
21
22
28
19
71
76
128
149
91
138
137
78
52
177
115
87
79
72
95
93
73
85
135
145
128
133
133
148
145
147
153
169
155
154
164
151
166
170
177
178
185
193
205
213
218
219
217
217
216
216
216
216
217
215
215
216
216
216
216
216
216
217
217
217
217
217
216
216
215
215
215
214
215
217
217
218
217
216
109
118
106
114
113
114
121
118
115
123
129
122
119
123
128
129
129
130
126
121
113
109
108
109
111
113
109
111
104
114
109
93
111
136
136
113
127
121
102
120
129
111
123
123
118
121
137
139
123
107
99
107
138
121
68
103
128
97
110
98
88
97
108
108
92
94
104
51
56
57
57
64
89
80
82
93
88
97
114
119
97
88
100
110
116
114
105
109
94
107
99
89
98
90
76
79
72
62
80
85
63
84
81
77
89
83
64
89
81
66
64
60
75
75
67
67
81
61
71
74
88
101
81
54
73
70
55
46
29
54
52
31
53
86
103
85
51
22
20
25
19
24
30
45
100
169
59
70
95
113
109
56
133
139
168
183
109
102
105
165
123
102
115
152
183
156
165
146
144
147
170
157
165
169
163
170
170
166
186
185
189
202
217
223
217
210
218
217
216
217
218
218
216
216
217
217
216
216
216
216
216
217
218
218
218
217
217
217
216
216
216
216
216
217
217
217
217
104
108
119
119
122
124
122
122
125
126
128
125
126
129
126
118
114
117
112
110
102
96
99
107
105
98
95
93
112
105
84
104
129
121
113
125
116
119
132
118
110
127
112
116
113
113
124
130
128
126
124
122
107
103
115
130
109
122
109
101
121
119
83
79
70
87
71
37
58
56
81
92
97
112
114
101
112
131
76
67
74
84
117
115
115
104
108
106
91
98
98
85
93
84
71
79
76
68
65
84
62
102
78
78
90
85
65
78
78
66
66
69
68
64
67
87
69
72
76
87
110
97
57
48
62
79
52
32
41
45
34
25
31
40
42
30
16
25
26
26
19
28
36
53
144
101
69
100
108
111
144
179
205
201
172
209
147
99
115
168
167
99
99
119
158
127
149
173
187
142
155
153
153
143
164
167
171
185
185
194
205
210
209
211
216
223
217
217
216
217
219
220
217
216
217
217
216
216
215
215
216
216
218
218
218
218
218
218
218
218
218
217
216
214
214
214
215
98
117
107
105
111
111
118
125
120
118
124
128
126
119
116
118
117
111
116
101
101
119
122
104
92
96
102
104
102
92
101
115
104
95
109
117
129
132
120
112
114
115
103
118
120
116
125
128
122
120
127
108
115
118
97
100
123
129
112
119
105
75
89
113
82
49
67
96
92
95
109
109
80
70
68
88
78
26
32
65
43
85
113
120
110
97
105
92
99
108
89
91
83
82
82
81
81
71
64
75
86
95
85
89
79
80
67
83
98
58
67
67
71
70
76
83
67
76
83
98
92
66
44
54
64
86
40
33
44
41
34
41
29
20
12
8
20
28
25
7
18
48
49
130
127
78
103
102
84
142
145
163
174
187
160
196
204
142
93
96
183
149
122
159
155
160
155
173
156
140
142
149
155
159
164
170
176
180
197
208
220
225
222
218
218
221
220
220
219
218
218
218
217
217
217
216
216
216
216
216
216
216
216
216
215
215
215
215
215
215
217
216
216
216
216
216
216
100
100
120
108
108
110
110
107
100
107
114
114
117
123
125
122
118
117
107
108
110
107
97
90
100
115
105
91
95
103
99
85
88
120
144
151
143
124
119
126
126
118
109
122
123
123
135
141
137
134
115
112
109
94
86
107
130
129
106
100
84
82
121
110
61
107
103
85
97
117
91
55
44
68
71
42
43
52
61
75
67
112
122
116
95
99
109
88
102
102
87
90
84
81
81
79
81
73
59
59
107
95
86
86
80
74
68
80
84
63
63
72
67
70
72
73
68
79
82
97
82
45
37
48
57
76
50
48
49
37
37
31
54
39
12
45
36
23
25
21
36
36
120
138
100
90
118
97
88
161
164
169
170
185
147
175
189
121
117
104
123
165
168
180
159
193
199
157
128
177
152
161
170
169
167
172
180
188
192
199
208
215
219
220
221
223
220
220
219
218
218
218
217
217
217
216
216
216
216
216
216
216
215
215
216
216
216
216
217
217
217
217
217
216
216
217
217
102
106
108
112
119
113
114
121
116
113
124
128
131
128
123
119
120
124
112
117
117
113
113
118
114
105
100
109
109
89
86
104
118
134
107
121
127
130
135
126
110
106
98
116
129
132
132
124
111
104
118
118
108
108
135
155
130
91
92
117
74
87
93
104
94
61
60
60
78
71
46
70
91
43
34
76
80
63
76
106
104
118
119
111
89
103
111
88
108
94
85
90
86
83
82
80
83
76
54
50
126
92
83
84
82
72
68
75
68
69
62
77
64
72
73
68
73
83
82
93
62
26
32
47
53
51
33
34
45
44
58
53
92
57
48
47
24
10
5
29
77
83
135
125
85
97
105
99
112
134
95
167
200
166
81
127
201
140
139
146
123
143
161
170
155
155
139
151
152
144
152
157
163
166
173
188
206
217
220
220
220
221
221
221
219
216
221
220
220
220
217
218
218
219
218
217
217
217
217
217
217
217
216
216
216
217
217
218
218
219
218
218
218
217
217
218
218
85
94
102
108
112
100
101
118
127
132
124
127
122
114
121
133
128
112
107
119
120
110
109
117
118
109
105
103
97
87
97
116
119
125
115
127
126
124
128
121
121
139
124
121
110
99
97
102
108
112
96
125
137
134
133
121
107
109
121
78
85
126
80
74
55
49
57
66
90
75
78
64
28
48
111
103
66
78
106
104
93
113
108
107
103
106
105
96
112
89
86
91
87
86
86
84
83
73
51
64
123
93
79
87
80
75
73
73
65
76
68
78
69
78
73
70
76
85
88
84
42
26
52
50
42
39
48
49
45
37
34
79
104
112
36
26
23
72
59
43
71
140
130
87
91
135
106
131
136
167
82
164
142
97
109
115
125
146
159
135
161
135
144
136
169
200
144
129
153
155
167
166
169
176
192
210
220
223
222
221
220
221
223
223
221
221
221
222
221
220
218
218
219
219
217
217
217
217
217
217
217
217
217
217
218
218
218
219
219
219
219
219
219
218
218
219
219
84
98
93
92
107
115
109
96
89
98
100
114
120
112
109
111
106
95
104
114
117
112
111
115
112
104
86
95
95
83
94
112
101
88
91
123
131
123
125
124
118
121
107
101
98
101
106
109
104
96
107
124
128
126
125
114
109
122
103
66
93
107
106
90
62
63
69
83
69
73
66
51
70
75
71
70
74
109
93
75
97
117
112
100
112
105
101
103
106
89
86
89
84
87
90
86
80
64
51
90
106
102
82
92
77
77
77
73
70
79
77
76
77
81
66
73
76
86
91
68
21
34
44
44
46
51
59
50
34
30
66
107
138
135
23
7
16
43
80
91
87
150
124
63
99
135
128
160
188
201
149
84
55
103
114
123
129
154
171
121
123
131
133
156
175
194
173
153
151
159
160
164
173
184
200
213
216
215
217
218
220
221
223
224
224
225
222
222
222
220
221
220
220
220
218
218
218
218
218
218
218
218
219
219
219
219
219
219
219
219
221
221
220
220
220
220
221
103
101
121
113
110
100
94
95
94
102
102
109
116
115
103
91
93
101
115
117
118
117
116
112
102
91
95
88
94
101
100
90
87
109
121
132
127
116
116
114
110
111
111
107
106
101
89
87
93
96
114
130
138
132
125
122
128
136
127
100
111
96
119
64
58
56
81
98
65
87
83
56
61
68
95
119
98
80
69
98
127
111
124
95
106
101
101
102
96
91
85
87
82
86
90
84
74
54
57
106
93
107
90
94
76
74
74
70
72
74
76
69
79
75
64
80
80
89
83
43
5
27
38
41
43
39
27
21
19
36
98
107
125
62
31
28
26
18
70
134
121
148
90
85
111
98
119
91
74
68
131
95
87
95
127
142
143
125
148
153
146
134
143
137
118
138
167
156
146
160
148
157
168
176
187
201
216
226
226
228
229
228
225
222
221
221
223
222
221
221
221
221
220
220
218
218
218
218
218
218
218
218
220
220
220
220
219
219
219
219
221
221
220
220
220
220
221
121
123
110
116
114
98
103
124
116
99
108
96
92
102
112
113
113
117
113
117
115
103
91
89
95
100
92
103
106
88
86
98
103
109
98
96
100
112
122
127
132
139
129
126
128
117
92
83
96
106
121
118
124
121
113
123
136
132
125
102
127
88
85
71
73
98
111
87
117
86
49
100
67
86
94
94
68
83
96
99
106
115
115
97
103
101
101
96
94
87
85
88
83
86
87
80
68
50
75
104
92
104
93
86
83
73
72
70
70
71
72
68
80
66
68
84
83
90
65
27
8
24
57
38
18
13
9
29
21
29
77
95
59
18
9
30
27
46
120
123
115
128
65
107
118
99
88
115
78
73
50
101
107
100
120
156
136
156
142
130
202
155
128
127
130
144
148
151
161
158
163
169
174
175
180
194
214
229
220
221
223
223
223
222
222
222
224
222
222
221
222
222
221
221
219
219
219
219
219
219
219
219
219
219
219
219
220
220
220
220
221
221
220
220
220
220
221
98
107
93
92
94
89
105
125
112
92
84
96
106
106
100
100
112
124
108
104
98
96
103
109
101
89
92
84
82
81
87
88
80
88
100
110
122
124
125
135
137
128
130
120
122
125
114
110
113
110
105
89
101
120
118
125
131
115
154
135
79
86
84
90
90
103
91
99
84
68
70
136
106
93
81
74
77
103
94
102
120
112
93
101
108
102
98
91
98
84
86
90
85
86
85
77
66
49
92
97
97
98
93
77
91
74
76
76
70
74
71
74
83
64
68
80
82
88
51
25
28
33
37
24
10
13
8
36
20
17
23
29
7
30
40
25
42
36
116
95
134
84
51
89
109
105
89
117
95
113
96
113
118
120
139
145
149
157
141
147
192
153
136
139
151
158
149
151
162
146
155
161
167
172
181
195
208
216
227
226
225
224
224
225
223
222
223
223
222
221
222
222
221
221
219
219
219
219
219
219
219
219
218
218
219
219
220
220
221
221
221
221
220
220
220
220
221
93
87
97
95
93
100
101
89
85
95
99
95
96
90
87
92
98
110
94
93
95
103
109
108
100
92
84
73
78
78
84
95
89
85
94
86
99
113
102
85
84
86
106
120
114
114
119
107
94
84
79
88
100
112
126
137
133
123
146
111
96
103
100
75
135
98
105
120
77
84
79
47
48
77
93
99
117
107
96
123
107
106
104
95
105
100
98
98
84
92
95
94
76
85
89
74
52
68
97
103
106
99
85
76
77
82
71
69
77
80
71
75
79
69
82
87
91
70
28
42
45
34
39
17
2
5
7
12
23
16
9
7
31
49
39
25
47
39
90
112
116
43
50
91
106
87
73
63
90
67
72
102
112
122
149
153
146
130
121
137
147
141
153
179
177
162
151
147
151
152
160
155
163
175
178
187
204
212
220
225
225
224
227
225
222
223
223
222
221
220
221
221
220
219
217
219
220
220
218
218
219
221
221
221
221
221
221
221
221
221
222
222
222
222
222
222
222
100
106
113
113
112
111
103
90
86
96
109
90
87
83
80
105
117
99
103
101
108
103
98
96
90
95
99
90
64
73
79
77
89
73
66
80
93
90
89
106
112
97
87
101
101
106
114
103
92
83
89
94
112
135
141
134
136
148
112
118
115
108
100
132
157
111
113
117
84
74
62
91
123
97
105
106
108
83
83
116
111
112
105
101
107
102
97
94
86
89
88
90
81
91
92
71
45
69
101
102
100
95
87
81
78
77
73
75
73
72
75
75
74
74
86
87
82
52
63
41
43
42
48
45
37
16
3
14
21
10
16
39
79
55
36
32
27
72
75
107
89
31
101
100
111
99
66
87
70
83
90
100
129
139
135
139
151
140
135
131
147
150
152
141
145
157
145
141
154
148
163
170
168
165
173
182
195
211
219
225
225
224
227
227
223
225
223
222
221
221
221
221
220
218
218
219
220
220
219
219
220
221
221
221
221
221
221
221
221
221
222
222
222
222
222
222
222
114
112
114
116
113
108
102
95
90
94
99
94
80
78
101
118
114
106
105
104
112
101
90
89
85
94
86
74
90
85
80
84
68
74
75
92
100
86
80
92
88
66
99
105
100
107
116
117
123
128
131
123
123
128
119
105
114
134
125
146
149
122
134
94
105
102
105
82
100
81
64
116
128
118
90
81
76
60
85
109
105
108
94
101
101
100
95
90
92
89
89
90
88
91
89
65
46
87
103
101
100
96
91
85
81
78
76
79
70
67
78
76
70
80
83
91
60
29
70
33
24
30
29
50
71
59
32
21
23
26
30
70
73
51
40
26
78
66
62
64
81
52
105
100
53
98
93
79
87
110
128
172
133
128
148
153
196
203
186
130
135
152
168
155
148
146
140
144
160
149
159
178
171
161
174
185
194
215
217
225
226
224
227
226
224
226
223
222
221
221
221
222
221
219
219
220
220
220
220
219
220
221
221
221
221
221
222
222
222
222
223
223
223
223
223
223
223
113
116
112
113
106
99
102
101
96
92
88
98
89
98
121
112
102
113
107
110
106
101
93
88
90
88
75
79
82
90
80
68
77
78
83
75
68
63
59
62
71
79
108
93
76
90
113
122
124
117
113
114
114
113
113
114
117
119
105
97
102
118
106
94
92
91
91
110
112
82
74
100
93
74
92
72
66
75
117
118
109
113
89
101
94
98
95
89
98
88
87
88
93
92
85
59
51
102
100
102
102
98
88
81
80
81
76
77
70
69
75
73
72
81
75
84
32
21
46
37
23
15
10
10
24
60
61
30
19
17
38
65
44
25
37
41
68
82
76
73
71
112
122
114
121
93
95
107
102
128
147
180
169
167
152
154
167
158
170
169
174
155
137
161
161
153
167
161
159
154
151
166
165
162
174
183
192
208
215
225
228
225
227
226
224
225
223
222
221
221
221
222
220
219
219
219
219
220
220
220
220
220
221
221
221
222
222
222
223
223
223
223
223
223
223
223
224
120
114
118
122
114
105
104
104
99
95
93
93
99
114
109
96
104
105
102
112
94
93
87
77
91
82
86
84
79
85
79
69
71
64
53
52
58
70
75
74
81
95
84
86
91
108
118
120
128
127
123
127
124
117
115
120
117
110
128
103
115
104
98
107
70
113
100
87
105
66
83
109
65
85
91
80
73
86
121
108
103
107
99
109
95
99
97
88
97
83
80
85
99
97
83
54
55
102
98
99
99
93
84
78
76
77
76
71
74
76
70
72
79
78
79
56
5
25
32
49
42
14
10
9
3
41
52
23
31
29
54
47
9
49
60
73
69
72
141
212
147
83
102
79
108
97
116
134
139
150
161
142
122
131
165
137
119
124
134
139
147
151
142
151
142
133
154
144
152
167
154
152
156
163
166
172
183
190
212
224
229
226
227
226
224
224
224
223
222
222
222
223
221
220
219
219
219
219
219
220
220
219
221
221
222
222
222
223
223
223
223
223
223
224
224
224
224
129
108
117
127
124
111
103
99
98
99
92
98
91
97
99
96
109
106
109
121
104
103
97
90
109
106
97
85
98
86
76
80
65
68
72
83
77
61
64
78
86
86
84
95
104
109
99
100
125
138
120
121
123
123
122
126
133
139
123
114
113
114
89
84
126
115
124
100
91
87
89
66
56
72
79
94
95
106
119
108
110
107
105
109
94
98
96
86
94
83
85
91
102
95
73
49
70
104
103
98
93
89
84
81
77
73
80
73
80
81
72
77
85
77
81
27
3
26
31
40
41
11
3
27
14
14
9
5
34
37
27
78
63
26
53
59
67
141
193
216
198
87
96
155
119
133
232
170
124
132
130
108
149
140
110
121
133
138
137
147
153
153
152
147
147
139
150
142
152
142
165
153
157
165
164
170
184
188
206
222
229
227
227
226
224
224
224
223
222
222
222
222
221
220
220
219
219
219
220
221
220
220
222
222
222
222
223
223
223
223
223
224
224
224
225
225
225
115
114
116
123
119
109
106
102
98
99
92
101
81
89
105
102
110
113
99
101
100
94
95
102
104
104
103
108
88
85
76
72
97
89
74
90
81
61
64
75
69
57
125
112
97
94
94
103
117
110
110
116
126
134
132
125
122
125
115
121
124
100
92
170
119
111
100
101
110
85
88
88
69
65
66
91
92
111
110
101
105
94
104
105
93
97
95
87
94
90
90
95
100
90
63
47
90
108
105
100
94
89
85
83
80
78
79
81
79
75
75
81
81
73
52
15
5
28
34
32
33
28
29
41
27
10
16
29
40
41
60
109
79
24
29
53
146
171
177
213
157
87
92
164
154
188
164
93
111
122
129
131
139
139
137
121
130
150
163
153
153
154
157
151
146
134
153
149
165
156
166
165
163
162
166
172
181
190
200
218
229
228
228
228
226
224
225
224
223
222
222
222
221
220
221
220
220
220
222
222
222
221
223
223
223
223
223
223
223
223
224
224
224
225
225
225
226
109
118
123
122
112
108
112
110
101
95
106
89
85
113
108
98
117
106
111
98
111
101
109
125
102
100
103
94
93
84
86
101
96
88
91
87
69
60
69
75
74
78
89
92
94
99
95
100
111
103
120
123
123
122
121
120
115
110
108
113
103
115
124
142
114
84
96
111
98
92
119
100
80
63
97
106
93
121
114
102
104
91
107
105
98
98
96
88
94
97
81
92
98
92
63
48
100
103
99
100
98
90
81
77
79
84
75
83
72
61
73
79
70
65
7
17
22
37
40
46
43
70
48
34
30
16
20
28
24
49
107
113
114
98
63
137
161
181
164
224
144
111
134
143
158
112
119
118
70
79
131
117
127
135
168
153
153
140
153
148
158
145
141
143
140
147
179
142
139
159
158
173
165
154
163
166
167
180
195
216
228
228
228
229
226
225
225
224
223
222
223
222
220
221
223
222
221
221
223
224
223
222
223
223
223
223
223
223
223
223
224
224
224
225
225
226
226
113
111
97
101
109
115
111
105
105
111
110
102
100
106
107
109
109
106
109
126
111
110
116
101
96
100
110
96
86
88
94
97
94
91
65
66
57
66
78
77
79
79
82
96
102
103
102
93
90
102
107
109
110
112
105
113
98
99
109
109
121
106
81
90
78
91
126
113
104
105
116
106
103
87
88
97
112
108
103
109
103
92
109
96
92
94
92
89
90
89
87
101
98
82
49
71
108
104
98
94
97
90
93
83
85
83
90
78
63
90
97
82
63
12
37
45
8
21
41
59
63
35
14
51
32
15
33
40
29
71
115
120
107
125
144
163
168
187
202
222
102
104
134
175
170
180
194
220
156
142
111
117
142
132
154
141
149
148
150
161
153
145
147
142
138
130
140
157
151
142
161
161
173
163
170
172
177
179
177
202
226
232
227
224
227
231
225
226
226
225
225
224
224
224
224
224
224
224
223
223
223
223
223
223
223
223
224
224
225
226
226
226
226
226
226
226
226
105
93
95
106
118
118
106
96
100
111
86
89
93
93
95
105
105
96
123
115
113
123
108
93
109
121
103
97
91
88
86
85
82
78
68
59
68
54
53
66
65
90
105
98
90
90
92
84
87
106
117
112
114
129
118
111
110
130
144
122
94
86
101
102
94
117
145
132
116
116
107
100
106
110
71
79
111
113
110
111
103
92
112
100
97
97
89
87
88
83
86
97
94
75
42
78
105
100
103
99
93
93
90
89
85
84
88
93
68
114
123
74
74
24
100
125
3
15
22
62
47
22
18
45
42
32
23
44
52
88
128
123
132
131
153
170
183
186
235
150
61
130
168
208
203
211
202
210
207
228
135
131
137
147
141
148
132
158
173
145
142
147
137
138
136
152
139
150
141
156
158
160
174
172
173
174
180
191
182
194
210
223
230
231
227
222
225
225
226
225
225
225
224
224
224
224
224
224
223
223
223
223
225
225
224
224
223
223
223
223
225
225
226
226
226
226
226
83
85
117
122
123
112
95
88
99
113
99
96
93
89
86
93
100
96
112
108
102
104
106
111
114
96
100
95
88
84
83
85
83
79
69
49
53
49
64
91
93
113
94
106
103
88
82
85
95
107
120
102
85
97
104
110
111
106
101
108
84
79
105
121
130
124
103
121
117
112
100
115
117
104
86
79
111
104
103
104
100
98
114
103
103
102
90
89
91
80
88
94
93
68
39
92
107
100
105
101
89
94
87
92
83
84
88
76
85
71
75
60
38
36
14
48
20
21
16
44
44
49
11
30
25
22
25
56
59
78
96
127
139
145
162
183
199
197
219
63
122
116
190
185
146
161
198
196
227
197
163
159
126
132
140
153
154
147
156
153
138
138
132
127
119
130
131
153
145
151
161
169
179
182
179
186
184
191
186
193
206
219
226
228
228
229
226
226
226
226
225
225
225
224
224
224
224
224
224
223
223
223
225
225
224
224
223
223
223
223
225
225
225
225
226
226
226
109
127
128
123
113
100
92
93
101
108
106
95
93
97
96
98
110
122
100
123
111
92
104
114
108
102
91
85
80
83
87
87
81
76
63
68
70
80
84
90
105
109
104
100
86
76
86
102
103
93
70
79
90
108
107
105
106
95
80
80
76
103
103
106
124
111
105
104
100
100
92
90
107
115
106
92
120
109
110
106
94
92
107
96
100
101
88
89
92
80
87
92
93
61
40
106
108
103
100
96
88
92
88
90
83
84
89
81
72
75
91
64
51
35
18
21
35
10
24
35
28
18
13
50
44
17
20
29
23
44
79
107
151
153
182
181
177
235
145
59
119
139
208
175
76
108
136
123
179
126
112
216
152
134
154
143
171
174
160
155
139
134
132
141
145
112
111
126
136
131
149
151
149
155
165
193
184
178
193
195
203
215
221
223
228
235
227
227
226
226
226
225
225
225
225
225
224
224
224
223
223
223
223
223
223
223
223
224
225
225
225
225
225
225
225
226
226
114
115
107
106
100
95
96
101
103
102
109
100
98
98
89
82
87
93
109
104
95
106
128
115
89
92
91
87
90
99
100
90
80
78
86
83
79
81
80
85
102
101
111
94
89
102
110
104
97
94
98
79
80
95
101
102
109
105
72
85
75
94
98
128
140
116
99
114
110
78
85
92
116
106
124
111
121
105
109
109
99
99
100
92
95
97
88
88
88
78
85
92
91
56
47
110
104
103
93
89
92
89
92
85
86
84
80
72
69
88
81
34
42
51
55
88
54
36
29
24
24
32
31
59
57
20
21
20
19
33
69
84
148
172
175
178
236
189
51
100
121
184
193
220
202
122
148
130
114
153
152
135
140
156
151
156
160
170
152
142
155
131
130
127
149
146
147
125
119
123
137
146
152
151
139
155
161
180
198
193
196
210
223
227
226
226
227
227
227
226
226
226
225
225
225
225
225
224
224
223
223
223
223
223
223
223
223
224
224
225
224
224
224
225
225
225
225
111
101
96
101
101
96
96
103
108
108
107
109
107
96
89
97
105
103
92
83
106
122
106
84
83
100
98
98
101
103
97
88
87
93
93
72
85
81
86
108
102
102
97
97
106
111
102
95
99
105
91
82
98
91
88
100
105
92
88
82
68
89
104
90
67
95
105
93
86
82
120
91
85
76
118
124
113
94
96
103
99
106
108
100
99
101
98
93
86
82
86
95
88
51
62
111
100
102
91
87
93
89
95
84
88
85
83
95
76
91
64
50
109
110
81
50
25
52
53
41
34
49
37
31
43
33
31
40
57
63
60
93
114
158
170
195
190
89
67
113
166
158
177
195
174
110
153
132
127
125
168
139
127
169
148
169
166
148
142
147
144
125
127
128
120
110
115
144
142
137
133
134
148
155
139
130
132
157
186
191
201
215
224
226
225
223
228
227
227
227
226
226
226
226
226
226
225
225
224
223
223
223
225
224
224
223
223
222
223
223
224
224
224
224
225
225
225
112
108
103
109
109
103
103
111
116
115
113
113
103
82
72
83
92
88
100
89
97
91
84
94
102
110
96
98
96
90
86
86
88
87
72
74
110
108
93
99
90
92
102
97
91
79
78
95
105
96
93
85
104
77
87
128
125
93
87
99
111
86
110
101
70
98
114
106
79
66
113
91
63
42
73
120
111
104
100
101
91
98
115
108
100
102
106
94
80
82
84
94
80
45
79
111
96
100
94
91
90
89
92
87
85
84
87
72
88
71
65
155
175
149
136
47
55
78
68
27
32
45
32
29
57
84
59
58
76
111
140
167
146
110
176
171
48
112
84
138
187
114
174
218
102
119
146
112
114
127
125
141
134
147
164
151
167
164
157
144
117
124
147
121
125
147
146
129
129
163
160
141
143
154
172
171
162
160
172
186
202
214
221
225
228
229
228
228
227
227
227
226
226
226
226
226
225
225
224
224
223
223
225
224
223
223
222
222
222
223
224
224
224
224
224
224
225
105
99
103
110
113
113
118
126
123
113
112
107
101
91
83
87
95
95
73
90
95
82
94
103
92
105
100
105
102
95
97
102
90
69
86
84
84
84
72
77
97
91
98
98
105
105
96
95
96
87
80
92
147
118
101
115
106
92
119
105
133
77
98
99
84
103
111
110
83
84
121
87
57
65
46
120
110
106
97
101
97
113
111
105
92
94
102
86
68
76
78
88
69
39
89
109
93
98
96
93
85
91
86
90
82
82
83
85
81
73
54
153
200
149
151
125
115
130
103
42
64
69
40
44
64
126
115
102
87
141
178
203
171
47
78
41
54
136
101
114
174
165
140
150
117
117
120
121
148
121
127
130
140
153
167
148
142
145
120
118
137
116
131
109
105
85
110
118
132
131
156
158
164
138
137
142
160
170
171
178
188
201
218
231
232
226
229
229
228
227
227
226
226
226
226
226
226
225
224
224
223
223
222
222
222
222
223
223
224
225
223
224
224
224
224
224
224
107
114
123
121
121
125
128
126
119
112
104
105
95
90
103
91
93
92
79
80
59
76
108
103
102
114
113
114
103
108
104
95
78
86
91
93
82
75
100
86
78
90
91
87
102
89
89
82
84
98
100
83
117
140
73
73
85
98
91
81
111
89
99
101
116
90
98
118
105
79
132
119
67
94
54
112
110
103
97
103
84
105
103
93
93
99
78
84
80
68
89
91
66
42
101
102
93
105
93
94
90
88
89
85
78
77
78
74
82
72
63
91
176
170
140
171
180
160
147
123
85
75
64
78
72
152
146
136
120
162
187
207
90
6
32
58
63
121
88
142
138
168
131
121
125
126
116
131
135
136
142
133
153
156
149
149
128
102
124
122
95
140
119
109
107
99
70
99
124
116
150
170
172
158
143
142
153
153
158
170
197
214
209
212
228
239
231
229
229
228
225
223
224
228
228
224
225
226
223
222
224
226
220
222
225
223
221
223
225
221
218
224
227
226
224
224
224
113
115
111
119
128
132
129
122
117
115
111
105
89
84
101
95
95
88
82
63
62
89
91
81
98
109
95
114
113
109
96
94
85
92
102
95
90
93
102
72
62
81
67
86
99
99
103
106
111
103
106
96
76
68
91
101
85
127
78
115
126
93
105
91
108
93
94
111
116
79
108
132
107
73
64
113
113
108
108
105
80
90
105
102
96
101
95
95
81
73
87
88
57
46
104
100
92
97
96
97
90
85
85
83
80
83
78
81
88
85
67
37
92
122
89
136
186
183
155
149
153
163
124
120
116
181
167
149
151
109
185
139
24
41
57
64
79
68
81
160
192
170
155
113
140
153
142
125
137
156
146
136
146
165
153
150
141
117
92
100
111
101
122
130
129
136
129
106
106
143
137
147
167
172
159
145
149
166
168
178
191
216
234
222
213
229
227
229
231
231
234
234
228
221
226
231
229
225
226
225
223
225
223
225
224
226
227
222
221
228
223
222
220
219
221
223
223
123
112
131
126
121
118
118
118
116
114
101
100
96
97
110
95
88
75
67
75
88
87
74
82
100
88
103
116
112
103
90
90
88
94
105
93
68
46
58
69
78
78
75
114
108
110
117
110
102
98
110
94
108
95
89
90
94
111
130
108
96
75
94
96
115
104
95
98
99
94
111
118
134
93
91
116
110
99
108
100
81
86
101
103
91
92
97
92
72
68
86
85
47
54
108
97
91
90
97
98
91
85
85
83
83
87
83
85
80
87
82
8
20
60
74
104
144
135
123
165
190
171
159
139
145
136
171
158
85
28
46
45
28
60
60
74
78
61
106
182
174
131
134
143
145
152
139
117
143
170
151
153
146
161
163
144
98
94
106
103
116
111
109
112
114
115
117
102
104
125
146
144
151
147
155
167
156
151
178
191
193
198
224
241
230
215
224
230
232
224
218
221
225
227
223
226
223
222
228
226
221
224
224
222
218
220
225
224
221
223
226
224
222
221
221
221
222
115
137
132
128
124
124
125
121
111
102
115
103
95
99
110
93
91
83
83
90
91
89
84
80
87
96
122
115
107
108
107
100
93
94
72
58
55
65
76
75
70
64
91
105
94
100
92
92
96
104
92
94
92
91
100
89
93
113
111
71
97
86
91
100
95
109
88
95
104
84
108
123
128
126
112
116
105
90
104
94
86
90
110
105
94
93
94
89
76
69
85
83
41
65
111
93
94
90
92
96
94
91
91
87
84
87
81
86
74
81
87
14
8
34
39
44
62
59
70
118
123
82
114
145
113
44
69
41
21
30
32
37
56
60
56
64
64
82
142
194
155
119
99
136
118
136
141
140
153
158
148
160
154
150
138
162
113
72
89
86
99
118
114
121
134
123
117
111
128
132
138
145
159
134
127
150
151
161
168
164
187
206
199
209
232
237
228
227
226
229
232
234
232
228
231
223
226
230
226
227
230
225
209
204
214
217
207
214
226
219
224
226
231
233
230
224
223
120
124
123
127
131
131
126
120
116
115
123
103
95
104
114
96
95
89
89
84
75
67
69
75
79
87
97
98
107
114
114
103
94
87
78
71
73
80
74
71
75
79
87
86
115
134
109
111
102
94
99
110
74
89
109
86
86
105
79
75
96
75
84
97
86
120
99
77
108
82
107
132
99
138
114
109
105
94
109
97
92
91
111
99
101
100
92
88
85
69
83
81
39
76
109
91
97
95
89
95
95
94
93
90
86
88
75
85
81
80
74
15
26
47
32
26
34
34
34
40
37
37
39
50
45
21
52
51
41
43
60
70
61
60
50
72
86
101
182
184
166
137
118
115
105
122
133
148
153
161
178
164
157
148
117
132
134
91
73
69
86
103
125
110
117
141
158
121
116
142
131
122
138
132
121
119
122
157
175
168
190
212
206
203
214
218
233
230
230
233
231
225
223
227
228
219
224
203
168
182
212
204
147
127
154
170
136
138
166
163
178
183
198
216
226
226
224
121
135
128
126
125
124
123
122
121
120
106
101
107
112
106
85
92
91
86
76
81
71
65
85
89
72
72
92
115
109
100
95
99
90
87
90
85
79
68
77
77
71
95
103
105
91
91
99
86
105
98
88
77
113
104
89
110
102
94
80
78
94
95
98
106
112
101
70
74
106
117
117
104
118
113
105
104
98
109
100
98
95
98
88
100
103
92
86
86
66
79
74
38
82
105
93
98
99
92
96
93
91
93
90
88
91
81
82
82
81
63
9
34
55
61
58
56
48
43
36
31
46
48
33
54
40
42
54
35
50
27
66
62
58
56
95
92
150
195
172
152
126
122
128
135
136
146
145
142
169
196
150
139
148
116
88
112
98
92
85
88
101
106
125
138
133
143
162
166
152
178
143
132
137
147
144
129
137
150
172
179
191
216
216
204
209
206
202
205
215
224
226
224
225
223
217
205
143
74
98
158
168
131
79
99
132
101
90
110
103
107
110
132
172
208
224
230
141
141
127
125
125
130
133
129
117
106
112
113
114
100
86
76
95
90
72
51
62
73
68
60
54
61
82
93
113
104
100
101
110
99
103
82
69
84
80
76
73
89
90
106
93
81
108
103
95
123
120
98
76
86
108
94
86
80
85
69
97
149
120
102
110
94
88
85
57
116
115
111
119
93
115
103
99
96
102
101
103
98
93
90
101
101
101
89
86
72
75
68
39
86
104
99
99
100
95
97
93
90
92
90
87
89
86
82
78
79
65
12
34
51
53
59
66
61
65
70
56
47
43
55
44
48
43
31
42
48
57
61
60
66
85
88
97
195
174
162
130
120
104
128
149
173
191
160
139
153
159
123
111
131
104
95
112
80
87
85
80
93
104
115
138
154
136
133
154
180
170
162
145
131
135
147
141
125
149
176
186
194
196
160
143
177
166
155
149
168
207
236
234
216
225
218
194
127
51
47
100
136
123
68
72
104
92
81
85
72
76
75
92
130
166
186
199
118
124
132
132
133
130
127
124
123
122
124
121
114
99
97
97
97
64
69
75
74
62
69
62
48
73
85
75
87
95
107
106
106
88
87
92
89
100
94
95
90
101
98
78
84
106
110
97
122
116
108
90
90
81
124
112
88
87
101
86
99
117
100
112
111
115
104
74
58
125
121
108
84
109
111
100
96
97
99
102
100
93
91
93
96
89
101
87
79
73
74
65
39
90
105
106
101
101
95
97
94
92
94
91
85
85
76
85
83
80
68
16
34
51
57
57
70
66
55
57
55
54
52
46
53
48
42
50
53
59
58
59
69
79
97
78
169
202
178
148
115
134
132
117
132
174
182
156
147
150
138
131
103
105
105
78
91
80
87
65
60
81
100
131
125
136
152
138
105
125
147
167
161
144
145
164
167
145
141
168
183
187
190
177
154
143
159
152
129
108
120
164
203
218
216
207
190
151
86
37
54
104
89
66
70
86
81
78
80
74
78
73
78
94
107
114
128
136
126
129
124
118
129
133
129
130
128
112
112
105
93
87
82
70
57
71
79
59
46
61
60
59
83
72
73
92
101
81
98
105
103
100
100
109
100
101
97
102
92
93
102
122
111
103
107
101
101
95
103
95
71
109
106
102
94
104
106
90
122
124
85
84
87
110
80
67
135
127
108
78
107
111
96
96
98
93
98
101
90
89
92
88
84
85
82
76
76
77
56
43
101
96
105
99
100
97
91
91
93
91
91
91
88
89
80
80
85
68
18
19
36
57
66
59
58
70
57
42
49
54
61
53
60
55
44
59
62
60
72
70
75
93
172
206
169
163
168
125
116
143
142
136
144
140
140
153
127
125
104
102
100
100
99
87
106
96
83
85
94
82
87
102
118
149
175
162
143
138
148
158
157
162
163
158
169
138
154
182
196
191
194
188
163
128
129
93
57
48
86
158
190
169
158
155
143
82
51
40
50
86
97
73
112
72
72
71
76
67
71
59
63
72
69
72
97
86
94
105
115
133
139
131
129
122
109
103
91
80
76
77
72
65
78
70
54
49
59
65
66
70
55
64
86
79
75
100
110
94
104
120
109
90
98
94
93
108
102
113
122
107
108
103
99
98
100
101
82
77
91
103
107
108
102
75
103
132
119
97
80
84
119
106
90
125
119
106
93
102
103
92
94
98
94
99
101
90
86
88
86
84
85
82
75
73
71
50
51
102
98
103
93
99
92
87
91
98
96
93
90
85
91
84
74
80
75
30
14
27
29
61
67
57
63
61
49
49
46
53
58
46
46
54
55
62
67
50
71
109
167
188
199
159
115
118
126
126
140
152
163
125
148
136
153
152
123
115
156
132
91
102
95
98
102
113
121
112
112
95
89
98
132
164
162
151
143
150
157
149
149
152
153
170
187
167
185
189
165
132
115
114
109
72
65
94
108
95
101
172
162
84
88
106
98
38
47
32
110
157
61
80
75
49
60
63
57
70
62
47
53
68
56
54
88
111
130
141
152
147
134
127
116
114
107
97
90
83
78
69
62
73
53
49
55
59
71
75
60
72
57
76
80
91
93
103
102
119
104
89
90
90
91
94
105
101
100
100
108
109
86
85
98
104
100
81
92
101
106
109
100
92
96
123
122
104
79
96
87
133
123
112
131
125
91
100
107
98
90
93
98
94
98
98
89
86
88
87
86
89
85
76
73
65
42
62
102
100
101
88
97
97
92
95
102
98
92
86
81
76
83
78
82
78
46
26
39
33
51
51
47
58
59
54
61
52
62
67
56
58
62
54
61
70
90
133
194
203
179
163
160
123
122
157
154
144
141
171
143
140
161
147
164
153
97
107
114
109
103
100
107
111
101
110
116
146
132
118
109
127
158
164
160
155
148
145
145
156
161
150
150
167
173
202
187
172
164
165
163
123
142
169
155
102
88
71
77
120
117
31
53
70
62
50
38
46
41
76
76
45
57
40
56
83
76
42
48
62
62
47
110
121
130
145
148
148
140
133
133
125
119
113
107
100
90
76
65
59
60
49
53
62
67
77
80
64
59
55
64
61
78
97
104
98
106
102
91
88
83
109
111
98
104
117
104
101
82
92
103
92
100
99
86
84
102
91
100
86
110
108
85
125
118
104
101
124
119
112
109
123
124
75
97
103
98
92
94
96
92
94
94
87
88
90
88
87
88
82
75
75
65
39
72
98
100
100
86
98
99
90
89
93
90
84
81
77
83
92
91
85
70
60
55
53
49
55
48
42
50
53
52
59
53
56
45
55
74
82
105
130
163
210
207
189
156
146
124
109
134
139
150
142
148
140
158
160
131
150
119
121
111
65
65
77
92
101
110
101
104
99
112
113
121
135
142
126
127
151
161
161
153
137
133
142
164
175
159
149
124
141
175
188
198
191
200
189
158
110
56
73
79
83
74
50
95
80
41
57
91
90
69
43
64
42
43
47
28
27
52
75
172
70
82
102
36
56
74
137
120
138
148
143
137
132
130
134
127
117
112
103
92
80
72
70
74
63
68
67
67
73
76
74
74
66
64
57
56
66
87
86
90
101
111
99
106
113
113
106
130
115
103
83
99
53
71
95
98
101
110
93
78
92
90
101
102
97
101
116
106
112
110
105
120
112
107
100
107
122
86
107
96
98
94
94
94
91
92
91
88
88
90
88
84
82
75
71
76
67
41
77
94
97
100
88
99
99
91
89
92
91
89
88
83
92
87
85
81
66
90
124
100
92
116
117
96
90
95
92
87
106
106
111
126
150
167
189
217
213
195
171
153
157
114
112
133
124
138
134
129
152
157
143
141
140
164
128
88
86
88
81
77
79
82
98
99
109
104
113
120
111
124
137
129
128
140
144
147
154
145
148
149
152
158
156
159
173
184
184
194
195
162
145
100
99
121
98
109
109
69
61
105
79
33
50
52
42
75
39
39
51
30
40
42
44
74
43
54
74
18
114
114
27
58
55
110
125
144
151
145
142
138
134
133
123
120
117
108
96
85
82
85
90
79
88
77
64
70
70
67
76
80
71
57
65
67
72
66
93
108
101
99
120
127
116
110
128
117
74
69
124
78
73
94
129
99
107
94
100
103
121
104
101
125
90
95
112
127
101
111
90
135
109
89
106
127
97
105
96
97
96
94
90
90
90
90
90
91
91
87
83
80
73
70
77
64
46
80
93
91
99
89
97
96
93
93
93
92
92
87
77
87
81
82
83
69
104
191
171
166
181
184
176
173
174
172
168
175
179
199
200
201
208
200
204
183
179
147
133
139
122
117
126
119
134
151
157
147
133
126
150
139
145
126
81
82
94
82
75
87
65
72
90
105
97
94
109
137
123
121
124
132
138
136
142
156
151
163
164
157
158
160
166
153
177
176
191
198
194
194
169
147
139
105
67
88
109
99
117
92
60
69
57
47
66
61
20
75
46
70
91
209
96
49
32
22
24
34
26
36
46
29
131
145
135
142
140
144
144
140
139
130
125
125
118
107
99
97
97
94
89
90
76
64
72
76
73
76
55
68
62
49
57
71
71
88
91
92
105
108
116
128
121
87
76
70
81
101
81
93
98
108
99
87
97
114
100
121
97
81
97
125
90
137
112
123
137
96
133
100
79
104
115
94
90
96
95
96
94
90
90
88
88
91
93
90
84
82
82
76
71
75
54
51
83
95
85
95
88
92
90
89
89
85
82
85
78
63
89
91
90
89
73
82
197
191
192
187
186
196
204
204
207
211
210
216
202
207
187
172
195
178
161
161
120
121
123
132
118
124
124
126
154
159
136
94
104
158
137
89
101
88
68
79
106
98
81
72
66
67
81
107
104
101
125
114
114
118
131
146
151
159
157
146
159
170
174
180
179
178
175
180
184
203
193
187
176
193
189
126
104
83
77
62
43
28
68
59
58
124
51
46
51
40
18
33
49
60
50
28
36
30
19
28
37
43
43
28
66
126
135
145
149
147
149
148
142
143
136
124
123
114
103
98
101
99
93
93
84
72
69
81
92
90
79
67
68
67
54
66
53
56
84
82
81
94
114
140
109
89
93
81
91
101
81
81
96
92
92
117
83
118
112
76
88
97
94
90
111
107
110
139
122
124
86
106
98
87
101
99
102
97
102
94
97
93
90
90
86
85
88
92
86
78
80
83
77
70
71
45
53
84
98
82
92
85
87
94
95
93
86
85
91
87
70
86
87
78
85
82
67
180
178
162
172
179
178
180
190
197
197
195
213
159
197
172
123
191
155
111
147
144
110
117
119
125
110
153
139
140
124
134
90
79
114
94
76
75
60
73
64
85
104
103
83
71
74
82
108
106
119
108
124
138
127
129
152
163
167
184
163
163
167
169
175
174
171
172
187
201
199
190
212
163
154
167
192
197
152
130
119
159
149
142
66
8
18
71
68
23
66
74
25
53
40
35
29
17
55
66
35
71
39
36
43
55
142
149
152
149
148
150
149
144
139
135
126
119
117
117
114
112
106
96
82
78
73
84
99
88
68
65
68
66
54
60
56
62
66
84
90
70
86
121
93
89
105
102
88
99
101
79
69
126
107
95
112
96
103
97
78
111
111
103
108
87
83
114
120
120
118
90
113
109
96
95
104
97
93
104
99
92
95
88
88
88
78
91
93
84
83
76
80
83
67
70
43
69
82
91
93
91
94
91
87
98
94
85
87
85
79
80
86
75
70
82
80
77
159
173
125
145
149
168
130
152
164
173
170
160
120
134
132
202
237
165
115
105
143
137
115
126
167
125
157
118
135
120
125
84
37
78
76
63
74
43
54
67
91
99
111
102
81
53
72
97
124
128
139
126
131
146
150
154
159
159
153
163
169
170
173
186
201
210
189
168
186
202
199
197
190
193
182
156
137
145
152
121
101
56
36
8
38
77
87
59
4
64
56
19
42
47
45
38
21
72
67
8
16
33
21
34
39
143
158
154
148
146
150
155
152
143
135
137
129
125
123
118
114
108
98
92
87
84
91
95
78
66
74
77
59
54
54
62
47
62
83
69
58
74
75
92
108
98
109
99
93
88
71
81
114
107
98
99
93
110
89
80
117
98
105
115
85
113
105
127
127
117
101
116
109
106
105
98
94
99
103
92
88
89
87
87
84
81
90
91
81
77
73
75
78
70
65
44
73
86
92
93
92
96
93
84
89
87
84
87
86
80
76
85
77
76
83
81
79
154
175
136
145
156
138
119
147
153
116
120
123
102
124
82
130
223
169
138
137
117
134
128
118
150
120
117
139
143
106
79
75
35
54
58
71
66
69
47
47
79
99
96
103
93
63
69
88
117
126
150
146
151
158
158
158
164
166
175
170
170
176
186
191
192
191
182
183
200
198
195
202
187
171
145
146
156
176
175
107
83
81
75
132
107
37
61
48
5
0
1
1
13
17
49
64
27
45
18
21
32
25
48
35
44
140
150
142
144
150
153
152
147
145
145
144
137
132
128
121
117
111
103
103
101
102
107
96
73
68
84
67
71
71
51
59
68
79
73
60
48
75
71
88
102
105
109
103
90
82
74
103
102
102
95
86
94
106
96
94
107
86
101
102
87
106
110
130
102
130
144
117
106
107
106
95
97
104
98
89
90
87
89
87
82
86
88
92
84
76
77
76
79
80
63
47
77
87
90
91
92
97
93
96
91
88
89
87
85
82
74
83
77
80
78
79
78
147
178
141
144
167
136
114
133
133
97
103
102
115
118
126
154
89
121
144
107
121
138
117
115
141
103
129
113
122
152
60
50
52
49
39
59
73
109
86
70
75
88
110
111
99
73
68
75
98
116
138
148
154
156
157
159
166
174
174
165
164
167
169
164
161
161
161
161
183
199
200
185
164
161
171
134
134
109
100
97
135
179
154
59
62
77
61
65
50
82
53
15
17
16
27
15
10
26
14
16
35
31
67
81
89
106
115
136
142
150
153
151
147
148
154
147
141
137
133
127
123
120
114
117
114
113
109
95
78
80
95
65
64
59
66
62
73
67
62
44
61
66
59
71
91
107
87
91
90
85
88
115
91
90
87
90
101
98
119
114
86
89
97
86
76
69
101
129
103
110
112
111
102
99
98
96
103
104
91
91
94
86
89
84
79
90
85
86
80
72
77
73
74
80
55
54
79
86
86
89
94
97
90
105
94
92
91
85
84
85
79
83
77
81
73
78
82
142
178
144
158
175
145
112
130
115
103
121
144
124
115
112
167
114
115
151
119
164
152
140
129
155
127
130
149
92
128
70
45
46
45
48
39
67
87
90
83
75
91
98
111
121
114
93
74
84
109
119
139
147
148
154
159
163
176
179
185
188
182
167
159
166
176
162
178
191
191
188
178
163
156
120
125
124
139
144
134
153
81
33
89
129
124
141
84
40
37
20
27
60
17
13
31
63
21
4
17
31
28
22
55
132
112
139
150
145
145
151
159
160
155
153
151
145
144
141
135
133
131
126
128
121
112
100
89
87
94
100
73
69
63
72
66
75
61
45
55
64
38
50
82
83
71
90
76
94
90
99
107
85
85
89
100
102
101
125
113
82
98
101
78
74
79
66
90
111
107
120
101
103
94
89
100
103
95
91
91
92
84
85
78
78
91
83
84
79
74
81
77
74
77
51
65
83
84
84
91
96
98
88
90
84
87
90
82
82
87
84
83
77
81
76
83
85
139
167
146
168
165
123
108
128
97
85
137
143
105
137
115
113
141
115
148
117
147
150
111
90
152
111
128
165
63
86
83
46
51
65
65
45
55
63
70
78
77
90
107
104
102
110
118
114
103
102
124
144
153
153
160
162
165
171
170
183
189
179
167
168
176
182
174
185
191
195
195
192
199
211
191
165
172
157
162
172
147
122
173
166
99
96
72
65
22
33
8
10
31
29
26
19
29
15
19
50
26
26
34
39
105
155
163
155
150
149
153
159
159
155
153
151
148
147
147
141
138
137
132
125
119
113
105
98
98
98
90
80
77
80
65
70
78
74
41
65
51
47
63
77
72
40
78
73
98
96
103
96
89
94
101
102
93
108
103
94
92
100
109
66
68
77
76
122
131
114
87
98
109
103
94
100
97
89
94
90
87
84
82
76
84
95
84
82
77
77
83
80
75
70
53
77
87
83
85
95
98
99
89
75
78
85
88
82
80
81
81
78
75
78
80
87
83
137
151
137
146
139
100
101
100
80
72
109
116
102
95
126
120
149
139
130
131
122
130
123
101
97
121
100
182
83
46
75
58
41
46
77
68
45
69
74
88
90
81
96
114
112
100
89
101
111
122
134
149
160
163
166
169
168
171
170
179
182
179
184
193
192
183
188
183
184
200
191
167
175
195
175
116
116
132
151
237
229
126
71
44
40
37
26
47
33
23
4
28
16
68
76
15
12
168
151
0
41
45
22
38
22
157
137
147
150
152
155
154
152
154
155
149
148
152
152
146
143
141
136
128
121
123
122
113
106
97
83
90
65
71
78
78
63
65
56
47
54
70
49
43
62
46
40
77
95
100
105
98
99
101
101
94
89
102
86
92
96
97
115
69
92
89
95
105
93
97
74
104
107
107
103
100
95
92
93
90
81
85
81
77
91
95
83
75
68
73
76
76
69
56
53
85
90
84
87
95
96
98
92
76
85
88
84
81
78
76
77
77
73
74
82
85
81
145
151
122
122
117
104
87
83
80
80
115
104
110
129
147
105
139
137
126
119
127
137
131
121
77
99
71
69
64
64
55
56
59
69
96
80
50
59
67
83
98
91
102
117
115
110
102
111
111
117
136
147
162
173
172
172
174
172
171
176
178
180
185
192
190
184
182
196
204
209
199
195
202
187
161
149
121
112
89
73
39
84
119
87
54
115
61
22
29
31
39
26
20
39
13
26
22
46
15
23
24
27
38
37
42
146
152
146
144
145
152
158
159
156
153
149
150
155
157
150
148
147
142
144
131
129
129
117
107
101
92
90
83
83
92
73
74
67
54
63
67
46
36
58
44
43
55
75
85
100
107
104
105
98
87
88
97
90
88
109
92
99
119
76
104
109
101
82
111
86
74
112
101
104
108
100
100
98
88
87
75
86
79
74
93
90
78
79
72
78
79
82
75
57
63
87
91
84
88
94
94
95
93
79
90
87
77
78
79
75
79
81
75
73
83
84
83
160
165
114
125
113
115
72
98
98
78
102
92
92
113
133
131
130
129
116
129
122
128
129
98
68
55
75
44
70
58
42
63
49
82
107
80
85
57
66
71
92
107
122
120
112
125
125
128
127
143
139
147
168
180
175
173
177
175
177
185
192
189
181
179
187
196
183
183
188
204
194
186
195
183
221
192
64
60
47
53
68
54
56
70
55
49
46
43
33
23
31
36
22
0
27
44
12
5
20
34
14
32
40
26
28
136
148
116
153
159
150
164
167
153
153
153
154
159
162
161
156
151
149
139
147
138
129
129
115
104
111
108
91
106
85
73
88
69
60
71
48
42
45
43
37
35
51
59
72
94
102
100
109
108
83
98
95
87
81
88
85
83
104
86
107
103
77
83
108
77
85
113
111
106
97
92
98
98
89
81
82
77
72
77
86
83
73
78
82
78
76
75
65
63
77
85
87
89
89
91
92
90
87
80
90
84
80
88
84
75
80
81
72
84
76
85
92
124
170
129
113
117
87
99
105
100
153
89
85
86
118
133
129
138
133
110
131
120
125
121
90
63
35
61
61
61
67
66
53
58
85
83
76
98
84
85
118
84
95
112
121
122
121
130
140
141
139
154
157
162
176
183
181
180
187
180
176
191
186
182
181
192
178
191
192
192
197
207
210
189
158
130
164
172
151
122
105
97
46
48
42
44
9
33
29
10
32
49
15
93
91
26
87
35
20
26
25
41
55
46
36
34
131
114
142
163
163
154
159
156
146
150
153
162
164
158
157
163
159
148
147
156
149
134
130
124
113
106
106
102
93
85
89
91
77
65
53
43
35
40
43
43
51
60
67
68
97
102
101
112
103
92
106
104
84
86
92
80
87
103
85
122
101
73
82
79
73
107
114
109
104
97
91
94
93
84
82
78
76
77
81
82
79
76
80
80
74
72
71
63
63
79
89
90
91
91
93
93
90
85
80
89
86
79
84
79
73
80
78
74
75
79
88
96
125
146
139
118
135
90
104
108
79
128
95
70
86
103
135
127
139
143
123
119
107
129
123
74
53
50
39
48
50
70
79
62
64
81
86
88
58
56
94
98
107
146
110
126
133
129
131
139
151
165
154
165
173
174
176
177
183
195
166
138
147
168
185
182
188
181
187
204
194
185
202
204
194
203
174
154
155
140
157
85
87
81
71
44
76
82
54
78
26
43
28
16
88
70
41
38
36
45
38
49
35
54
52
23
75
113
140
154
157
153
150
151
146
144
152
163
161
159
161
160
157
156
160
163
151
148
152
146
135
128
125
103
111
82
87
101
86
75
57
54
52
48
50
50
48
49
49
66
57
84
84
84
97
90
94
101
108
92
107
113
92
97
98
104
97
95
85
92
93
91
105
117
108
102
99
94
92
90
84
81
76
76
82
84
78
76
79
84
78
72
71
70
63
68
84
88
88
89
90
92
93
88
81
81
91
87
80
81
77
74
83
78
81
72
84
87
104
135
135
140
133
110
95
122
90
86
102
112
75
93
106
132
124
127
141
113
131
118
97
79
58
50
33
33
40
26
41
76
91
91
84
64
108
90
63
88
91
116
134
123
127
127
129
141
152
159
164
158
169
175
175
182
186
187
189
180
139
131
146
157
157
170
177
171
178
198
203
191
198
216
219
204
189
186
182
121
126
136
109
110
124
124
81
66
23
19
22
45
8
11
67
62
40
39
19
18
40
41
70
70
45
1
137
155
154
147
145
147
148
150
154
157
168
157
155
162
162
154
156
168
173
150
146
150
139
127
121
113
111
115
90
97
102
79
67
47
42
40
53
57
63
70
66
74
60
56
71
70
71
87
95
105
106
110
94
101
108
103
111
110
108
90
95
92
85
78
103
106
118
105
99
98
95
93
91
87
78
76
77
83
83
77
75
79
83
74
69
71
70
66
73
87
84
85
86
89
93
93
88
81
84
90
88
82
82
80
80
84
79
82
77
86
83
115
143
141
148
123
112
107
142
109
88
104
109
83
88
120
125
124
122
146
130
121
100
83
67
40
40
38
31
37
32
28
52
78
91
110
109
102
119
94
90
111
117
118
125
135
140
139
140
143
150
162
164
170
172
176
186
188
188
190
191
167
156
155
157
158
165
166
174
190
196
204
210
193
168
163
172
146
116
113
126
99
67
68
67
60
67
10
9
36
70
75
103
65
12
73
57
41
111
26
59
41
37
21
45
23
64
156
147
156
150
149
151
154
161
164
157
158
161
162
161
161
164
164
161
154
150
150
144
138
154
156
132
126
114
108
107
93
78
68
53
72
56
71
62
59
65
47
64
47
59
57
60
63
75
101
103
108
106
99
92
101
112
113
110
112
117
94
87
89
72
106
115
120
104
95
95
94
90
89
86
74
78
80
80
79
78
77
76
76
68
66
70
70
70
77
86
86
87
88
91
94
95
90
82
85
87
86
83
84
84
83
83
80
75
79
83
84
127
139
138
128
122
118
116
141
110
98
102
114
101
91
120
112
106
112
128
122
81
62
66
67
35
36
45
44
33
41
34
44
65
70
101
111
96
144
132
91
120
129
146
140
148
148
144
144
145
148
155
165
171
175
179
181
177
185
202
202
177
146
128
131
152
172
180
178
178
174
187
204
184
139
114
148
131
130
89
51
104
114
59
89
79
84
73
100
90
73
37
42
41
80
128
15
33
40
50
121
84
144
128
82
28
80
128
143
148
149
152
152
156
165
165
154
155
158
162
165
166
164
161
158
159
152
149
138
128
138
139
117
128
109
114
104
84
81
74
67
68
55
76
70
65
68
48
63
47
63
49
52
56
61
85
80
108
104
105
99
105
120
110
101
107
98
115
103
99
107
106
115
125
108
97
95
92
90
87
81
74
81
83
76
75
79
79
74
73
67
69
73
73
77
85
86
87
88
89
91
93
93
88
81
84
85
86
85
84
86
85
82
83
71
80
86
101
137
130
121
105
130
112
112
112
95
118
107
131
118
101
105
102
86
100
98
74
56
57
49
52
39
48
48
54
46
54
39
43
78
80
79
89
87
112
126
112
133
131
135
155
155
146
141
149
158
156
153
165
169
173
183
186
180
182
194
197
185
160
144
129
135
144
161
174
168
183
198
197
198
193
176
140
140
174
175
203
156
121
140
176
158
98
89
98
27
31
22
7
8
1
43
37
25
49
39
15
15
60
47
43
82
44
143
153
139
146
151
153
156
160
161
158
162
156
155
161
161
154
155
159
158
146
147
150
143
141
142
137
124
115
114
103
94
91
80
76
69
71
79
77
72
69
63
64
68
68
49
49
55
59
71
70
109
102
93
96
103
110
112
101
105
95
133
125
93
107
105
114
125
111
100
96
93
90
84
75
75
81
82
75
73
78
79
74
74
71
75
77
76
84
92
87
86
88
90
91
92
92
87
81
84
85
90
89
86
86
87
83
80
74
81
92
120
134
126
109
114
115
123
108
92
108
113
124
126
113
96
89
91
94
95
81
64
47
63
60
63
48
64
71
51
67
79
58
38
68
103
94
80
76
94
121
119
108
120
150
143
160
162
151
148
156
164
170
170
171
171
178
185
184
182
187
193
191
168
146
117
111
116
135
147
176
180
180
195
192
191
213
227
191
167
139
120
147
104
78
47
28
37
78
26
21
28
21
74
100
10
18
33
46
42
22
43
46
30
20
61
34
50
134
136
142
151
156
158
159
158
160
165
161
163
156
143
142
153
159
155
152
152
153
149
144
147
147
138
125
130
119
111
116
106
87
81
86
97
81
75
68
65
82
74
77
60
41
39
53
61
66
72
84
83
76
101
110
101
104
84
154
165
105
118
109
95
123
109
121
109
99
95
91
89
82
70
78
81
80
75
73
77
77
75
74
73
77
77
76
88
94
84
85
89
91
91
93
94
91
86
84
88
95
94
87
86
88
84
72
78
81
98
127
122
124
107
112
108
100
119
97
94
104
101
124
110
91
84
76
105
76
57
67
47
57
52
68
70
81
74
67
70
70
82
54
55
106
102
74
76
113
114
125
139
143
138
145
161
163
156
160
172
174
170
177
182
176
166
167
174
188
200
192
204
192
181
163
161
144
141
155
165
180
191
196
199
198
192
164
182
209
127
109
72
55
71
47
44
36
44
35
27
74
12
110
107
2
35
62
40
36
46
43
57
72
48
55
46
37
153
139
143
153
149
149
162
157
152
166
149
146
144
148
155
161
161
159
161
155
152
153
156
157
150
142
131
133
130
121
113
106
100
91
96
85
81
81
80
84
86
83
70
66
53
78
67
63
77
76
73
77
85
100
74
91
94
91
132
127
112
162
145
111
126
122
115
105
95
93
90
80
74
83
77
75
74
77
76
69
72
85
73
74
79
79
79
92
97
84
83
91
97
98
97
90
86
91
87
86
84
84
86
88
85
80
80
81
90
105
135
122
118
119
116
93
98
110
90
56
88
106
100
92
82
84
82
66
64
71
72
60
48
69
86
83
88
83
82
92
85
91
86
68
88
116
92
73
94
116
133
136
151
151
157
153
158
162
160
168
173
164
169
173
189
185
161
163
184
188
191
182
192
182
181
143
141
142
143
144
164
186
199
194
176
172
177
170
190
194
215
205
174
147
126
117
78
88
53
20
28
76
68
20
19
47
33
40
35
73
47
62
71
54
50
25
37
124
128
144
159
164
155
153
154
147
135
139
141
146
153
159
163
162
160
158
158
158
159
157
151
145
139
140
131
128
129
121
106
101
106
109
97
92
94
98
99
93
83
72
74
60
99
80
89
78
74
79
81
86
96
69
83
88
85
103
114
123
152
156
112
124
127
121
110
98
97
97
87
81
84
77
73
67
68
78
80
77
78
77
81
84
82
83
91
93
84
89
89
96
113
122
106
90
87
95
89
87
88
85
80
79
84
81
80
100
141
113
121
123
115
86
98
94
81
59
51
69
87
93
87
82
85
80
70
69
72
78
69
65
83
97
98
103
105
99
105
102
106
106
95
102
118
118
90
114
88
100
131
144
153
160
156
162
167
165
170
179
178
174
182
197
202
187
166
162
168
183
185
182
178
171
165
156
151
161
161
175
188
198
202
197
202
197
196
173
114
135
189
144
129
94
64
72
33
54
41
27
42
17
108
44
38
73
87
76
64
78
53
64
55
27
53
45
117
149
152
139
144
153
146
139
137
133
143
147
153
159
163
165
165
164
159
162
163
160
153
147
143
142
139
139
134
126
119
116
114
113
120
110
102
104
109
108
97
84
84
74
75
86
92
90
87
76
84
84
86
95
74
87
93
93
104
113
114
118
131
110
121
141
130
116
102
99
102
93
82
78
73
76
72
68
73
77
77
76
79
86
85
83
88
92
91
88
90
88
91
105
116
108
93
88
98
93
89
88
85
80
78
80
82
93
124
147
93
113
104
95
92
102
83
68
62
71
66
91
87
84
87
87
81
77
78
76
87
81
88
97
106
109
110
120
114
115
117
117
125
128
124
130
129
113
105
103
101
93
134
146
162
163
171
175
169
170
179
184
183
189
194
203
206
185
165
166
170
178
181
180
178
183
179
174
169
168
177
183
192
202
201
203
187
172
177
186
166
150
75
92
60
87
80
93
78
33
75
47
0
59
30
76
92
140
85
83
78
80
106
69
44
31
55
136
143
142
131
138
152
147
133
142
162
160
159
157
158
160
163
165
166
162
160
156
152
149
147
148
149
142
146
140
126
120
125
126
120
124
119
110
108
112
110
99
90
91
79
92
78
98
88
91
82
92
88
89
98
86
100
104
102
101
103
103
113
119
129
116
128
139
124
106
98
101
95
80
72
69
72
70
67
72
76
77
79
80
86
81
79
90
93
89
90
82
93
93
88
93
100
96
90
93
93
90
85
84
86
83
77
96
116
143
103
86
108
84
93
98
92
73
58
64
81
73
93
88
87
95
90
83
86
86
83
95
91
106
111
114
116
108
118
125
124
130
122
129
143
137
140
150
113
110
120
112
101
101
125
145
158
170
171
165
165
171
174
179
181
180
186
200
201
181
163
157
158
176
171
178
156
161
158
176
175
183
186
196
203
191
183
169
168
161
166
129
156
164
170
182
133
147
77
57
109
35
52
62
0
33
98
103
71
55
75
94
86
101
66
98
59
78
136
138
108
144
156
142
137
139
151
169
166
160
154
152
156
160
161
161
159
152
145
145
151
155
155
153
153
146
140
138
134
129
129
135
124
127
122
118
119
114
103
99
89
96
105
107
103
102
90
90
104
96
93
101
98
107
105
99
99
90
105
118
120
141
125
122
141
131
111
98
98
94
80
71
74
68
62
67
81
85
81
82
86
86
78
77
90
94
89
90
81
96
98
90
91
97
94
90
91
91
90
86
81
80
85
92
115
118
135
71
85
111
74
105
92
79
77
51
53
75
86
86
93
93
100
89
83
91
88
89
99
98
116
121
124
124
110
113
131
133
143
132
129
141
139
143
164
141
113
119
114
131
108
101
124
149
168
171
174
180
182
180
180
176
185
195
197
202
191
162
148
145
161
156
168
150
152
144
157
162
176
178
185
190
179
172
182
151
130
134
106
105
111
116
119
107
70
50
38
21
9
51
34
20
73
26
78
116
70
41
53
31
72
78
80
80
69
133
128
110
148
148
126
137
154
158
164
158
154
151
153
158
161
159
156
152
147
143
147
156
161
158
152
151
149
144
140
138
139
137
134
123
135
134
128
128
121
108
106
95
108
118
116
115
101
99
101
112
103
99
106
109
113
108
100
109
88
112
107
114
127
132
130
136
133
118
101
96
92
83
76
85
82
77
80
85
84
83
88
92
86
78
80
90
93
90
89
93
93
91
92
96
93
89
92
95
90
87
88
79
74
90
115
114
100
113
83
86
110
59
83
110
71
69
63
66
77
96
88
97
98
102
86
86
95
86
93
98
102
115
123
127
125
115
112
124
131
146
144
137
140
144
147
152
164
121
133
124
137
139
116
114
139
158
168
183
194
194
191
188
176
189
202
192
190
192
177
155
154
148
151
159
167
161
151
150
162
181
186
191
201
203
208
200
182
174
155
149
126
74
75
85
71
30
17
20
85
65
10
42
115
51
19
75
102
102
66
8
20
100
138
81
81
65
124
96
137
138
133
134
152
162
161
163
152
152
153
157
161
161
156
151
149
149
150
154
158
159
155
152
145
152
149
138
139
148
144
128
133
144
139
131
135
128
112
109
109
117
121
111
123
97
114
116
121
112
109
114
120
120
114
109
107
94
113
110
119
118
117
124
135
141
132
112
100
94
89
84
90
97
97
89
84
81
84
90
91
82
81
87
90
92
92
90
99
95
90
92
94
91
88
94
94
89
86
83
83
91
106
121
97
99
102
97
93
101
53
52
116
66
49
72
81
85
101
98
102
105
105
88
96
102
85
100
101
109
113
120
123
120
119
112
115
124
140
152
144
140
151
152
147
147
148
143
138
147
141
154
125
136
143
155
175
181
178
179
184
173
174
180
181
184
186
183
167
156
141
137
140
149
147
142
147
156
174
182
188
196
196
203
181
177
166
143
144
127
80
81
126
131
94
82
28
48
79
24
15
66
45
7
92
104
103
53
14
53
162
199
120
78
82
85
114
128
124
134
147
147
146
147
145
151
153
156
159
159
155
150
147
150
153
156
157
155
154
154
154
151
147
145
147
150
149
142
135
144
151
139
130
137
132
116
111
118
133
113
127
123
114
120
127
129
122
119
121
125
121
116
114
112
107
102
111
119
125
108
128
142
153
148
126
109
102
95
92
88
96
92
82
83
88
87
85
85
77
82
90
89
90
94
92
92
102
104
98
98
96
94
93
88
92
85
76
90
118
125
114
88
120
103
91
98
97
66
48
97
75
53
75
80
96
114
111
106
111
109
92
106
110
88
107
110
119
115
120
120
115
121
113
116
122
132
152
145
136
151
150
152
157
143
141
153
142
162
154
158
153
147
157
174
173
165
171
183
183
172
168
188
199
191
180
151
131
131
123
136
123
142
154
162
162
175
182
188
186
171
165
170
182
155
142
133
138
121
84
74
112
142
127
133
55
54
30
0
73
114
47
50
73
125
171
64
24
103
154
134
115
82
92
118
125
135
140
137
144
160
158
137
147
155
163
162
151
143
147
156
156
151
151
155
157
156
156
157
158
151
145
156
148
139
150
145
150
142
137
139
137
129
125
127
135
125
120
126
131
130
128
129
130
120
119
129
130
118
115
123
118
117
110
117
115
117
115
127
134
144
141
143
121
116
101
98
102
95
90
87
94
92
80
86
83
78
80
89
94
91
89
91
98
94
104
106
104
103
93
87
87
79
81
103
118
133
111
93
98
117
108
106
84
83
73
46
52
67
51
74
90
104
98
117
110
131
102
98
115
100
97
102
101
117
130
130
117
134
128
117
124
121
130
152
139
119
130
129
161
154
148
138
164
168
162
165
162
172
176
171
167
171
175
175
186
190
174
179
159
148
148
148
117
144
147
133
149
141
143
159
155
154
163
185
191
195
170
164
142
144
126
202
160
129
129
135
85
80
93
64
20
44
71
60
80
27
3
19
9
33
116
200
122
40
32
95
130
110
87
99
117
128
132
137
144
151
153
151
149
154
158
158
151
146
149
156
160
161
157
151
151
156
163
163
160
150
149
145
146
144
145
152
147
146
140
138
143
144
137
134
135
128
127
130
135
137
132
132
136
123
131
137
134
124
117
121
128
119
121
116
119
112
119
121
127
143
130
136
140
142
127
110
110
103
98
100
97
95
87
79
87
88
85
86
92
96
94
93
94
107
98
101
101
100
101
90
82
80
95
109
121
110
117
111
96
112
115
110
110
73
71
76
33
35
67
62
82
95
113
105
114
122
130
104
105
118
108
106
102
93
123
129
129
130
138
128
137
138
135
129
153
156
120
116
138
166
156
147
138
147
173
173
164
174
166
168
180
185
180
179
186
192
179
179
184
187
153
139
126
135
146
146
134
146
145
137
146
157
160
167
176
177
189
183
188
200
188
199
182
101
121
127
100
87
52
34
76
46
39
29
65
44
14
27
67
43
32
55
76
101
76
46
109
145
122
112
119
125
118
129
134
137
141
137
138
151
154
157
153
146
148
159
165
163
158
156
151
150
157
165
162
151
146
153
154
144
147
156
151
148
146
142
142
146
146
140
136
135
131
135
141
146
144
136
131
133
133
141
138
127
124
131
131
122
125
126
125
125
111
123
131
132
139
130
136
134
149
150
132
124
114
103
108
108
102
98
96
102
87
88
92
98
101
102
100
100
97
97
107
104
97
96
93
94
102
116
117
119
99
111
123
100
106
109
100
111
76
58
71
45
29
71
79
101
110
122
116
123
133
126
108
116
122
118
118
103
100
133
125
125
146
141
122
144
146
148
140
150
156
135
126
137
169
145
139
149
138
157
162
169
174
158
156
172
182
177
174
178
177
177
191
185
188
173
163
155
107
114
122
123
130
143
132
139
138
149
166
179
183
196
192
196
204
202
193
176
166
119
119
103
69
51
58
87
55
58
63
51
29
26
25
43
23
22
51
86
87
81
106
158
151
153
146
128
123
113
139
141
126
128
135
140
151
146
150
151
152
158
166
166
161
152
151
151
155
161
161
152
141
150
157
162
147
153
160
143
143
146
146
147
147
144
140
138
137
138
141
145
148
146
139
132
130
143
143
132
120
127
143
137
119
135
131
131
133
113
124
137
140
130
134
128
136
152
155
148
143
132
109
107
108
105
108
109
111
112
110
104
97
97
103
109
112
112
111
119
112
102
103
105
112
129
127
110
115
96
113
134
103
109
120
99
110
88
40
42
48
31
70
85
106
111
117
118
128
133
118
113
126
124
124
126
103
109
129
109
114
148
140
119
134
154
142
145
154
148
145
145
133
146
126
130
143
131
129
136
158
171
168
163
161
166
173
172
168
190
180
178
184
183
182
131
101
121
116
118
112
104
126
126
142
140
142
158
175
187
195
185
183
136
121
107
152
163
182
154
131
88
113
59
57
74
40
69
133
162
138
47
28
47
50
27
37
88
70
128
183
163
147
127
99
118
116
135
127
112
124
140
143
145
142
145
152
160
164
162
159
157
154
148
148
157
161
156
151
150
160
160
160
149
153
155
138
143
149
152
152
150
146
146
146
147
135
143
148
146
140
136
136
138
137
144
143
134
132
138
137
129
143
132
130
137
118
124
137
146
136
125
110
129
162
138
154
156
145
122
117
113
105
108
106
105
116
119
119
116
113
114
116
117
117
107
110
112
117
128
129
130
130
127
115
125
102
106
125
104
108
119
99
103
92
43
36
41
47
82
93
102
106
118
127
132
123
112
119
131
124
126
129
106
109
117
96
104
139
135
126
129
152
129
135
154
155
150
150
151
144
146
152
144
152
148
149
162
168
176
172
157
153
163
169
165
164
163
177
183
154
137
124
150
152
144
141
135
121
138
139
149
173
160
165
173
185
188
184
188
162
158
131
137
150
95
113
98
82
42
77
25
46
129
75
68
151
158
72
42
47
48
33
53
50
54
81
144
183
157
159
113
108
121
117
104
107
130
143
140
139
144
145
152
159
160
155
152
154
156
145
142
150
154
153
157
167
168
160
155
150
152
152
146
152
156
158
156
150
148
149
149
147
134
147
154
146
133
130
137
145
136
145
150
148
142
140
138
137
144
132
128
137
124
125
133
145
137
122
107
99
156
131
160
151
153
145
146
136
125
123
118
119
120
125
131
130
124
117
114
114
112
110
125
136
144
151
143
139
134
125
115
127
105
104
113
102
105
107
100
93
82
56
50
30
65
95
99
95
101
123
135
127
114
116
128
132
125
128
127
111
115
122
101
103
133
133
138
136
132
131
132
141
162
166
157
170
150
149
153
145
166
157
150
159
166
173
172
161
155
159
166
170
156
152
168
170
172
147
131
124
129
122
115
119
121
133
140
139
154
150
165
173
185
185
185
191
183
181
192
128
106
122
126
141
127
96
52
64
60
150
52
21
69
95
57
63
58
75
82
89
77
89
102
87
113
137
168
116
104
124
111
107
122
140
145
142
141
143
146
150
151
152
152
152
152
148
142
141
149
154
156
160
166
163
157
151
153
152
153
159
155
159
159
153
148
148
152
148
140
137
149
153
144
136
135
142
145
148
148
147
146
148
149
146
142
142
136
128
137
131
131
130
139
132
128
116
82
127
142
156
150
152
158
163
154
152
153
143
143
151
146
136
127
117
115
124
137
145
147
162
167
162
156
142
134
144
128
116
121
107
109
108
104
111
110
108
87
74
49
37
30
76
88
88
92
103
115
124
116
113
128
138
131
126
130
125
117
127
139
108
98
135
139
145
141
124
132
135
130
149
163
152
157
166
159
165
169
172
164
153
158
166
169
170
169
169
172
173
172
174
169
158
150
171
175
168
134
104
99
80
80
91
96
120
121
118
128
154
160
177
183
184
183
162
195
204
146
137
49
37
91
76
62
66
26
66
44
33
34
83
89
40
62
82
138
174
183
189
180
186
109
51
54
76
104
113
112
109
117
130
135
136
137
137
138
145
147
145
147
154
155
150
138
141
147
155
162
164
160
156
153
153
148
155
153
154
165
150
157
154
148
145
152
159
153
140
139
144
144
142
144
149
149
144
156
154
148
142
144
149
151
149
139
140
132
138
137
139
131
134
132
133
117
91
104
149
139
165
147
155
156
150
162
169
154
149
139
137
139
142
143
146
160
177
169
157
155
153
153
155
145
137
140
132
127
124
109
112
106
110
101
109
107
81
79
40
22
58
93
83
83
106
121
116
120
122
116
138
145
131
130
135
125
122
131
146
103
88
140
146
148
142
141
121
133
136
129
133
128
127
158
169
184
181
156
165
154
140
155
160
161
161
169
178
171
156
132
147
134
139
129
134
135
127
95
109
102
109
120
106
130
125
138
144
159
152
172
191
199
193
179
145
102
117
145
137
119
123
106
81
88
80
56
43
67
57
75
78
18
66
138
210
226
225
233
228
209
191
122
37
53
91
110
122
113
119
137
144
135
133
141
151
137
138
147
152
155
150
135
132
144
152
164
146
141
166
152
151
153
155
156
156
155
154
153
154
149
156
161
150
144
143
138
133
140
145
150
154
150
147
151
158
154
149
151
147
150
157
145
144
149
136
130
143
144
132
128
139
132
112
86
81
139
140
162
144
148
163
148
139
171
151
142
145
120
135
141
150
154
154
156
164
159
146
153
164
153
141
140
128
140
131
115
120
126
113
101
111
117
101
83
101
39
27
82
87
93
100
110
117
116
120
130
119
120
133
133
136
121
127
132
140
137
123
82
123
141
142
145
143
136
133
140
125
129
113
90
133
152
159
173
157
163
170
151
151
153
148
150
164
169
158
146
121
114
131
137
122
99
84
99
83
59
62
83
89
92
99
100
116
128
142
151
160
173
188
196
197
188
119
68
57
41
53
88
93
69
27
71
42
23
62
54
73
58
26
69
152
196
189
210
223
220
232
217
185
117
60
91
90
110
123
134
132
130
134
140
141
138
134
139
147
149
146
137
128
133
154
152
151
150
154
158
139
146
153
153
147
146
152
154
151
156
148
146
148
146
144
143
140
145
150
151
152
156
154
154
159
155
151
154
157
150
149
152
148
145
149
138
134
145
141
127
122
139
131
99
77
75
127
126
157
162
140
153
142
149
159
152
133
140
131
137
148
161
155
161
160
163
167
154
146
160
162
148
147
129
134
127
117
119
116
106
102
111
112
110
101
103
59
54
83
88
98
101
105
116
124
125
127
125
125
130
128
126
118
123
129
141
146
124
86
111
143
149
146
149
144
144
162
146
144
112
81
82
146
145
148
169
157
158
160
169
165
153
148
160
171
166
157
139
127
133
134
130
117
101
104
117
113
96
85
88
84
85
102
107
110
121
141
164
180
188
190
197
212
207
156
87
64
39
73
54
17
11
54
86
23
16
66
103
62
21
65
156
156
176
188
196
208
173
132
159
183
123
84
88
114
126
131
123
125
138
141
134
124
130
136
142
145
139
132
132
141
151
145
145
155
150
141
145
154
151
147
145
146
148
149
149
150
150
147
149
151
147
141
141
151
153
150
149
154
154
154
157
153
149
159
161
152
148
147
151
146
147
139
140
149
143
130
129
130
135
104
79
71
103
111
156
167
147
149
145
151
152
154
134
136
141
135
145
164
153
164
164
167
169
160
144
158
163
140
144
135
133
129
129
130
122
116
120
109
104
113
113
97
78
80
84
91
105
108
106
118
131
128
119
127
129
127
125
118
118
119
123
127
138
114
96
106
141
153
147
146
139
138
158
154
159
133
106
70
90
140
134
148
155
150
166
155
168
163
145
145
162
163
150
129
109
100
95
97
96
81
75
66
78
84
90
101
99
99
114
110
106
111
131
155
167
169
166
160
163
171
219
210
118
103
60
57
50
28
44
100
57
73
45
90
76
41
55
122
135
160
138
150
117
49
68
151
200
200
