P2
# Created by GIMP version 3.2.2 PNM plug-in
352 333
255
136
136
136
137
138
140
140
140
140
140
141
141
142
142
142
141
141
140
140
139
136
133
130
128
124
120
117
112
107
102
97
89
84
78
73
66
59
53
51
44
42
41
39
39
38
37
36
37
35
35
35
36
37
35
34
32
32
32
32
32
32
31
31
30
30
28
28
28
28
27
27
30
26
25
27
29
29
28
27
25
13
48
72
17
92
36
32
36
35
39
41
40
39
34
33
28
29
29
23
40
61
23
14
21
18
11
8
8
10
10
8
10
11
12
13
13
13
13
12
14
14
15
16
18
20
21
22
21
22
24
25
27
27
28
28
28
28
30
37
54
26
31
25
27
53
96
48
34
22
47
108
30
26
201
92
8
34
35
48
71
28
76
90
118
151
61
78
74
96
75
58
16
34
65
63
115
21
25
66
141
9
56
132
3
40
52
74
69
53
6
100
78
10
67
74
128
128
94
85
57
39
56
29
31
35
38
35
43
60
36
44
43
33
49
47
42
43
48
53
58
59
62
66
64
66
68
71
74
76
76
76
83
81
86
79
97
87
96
102
85
142
127
107
128
118
114
109
72
112
114
97
167
102
111
117
134
104
114
128
133
73
77
77
81
72
66
67
67
60
54
52
44
38
31
23
16
9
5
6
4
4
5
5
5
5
6
6
4
5
7
7
9
10
11
11
13
14
15
15
15
16
19
21
23
32
44
51
56
61
66
68
75
78
83
86
88
90
94
98
101
103
105
108
110
113
116
118
119
121
124
127
129
132
134
135
140
140
140
140
140
140
139
139
138
139
139
140
141
142
142
142
141
135
136
136
138
139
140
141
140
140
141
141
141
141
142
142
141
140
139
139
138
136
133
130
127
123
119
116
111
107
101
97
88
84
78
73
66
58
52
51
43
42
40
39
38
37
35
34
35
35
35
35
35
35
34
33
34
33
33
32
31
31
29
29
29
29
28
28
28
28
28
28
27
28
28
27
24
26
34
42
32
23
22
86
19
70
50
31
38
31
35
36
34
35
40
54
29
28
32
23
29
67
36
12
19
18
14
10
8
10
11
9
11
13
13
13
13
14
13
11
16
16
17
17
19
20
21
22
23
24
25
26
27
26
26
25
36
49
14
39
75
6
37
38
17
30
107
19
43
41
0
134
30
154
76
43
68
26
30
74
55
42
87
58
90
202
38
99
61
120
22
54
40
21
94
120
163
127
92
114
87
20
69
147
5
31
109
74
102
49
10
104
26
80
45
18
32
85
70
147
166
95
29
7
35
53
31
24
79
54
28
41
41
44
40
43
46
44
46
51
55
55
58
61
63
65
67
69
72
75
74
72
96
74
81
80
93
98
105
79
73
145
155
98
129
126
101
124
72
123
110
117
159
100
136
159
149
105
123
130
122
74
78
73
74
70
67
68
65
58
54
54
45
39
31
24
16
9
5
6
5
5
6
6
6
6
7
7
5
7
7
7
8
11
12
11
13
13
14
14
15
19
24
28
37
46
56
60
63
67
73
77
80
83
86
89
91
94
98
101
104
106
109
112
114
117
120
122
123
125
129
131
133
135
137
138
141
141
141
142
141
141
140
140
141
141
141
142
142
143
143
142
143
136
137
138
139
139
140
140
141
141
141
141
141
141
141
141
140
139
139
139
138
136
133
130
127
122
118
115
110
106
100
96
87
83
77
72
65
57
52
51
43
41
40
39
38
36
35
33
32
33
35
35
35
34
33
34
33
33
32
32
31
30
28
28
29
29
29
29
27
27
27
27
24
26
28
28
25
27
35
43
69
69
47
39
55
50
75
27
39
29
37
36
29
30
44
78
28
32
35
26
17
46
53
16
19
19
17
13
10
12
12
10
9
12
13
12
12
15
15
13
17
17
17
18
18
19
20
21
24
24
25
26
27
26
26
25
36
63
17
33
78
15
37
63
31
12
105
22
83
101
2
95
107
145
15
75
114
8
21
93
61
23
110
72
49
183
96
88
99
124
24
16
73
35
121
144
83
126
5
69
90
24
92
127
33
71
132
48
119
2
52
110
6
118
34
21
39
111
3
75
104
138
154
81
72
17
25
41
98
22
35
36
59
49
33
46
79
66
53
47
46
48
55
62
61
64
65
67
70
74
73
69
93
93
76
72
95
118
99
68
85
166
173
83
139
138
105
130
88
118
125
122
136
136
161
168
97
99
141
140
115
97
83
72
67
77
81
74
63
59
56
53
45
39
31
23
16
9
5
5
4
5
6
6
6
6
6
6
7
9
9
7
8
12
13
12
14
15
16
17
20
26
34
41
50
57
64
67
70
74
80
82
84
87
90
93
96
99
102
105
108
110
113
115
118
121
124
126
127
129
133
135
137
138
139
140
141
141
141
142
142
142
142
141
142
142
142
142
143
143
143
143
143
137
138
139
139
139
139
139
141
141
141
141
141
141
141
141
139
139
138
138
138
136
133
130
125
122
117
113
109
105
98
95
86
81
77
71
64
56
51
51
43
41
40
39
36
35
34
32
30
32
34
35
34
32
33
34
31
31
31
31
30
30
30
29
28
28
28
28
29
28
28
28
28
27
27
29
29
28
26
25
18
62
106
33
64
31
91
24
40
35
50
51
38
29
40
79
26
29
30
31
27
42
71
11
19
20
19
15
12
12
12
11
11
14
14
13
14
18
18
16
17
17
17
17
18
19
19
20
22
23
24
26
27
28
28
27
20
62
38
31
77
46
30
73
80
3
100
35
72
129
64
57
181
116
76
24
167
55
1
69
81
54
123
147
92
137
187
100
92
134
43
5
38
117
127
107
78
162
1
104
76
30
121
69
54
139
40
30
145
9
70
77
19
124
8
42
46
65
94
94
74
32
21
146
169
69
4
83
127
31
48
30
72
24
73
98
46
42
43
53
59
56
55
56
59
62
63
66
69
73
72
68
74
119
76
63
107
139
91
83
112
195
156
100
148
147
102
140
124
110
171
110
135
165
159
117
77
131
186
154
90
91
75
79
63
87
96
80
62
59
57
50
47
41
33
25
18
11
8
8
4
5
5
5
6
6
6
6
9
11
10
8
8
12
14
13
15
17
19
21
26
34
45
52
57
63
70
75
79
83
84
84
90
92
95
98
101
105
108
111
113
115
118
120
123
126
129
131
130
132
135
138
139
140
141
141
141
141
142
143
143
144
143
143
143
143
143
143
143
143
143
143
144
138
139
139
139
139
140
140
139
139
139
139
139
140
140
140
140
140
139
137
136
135
131
126
124
120
115
111
108
104
96
92
86
80
74
69
63
56
51
48
44
41
38
37
36
34
33
34
34
32
32
32
33
33
33
32
32
30
29
29
29
30
29
28
27
29
29
27
25
25
29
31
31
26
27
34
27
26
26
25
30
11
53
102
73
58
127
32
80
39
27
85
60
21
35
82
18
45
40
23
19
42
76
22
16
15
17
5
20
18
9
14
16
7
17
7
16
21
15
12
24
6
16
62
11
22
19
23
20
30
16
28
25
32
28
19
17
42
63
17
78
76
75
34
121
0
74
66
53
131
31
92
123
107
188
1
107
175
7
38
126
48
132
123
102
150
169
146
107
125
78
12
2
131
88
80
135
104
28
117
59
88
145
46
99
99
77
59
104
40
85
54
65
91
35
62
113
8
94
146
69
42
16
64
28
123
115
134
62
26
54
39
64
88
103
24
33
44
44
43
45
53
53
53
64
62
57
62
57
82
73
63
81
135
81
51
124
147
105
108
162
206
137
117
169
167
117
168
128
135
175
104
177
158
157
96
142
153
147
106
108
77
93
69
102
133
114
98
50
60
62
48
47
40
30
21
16
14
10
6
8
8
7
7
7
7
7
7
9
7
7
10
12
12
13
14
17
17
19
26
39
51
57
57
65
72
75
78
84
85
86
92
95
97
99
102
105
108
111
113
118
119
121
124
127
129
131
132
137
138
139
141
142
143
144
144
143
145
146
146
145
144
146
147
146
146
146
146
146
146
146
145
145
137
138
138
139
140
140
140
140
140
140
140
140
140
140
140
138
138
138
136
136
135
130
126
123
119
114
110
107
102
95
91
85
79
74
68
62
56
50
48
43
41
38
37
36
34
32
33
32
31
31
32
33
34
34
33
30
30
28
28
30
30
29
28
30
28
25
26
31
34
32
27
34
31
34
22
25
24
30
21
20
25
26
81
123
54
94
96
66
74
4
70
107
28
25
83
3
68
44
25
19
49
110
40
1
31
11
14
19
9
10
13
10
18
12
15
5
12
11
15
9
26
0
38
84
0
30
22
21
19
34
27
21
17
32
30
24
17
73
20
76
55
121
60
158
79
18
69
26
152
69
112
74
139
87
80
48
175
125
4
105
113
129
135
115
157
144
151
117
148
98
16
52
84
105
131
175
106
89
144
58
119
153
82
101
78
199
77
64
76
113
50
90
38
38
91
104
14
94
148
69
13
59
70
8
9
140
173
78
59
85
95
126
104
31
42
41
36
38
52
55
51
61
51
102
69
56
61
79
98
73
94
96
139
106
63
148
169
134
143
177
202
157
157
192
187
147
185
139
164
196
159
179
182
179
135
173
118
148
149
108
101
103
111
151
134
73
50
70
50
61
51
52
42
34
29
20
9
7
11
4
6
6
7
7
8
8
9
9
8
9
12
13
12
12
14
16
22
31
39
49
58
65
67
70
76
79
82
87
89
90
95
97
99
103
106
109
112
116
118
121
122
124
127
130
132
134
135
140
141
142
143
144
145
145
145
145
146
147
147
147
147
147
148
147
147
147
147
147
147
147
147
146
136
137
138
139
140
141
141
140
140
140
140
140
140
140
140
138
138
137
135
135
134
129
125
121
118
113
109
105
100
95
90
84
78
72
67
61
54
49
46
42
40
37
37
36
34
33
33
31
31
31
32
33
34
34
34
30
29
29
29
29
29
29
28
23
27
28
26
27
30
31
28
22
22
25
35
18
43
43
23
25
15
40
47
85
102
74
112
82
103
19
43
143
70
73
79
22
68
49
23
18
59
97
48
50
60
8
5
0
43
49
0
14
21
17
8
43
21
6
42
32
2
35
27
74
34
7
23
22
24
16
25
25
26
78
11
79
12
32
59
68
32
72
94
144
189
54
48
44
71
137
119
26
90
99
98
64
93
183
95
82
105
143
149
127
147
128
132
105
117
113
36
69
64
137
155
188
131
118
128
86
122
142
113
60
184
139
50
116
48
143
91
57
18
113
100
64
51
82
145
84
12
74
44
12
65
87
137
150
63
81
130
93
63
5
91
44
37
42
39
82
32
50
36
57
91
87
71
55
113
88
86
120
156
153
78
160
194
164
158
205
206
186
202
212
204
179
199
163
208
206
194
201
194
178
180
144
151
180
139
99
132
139
168
140
90
48
62
47
52
56
50
41
37
30
22
19
18
11
3
4
6
6
7
7
8
8
9
9
9
11
13
13
12
14
17
21
34
47
54
59
64
71
75
76
82
84
87
92
93
94
99
100
103
108
112
115
119
122
123
125
126
129
132
135
137
139
139
144
144
145
146
146
147
147
146
148
147
147
148
149
150
150
149
149
149
149
149
149
150
150
150
148
137
138
138
139
140
141
141
140
140
140
140
140
140
140
139
137
137
136
134
134
133
129
124
120
116
111
107
104
99
93
88
82
77
71
66
60
53
47
44
42
39
37
36
36
33
33
33
31
31
31
31
33
33
33
33
30
29
28
28
29
29
28
28
32
31
26
21
21
26
29
29
32
30
38
21
30
32
58
61
61
52
7
58
67
84
71
98
92
130
49
11
79
104
98
99
42
70
69
56
33
46
90
110
111
152
8
23
2
50
88
10
20
13
5
26
65
15
7
31
81
3
24
71
17
91
11
17
19
23
27
21
29
0
64
64
51
76
11
56
74
77
19
83
36
178
159
60
33
61
197
96
104
39
163
142
120
118
151
120
154
71
114
142
131
172
112
154
111
97
150
67
117
59
120
183
165
127
124
109
79
135
139
85
49
202
93
100
122
27
166
142
13
55
121
89
89
71
64
202
45
10
61
45
62
58
150
111
64
154
126
107
39
46
67
76
35
25
24
99
39
60
66
38
21
103
130
79
84
149
76
73
161
139
170
134
190
196
173
191
225
215
205
220
217
211
199
210
200
220
203
202
217
192
187
204
174
194
160
133
167
178
157
147
102
85
69
68
75
64
51
55
51
44
32
20
14
14
12
10
8
8
8
8
7
7
7
7
9
9
11
13
13
14
19
24
33
45
57
62
63
67
73
78
81
87
89
91
96
97
98
103
105
108
113
117
120
123
125
127
129
130
133
136
139
141
143
143
146
146
147
148
148
148
148
148
150
148
148
149
151
152
151
150
151
151
151
151
151
151
152
152
151
139
139
139
140
140
140
140
140
140
140
140
139
139
139
139
136
136
135
133
133
132
127
123
119
115
110
106
102
97
92
87
81
75
70
66
60
52
46
43
41
39
36
36
35
33
32
33
33
32
31
32
32
32
31
30
29
29
28
28
29
29
27
27
29
21
28
46
47
30
20
27
21
42
24
27
22
21
16
61
71
128
41
8
101
59
99
98
106
98
122
51
53
80
132
114
69
99
75
79
57
39
111
146
112
88
50
1
13
11
114
4
18
12
14
80
33
4
23
1
67
42
10
55
49
44
57
11
23
28
25
29
8
41
0
104
17
79
24
15
95
121
9
48
55
122
80
120
119
114
112
91
143
137
117
171
141
137
148
109
141
161
66
157
117
184
138
165
113
74
182
78
125
43
130
188
166
120
132
132
117
159
104
98
145
121
93
129
94
125
178
127
11
80
106
153
134
63
102
172
3
12
82
152
28
19
179
29
75
135
173
97
26
36
76
81
30
11
76
125
30
121
39
52
112
78
144
119
109
134
91
153
178
129
181
186
211
214
200
221
224
220
212
219
220
218
211
219
221
204
205
212
206
197
219
205
191
207
183
189
187
159
140
108
117
132
72
90
52
45
41
42
38
32
31
31
22
9
7
15
9
9
9
8
8
8
8
8
10
9
10
12
14
18
27
35
46
53
60
63
65
71
77
81
84
90
92
94
99
100
100
107
110
113
117
121
124
126
128
129
133
134
136
139
142
144
145
146
146
147
148
149
150
150
150
150
150
149
149
150
152
153
153
152
152
152
152
153
153
153
153
153
153
139
139
139
139
140
140
140
140
139
139
139
138
138
138
138
135
135
134
132
132
131
127
122
118
114
109
105
102
97
91
86
80
75
70
66
59
52
45
42
41
39
36
36
35
32
31
32
33
32
31
31
32
32
30
29
29
28
28
28
28
28
27
26
21
33
27
19
46
81
62
15
25
11
20
26
38
20
23
18
70
95
108
20
61
91
135
117
121
69
158
98
110
54
141
138
110
129
106
86
84
79
131
157
71
106
74
2
18
10
103
29
0
4
74
70
6
15
20
12
20
86
40
2
113
22
81
14
21
11
0
66
123
111
102
114
101
58
100
1
45
152
42
2
95
117
146
1
164
185
105
93
110
121
95
173
147
155
136
122
107
184
149
155
151
188
175
169
152
75
161
118
124
54
155
202
174
136
146
132
162
141
107
127
155
106
107
110
117
168
133
154
59
93
136
169
100
48
155
146
13
30
158
89
4
138
193
33
128
68
129
146
7
52
105
142
78
80
146
93
99
113
94
106
83
108
152
175
130
165
140
153
189
157
202
209
212
228
223
219
220
223
217
218
223
220
212
217
211
206
207
206
192
204
216
196
204
212
197
201
172
170
145
119
155
115
155
140
140
130
92
72
48
44
32
18
15
19
13
3
8
8
9
9
10
10
11
11
11
10
10
14
19
26
37
45
55
59
62
65
70
78
83
86
87
92
94
96
102
104
106
112
116
118
122
125
127
129
130
132
136
137
139
142
144
146
147
148
148
148
149
150
151
151
151
151
151
151
151
152
153
154
154
154
154
154
154
154
155
155
155
155
156
137
137
138
138
139
139
139
139
139
138
138
138
137
137
137
135
135
134
132
131
131
126
121
117
114
109
105
101
96
91
86
79
74
70
66
60
52
45
42
41
39
36
35
34
32
31
31
32
32
31
31
31
31
30
30
29
28
27
27
27
27
26
26
30
23
24
27
21
22
54
94
70
51
46
58
46
65
66
50
17
101
116
67
30
139
123
127
128
118
123
111
113
94
87
166
96
118
133
96
94
82
118
162
85
101
150
6
4
3
63
70
0
12
111
21
3
24
9
25
0
50
138
49
57
97
20
83
7
14
93
100
74
96
71
127
166
95
160
50
32
129
76
21
83
124
175
52
93
134
146
152
133
131
81
127
158
188
138
149
126
159
123
168
150
185
168
156
189
96
113
150
153
64
107
212
176
144
179
122
135
138
169
113
131
113
124
125
157
159
102
172
84
93
167
140
121
82
144
131
40
83
158
29
55
212
124
74
185
45
144
130
132
97
93
119
54
114
130
131
139
89
173
89
65
143
119
186
189
192
139
179
216
186
206
220
224
212
214
221
224
221
219
221
221
215
210
209
199
206
198
182
189
196
185
183
208
205
189
199
191
187
168
181
144
181
148
135
100
61
67
79
80
68
42
17
11
19
17
7
9
9
10
10
11
11
12
12
12
11
13
19
27
35
45
52
59
62
66
70
75
83
87
87
90
95
97
100
106
108
111
117
121
123
126
128
130
132
135
137
139
140
142
144
146
148
149
149
150
151
151
152
152
152
152
152
152
153
154
154
154
155
156
157
156
156
156
156
157
157
158
158
158
135
135
136
137
138
139
139
139
138
138
138
137
137
136
136
135
135
133
131
131
130
125
121
117
114
109
105
101
96
91
86
79
74
69
66
60
52
45
41
42
39
36
35
34
31
30
31
31
31
30
31
31
32
31
31
29
28
27
27
27
27
26
25
27
23
23
24
19
20
43
72
92
126
113
79
86
83
80
99
48
24
124
129
76
91
109
128
157
148
152
171
92
152
98
153
127
150
152
143
144
84
125
157
112
93
146
7
50
29
51
132
36
55
103
24
6
21
25
13
19
13
65
107
54
115
59
49
37
93
106
1
0
148
60
64
51
189
193
70
56
96
128
37
81
154
179
159
30
83
108
112
143
134
155
129
127
186
184
143
160
168
156
161
172
202
185
152
189
107
144
170
163
102
133
205
194
158
198
151
143
186
167
146
157
148
126
152
163
136
135
175
142
101
180
115
132
123
165
60
135
124
101
83
129
178
56
166
98
100
171
131
160
96
119
145
80
117
151
127
122
133
155
123
81
131
183
189
186
203
172
201
217
213
213
208
225
212
220
220
227
214
216
221
216
210
212
207
205
181
187
170
184
179
175
170
180
184
185
194
210
190
188
172
173
152
124
86
50
64
37
25
29
25
40
60
46
10
2
21
12
12
12
11
11
11
11
11
13
13
16
23
33
41
50
56
59
64
70
75
80
84
86
86
92
98
100
102
109
112
115
121
124
126
128
131
133
135
138
141
142
142
144
146
147
149
149
150
153
153
153
153
153
152
152
151
152
154
156
156
155
156
157
159
157
157
158
158
159
159
159
160
159
135
135
137
138
139
140
140
137
138
138
138
138
137
136
136
135
135
134
133
130
127
123
121
115
112
108
104
101
96
89
84
80
74
68
64
58
50
44
41
39
37
35
34
33
33
32
31
30
29
29
29
29
29
29
29
26
29
21
26
26
26
32
17
18
14
25
56
64
49
20
43
66
66
130
167
111
68
97
137
119
41
85
158
133
106
145
135
166
167
168
186
143
161
159
157
185
158
166
171
161
110
120
152
154
129
165
57
29
98
60
131
114
58
43
50
2
14
15
11
12
102
75
59
77
81
147
33
98
83
3
36
6
143
117
115
20
62
194
135
52
81
130
84
84
101
241
135
43
91
154
72
111
161
182
152
127
187
209
170
179
209
159
182
207
201
202
180
225
155
137
174
201
149
151
224
205
195
193
184
183
169
169
168
182
183
176
159
181
192
146
196
147
132
187
146
143
157
163
66
142
127
98
128
181
123
54
184
75
138
175
137
97
168
130
166
114
160
129
139
155
156
143
155
137
167
203
206
193
199
215
217
212
222
214
211
202
211
210
219
222
218
223
216
209
212
204
197
195
182
175
168
164
173
168
142
160
156
168
182
188
201
202
181
189
160
142
113
98
74
80
52
46
59
89
53
16
12
21
10
12
8
13
13
7
10
14
8
11
15
22
31
39
48
55
59
62
66
71
77
80
84
88
91
96
99
104
108
112
115
118
119
127
128
131
134
137
140
141
142
146
147
148
149
150
151
151
150
152
152
152
153
154
154
155
156
156
157
158
158
159
159
159
159
160
159
159
159
160
160
160
159
159
134
135
136
137
137
138
138
136
136
137
137
136
136
135
135
135
135
134
133
130
127
123
121
115
112
108
104
102
96
90
85
79
74
68
64
57
50
44
41
37
36
34
33
32
32
31
29
28
28
28
29
29
29
30
30
31
27
23
35
30
21
43
60
59
49
20
28
26
56
103
106
73
64
52
90
192
187
98
103
148
149
86
146
117
153
150
191
188
190
193
207
175
182
177
172
206
182
189
191
185
138
139
156
175
159
182
135
42
83
60
139
111
60
40
92
30
8
19
24
2
59
117
108
36
101
85
104
66
127
8
107
18
94
156
179
119
6
135
181
133
77
134
158
98
82
151
196
101
52
156
143
118
164
181
190
165
182
217
203
188
211
185
187
204
211
212
202
218
184
174
185
198
170
170
213
211
209
214
205
200
187
192
198
208
207
200
182
202
209
180
220
143
182
212
156
129
199
169
93
155
146
147
145
170
111
109
187
118
160
187
109
100
162
115
156
168
170
135
176
198
177
150
166
180
194
212
214
206
214
220
211
211
214
206
201
199
208
211
217
221
215
218
210
204
207
199
191
188
176
169
163
168
168
149
141
150
147
157
169
175
188
203
205
165
127
89
89
117
76
79
110
100
58
23
5
29
25
7
11
12
10
11
12
10
12
15
13
15
21
30
38
45
52
58
62
63
67
73
78
82
86
90
94
99
102
106
111
115
118
121
123
129
130
133
136
139
142
143
144
146
147
149
150
151
151
151
151
153
154
154
155
156
157
157
158
158
158
159
159
160
160
160
160
161
160
160
160
161
161
161
160
160
134
134
135
135
135
136
136
135
135
135
135
135
135
134
134
134
134
134
133
131
128
124
122
115
112
108
104
102
97
90
85
79
73
68
63
56
49
43
39
36
35
33
32
31
31
30
28
28
29
28
28
29
29
30
30
25
26
23
26
22
17
28
35
34
65
77
65
37
12
27
94
115
81
84
61
55
138
175
117
136
197
177
134
139
131
204
204
203
207
211
218
202
203
197
195
212
195
200
200
200
165
157
157
193
171
166
168
70
116
120
165
98
131
122
95
82
24
24
52
52
32
55
109
93
122
66
65
157
106
84
96
98
53
119
133
126
68
77
171
175
136
99
149
141
97
114
183
162
117
117
179
153
179
169
199
185
170
209
208
194
206
212
194
203
217
219
216
214
205
207
202
208
202
201
213
216
211
213
210
214
205
209
211
227
225
221
206
220
219
204
228
180
218
215
173
146
220
172
154
172
154
163
163
176
143
164
146
136
166
184
109
136
161
135
179
177
164
148
206
217
176
151
175
196
206
220
218
208
212
217
209
206
202
196
188
194
201
212
216
222
214
214
206
201
205
196
188
181
170
160
156
169
161
137
145
138
139
146
154
160
171
196
219
201
178
173
141
115
114
124
62
29
51
70
44
26
21
21
19
14
14
11
9
12
12
10
13
19
27
37
46
51
55
60
64
65
69
75
80
84
88
93
96
101
103
107
111
115
119
122
125
132
133
136
139
142
144
145
146
147
148
149
150
151
152
152
152
155
155
156
157
158
159
160
161
159
160
161
161
162
162
161
161
162
161
161
161
162
162
162
161
161
134
134
134
134
134
134
134
134
134
134
135
135
134
134
133
133
133
133
132
131
128
124
123
117
113
108
104
101
96
89
84
78
72
67
62
55
48
40
38
35
34
32
31
31
29
29
28
29
29
28
28
28
28
29
29
22
29
30
27
30
31
26
18
29
7
12
29
60
93
83
78
86
108
94
123
137
118
163
210
179
177
218
206
184
183
190
213
210
213
213
212
211
208
207
209
211
203
207
205
211
192
183
173
191
185
194
196
106
113
127
149
135
125
143
86
95
64
47
27
128
63
27
110
107
151
114
114
138
91
74
183
93
80
101
157
131
131
61
135
129
145
84
129
166
144
130
174
178
171
160
151
189
207
185
204
202
184
212
208
200
204
224
207
211
219
220
216
218
208
211
213
220
221
215
217
222
214
216
216
225
219
223
222
224
224
227
217
229
220
219
224
225
222
211
194
198
217
185
201
168
167
175
183
170
165
179
146
187
198
180
141
174
152
153
176
184
183
183
219
214
189
181
198
196
203
216
217
204
204
207
199
196
192
193
180
186
192
212
215
221
211
210
202
199
204
195
185
179
170
154
156
164
154
146
148
130
137
141
143
149
160
182
207
219
222
206
194
203
172
159
161
147
102
62
36
23
15
13
11
11
15
10
9
17
15
13
20
24
32
42
49
52
55
61
66
68
72
77
81
85
90
95
98
102
105
108
112
116
120
124
127
134
135
138
141
144
146
147
148
147
148
149
150
151
152
153
153
156
156
158
159
161
162
163
163
162
162
163
163
163
163
163
163
163
162
161
162
162
162
162
161
162
133
133
133
133
133
133
133
133
134
134
134
134
134
134
134
132
132
132
132
130
127
124
122
118
114
108
103
100
94
87
82
77
71
66
60
54
46
39
37
35
34
32
31
31
30
29
28
28
28
28
28
28
27
27
27
29
31
29
27
27
22
17
24
49
69
60
44
20
9
31
30
71
109
105
143
164
143
170
189
218
210
217
229
244
206
208
208
215
217
214
207
211
205
204
206
207
206
209
205
210
204
199
188
203
196
212
217
157
133
123
143
172
150
150
100
84
108
67
1
85
105
46
121
127
151
144
105
91
117
57
142
124
71
68
158
145
154
144
99
134
147
127
162
155
168
167
187
194
177
199
174
191
212
214
220
222
210
219
218
212
210
221
218
222
217
223
215
225
212
212
218
221
220
211
217
217
216
224
221
223
214
222
228
218
219
226
222
230
224
229
226
227
224
224
214
233
223
213
206
190
192
187
183
173
187
188
193
207
197
174
167
196
183
197
202
219
217
209
217
212
214
217
216
214
209
212
211
203
203
199
185
183
185
193
178
177
186
212
215
216
206
205
198
196
201
191
182
177
173
155
163
158
148
158
139
130
137
136
134
141
155
172
186
189
195
209
212
208
202
203
175
134
118
67
40
47
37
18
21
15
18
13
11
15
10
7
15
30
37
45
50
52
56
62
68
71
74
79
83
86
91
96
99
106
108
112
116
120
124
129
131
136
137
139
142
144
146
147
148
147
148
148
150
151
152
153
154
156
157
159
161
162
163
164
164
164
164
164
165
165
165
165
164
163
162
162
162
162
162
161
160
163
131
131
131
132
132
132
133
132
133
133
134
134
134
133
133
131
132
132
131
129
126
123
121
117
113
107
102
99
93
86
81
75
70
64
59
53
45
38
35
34
33
31
31
29
29
28
28
28
28
28
28
27
27
27
27
28
31
26
17
24
29
20
24
15
53
63
54
64
64
90
127
120
132
161
188
191
194
206
208
216
227
223
213
213
219
209
203
203
206
206
204
207
203
200
201
200
202
203
199
201
201
198
191
209
201
198
207
194
197
145
141
182
179
186
145
79
111
110
14
42
151
89
76
129
171
135
112
101
112
125
115
127
75
100
164
153
159
130
174
156
161
185
180
173
164
197
188
216
203
190
215
202
207
219
220
229
222
215
214
224
220
215
222
224
216
225
217
221
221
218
217
215
218
208
218
214
210
215
212
217
208
213
215
217
217
221
216
219
221
223
220
219
228
230
225
231
226
231
216
230
211
198
179
205
215
206
221
216
211
217
205
202
210
211
214
225
220
218
218
214
220
221
217
220
213
211
206
193
191
193
186
174
182
190
175
168
186
213
214
212
204
204
197
195
199
189
179
173
172
161
168
155
145
153
123
133
133
130
125
131
148
164
169
181
191
205
215
209
190
163
120
122
109
87
90
71
35
13
17
14
15
14
15
17
17
21
31
37
42
48
51
54
59
65
71
73
76
80
84
88
92
98
101
108
110
114
119
123
127
131
133
137
139
140
143
144
145
146
147
148
148
149
150
151
153
154
155
157
158
160
162
163
164
165
165
165
165
166
166
166
166
166
165
164
163
162
162
163
163
161
160
163
128
128
129
130
131
131
131
131
131
132
132
133
132
132
132
131
131
131
130
128
125
122
120
116
111
105
101
98
93
87
82
74
69
63
58
52
44
36
34
33
32
30
29
28
28
28
27
27
27
27
27
27
27
28
28
25
31
30
23
39
55
49
57
54
66
113
103
102
126
134
131
138
154
157
175
222
240
224
224
215
202
190
204
199
185
201
178
172
177
181
189
189
193
191
192
195
198
200
200
200
201
199
196
196
209
209
209
200
209
149
131
179
188
173
150
123
128
102
78
1
165
112
99
73
138
160
142
128
136
135
116
148
123
108
146
152
160
170
125
171
217
182
182
214
184
198
210
218
220
221
208
228
220
223
218
228
225
221
214
224
224
215
220
218
219
220
219
216
221
214
212
213
218
202
213
216
207
207
206
216
209
209
204
209
210
212
207
207
217
208
208
220
221
222
222
220
222
225
232
231
216
224
205
223
220
219
229
214
224
239
230
218
226
221
224
218
217
225
226
220
217
216
219
210
205
206
200
184
180
187
188
171
180
182
170
161
194
217
210
209
201
203
197
194
196
185
174
171
168
167
161
153
146
132
120
135
126
124
121
119
131
147
149
164
183
186
192
205
206
189
160
129
120
99
82
44
40
31
1
3
1
2
6
4
8
22
33
42
45
50
54
58
62
68
72
74
77
81
86
90
95
101
105
109
112
117
121
126
129
133
135
139
140
142
144
144
145
146
146
150
150
150
151
153
155
156
157
158
160
162
164
165
166
165
165
166
166
167
167
167
166
166
166
165
164
164
163
163
163
162
161
163
125
126
127
128
129
130
131
130
130
131
131
131
131
131
131
130
131
130
129
127
124
121
119
114
109
104
100
97
92
87
83
75
69
63
58
51
43
36
33
32
30
29
28
28
28
27
26
25
25
26
27
27
28
29
29
28
23
27
27
33
31
37
80
96
98
101
124
148
130
154
184
204
226
214
219
224
207
204
191
193
177
193
176
166
168
154
156
148
153
157
169
166
176
177
179
183
186
190
195
197
198
196
194
201
199
203
205
210
210
186
184
207
216
201
182
113
176
119
104
38
97
161
125
33
124
197
127
169
146
146
136
188
189
100
135
164
190
164
179
184
232
202
195
220
226
207
215
226
231
222
227
221
225
233
223
223
221
231
223
218
224
221
219
214
224
215
220
217
216
201
204
214
214
188
199
204
201
206
202
205
195
199
201
195
199
205
204
204
222
203
206
216
211
217
212
221
225
215
231
225
215
230
227
225
227
231
222
226
233
219
228
234
229
233
224
229
222
224
220
218
216
215
218
211
198
195
195
188
186
185
177
172
179
174
165
157
201
220
208
203
198
201
194
190
191
179
168
171
164
169
150
151
149
116
127
134
120
121
122
111
114
129
132
147
153
162
180
189
202
212
199
189
162
113
104
87
79
81
85
75
62
56
47
26
20
29
36
43
46
50
55
60
64
68
71
74
77
82
87
92
98
104
109
112
115
121
126
130
134
137
139
141
141
143
144
145
147
147
147
151
151
152
153
154
156
158
159
160
161
163
165
166
166
166
166
166
166
167
167
167
167
166
166
166
166
165
165
164
164
163
162
163
123
124
124
125
125
126
126
127
128
129
130
130
131
131
131
133
132
130
129
127
124
120
118
112
109
105
100
96
90
84
80
75
70
64
56
49
43
35
31
31
31
30
28
28
28
27
27
24
28
26
28
26
24
28
27
25
31
29
20
30
22
49
93
94
81
92
105
119
127
129
146
194
222
226
206
196
190
178
170
160
164
151
159
160
143
125
140
136
128
148
155
149
153
161
163
170
175
185
181
191
191
196
190
193
203
198
198
208
206
199
191
209
206
210
201
138
157
179
108
83
60
152
145
68
79
182
154
162
172
159
173
165
205
193
181
183
198
212
214
217
220
225
226
226
228
230
227
222
227
231
226
227
227
222
226
230
221
218
231
220
218
215
215
213
219
223
203
207
214
203
203
197
199
189
198
210
185
197
191
196
195
175
193
184
190
206
189
201
213
190
204
209
210
212
211
213
208
223
218
213
222
224
220
223
225
223
223
228
223
225
228
226
227
229
227
224
223
226
221
212
218
222
212
212
192
195
199
183
172
192
170
186
166
177
159
159
194
215
205
196
199
194
199
183
188
184
169
168
171
156
147
150
130
113
130
124
121
123
122
113
108
116
126
116
132
150
168
184
192
197
205
212
208
198
180
157
138
125
118
83
73
77
61
17
11
37
38
41
45
51
56
60
64
69
72
74
76
83
90
96
102
106
108
116
119
124
128
132
134
136
137
140
141
141
143
145
147
149
150
152
152
153
155
156
157
158
159
161
161
162
163
165
166
167
167
167
167
167
167
167
167
167
167
167
166
166
165
165
164
164
163
164
122
122
123
124
124
125
125
125
126
127
128
129
129
130
130
131
130
128
127
125
123
120
116
111
108
103
98
94
88
83
79
73
68
62
55
48
41
35
31
31
31
29
28
28
28
27
27
30
29
24
25
26
26
27
27
29
30
27
25
28
12
11
28
32
64
100
108
140
193
218
224
211
219
205
183
174
169
160
156
161
153
147
103
138
149
123
116
133
115
126
143
146
144
143
152
158
160
172
175
186
183
189
190
190
194
197
203
205
205
206
201
202
206
212
209
170
168
184
113
137
132
158
162
143
104
128
185
187
181
172
195
193
216
212
216
207
211
218
223
224
224
225
228
229
225
227
230
228
226
228
229
225
227
232
214
220
223
220
217
217
216
212
212
208
211
216
201
205
203
196
194
193
199
190
178
196
188
174
173
184
190
163
184
174
188
188
186
181
203
184
202
205
200
207
208
210
203
214
214
211
218
218
216
219
221
219
220
224
221
223
225
223
224
227
225
222
223
227
223
215
220
222
211
195
208
198
187
182
183
180
172
178
168
174
144
172
199
211
204
199
201
199
197
182
187
175
161
166
159
151
151
146
104
121
126
106
128
116
98
114
123
111
107
122
139
148
152
165
182
193
198
199
204
201
193
188
178
148
118
108
84
87
50
23
36
30
42
48
51
56
59
62
64
68
71
74
78
85
92
98
104
108
111
116
120
126
130
133
135
135
136
140
140
141
143
145
147
150
151
152
153
154
155
157
158
159
159
161
162
162
164
165
166
167
167
168
168
168
168
168
168
168
168
167
166
166
165
165
164
164
163
163
119
119
119
120
121
121
121
122
123
125
127
128
129
129
129
129
128
126
125
123
120
117
114
110
106
101
96
91
86
81
77
70
65
60
53
47
41
35
31
31
30
28
28
27
27
27
27
25
24
23
25
27
29
29
28
25
49
63
59
46
52
61
73
86
125
167
178
191
216
220
216
200
191
169
153
150
148
143
142
144
132
133
116
91
135
124
108
124
110
119
139
139
126
124
153
148
149
163
170
180
173
181
187
191
188
198
206
202
198
201
203
203
207
211
213
201
181
184
126
85
173
178
164
168
165
154
159
213
202
198
215
214
221
220
224
228
222
222
227
229
225
225
228
229
226
227
228
228
226
224
224
230
220
222
214
209
215
210
213
210
210
205
206
202
201
207
198
195
191
200
192
182
186
190
168
178
193
165
162
169
182
151
181
173
176
167
173
176
201
182
185
206
193
205
209
212
202
207
215
212
215
214
214
219
219
217
220
220
219
221
222
218
220
224
224
222
224
228
225
220
223
222
212
202
207
197
192
187
187
176
192
171
169
168
132
187
204
206
203
197
197
200
189
179
186
164
153
168
163
149
150
112
115
125
118
126
132
117
111
127
123
107
108
134
143
144
143
150
161
170
178
200
198
200
202
193
171
153
145
170
153
133
88
54
50
42
42
47
50
54
58
61
65
70
74
76
80
88
94
101
106
111
114
119
123
128
132
135
135
135
135
140
140
142
143
146
148
150
152
153
154
155
156
157
159
160
160
162
162
163
164
165
166
167
168
168
168
168
168
168
168
168
168
166
166
166
165
165
164
164
164
163
114
114
115
115
116
117
117
119
120
122
124
125
126
127
127
126
125
124
122
121
118
115
112
109
105
99
94
89
84
80
75
68
64
58
52
46
41
35
31
29
29
28
27
27
27
27
27
23
28
37
34
27
26
26
32
33
19
15
40
57
95
129
157
189
189
198
212
223
220
201
186
178
173
166
162
162
157
146
139
130
116
133
140
110
98
129
114
118
113
117
136
136
122
117
156
142
146
160
164
172
166
174
178
186
186
194
202
205
196
188
200
204
205
207
208
213
198
184
158
82
153
161
190
186
175
199
203
206
209
214
218
221
229
231
223
231
226
224
227
228
227
226
228
225
228
226
221
222
223
219
214
224
218
208
220
199
205
205
208
208
207
200
202
202
199
203
198
193
181
198
191
175
175
190
167
167
189
182
168
159
175
150
186
174
161
171
167
183
200
181
174
210
191
204
210
214
202
205
218
216
216
214
215
221
221
219
222
217
217
220
219
214
217
223
222
221
224
225
223
221
222
220
213
217
197
202
199
189
190
191
204
169
166
164
137
192
206
201
203
194
193
198
180
178
186
159
155
177
158
153
132
99
139
124
123
140
115
114
126
115
100
102
109
121
121
127
143
154
151
156
172
183
189
201
206
186
152
131
127
78
48
96
71
16
32
32
36
46
49
54
57
61
66
71
74
78
83
90
97
103
109
114
117
123
126
130
133
134
135
135
136
139
140
142
144
147
149
151
152
154
154
155
157
158
160
161
161
162
163
164
165
166
167
167
168
168
168
168
168
168
168
168
168
166
166
166
165
165
164
164
164
164
111
111
112
112
113
114
114
114
115
116
118
121
122
122
123
124
123
121
120
118
115
112
109
106
102
97
92
87
82
77
74
67
64
57
52
46
40
35
30
28
28
27
27
27
27
27
28
31
21
23
20
24
29
20
19
11
35
47
49
57
119
151
145
156
190
217
219
206
195
190
184
182
186
189
186
178
168
154
140
127
127
119
132
140
112
115
116
118
116
111
128
136
134
120
147
136
145
159
156
162
160
168
168
176
183
187
193
211
202
179
196
198
196
200
202
210
217
189
195
116
168
185
188
195
190
213
223
211
218
226
220
222
230
234
222
226
229
229
226
226
229
230
228
223
224
219
218
221
217
211
214
205
221
213
218
204
202
217
197
213
212
201
203
206
203
203
197
202
175
184
185
176
175
187
164
163
170
194
177
155
174
157
185
173
158
188
178
177
195
178
182
209
191
200
209
212
199
206
216
215
217
214
214
220
222
220
223
216
216
218
216
211
215
222
221
218
221
219
216
218
220
217
214
216
201
215
192
195
197
204
197
173
164
165
156
189
204
198
203
192
192
196
175
181
184
158
162
177
144
151
115
127
129
127
136
125
111
113
115
101
99
106
102
101
101
111
133
146
140
139
150
157
178
195
202
208
206
179
149
146
119
44
19
32
26
31
44
52
54
57
60
61
65
70
73
79
85
93
99
105
110
116
120
127
128
130
131
133
134
136
138
140
141
143
145
148
150
152
153
154
155
156
157
159
160
161
162
163
163
164
165
166
167
167
168
167
167
167
167
167
167
167
167
166
166
166
165
165
164
164
164
163
108
109
110
110
111
112
112
112
113
114
116
119
120
120
121
121
119
118
117
115
112
109
107
102
99
94
89
85
81
75
72
66
63
56
51
45
40
33
30
27
27
27
27
27
27
27
27
27
23
33
28
30
43
44
57
69
71
101
149
161
166
171
179
210
219
211
200
191
190
194
187
187
183
177
165
149
142
140
134
121
120
107
113
115
138
116
112
114
121
116
128
131
138
123
144
135
145
158
152
158
158
166
164
171
180
185
187
211
208
176
185
195
193
198
200
205
221
195
209
163
156
207
206
215
206
197
218
231
227
228
226
223
223
227
225
222
229
230
225
223
227
227
224
225
218
211
218
224
211
206
222
202
211
220
219
227
198
218
199
215
216
203
201
207
204
201
194
201
181
184
187
178
173
179
170
167
157
185
184
159
178
167
178
182
169
186
190
170
201
183
191
207
198
200
210
214
199
212
212
211
216
214
211
216
220
219
220
216
216
217
213
209
215
221
218
219
221
217
214
219
221
218
219
217
212
218
195
218
197
198
199
178
168
174
169
188
203
199
202
187
192
189
171
183
175
155
164
160
158
141
122
134
120
130
130
119
120
112
106
112
112
105
104
111
117
123
134
148
154
151
151
163
173
183
192
201
197
168
135
83
59
72
72
58
60
61
73
48
52
56
60
62
67
72
76
83
88
96
102
107
112
118
122
128
129
130
130
132
134
137
139
140
142
144
146
149
150
152
152
154
155
156
157
159
160
161
162
163
163
164
164
165
166
167
167
167
167
167
167
167
167
167
167
166
166
165
165
165
165
164
164
163
105
105
106
107
108
108
109
109
110
112
113
115
115
117
117
116
115
115
113
111
109
106
104
98
95
90
87
83
78
73
69
64
60
54
49
44
39
33
30
27
27
26
25
26
26
27
27
31
13
14
15
35
58
48
47
65
84
119
145
159
171
199
220
210
208
194
188
175
159
163
161
170
154
146
139
123
115
117
117
115
100
119
104
102
111
132
111
110
122
121
130
124
135
123
141
137
142
153
150
157
154
162
163
169
170
186
186
200
209
182
172
194
196
193
195
201
208
204
203
202
169
217
215
213
220
220
221
227
221
220
227
223
225
230
235
223
224
225
224
222
222
222
222
221
223
214
211
217
210
206
220
214
204
215
221
231
207
204
213
211
218
206
201
207
206
202
195
198
198
197
197
185
180
177
178
178
170
173
198
169
180
177
180
190
181
181
198
178
200
201
192
204
207
202
214
218
201
220
207
207
217
216
210
214
221
220
218
217
216
216
211
208
215
220
216
218
221
216
214
222
223
219
222
226
214
216
213
224
195
203
208
179
179
188
168
194
204
201
201
183
192
185
171
188
168
153
166
159
168
131
133
126
132
133
125
119
111
102
105
112
108
104
109
106
108
108
114
132
143
143
141
143
148
166
192
205
196
178
165
141
140
149
146
109
71
51
41
44
48
54
60
65
70
76
80
86
91
98
105
109
114
120
124
127
128
130
131
132
135
137
139
141
142
145
147
149
151
152
152
154
155
156
157
158
160
161
161
162
163
163
164
165
165
166
166
166
166
166
166
166
166
166
166
165
165
165
165
165
165
165
165
163
101
102
103
104
105
105
105
104
105
106
107
109
110
111
111
114
113
112
111
108
107
103
101
94
93
89
85
82
77
71
67
62
58
52
48
43
38
33
29
27
26
25
25
26
26
27
27
22
40
70
52
25
23
34
69
109
117
128
130
164
196
215
205
189
184
163
159
160
161
169
161
150
136
141
152
139
119
108
101
111
121
109
127
107
93
117
119
114
116
111
125
123
138
120
129
137
136
146
148
154
147
154
160
162
155
183
186
189
210
193
169
190
195
185
188
199
195
216
197
212
202
214
221
221
215
227
218
227
226
223
228
219
225
224
224
227
222
221
224
225
222
221
224
215
233
222
201
206
213
210
209
219
212
212
214
209
228
197
219
208
221
211
205
211
210
208
203
206
213
202
202
200
200
180
176
189
195
171
213
178
181
185
189
186
188
191
205
189
184
216
197
200
212
203
215
220
201
223
202
206
220
220
211
214
223
223
219
218
216
214
209
207
215
219
214
213
218
213
212
221
221
216
220
227
214
220
220
204
198
225
205
177
188
198
161
201
206
202
200
182
195
185
177
196
168
158
171
177
145
126
131
138
138
136
138
116
98
103
107
96
107
125
117
133
122
111
116
127
125
120
122
130
132
141
159
186
208
217
215
226
193
170
113
79
66
40
62
48
52
58
64
68
72
77
80
88
94
101
107
111
115
121
126
126
127
130
132
134
135
137
139
142
143
145
147
149
151
151
152
154
154
155
157
158
159
160
161
162
162
163
163
164
165
165
166
165
165
165
165
165
165
165
165
165
165
165
165
165
165
165
165
163
95
96
98
99
100
100
100
104
104
105
106
108
109
110
110
107
107
106
106
103
102
99
97
90
88
84
80
76
72
67
64
62
51
47
50
43
30
27
34
22
30
30
28
26
26
26
17
19
7
27
76
106
121
140
154
166
152
176
215
225
220
209
189
175
158
154
158
159
164
155
130
143
141
144
120
88
104
115
110
112
113
101
109
117
104
100
105
108
116
109
120
134
116
130
131
131
143
140
149
150
142
153
157
159
161
177
193
187
201
211
169
177
192
179
191
193
196
200
208
202
209
216
219
219
220
220
220
217
223
226
223
221
221
220
216
222
223
222
219
219
223
223
221
213
220
224
220
210
205
208
214
219
219
209
212
206
214
207
206
210
213
215
208
201
219
204
202
211
216
211
202
204
211
200
180
199
199
192
209
198
188
184
192
186
205
209
204
200
203
207
199
201
212
221
212
219
214
211
204
212
222
222
207
218
228
216
222
214
212
215
214
211
219
221
209
214
211
210
213
215
216
219
223
221
224
220
212
218
226
217
198
184
217
189
171
198
208
202
195
192
198
182
196
177
167
173
165
172
130
141
135
149
147
141
109
106
104
99
104
116
120
118
121
108
123
130
120
116
127
126
109
111
111
116
135
161
182
198
215
191
175
164
159
144
109
73
53
44
49
60
69
71
70
75
83
90
96
103
110
114
117
120
122
124
126
129
132
134
137
140
141
143
144
145
147
149
151
152
152
152
153
155
157
157
158
159
160
161
161
162
163
164
165
166
166
164
164
164
164
165
165
165
165
164
164
164
164
165
165
165
165
164
91
92
93
95
95
96
96
100
100
101
101
101
102
102
102
102
102
101
100
98
95
92
92
88
86
82
79
74
70
65
63
53
59
56
42
38
43
37
23
30
19
7
7
10
10
17
26
29
62
74
62
74
114
123
96
142
177
211
219
212
202
176
146
139
150
143
131
130
121
112
117
142
160
130
93
116
122
144
117
103
103
117
105
106
109
91
106
100
113
115
119
134
125
135
133
136
132
146
144
155
145
151
154
158
159
170
186
185
197
209
180
181
190
178
188
193
202
202
197
208
203
209
222
223
213
213
223
210
214
217
218
219
220
220
218
219
221
221
220
220
223
222
220
225
214
212
220
221
212
209
216
214
219
217
213
209
214
211
207
205
215
212
217
213
219
211
203
213
217
216
212
214
217
208
195
208
207
201
217
211
204
199
200
205
214
211
207
206
203
202
204
199
210
220
213
222
219
218
211
214
222
223
211
220
227
216
224
213
214
217
217
216
219
219
212
216
215
212
211
214
219
220
217
220
219
216
215
217
218
213
205
205
201
185
191
209
210
203
197
197
204
186
181
184
178
168
176
164
135
137
146
162
148
116
100
108
106
110
122
123
107
102
114
125
112
119
138
138
125
127
139
146
143
137
138
149
163
186
210
221
215
199
179
161
128
71
19
63
60
59
63
66
72
83
95
92
97
105
111
115
118
121
123
125
127
130
132
135
137
140
142
144
144
146
148
149
151
151
152
152
153
155
157
157
158
159
160
161
161
162
163
164
165
165
166
164
164
164
164
165
165
165
165
164
164
164
164
165
165
165
165
164
86
87
89
90
91
92
92
93
93
95
95
95
96
96
96
98
98
97
96
94
91
88
87
85
83
79
76
71
67
64
60
55
50
46
42
38
32
27
25
19
38
56
68
84
103
117
127
150
121
92
83
85
89
110
138
184
208
216
205
190
169
154
157
143
140
126
122
125
119
124
148
161
133
92
134
147
148
138
121
84
101
85
91
99
95
103
87
96
98
122
129
125
124
142
136
144
127
143
142
148
150
147
156
161
161
164
179
187
195
206
199
174
182
179
187
190
203
206
195
199
202
206
211
214
215
216
216
212
212
214
218
221
222
222
223
218
220
221
218
216
217
217
217
218
219
219
217
218
219
218
216
210
217
223
215
215
214
216
212
207
219
211
225
224
220
222
211
215
216
218
222
224
223
219
215
215
215
209
223
223
218
212
207
218
219
210
209
216
209
204
216
205
215
223
216
225
221
220
214
217
223
224
218
223
225
217
226
213
218
219
220
222
220
216
217
218
219
215
210
213
222
220
212
220
215
215
218
218
212
211
215
217
190
195
212
213
211
205
200
208
180
186
189
186
181
179
180
127
144
150
156
158
139
107
114
110
126
131
117
101
95
106
123
132
135
135
128
127
135
130
111
123
126
128
133
142
151
166
184
202
190
164
122
84
69
78
92
78
67
60
65
74
79
81
82
95
100
107
112
116
118
121
123
125
127
131
133
136
138
140
142
145
146
147
148
150
151
151
151
152
153
155
157
157
158
159
160
161
161
162
162
163
164
164
165
164
164
164
164
164
165
165
165
164
164
164
164
164
165
165
165
164
80
81
83
84
85
86
86
87
88
90
91
92
93
94
95
94
94
93
92
91
87
86
83
81
78
75
72
68
65
61
57
51
45
47
49
33
25
60
109
106
115
108
87
75
63
35
20
37
73
109
136
164
186
204
222
229
219
209
200
175
134
107
105
114
100
103
113
121
141
156
150
108
94
118
146
155
150
131
114
111
100
89
76
84
102
101
102
99
93
113
122
132
129
133
136
149
136
129
146
133
152
147
164
169
168
166
177
192
196
204
214
170
175
185
192
186
193
204
202
193
201
204
204
209
218
219
214
218
214
214
219
221
219
219
221
219
222
223
219
212
210
212
216
204
217
226
219
210
209
215
219
212
213
222
217
223
215
220
219
217
220
214
223
225
223
228
224
218
214
216
225
229
226
225
228
220
222
216
224
227
225
222
213
220
220
211
209
223
218
206
220
211
218
224
218
226
221
220
215
219
224
225
223
225
222
219
227
214
221
221
221
225
220
215
223
220
221
219
214
216
221
220
214
221
216
216
220
219
214
215
221
212
197
215
219
208
209
205
204
206
189
202
190
177
182
186
149
145
158
156
158
155
133
106
113
130
129
114
101
112
131
135
130
127
125
127
130
133
135
126
109
131
129
124
126
136
144
154
166
192
211
208
180
160
149
116
75
38
45
57
67
71
75
87
100
98
102
109
114
117
119
122
124
126
128
132
135
137
139
141
142
146
147
148
149
150
150
150
150
152
153
155
156
157
157
158
159
160
160
161
162
162
163
163
164
164
164
164
164
164
164
165
165
164
164
164
164
164
164
165
165
164
73
75
76
78
79
81
81
84
84
84
85
88
89
90
90
88
88
88
87
86
83
81
79
77
75
72
69
65
62
58
55
56
47
41
42
40
33
27
27
23
18
17
13
14
12
9
32
82
79
81
102
134
154
177
207
215
196
165
126
108
126
127
97
91
99
109
108
114
138
134
96
96
119
128
154
149
149
109
114
122
109
105
92
86
90
91
99
104
106
104
104
141
141
126
129
144
143
125
146
133
145
152
166
174
174
171
178
195
199
200
219
184
179
191
196
189
187
197
204
202
197
199
209
213
211
214
220
218
213
212
215
216
213
212
214
214
221
226
225
217
210
210
214
209
204
211
223
217
199
202
220
220
212
217
219
227
214
218
221
224
216
220
219
223
227
224
230
225
217
215
224
229
226
226
230
226
228
224
226
229
225
228
221
221
224
218
210
223
222
202
210
212
217
223
217
227
222
222
218
221
224
223
226
225
220
221
226
217
223
222
221
225
220
217
227
222
221
221
222
221
219
220
221
221
219
218
219
220
219
220
221
210
210
225
219
209
209
203
210
199
197
188
190
197
174
175
158
158
161
168
164
146
119
122
135
120
112
105
115
133
137
128
123
120
125
124
114
112
126
135
129
123
125
125
130
142
152
162
174
200
204
207
195
157
112
87
83
78
74
73
75
77
79
87
95
100
105
110
115
117
120
122
125
127
130
133
136
138
140
141
143
146
147
148
149
148
149
149
149
151
153
154
156
156
156
157
158
159
159
160
161
161
162
163
163
163
163
164
164
164
164
164
164
163
163
164
164
164
164
164
164
164
70
71
73
74
76
77
78
79
79
79
80
80
81
81
81
84
84
83
83
82
79
78
75
74
70
67
65
61
58
55
51
49
49
46
37
30
28
27
26
21
21
25
24
30
29
22
52
96
107
124
155
195
220
220
214
197
139
118
128
118
107
112
114
130
130
115
112
131
133
114
102
134
117
135
147
157
93
125
129
130
120
94
99
91
79
99
96
103
102
119
118
117
130
146
124
134
143
136
140
149
139
156
161
174
176
174
175
193
199
196
213
203
183
188
192
199
197
199
207
204
204
204
204
206
208
211
212
218
216
216
217
217
215
214
215
204
211
221
225
221
213
209
209
219
207
204
215
221
215
209
209
225
214
214
220
225
216
215
218
223
212
224
216
223
226
219
225
230
224
221
223
227
226
226
227
228
229
227
226
229
222
228
223
219
223
224
211
221
225
204
206
217
220
223
217
225
219
218
215
220
223
221
225
223
218
224
223
218
223
223
222
222
221
221
225
221
221
223
226
224
220
221
226
219
219
219
218
220
222
221
218
220
218
220
219
219
212
204
213
202
194
179
196
198
174
181
166
139
167
182
154
121
120
151
151
130
145
152
148
138
124
116
116
108
101
118
139
126
99
101
121
117
129
136
140
144
149
160
175
174
197
216
216
202
179
144
114
111
96
82
80
83
86
88
90
102
106
111
115
118
120
123
125
128
131
134
137
139
141
142
143
146
146
147
148
148
148
148
148
150
152
153
154
155
155
156
157
158
158
159
160
161
162
163
163
163
163
163
164
164
164
164
164
163
163
163
164
164
164
164
164
164
65
67
68
70
71
72
73
72
72
72
73
73
74
74
74
78
78
78
77
77
74
73
71
69
66
62
61
57
54
51
48
43
36
35
41
43
36
28
27
33
30
30
22
34
31
7
20
46
81
132
172
195
208
207
196
158
147
139
135
140
153
153
135
126
115
103
111
127
120
116
133
101
109
135
151
108
99
151
146
126
88
82
67
63
78
78
93
99
94
125
135
106
109
153
132
127
140
144
137
158
146
151
158
170
173
174
170
187
200
194
205
213
189
186
183
204
206
204
211
203
213
212
200
199
209
212
206
218
220
221
219
219
220
220
218
207
207
211
218
221
217
211
208
215
218
214
207
212
223
220
207
219
216
213
219
219
221
216
215
221
217
223
216
224
222
224
221
226
228
227
224
225
228
229
226
227
225
225
225
230
219
226
222
220
219
226
214
218
226
210
213
222
223
224
216
224
217
215
212
219
222
218
222
220
218
226
219
218
221
225
223
220
223
225
221
220
222
224
224
224
224
225
224
217
218
220
221
221
221
219
218
223
220
217
222
221
214
214
210
209
211
200
190
176
190
187
141
166
182
162
135
121
148
160
135
148
153
141
120
112
111
105
98
113
109
107
102
94
98
112
120
121
125
118
106
100
103
115
132
164
167
186
212
221
204
175
156
133
124
110
99
87
82
90
100
103
106
111
115
118
120
123
126
129
131
135
139
140
142
142
143
145
146
147
147
147
147
147
147
149
151
152
153
154
154
155
156
156
157
158
159
160
162
163
163
163
163
163
163
164
164
164
164
163
163
163
163
164
164
164
164
164
58
60
62
63
65
65
66
66
66
67
68
70
71
72
72
70
71
72
72
70
69
67
66
66
63
61
58
55
52
48
45
47
45
39
35
32
31
30
29
23
23
33
24
18
10
25
94
154
164
184
202
214
216
190
148
132
129
116
112
121
116
98
87
78
94
119
118
94
89
99
99
102
118
134
139
122
158
152
131
104
105
109
118
106
91
93
83
95
104
104
123
134
108
129
146
125
141
145
137
155
160
142
160
167
171
173
166
183
200
194
201
218
198
190
177
201
206
202
210
213
212
211
210
207
206
211
216
213
218
220
217
215
217
218
216
220
212
207
213
220
221
216
213
205
216
219
210
202
204
214
220
209
217
213
218
215
226
220
215
223
226
220
217
225
218
232
221
218
227
230
225
224
229
231
228
228
224
224
226
234
221
226
222
227
218
228
217
216
224
211
218
220
220
222
216
225
218
218
215
218
222
216
220
218
218
228
217
217
219
226
225
219
225
227
216
219
224
225
221
223
229
227
220
218
218
221
225
224
218
217
220
217
221
221
224
213
213
224
206
210
201
184
191
199
196
164
166
188
180
136
141
138
158
159
158
155
143
124
112
108
108
121
141
130
105
100
115
116
103
98
101
95
103
105
108
117
127
136
147
154
166
181
196
211
207
178
148
114
83
55
56
76
93
97
95
103
106
111
115
118
120
124
126
129
132
136
139
141
142
143
143
144
145
146
147
147
147
147
147
149
150
152
153
153
153
154
155
155
156
157
159
160
162
163
163
163
163
163
163
164
164
164
164
163
163
163
163
164
164
164
164
164
54
54
55
57
58
60
61
62
62
63
63
65
66
67
68
63
64
66
68
68
67
66
64
62
61
57
54
50
48
45
46
47
39
35
35
33
34
33
28
31
29
17
17
51
85
136
160
140
167
195
215
219
198
164
141
147
146
124
123
127
110
97
85
105
103
96
93
96
107
112
100
99
107
136
134
143
158
128
123
129
117
106
102
101
97
95
96
98
101
100
114
133
130
126
141
146
123
144
155
146
160
168
164
173
161
178
180
187
187
196
197
214
207
192
183
189
199
206
212
203
212
217
215
214
216
214
209
213
219
225
223
213
205
210
219
211
218
222
217
212
213
216
219
222
213
209
217
222
219
212
208
221
220
215
210
216
226
227
219
224
221
221
222
220
217
222
230
228
227
228
230
229
226
226
229
227
224
228
225
225
227
222
225
225
226
228
224
215
215
217
215
210
214
223
226
222
221
223
219
225
221
217
216
219
222
222
220
220
221
225
225
222
224
225
219
219
224
227
225
224
225
224
222
224
222
224
226
223
217
217
220
219
221
220
216
214
215
216
214
206
202
203
206
203
192
183
180
179
168
147
146
167
169
155
153
157
123
109
124
136
140
141
136
136
143
132
126
130
99
94
85
89
81
92
114
125
132
134
129
144
148
170
185
193
216
222
196
161
143
132
122
102
93
96
96
104
108
112
115
118
121
125
129
132
134
137
138
139
141
143
146
145
145
145
145
145
146
147
147
148
149
151
153
153
154
154
155
154
154
156
157
159
161
161
163
162
163
163
164
164
164
164
164
164
163
163
164
165
166
165
165
166
50
50
51
52
53
54
55
54
54
55
56
57
59
60
61
59
60
61
63
63
61
60
58
57
56
53
52
49
48
45
43
40
43
44
36
31
32
32
24
45
69
53
54
64
64
77
89
127
174
217
221
194
163
156
166
149
158
145
135
128
122
128
124
121
118
100
105
100
113
84
54
80
114
146
129
145
158
145
111
112
96
81
84
99
108
103
93
109
91
99
122
129
130
128
119
138
146
127
149
168
151
156
163
171
177
165
176
180
201
207
195
209
211
204
195
193
193
196
203
214
211
213
220
221
215
213
216
215
214
216
221
223
218
210
206
218
215
214
216
216
215
216
219
218
225
223
211
206
211
213
209
212
219
220
214
211
215
222
225
223
224
223
220
218
218
221
222
230
229
230
231
230
228
226
226
226
223
227
225
225
227
222
224
224
223
227
226
219
217
220
219
211
212
219
223
221
223
224
221
221
219
217
215
215
216
218
218
217
222
224
223
223
224
223
221
219
223
226
225
224
225
224
223
224
225
225
224
220
217
219
223
222
220
219
221
220
216
216
218
216
215
211
206
201
195
188
182
177
162
165
178
167
146
154
179
134
123
149
165
136
127
142
138
148
135
121
101
100
102
75
74
64
89
110
110
110
124
133
127
130
146
162
162
170
202
214
191
164
140
117
103
93
89
92
95
103
107
112
115
118
121
125
129
133
135
137
138
139
141
143
145
144
144
144
144
145
146
147
147
148
149
151
152
152
153
154
155
154
154
155
157
159
160
161
162
162
162
163
164
164
164
164
164
164
164
163
164
165
166
166
165
166
45
46
47
48
48
49
49
49
50
51
52
53
54
55
55
55
56
57
58
57
55
55
53
50
51
49
50
47
46
42
40
33
34
32
30
33
36
34
29
35
35
57
64
62
102
115
140
189
213
217
192
164
147
140
139
137
138
135
139
140
139
138
123
101
84
103
104
120
95
66
65
112
134
116
114
173
166
130
102
101
102
99
93
93
100
110
116
103
99
90
98
127
143
142
141
135
152
142
134
162
169
153
163
167
179
159
182
189
192
200
192
205
211
209
203
201
199
198
202
210
206
207
215
220
218
217
220
216
210
209
217
226
227
219
212
216
213
213
214
208
202
211
226
213
216
219
218
212
208
213
221
217
217
217
216
216
216
218
219
222
226
225
220
219
223
223
219
225
226
227
228
228
228
225
220
224
221
225
223
224
226
221
222
222
219
223
227
221
218
221
222
213
211
215
218
217
220
222
219
220
220
219
217
214
213
216
218
214
222
221
218
223
222
219
224
220
223
224
224
223
225
225
224
224
227
227
222
218
218
222
224
224
218
218
224
223
217
216
222
218
219
213
204
201
202
198
191
178
166
191
185
144
167
192
151
149
162
153
130
130
147
146
129
114
127
110
90
94
104
77
96
92
84
80
95
119
132
138
144
152
155
158
158
167
189
208
216
178
126
68
51
68
86
95
99
104
107
111
115
118
122
126
129
133
135
137
138
140
141
143
145
143
143
143
144
144
145
146
147
147
148
149
150
150
152
153
155
153
154
155
156
158
160
161
161
162
162
163
164
164
164
164
164
165
164
164
165
166
166
166
166
166
41
42
44
45
46
46
46
48
48
49
50
51
51
51
51
51
52
53
53
53
53
51
51
49
47
47
46
44
43
40
39
45
40
32
33
34
30
29
34
48
72
72
92
115
133
155
189
206
224
212
174
153
150
138
120
138
129
132
142
140
135
134
124
125
112
104
112
109
58
89
93
126
131
129
164
187
131
87
102
107
104
100
94
91
92
101
110
108
122
104
88
113
138
143
149
146
145
158
144
147
173
169
167
168
174
165
171
196
190
201
192
205
207
203
201
206
208
205
204
205
210
212
212
216
223
223
217
219
215
212
212
215
219
222
224
210
212
217
218
210
203
207
218
218
214
217
225
224
213
208
211
223
218
216
220
224
220
215
213
220
222
223
223
225
229
228
224
219
221
223
223
226
227
223
217
222
218
222
220
221
224
219
220
222
216
220
225
220
216
220
224
216
213
214
215
211
211
215
214
220
220
218
216
214
214
215
217
213
223
218
214
222
220
215
224
222
223
223
223
224
225
226
226
224
227
225
220
219
222
224
222
223
218
217
221
221
217
217
221
219
218
214
209
208
209
206
201
193
197
186
176
183
186
172
158
175
174
149
138
153
139
108
102
111
111
78
79
92
106
115
111
107
104
84
70
80
95
108
121
138
146
153
166
179
185
198
219
207
200
177
148
122
97
89
105
104
107
110
115
119
122
126
129
134
135
136
138
139
141
142
143
142
142
142
143
143
144
145
146
147
148
148
149
149
150
153
154
153
154
155
156
158
159
160
161
162
162
163
164
164
165
164
164
165
165
164
165
166
167
167
165
166
37
39
41
43
44
45
45
46
46
47
47
47
47
46
46
47
47
48
49
51
51
49
50
50
47
46
44
42
41
39
38
31
36
31
28
29
27
31
42
57
42
98
108
115
143
166
198
217
213
187
157
151
158
154
145
151
146
145
127
98
91
97
101
116
100
99
108
74
94
93
100
141
115
160
172
132
85
100
116
103
99
98
100
95
89
92
102
110
116
123
115
104
119
138
139
155
150
153
173
157
149
176
170
170
181
176
153
180
205
212
199
204
207
204
202
207
208
205
204
213
220
224
220
219
221
220
215
222
222
219
214
209
210
214
218
212
213
215
219
223
222
215
206
209
215
217
214
218
224
220
210
218
217
221
226
225
218
215
217
220
217
219
225
229
229
228
229
219
220
221
222
225
225
221
216
220
215
218
216
218
221
216
217
224
216
218
222
218
215
219
223
218
215
217
216
207
205
210
214
219
216
212
212
214
215
214
212
214
221
215
211
220
217
212
221
222
222
222
223
224
225
226
227
223
224
223
220
222
227
225
219
223
221
219
216
217
219
220
219
223
219
218
220
220
214
210
209
200
213
205
197
195
168
156
184
167
165
161
148
128
117
117
118
104
89
89
96
84
82
107
87
110
108
114
129
125
96
94
123
115
128
126
122
138
160
182
203
220
205
174
149
138
120
102
101
104
107
111
115
119
123
127
129
134
134
135
137
139
140
141
141
141
141
141
142
142
144
145
145
146
147
148
148
148
150
152
154
153
154
155
156
158
159
160
160
161
162
163
164
164
165
165
165
166
165
165
166
166
167
166
166
166
34
36
38
40
42
43
43
45
46
46
47
47
46
45
44
43
44
45
46
48
48
48
48
50
47
44
42
42
40
40
38
32
41
35
31
47
61
62
64
46
73
95
115
144
150
195
224
217
178
135
123
135
140
139
143
138
137
136
121
115
122
111
96
84
112
95
85
121
129
83
146
111
116
169
135
117
99
121
97
103
102
105
109
105
97
95
100
101
108
121
128
121
112
125
149
151
157
167
176
168
154
159
166
167
185
187
175
168
194
197
206
196
207
212
211
211
210
210
214
218
216
220
225
222
214
213
218
219
221
222
221
220
217
212
207
215
214
211
209
214
221
222
218
213
214
212
209
210
216
223
226
217
213
214
221
225
224
220
218
221
216
217
225
228
225
225
228
222
220
219
221
221
218
214
213
218
213
214
211
213
218
213
214
222
216
217
220
216
215
219
221
217
215
218
217
207
203
210
216
219
213
209
210
216
219
216
211
217
217
211
210
217
215
212
218
221
219
219
222
224
224
225
226
222
222
222
223
226
228
226
221
225
225
221
217
218
222
222
219
219
215
217
223
225
219
214
215
221
201
197
192
179
185
181
150
161
169
153
127
126
136
129
114
64
79
110
99
95
75
69
88
75
95
111
122
136
145
139
129
139
153
162
170
181
180
179
189
215
214
197
171
148
127
111
102
105
106
111
115
120
124
127
129
134
134
134
136
138
139
140
139
140
140
140
141
142
143
144
145
145
146
148
148
149
150
151
153
154
154
155
157
158
159
160
160
161
162
163
164
164
165
165
165
166
166
166
166
166
167
167
166
165
34
35
37
39
40
42
43
45
46
47
48
48
47
46
46
44
44
45
46
46
46
47
47
48
46
44
43
43
41
40
37
36
37
27
24
37
43
47
63
60
73
118
145
163
198
223
224
184
168
155
158
160
149
142
149
138
127
123
118
124
121
90
73
121
109
88
105
102
71
123
113
101
148
146
99
110
110
120
114
113
101
89
90
104
111
101
85
102
116
117
124
133
115
110
139
142
154
176
167
171
175
153
163
168
179
186
200
180
176
185
203
193
205
211
212
215
215
218
224
218
215
217
222
221
216
215
219
212
215
217
220
223
223
216
208
210
210
208
205
203
206
215
223
229
220
216
218
214
207
210
221
221
213
208
213
223
227
223
218
222
220
220
222
224
224
225
226
225
219
217
220
218
211
210
214
218
211
211
207
210
215
210
212
214
212
215
216
214
215
218
216
217
213
215
216
208
203
208
213
216
211
207
209
216
220
217
213
219
212
207
209
214
215
214
215
219
216
216
220
223
222
222
224
221
221
223
227
228
227
227
228
228
225
222
222
222
222
220
218
216
215
216
219
221
221
219
218
205
209
206
194
179
168
169
180
166
156
140
152
169
136
91
85
125
126
110
80
86
74
45
60
93
84
88
102
111
121
142
161
147
142
143
155
162
155
155
168
197
210
213
190
158
140
128
116
106
107
110
115
120
125
128
129
133
133
133
134
137
138
138
138
139
139
139
140
141
142
143
144
145
146
148
149
150
150
151
152
155
155
156
157
158
159
160
161
161
161
162
164
164
165
165
165
167
166
165
166
167
168
167
167
165
36
36
37
39
40
42
43
42
43
45
46
47
47
46
46
46
46
46
46
46
47
47
47
46
44
44
44
44
42
39
37
36
37
34
37
32
18
42
98
135
156
152
174
189
218
226
195
167
172
172
172
171
159
144
137
128
118
122
120
114
99
95
129
126
95
114
111
97
110
106
102
117
155
110
118
126
125
107
108
103
104
95
82
87
103
108
100
95
99
113
125
127
127
123
114
141
149
153
175
180
169
171
166
177
176
175
188
196
184
206
192
198
203
203
204
212
217
218
221
226
229
226
222
222
226
224
218
211
213
213
211
213
215
214
210
204
200
203
213
216
208
203
203
212
216
218
218
222
228
225
217
219
219
218
215
214
218
223
226
221
225
224
220
221
227
228
226
227
219
218
222
220
211
211
219
217
210
209
205
207
213
209
211
205
206
211
213
212
215
216
211
217
211
212
214
207
202
205
208
211
207
204
207
213
217
215
212
220
208
205
209
212
215
217
214
217
214
214
219
222
221
220
222
221
222
225
230
229
225
228
234
229
222
220
226
226
220
216
217
222
223
221
217
218
222
221
216
219
210
207
199
184
186
192
184
161
145
146
149
124
103
111
128
125
108
89
93
71
88
108
82
86
73
82
104
108
109
117
123
146
147
146
148
159
175
185
187
194
210
223
212
187
174
155
127
106
107
110
115
119
125
128
129
133
132
132
134
136
138
137
136
138
138
139
139
140
142
143
144
145
146
148
150
150
151
151
152
155
156
156
158
159
160
161
161
161
161
162
164
164
165
165
165
167
167
165
166
167
168
168
167
165
38
38
39
39
40
41
41
45
45
45
46
46
47
47
47
48
48
47
48
49
49
49
48
46
45
45
45
46
44
40
38
38
41
31
22
15
46
96
94
104
112
137
176
208
219
202
174
157
154
150
139
134
140
144
139
141
139
129
119
109
100
129
120
103
111
117
131
105
103
102
132
154
119
124
124
119
115
97
100
88
91
86
88
80
84
110
113
114
103
99
114
133
134
123
118
127
132
134
155
178
179
177
180
178
177
182
196
202
194
192
204
207
208
211
214
213
211
211
213
214
218
222
223
222
221
221
222
225
222
216
209
203
202
210
220
217
208
202
205
208
208
210
214
211
212
220
216
207
219
229
216
219
216
217
219
217
215
217
224
225
223
218
216
221
229
229
223
225
220
215
213
216
218
213
206
219
211
209
207
201
206
213
209
208
204
205
212
215
212
210
211
208
210
210
203
209
195
198
211
210
210
204
205
209
209
214
208
208
216
202
207
208
215
215
215
211
202
216
218
216
220
217
225
221
220
231
225
225
231
224
228
226
222
222
226
226
219
215
216
219
216
216
218
218
216
216
219
220
217
212
207
203
198
190
182
170
173
178
151
149
143
124
112
105
110
102
114
124
102
83
76
83
80
77
87
94
102
88
103
118
134
139
135
140
151
158
161
173
186
210
224
207
173
154
156
145
130
114
112
119
122
125
132
130
131
132
133
134
136
137
137
137
137
137
138
140
141
143
143
146
147
148
149
150
151
152
153
155
155
156
157
158
159
160
160
161
162
163
164
165
166
166
167
165
165
166
166
166
166
167
166
167
40
41
41
42
43
43
43
44
44
45
46
47
48
49
49
48
48
48
48
49
50
50
49
53
49
45
43
40
40
39
39
35
38
44
64
72
91
68
61
102
110
147
203
228
207
180
170
184
164
158
164
163
152
143
137
119
130
114
112
110
145
119
65
100
114
124
104
81
99
131
148
122
119
124
116
102
101
104
103
94
89
93
83
93
95
82
118
110
108
113
107
108
142
155
125
119
134
123
137
161
176
187
168
180
172
169
184
204
207
201
201
200
201
205
210
213
215
218
222
219
220
221
219
216
212
210
208
223
219
217
220
221
217
209
204
218
223
218
206
203
212
218
215
213
209
217
223
217
216
223
225
222
220
219
219
219
218
217
218
219
225
226
220
217
220
220
218
215
216
216
215
215
215
212
207
211
208
207
205
202
204
208
206
207
204
203
206
208
207
208
210
206
207
207
198
206
197
199
206
203
206
197
203
206
211
215
211
209
214
202
210
210
215
214
213
209
206
217
215
214
221
218
221
221
219
226
221
222
230
227
232
221
222
221
219
218
219
222
223
220
217
217
219
220
218
217
218
218
217
213
209
204
198
188
178
187
171
163
138
136
132
135
148
140
126
124
112
95
97
98
87
79
119
117
110
85
75
100
107
105
121
131
129
124
121
125
135
151
163
188
213
214
184
144
118
122
127
123
115
116
120
125
127
130
130
131
132
134
135
136
136
136
137
137
138
140
141
143
144
146
147
148
149
150
152
153
153
155
155
156
157
158
159
160
160
162
162
163
165
166
166
167
167
166
166
166
167
167
166
167
167
168
46
47
48
49
49
48
48
48
48
48
49
49
50
50
51
50
50
50
50
52
52
52
52
48
47
49
52
51
50
46
44
40
51
38
34
86
65
52
91
119
158
204
231
215
170
142
147
144
140
131
118
118
128
121
98
90
107
130
120
120
95
74
128
130
107
99
98
116
110
127
142
115
121
114
102
86
86
99
95
98
95
97
90
76
92
114
104
116
110
121
118
97
109
144
160
143
122
139
119
125
166
171
201
188
195
193
185
185
190
202
215
212
211
212
213
213
212
213
215
212
215
219
222
221
216
208
202
204
201
202
210
217
216
209
202
192
202
213
217
211
204
206
213
219
214
214
218
215
210
215
225
225
224
223
222
223
225
222
218
226
219
219
223
220
213
217
228
213
212
210
209
211
212
209
204
202
205
204
203
203
201
200
203
205
204
201
200
199
201
205
208
206
205
205
196
205
200
202
203
200
205
192
203
198
209
208
207
206
208
197
209
209
212
209
207
204
207
214
209
211
219
216
214
220
218
223
220
223
229
227
229
212
220
224
221
219
222
223
220
222
219
218
220
221
219
217
216
216
217
216
214
210
204
193
184
185
164
165
170
188
178
154
137
116
123
124
104
110
107
86
112
108
76
83
84
103
114
92
87
99
108
122
142
157
153
142
140
162
162
180
210
222
194
140
99
92
102
111
114
117
121
124
124
129
129
130
131
132
133
134
135
136
137
137
138
140
142
143
144
146
147
148
149
151
152
153
154
155
156
156
157
158
159
160
161
162
163
164
165
166
167
166
166
166
167
167
167
168
168
167
167
168
54
55
56
57
56
56
55
56
55
55
54
54
53
52
52
54
53
53
54
55
56
56
56
58
55
50
46
44
42
42
43
46
35
32
69
109
76
103
102
114
188
230
210
179
157
146
150
154
146
142
141
137
135
136
134
128
115
91
102
105
90
143
123
75
85
82
85
117
110
116
132
114
107
101
101
99
93
87
81
85
98
93
106
100
76
94
115
112
113
116
127
130
114
114
139
167
152
145
144
145
155
163
159
185
196
198
196
203
208
202
196
212
211
213
215
216
215
215
217
218
214
210
209
212
215
218
218
213
206
198
193
194
201
212
222
220
204
196
204
213
211
206
204
214
218
215
212
214
215
215
217
222
224
224
222
224
228
227
223
227
218
215
219
222
219
219
222
220
213
205
202
207
212
210
204
198
204
202
200
202
197
194
201
203
203
201
197
194
197
202
206
206
201
202
197
204
196
199
201
196
203
188
201
192
205
202
202
202
201
193
208
206
208
206
202
201
206
209
208
212
216
213
213
218
218
222
222
224
227
222
219
216
222
226
224
221
222
221
219
223
221
220
221
221
219
216
213
213
215
216
216
216
212
204
196
188
193
203
184
167
149
147
142
117
121
118
111
101
101
108
107
86
82
74
63
77
95
117
96
113
104
98
109
128
129
118
112
122
123
144
186
223
227
201
176
142
122
111
116
118
118
123
130
127
128
129
130
131
132
133
134
136
137
137
139
140
142
144
144
146
147
148
149
151
153
154
154
156
156
157
158
159
160
160
161
162
163
164
165
166
167
166
166
167
167
168
168
169
168
168
167
168
60
61
62
63
62
62
61
61
61
60
59
58
57
56
56
57
57
57
57
58
59
59
58
55
56
56
55
55
51
49
47
38
43
28
83
84
79
96
125
185
231
231
187
164
158
145
134
125
126
137
146
144
142
141
139
127
121
103
103
101
136
119
76
92
105
101
114
117
119
122
123
97
79
76
66
69
77
72
85
89
79
90
98
114
115
88
92
117
138
132
116
124
134
137
144
154
165
153
147
142
159
188
172
163
184
196
196
202
209
210
209
211
211
213
217
218
217
216
217
206
209
214
220
222
217
207
199
213
212
210
206
199
194
195
199
205
207
203
196
199
211
216
213
206
211
213
217
224
225
219
216
219
223
224
221
221
225
228
226
219
224
222
216
217
222
216
203
218
214
208
204
206
210
211
209
199
204
200
198
200
194
191
200
202
202
200
197
194
195
199
204
204
194
198
198
200
187
192
195
188
196
183
198
189
203
200
201
201
199
194
208
203
207
207
200
199
204
203
209
216
212
210
216
215
218
218
220
222
222
221
216
231
225
221
220
220
219
222
226
222
222
221
220
220
218
215
212
211
213
215
215
216
215
211
206
213
196
183
166
161
151
148
127
118
140
104
102
95
87
115
83
109
96
100
103
90
64
89
104
92
101
103
100
102
114
135
158
148
152
156
168
197
219
206
179
168
138
122
125
124
120
121
123
126
126
127
129
130
131
133
133
136
137
137
139
140
142
144
145
146
147
148
150
152
153
154
155
156
157
157
158
159
160
161
161
163
163
164
166
167
167
168
168
168
169
169
169
169
168
167
167
166
65
66
66
67
66
66
65
64
64
64
63
63
62
62
62
61
60
60
60
61
62
61
61
63
62
60
55
50
45
41
39
53
42
93
130
101
134
168
197
231
224
200
177
170
162
154
154
143
150
152
143
136
137
125
101
110
127
107
125
153
116
76
89
110
88
78
126
122
141
135
101
80
68
67
38
31
43
45
75
87
84
90
81
86
124
132
99
84
100
126
135
122
115
123
128
157
172
185
165
142
147
162
177
190
191
185
183
196
208
210
208
215
214
216
219
221
220
218
218
226
219
210
205
205
208
212
213
208
208
210
213
211
203
193
188
176
188
199
199
196
200
213
223
217
209
208
217
221
219
219
223
222
225
227
225
223
225
227
227
226
220
218
218
214
208
209
215
205
210
212
208
202
202
206
210
203
202
199
198
197
192
192
199
202
199
198
198
195
192
195
202
203
192
198
199
198
186
190
190
186
193
184
195
189
198
197
196
198
198
194
205
196
203
206
195
192
201
197
206
213
204
205
214
212
216
211
213
215
217
223
220
228
222
220
224
225
222
222
226
220
222
222
220
218
218
217
215
216
218
217
216
216
216
214
210
202
188
183
175
160
137
138
126
147
123
129
91
101
113
65
98
87
73
91
90
105
122
111
111
95
98
106
126
150
153
134
119
141
154
153
148
174
213
212
182
150
131
124
122
116
118
122
117
124
125
126
128
130
131
133
133
136
137
138
139
141
143
144
145
147
147
149
150
152
154
155
156
156
157
158
159
160
161
161
162
163
164
165
166
167
168
168
168
168
168
168
168
168
167
167
166
164
70
70
71
71
71
71
71
70
70
70
69
69
68
68
68
66
65
65
65
65
66
65
64
67
63
58
54
59
71
87
96
88
83
108
84
111
143
167
209
227
197
168
159
156
150
151
160
169
155
153
161
160
153
149
147
161
143
150
115
100
70
71
104
107
110
96
129
117
130
110
67
75
70
69
57
46
34
27
49
63
100
92
90
86
76
113
149
127
103
106
133
137
122
123
138
129
155
164
197
201
172
171
158
189
202
210
210
205
198
200
210
210
209
210
216
220
223
225
227
221
218
216
215
214
214
212
211
220
211
204
203
207
211
214
217
217
200
190
199
208
209
211
215
224
214
214
217
212
214
221
222
224
224
226
229
228
225
224
224
231
217
212
218
215
204
205
216
204
208
209
204
198
197
200
202
205
198
197
199
195
192
195
196
202
194
192
196
194
188
191
201
201
194
201
197
198
193
195
183
185
191
186
192
191
193
195
192
196
198
195
202
188
198
204
190
185
202
197
201
209
200
202
209
207
213
207
210
212
213
224
222
215
218
223
228
228
224
221
219
217
221
222
220
218
220
221
220
221
221
221
218
217
216
213
212
203
191
185
179
172
168
194
190
164
146
126
133
119
105
117
101
98
102
83
98
93
81
107
126
126
121
114
115
120
126
140
159
114
125
131
138
165
204
223
221
186
157
137
125
111
113
124
124
123
124
125
127
130
132
133
134
136
137
138
139
141
143
145
146
147
147
149
150
152
154
155
156
157
157
158
159
160
161
162
162
163
164
165
166
167
168
168
168
168
168
168
168
167
167
166
166
164
75
74
74
74
75
75
75
77
77
76
75
74
72
72
71
71
70
69
69
70
70
69
68
62
65
65
66
64
62
64
64
71
100
97
74
100
145
180
229
212
183
154
143
145
156
163
160
154
154
151
142
134
137
136
126
102
116
71
66
68
87
118
122
110
113
84
130
142
107
72
82
87
61
38
48
52
28
25
45
64
70
100
103
91
90
91
102
132
139
119
108
125
126
119
131
147
151
168
162
178
198
188
203
197
195
197
208
220
219
215
218
218
214
210
211
212
212
213
214
215
217
221
223
222
217
210
204
202
204
208
213
213
209
205
204
205
214
219
217
216
217
215
211
211
216
229
226
216
224
229
213
220
218
220
227
229
224
220
219
218
225
221
211
213
219
205
180
218
212
204
198
199
201
199
196
205
194
196
200
194
193
197
195
202
191
188
194
193
185
189
200
197
195
201
192
195
198
198
175
179
185
185
189
194
194
199
195
199
202
199
202
186
198
205
189
184
208
202
202
208
202
205
208
202
211
207
212
213
212
222
218
211
220
224
222
220
222
222
219
214
220
222
220
218
221
224
225
219
220
220
217
215
214
211
209
213
202
189
179
177
172
169
125
100
137
144
134
145
153
132
106
109
117
112
103
93
101
92
109
133
118
108
116
126
123
125
138
163
155
155
164
169
176
202
232
208
167
152
154
138
122
119
117
122
123
125
127
130
132
134
135
136
137
138
139
141
143
145
146
147
147
149
151
153
154
156
156
157
157
158
159
160
161
162
162
163
164
165
167
168
168
169
169
168
168
168
168
167
166
166
165
164
78
78
78
78
79
79
79
82
81
80
79
80
79
78
77
79
77
74
73
72
72
72
72
70
66
61
70
69
47
49
86
109
94
89
123
175
221
238
218
182
167
161
167
166
157
155
163
165
138
130
116
109
123
121
111
112
122
95
102
122
130
113
107
100
84
117
150
110
91
81
79
77
23
61
46
56
55
50
35
22
46
76
109
116
125
108
88
92
105
133
122
117
127
124
100
121
150
158
148
156
177
183
177
192
198
205
208
209
210
214
218
217
220
223
224
222
218
215
214
216
213
209
209
211
214
214
214
206
207
206
203
205
211
212
209
210
209
212
220
223
220
219
223
217
212
207
212
223
231
227
219
222
222
224
225
225
223
225
228
223
209
220
217
196
216
231
199
191
215
207
208
174
202
199
203
186
204
188
206
195
200
195
193
203
193
189
189
198
200
191
196
190
200
192
200
193
196
189
181
181
187
182
193
190
200
207
188
198
195
196
199
202
194
205
184
199
202
201
205
199
204
215
193
205
216
200
211
210
226
208
211
215
222
221
214
215
224
224
216
221
229
223
210
213
224
226
224
225
222
218
215
215
215
211
206
211
208
206
202
191
177
170
170
178
173
163
157
152
142
119
98
71
102
123
101
116
107
107
98
105
133
123
94
108
143
143
120
114
133
146
143
138
148
181
218
235
191
143
127
126
141
123
118
121
124
126
126
128
131
133
134
136
137
138
140
142
144
145
146
147
148
149
151
154
156
157
158
157
157
157
158
159
161
163
164
163
163
164
165
166
167
167
168
167
166
166
166
167
167
165
164
165
85
85
85
85
86
86
86
85
84
83
83
84
84
83
82
82
81
79
78
78
77
76
75
76
67
71
71
53
57
87
108
80
110
133
169
210
226
216
195
179
164
150
149
154
155
151
148
118
106
108
123
126
126
132
133
127
113
106
109
107
110
91
68
83
92
142
108
92
96
73
76
68
57
62
50
68
66
62
60
42
48
30
35
73
128
134
124
101
97
93
124
100
119
144
156
133
129
152
169
153
150
176
196
181
188
196
200
201
201
201
202
214
216
217
218
217
216
216
216
217
214
212
211
212
213
212
211
208
212
214
214
215
217
219
220
215
216
216
213
212
213
215
216
216
217
214
209
207
212
218
221
224
222
222
222
221
219
219
221
228
220
207
208
215
206
203
222
197
197
214
212
209
193
198
198
200
192
200
186
195
203
194
190
201
198
193
184
188
197
193
195
187
194
189
194
193
194
191
181
187
193
180
192
189
202
201
189
194
198
202
205
193
191
196
190
201
200
200
202
199
204
209
196
208
208
202
200
213
214
208
206
219
212
209
212
216
217
218
220
219
222
219
215
220
223
223
225
223
223
221
218
217
218
217
215
209
207
205
203
199
194
192
194
190
182
160
135
121
121
120
114
90
86
121
111
105
101
110
126
95
111
123
127
127
126
132
142
146
154
159
159
159
160
175
196
228
223
182
153
131
124
125
120
121
124
126
127
128
132
134
134
136
137
138
140
142
144
145
146
147
148
150
151
154
155
157
158
157
157
157
158
159
161
163
163
163
163
164
165
166
167
168
168
167
166
166
166
167
166
165
164
163
89
89
90
90
90
90
90
90
89
89
89
90
90
90
89
86
86
86
85
85
83
81
79
70
84
72
55
69
90
83
65
102
115
117
158
217
221
180
145
123
134
142
144
144
138
124
109
122
143
139
159
141
107
126
128
107
95
125
111
113
100
51
70
85
125
136
93
90
83
72
76
55
72
61
65
82
78
74
59
52
25
40
58
35
60
109
123
133
117
119
130
116
88
110
118
127
146
163
178
179
161
157
179
180
185
193
200
204
207
208
209
202
204
207
209
211
212
213
214
215
213
210
208
207
204
201
198
204
204
205
204
202
202
207
213
213
218
217
211
210
216
220
218
214
218
219
212
205
206
212
218
221
219
218
219
219
218
217
219
212
230
213
202
220
213
199
216
214
201
203
210
205
193
198
207
201
189
202
183
193
198
197
190
196
200
200
183
181
193
193
192
190
193
191
191
196
193
195
184
189
197
176
191
189
204
193
194
195
199
203
205
187
194
189
192
201
196
198
196
198
202
199
200
209
206
202
201
213
211
209
209
217
207
205
214
219
217
216
220
222
220
218
223
229
224
220
226
217
221
223
221
219
219
218
217
211
210
206
200
195
191
186
181
158
147
125
106
109
126
136
136
143
114
79
119
112
93
89
95
119
122
117
103
102
121
129
119
131
138
146
153
153
150
160
180
206
218
183
156
136
111
123
120
121
124
126
127
129
132
134
135
137
137
139
140
142
144
145
146
148
149
150
152
153
155
156
157
157
157
158
159
160
161
163
163
163
163
164
165
166
167
168
168
167
166
166
166
167
166
165
163
162
92
92
92
93
93
93
93
96
95
94
94
95
95
94
93
92
91
90
90
89
88
85
83
88
81
73
95
122
106
80
86
101
130
162
209
234
209
185
180
170
174
169
158
153
160
166
167
156
148
166
141
129
133
108
127
112
114
123
93
83
52
50
106
102
139
109
88
96
106
77
54
78
72
59
63
69
74
87
64
66
40
38
56
41
24
57
115
149
143
127
120
147
166
90
106
113
126
115
123
169
184
172
178
177
179
183
190
197
203
208
210
218
218
218
217
213
208
203
200
196
195
195
197
199
201
201
200
197
195
197
199
198
194
196
201
207
210
211
211
214
219
220
218
218
220
221
222
224
225
222
218
218
215
214
215
217
216
215
215
203
223
223
208
209
220
216
202
209
208
204
212
200
203
197
197
190
196
193
200
193
188
202
196
190
197
204
189
180
189
190
189
194
195
194
189
199
193
198
185
184
198
174
191
189
205
187
201
201
196
200
197
191
201
188
190
200
191
194
191
195
198
190
202
204
205
199
211
207
213
208
215
207
209
212
216
219
221
218
213
219
216
213
217
221
215
211
215
217
221
224
223
222
221
217
214
208
212
213
210
207
203
193
183
160
158
153
149
143
132
114
100
91
122
83
73
93
98
106
95
88
100
127
137
111
91
100
114
112
114
120
131
138
139
151
173
199
222
200
157
137
114
122
113
120
123
126
127
129
132
135
135
137
137
139
140
142
144
145
146
149
149
150
152
153
155
156
156
157
157
158
159
160
162
163
163
163
163
164
165
166
167
168
168
166
166
166
166
166
165
164
162
161
97
97
98
98
98
99
99
100
99
98
98
98
98
97
96
96
95
93
92
92
91
88
88
75
73
96
111
83
60
77
109
118
147
191
229
225
189
163
145
157
155
151
151
153
154
148
142
160
146
120
118
135
142
135
121
113
118
91
87
98
96
121
82
116
107
108
101
92
91
61
82
90
72
76
67
72
71
82
77
69
72
56
41
44
30
20
33
86
142
141
152
128
155
181
130
128
125
123
121
117
123
146
168
183
184
187
193
199
204
208
209
211
211
212
212
212
210
207
206
212
211
210
209
210
210
211
211
211
210
215
222
223
218
213
213
208
203
202
207
211
211
210
211
213
211
209
212
220
224
220
213
219
216
214
214
214
211
209
208
216
210
215
216
206
209
215
208
206
205
212
203
205
201
205
194
194
196
190
202
198
186
200
203
190
190
200
192
180
183
186
190
192
194
193
188
198
192
199
187
178
197
179
192
189
203
183
204
200
193
200
189
197
199
191
192
198
188
191
190
194
195
188
203
197
199
201
210
201
204
205
213
203
209
215
216
216
215
214
213
219
220
214
211
214
214
212
214
223
222
221
220
222
223
221
217
219
221
219
212
205
195
178
164
151
151
153
149
131
107
93
92
88
97
125
62
90
84
88
99
86
80
90
108
121
130
125
107
108
104
108
128
144
141
136
140
175
220
230
171
136
122
123
116
119
122
125
126
128
132
135
135
137
138
139
141
143
144
146
146
149
150
151
152
153
154
155
156
157
157
158
160
161
162
163
163
164
164
164
164
165
166
166
167
166
166
165
165
164
164
161
160
160
100
101
101
102
102
103
103
104
103
102
102
102
101
100
99
100
99
97
95
94
93
91
91
93
96
89
78
79
88
83
71
105
165
221
227
191
167
167
155
142
137
133
134
136
136
136
138
140
133
133
134
134
129
121
120
137
120
114
116
112
86
80
97
128
107
110
97
76
55
80
110
79
76
94
77
84
70
66
91
68
83
79
49
52
66
63
37
22
60
133
163
186
143
131
166
161
144
130
137
156
162
162
167
179
183
189
197
203
206
206
205
192
193
197
202
210
216
221
223
217
215
213
210
207
206
205
205
208
205
203
204
205
203
202
202
212
203
199
203
206
205
206
210
208
206
201
198
201
208
212
213
217
216
216
218
218
215
212
212
216
209
208
214
214
204
201
209
206
203
203
206
202
203
205
204
207
188
195
184
202
195
193
206
196
186
194
191
179
180
186
193
189
194
192
191
197
196
202
194
179
197
187
192
188
201
181
201
189
192
201
187
195
190
194
200
196
187
189
193
193
192
192
201
197
194
209
200
202
191
206
206
211
209
212
217
214
207
211
220
214
220
215
208
211
216
217
218
222
218
214
212
216
222
224
222
216
217
217
216
215
211
203
195
193
176
159
147
133
118
115
119
99
60
92
107
106
81
75
91
110
86
77
91
102
108
118
128
130
118
107
111
123
129
138
153
157
189
224
200
155
123
114
121
118
121
124
125
128
132
135
135
137
138
139
141
143
144
146
146
149
150
151
152
153
154
155
156
157
157
159
160
161
162
163
163
164
164
163
164
164
164
165
165
165
164
163
163
163
162
159
159
158
102
103
104
104
105
105
106
107
106
105
105
105
105
104
103
103
102
101
100
99
97
94
93
82
92
84
82
87
74
74
105
134
203
241
216
172
150
149
138
131
132
132
129
126
126
130
134
116
139
141
151
131
111
129
118
128
127
114
61
74
114
92
123
126
121
89
67
72
84
115
80
86
79
86
72
64
65
70
100
109
110
70
27
45
47
48
64
52
49
50
76
132
176
166
165
178
178
158
151
172
181
180
191
167
172
179
187
192
195
195
195
209
209
211
213
214
214
212
210
203
204
207
210
213
216
218
220
212
211
207
202
200
203
206
207
212
209
207
206
205
206
209
211
213
214
212
207
205
208
213
216
214
215
218
221
221
218
216
217
209
209
205
207
211
205
199
202
197
197
200
216
207
209
198
194
200
193
191
178
199
201
189
205
203
188
195
194
182
186
191
192
187
196
192
196
195
199
202
197
183
197
194
190
189
201
185
198
179
194
194
189
189
185
194
203
192
185
186
195
191
188
197
196
200
194
208
195
198
191
209
204
211
210
211
213
211
208
211
218
200
208
207
202
204
208
210
212
212
212
211
211
214
219
221
220
220
216
213
211
206
199
193
190
169
154
139
136
139
136
122
108
99
96
92
123
94
92
96
74
83
104
111
102
103
110
107
97
113
120
128
136
139
134
133
140
161
177
210
229
184
134
116
116
117
120
123
124
127
131
134
135
137
138
139
141
143
145
146
147
149
149
150
152
153
155
156
156
157
157
159
161
162
163
163
163
164
164
163
163
163
163
164
164
164
163
161
161
160
159
158
157
156
105
106
106
107
108
108
109
109
108
107
108
108
108
108
107
104
104
104
104
103
101
96
94
99
89
86
83
68
67
98
131
177
227
224
185
158
143
139
137
158
153
145
140
141
144
140
132
152
139
147
130
127
154
143
124
115
103
88
111
119
123
117
116
105
81
72
86
87
98
84
84
90
70
76
82
51
67
80
84
109
102
114
101
70
36
48
59
69
51
62
66
96
92
141
156
170
161
166
164
145
146
166
176
188
191
196
200
203
205
207
208
214
215
217
217
213
204
193
185
181
184
187
190
193
194
195
196
197
206
212
212
211
214
214
212
210
217
218
211
206
206
207
205
206
210
214
213
211
209
206
203
212
214
218
220
218
213
211
211
218
199
196
203
199
197
205
208
207
196
207
187
207
195
209
191
178
208
180
189
192
200
192
202
205
192
201
200
189
194
195
189
185
196
190
197
190
197
197
195
187
196
197
187
189
203
190
197
176
196
183
189
186
187
193
201
187
182
182
195
188
184
200
191
198
196
198
195
188
197
208
204
201
210
213
206
205
213
212
205
200
207
209
207
209
208
209
213
205
210
216
218
219
219
217
215
220
215
213
214
210
201
195
195
179
173
160
151
154
159
148
130
148
135
128
102
120
130
139
109
94
92
93
109
123
116
113
129
126
124
117
118
124
125
124
127
134
172
203
231
187
154
146
120
116
119
122
124
126
131
134
134
137
138
139
141
143
145
146
147
148
149
150
152
153
155
156
157
156
157
159
161
162
163
163
163
164
164
163
162
162
162
163
163
163
162
160
160
160
159
157
156
154
109
110
111
111
111
111
111
112
112
112
111
111
111
111
111
109
108
107
105
102
100
98
97
87
89
86
86
94
128
144
176
217
236
210
163
149
149
145
149
157
148
153
145
137
136
132
147
141
141
146
133
130
135
118
110
106
101
122
131
106
101
115
111
103
86
92
94
107
79
85
110
63
72
64
70
75
49
66
77
93
92
81
104
99
107
81
73
105
106
82
93
121
123
129
141
147
158
155
148
157
150
137
157
161
176
187
187
185
191
200
204
205
206
206
207
208
208
207
206
206
207
209
209
207
204
201
199
202
210
213
208
205
208
208
204
202
210
218
218
212
208
211
215
203
207
214
220
221
219
220
222
218
211
207
208
213
216
215
214
201
208
213
199
210
215
215
197
201
196
196
194
192
203
207
196
183
188
203
187
183
204
177
201
209
187
207
205
181
202
195
196
183
191
199
196
186
202
193
199
190
189
195
190
193
191
201
195
186
196
181
182
187
190
206
192
186
181
200
197
175
195
187
187
203
189
193
192
189
198
203
206
193
200
201
198
201
203
203
205
205
217
205
217
209
209
213
208
211
218
221
215
207
206
211
216
214
216
219
221
221
215
207
200
198
180
164
154
145
137
126
114
126
120
124
141
129
115
124
114
108
112
103
98
107
108
107
117
123
139
148
140
129
129
134
137
138
154
177
222
228
181
146
128
119
120
123
126
128
128
131
135
137
138
139
140
142
144
147
149
148
149
150
151
152
153
154
155
157
157
159
160
161
162
163
163
162
162
163
163
163
162
162
161
160
159
159
159
158
157
155
153
150
113
114
115
116
116
115
115
115
115
115
115
115
115
115
115
111
110
109
108
106
105
104
104
108
103
113
132
132
131
134
171
219
222
201
173
168
167
165
170
153
154
153
143
141
144
135
128
140
138
136
130
134
136
124
118
99
114
114
94
94
124
130
101
87
81
109
100
71
67
102
61
49
64
77
77
43
56
64
85
71
104
90
97
77
72
104
108
109
108
84
86
98
89
100
124
138
139
159
166
162
167
166
161
166
172
181
190
197
199
198
197
206
207
209
209
208
207
208
208
215
213
211
209
208
209
211
213
208
212
214
212
212
214
213
210
198
205
211
211
208
205
207
209
223
215
209
209
211
212
211
210
202
210
212
207
205
211
215
215
213
207
203
195
208
212
214
204
191
194
198
200
199
203
202
195
187
187
198
194
183
193
191
191
210
188
200
208
191
200
193
197
183
189
200
197
184
198
192
193
190
187
191
189
193
189
198
192
186
198
182
194
184
193
197
184
180
184
192
184
179
195
181
188
193
185
186
182
186
198
197
193
191
198
200
200
205
206
203
203
208
205
209
206
202
218
208
216
215
195
185
197
208
207
205
209
211
214
218
221
220
217
213
210
204
197
196
195
188
177
164
150
125
127
134
118
123
127
99
106
117
126
121
93
69
76
98
110
111
118
134
150
151
141
137
141
154
157
167
203
223
194
157
141
127
121
117
121
128
132
133
133
136
138
139
140
142
144
147
149
148
149
150
151
152
153
154
155
156
156
158
159
160
161
162
162
162
162
162
162
162
162
161
161
159
158
158
157
156
155
153
150
149
115
116
117
117
117
117
117
117
117
117
118
118
118
119
119
115
113
111
110
110
109
108
108
106
96
108
114
98
120
166
209
237
208
176
163
161
155
147
143
145
143
146
155
143
123
134
157
154
133
136
145
126
118
123
102
132
125
104
109
140
138
107
88
78
91
107
60
88
87
72
56
95
73
76
35
55
79
77
74
79
74
105
104
104
50
66
84
112
143
139
126
134
138
132
121
138
152
152
147
168
177
171
185
191
186
184
189
195
200
205
210
204
205
206
205
203
203
204
206
203
205
207
208
206
202
197
194
200
200
203
208
214
218
219
218
210
208
205
202
201
205
211
216
212
207
205
208
213
214
213
212
221
207
204
214
214
201
197
205
212
207
207
201
201
196
205
213
191
197
199
201
204
203
202
205
191
183
188
198
183
178
199
180
205
189
189
208
201
195
188
195
184
185
199
199
184
195
195
189
194
189
190
192
196
188
198
193
188
194
186
197
185
189
196
181
183
189
185
177
189
197
178
194
191
188
184
177
188
200
190
182
193
196
195
197
206
208
205
204
196
198
211
212
210
218
200
201
193
204
215
217
211
206
208
212
216
218
221
222
220
219
217
216
205
200
198
195
188
184
181
175
167
156
139
127
118
120
119
99
110
105
120
131
118
108
106
98
102
106
111
119
133
144
144
137
150
158
174
199
218
193
144
128
129
123
119
122
128
132
132
132
136
137
139
141
142
144
147
149
148
149
150
151
152
153
154
155
153
154
156
158
159
160
160
161
161
161
161
161
161
161
160
160
158
157
156
155
154
152
150
148
146
117
117
117
118
118
118
118
119
119
119
119
119
119
119
119
118
116
113
111
111
109
108
107
93
107
102
104
132
163
197
243
222
182
153
148
146
146
146
143
140
149
142
144
145
146
158
154
137
161
141
125
123
117
126
135
108
86
114
138
101
80
92
87
102
109
87
103
87
69
76
88
76
81
54
40
72
95
70
77
89
76
105
99
115
94
77
71
76
112
140
150
147
136
150
179
126
115
125
133
140
162
172
170
178
187
197
203
205
208
214
219
210
209
208
208
208
208
208
209
199
195
190
188
191
197
205
209
202
199
199
206
213
215
214
213
212
206
199
196
198
203
208
211
218
216
212
209
205
204
208
213
207
209
207
204
209
217
211
199
205
207
211
208
199
189
195
205
199
201
195
193
199
200
202
214
199
181
184
195
189
171
193
182
195
191
181
203
201
189
185
190
185
181
194
199
188
197
200
185
197
192
190
194
196
183
199
196
191
186
192
187
190
182
199
182
192
186
180
182
196
196
183
199
195
192
186
180
192
198
183
180
197
195
189
191
201
207
206
206
201
210
201
206
203
198
206
199
204
211
211
205
204
211
214
211
215
215
215
215
216
216
215
215
204
197
193
185
176
174
174
168
161
156
149
149
119
105
128
119
110
120
137
140
124
116
114
108
94
113
125
121
117
124
131
131
134
146
168
189
214
198
137
113
115
116
120
124
126
126
129
133
135
137
139
141
142
144
146
148
148
148
149
150
152
153
154
154
153
154
156
157
159
159
160
160
160
160
160
160
160
159
159
158
157
156
154
153
152
150
147
146
143
119
119
119
120
120
121
121
122
121
121
121
120
120
119
119
119
116
113
112
112
111
108
107
102
97
107
118
126
158
212
240
199
170
151
142
130
129
136
135
134
148
143
144
146
147
150
134
134
142
123
116
126
136
132
100
104
135
144
114
85
88
109
121
120
96
111
78
69
84
89
73
71
85
52
63
80
75
76
84
82
94
79
110
108
116
106
93
70
79
107
144
161
147
141
162
178
156
154
153
150
161
165
163
163
181
193
192
190
196
202
202
211
208
205
205
208
209
208
206
199
201
205
209
211
211
208
205
217
212
210
212
215
212
207
204
191
190
189
192
194
194
190
186
207
210
213
215
211
204
201
202
208
198
202
215
214
200
202
216
205
205
204
205
203
201
194
190
202
202
193
189
196
194
193
202
206
186
188
191
197
178
180
193
186
194
180
197
196
186
186
187
188
179
188
195
191
196
201
180
196
194
189
193
191
177
199
198
190
188
193
187
189
184
192
177
195
171
175
190
195
190
191
200
194
189
186
184
193
191
178
185
195
192
186
189
199
203
202
204
203
211
202
201
198
193
207
204
213
199
192
198
206
207
207
209
207
205
204
207
211
214
213
212
208
207
208
206
198
190
177
162
156
143
138
123
127
132
121
141
154
130
107
106
114
110
115
137
140
124
116
125
136
136
128
122
121
127
147
174
220
223
160
116
108
110
114
119
122
125
130
134
134
136
138
140
142
143
145
147
147
148
148
150
151
152
153
153
153
154
155
156
159
159
160
160
159
159
159
159
159
158
157
157
156
154
152
150
150
148
145
144
141
119
119
119
120
120
121
122
124
124
123
123
122
121
121
121
118
116
114
114
115
114
111
109
103
100
121
130
136
178
234
223
193
172
161
160
160
166
168
158
144
147
148
153
145
133
135
140
134
136
109
116
146
125
92
95
133
132
116
99
104
123
122
102
100
107
78
52
97
95
97
65
97
72
66
75
77
57
91
74
81
75
82
100
112
112
107
110
79
75
85
100
115
126
139
166
156
165
163
160
179
182
171
186
178
191
197
193
197
211
218
214
219
216
213
214
217
218
216
214
217
212
206
203
204
207
210
212
211
211
211
212
214
213
209
206
212
212
212
214
216
215
211
208
193
193
197
206
213
212
207
202
203
210
208
199
198
206
205
196
199
203
201
203
199
203
197
192
198
200
198
197
198
194
187
185
203
191
191
185
197
187
171
196
185
196
183
192
190
188
189
189
190
181
183
189
192
191
197
176
193
195
187
191
190
177
202
198
187
199
188
195
182
194
175
168
190
163
177
196
192
186
199
198
190
183
186
188
191
188
181
191
189
189
188
192
200
200
196
198
198
196
211
200
202
205
202
209
198
203
207
206
203
201
203
206
210
209
209
211
214
216
214
213
216
212
210
205
200
197
187
173
152
136
123
115
123
134
127
117
87
95
102
119
130
111
96
108
128
131
132
128
123
128
137
146
148
142
137
147
189
219
193
157
127
120
114
116
122
127
129
130
133
135
137
139
141
142
144
145
146
146
147
148
150
151
152
152
152
153
154
156
158
159
159
160
158
158
158
158
157
157
156
155
154
152
150
148
148
146
144
142
139
120
120
120
120
121
122
123
125
124
124
124
123
123
122
122
118
116
114
115
116
115
110
107
109
123
97
95
170
221
236
218
188
170
157
157
160
161
153
140
155
154
151
141
143
152
142
133
140
127
134
133
114
111
128
151
111
111
95
105
135
123
100
111
109
92
76
114
99
104
73
107
64
45
78
99
54
71
73
70
87
74
102
73
102
127
125
125
117
81
77
95
105
92
77
93
127
142
172
176
169
177
174
162
160
175
189
196
205
215
216
209
205
205
206
206
206
205
205
205
200
201
204
208
212
211
208
204
200
206
210
209
210
211
210
206
210
208
205
203
204
206
209
211
211
201
192
191
196
201
206
210
206
197
190
194
201
203
201
199
191
200
200
203
193
197
193
196
192
195
200
199
194
194
191
183
192
195
194
183
188
194
173
186
192
192
182
188
185
191
191
191
189
184
182
185
192
187
195
179
188
192
182
188
192
181
207
195
182
203
184
192
179
201
169
167
183
169
186
196
191
184
201
193
184
179
188
190
188
189
186
190
186
189
190
194
199
195
192
195
204
194
203
188
195
203
205
213
201
206
201
190
193
206
208
199
210
213
215
216
214
213
211
211
215
209
202
194
189
192
191
182
192
193
188
184
139
106
112
85
119
126
114
98
114
141
135
110
107
121
126
122
124
136
137
130
135
147
155
168
193
213
193
142
137
129
120
119
122
125
126
127
131
133
136
138
140
141
143
144
145
145
146
147
149
150
151
151
151
152
153
155
156
157
158
159
158
158
157
157
157
156
155
154
151
150
147
147
146
144
142
140
137
124
123
123
124
125
126
126
123
123
123
123
123
123
122
122
119
117
115
115
115
114
107
103
99
96
129
170
202
226
239
183
147
146
146
146
142
140
145
152
140
129
142
146
137
122
111
130
131
133
141
113
110
157
162
130
116
113
122
124
113
111
113
105
105
112
111
94
106
93
89
74
71
38
100
78
59
82
61
66
92
93
85
107
100
114
108
120
130
126
135
131
130
132
120
120
114
150
154
130
138
155
159
177
192
199
204
202
199
200
203
205
211
215
218
218
215
213
215
218
221
218
215
212
211
207
203
199
210
217
220
213
208
207
203
197
191
191
191
190
190
191
194
196
198
200
204
207
205
201
201
203
205
209
204
191
186
193
196
190
194
194
190
200
195
198
188
188
187
190
196
192
184
190
197
191
184
200
197
187
182
198
183
177
198
187
178
186
183
192
191
192
186
187
183
183
194
185
196
186
181
187
176
183
192
183
207
190
178
199
183
178
182
201
175
174
176
179
193
191
188
182
196
185
180
176
189
189
184
189
187
183
188
191
191
193
195
192
191
197
194
198
195
196
206
195
206
192
192
194
199
207
212
211
207
206
196
203
210
211
207
204
206
209
208
209
210
209
201
200
192
179
172
156
155
152
146
134
125
147
135
112
111
120
108
104
122
138
127
121
116
117
120
123
129
136
143
146
143
153
178
208
203
144
123
122
121
121
120
121
125
130
131
133
136
138
139
141
142
143
144
145
145
147
148
149
150
150
150
151
152
154
155
156
157
157
157
157
157
157
156
155
154
154
149
147
146
145
144
142
140
138
136
123
123
124
125
125
125
124
125
124
123
123
123
123
122
121
118
120
120
117
113
113
120
127
140
160
145
124
154
226
217
177
159
160
157
149
140
135
132
131
134
142
136
118
117
133
138
130
141
114
119
138
149
148
119
87
90
115
145
123
121
113
103
114
116
106
99
98
91
86
84
82
82
89
96
59
78
96
67
56
86
117
84
99
112
109
119
118
128
128
126
125
130
139
143
142
174
160
150
152
157
164
177
191
186
184
187
197
206
211
214
218
218
203
195
201
205
203
205
211
205
202
197
194
195
198
200
202
201
205
209
198
201
200
207
203
201
202
204
208
211
207
195
184
193
198
199
199
203
208
200
187
182
194
204
203
193
185
187
193
182
186
189
190
192
193
188
182
186
192
181
205
188
182
202
197
184
193
190
182
182
196
175
177
192
190
185
191
184
187
185
193
177
189
186
190
186
180
194
181
180
193
167
172
189
178
199
188
179
192
179
191
184
192
171
171
176
188
188
189
183
192
185
177
180
173
188
179
187
184
181
185
186
190
196
188
195
187
193
195
189
192
197
199
198
195
194
194
192
202
206
199
190
190
198
207
204
200
196
198
205
211
212
210
209
208
208
209
208
204
195
188
185
176
175
181
188
191
185
172
152
142
135
130
122
115
120
131
140
141
130
123
123
118
121
136
146
150
146
156
165
202
188
130
98
108
111
114
122
123
121
126
128
130
132
134
135
136
137
138
140
141
144
146
147
148
148
148
149
149
151
153
156
157
156
155
154
154
153
153
153
152
150
149
146
145
144
143
142
141
139
137
134
124
124
125
126
126
126
125
124
123
123
122
123
123
122
121
122
118
114
113
116
121
123
126
113
88
80
128
198
241
210
183
172
162
150
144
148
153
152
146
137
124
129
151
155
139
139
156
132
131
144
142
130
124
111
101
125
141
120
123
110
129
133
118
84
89
111
80
64
100
109
76
81
110
76
37
85
94
71
77
66
116
125
101
90
107
132
119
114
138
146
127
117
134
157
168
168
162
156
158
167
170
163
154
160
183
204
212
214
218
217
211
202
198
201
211
215
211
208
209
208
206
204
203
205
208
212
214
208
205
208
203
208
202
205
203
208
206
202
198
193
192
195
198
185
191
193
190
190
195
200
200
191
187
185
189
194
195
190
183
185
183
179
178
182
188
191
189
186
188
185
183
196
184
192
196
189
192
194
177
181
193
184
179
180
187
178
188
175
191
185
191
178
186
180
186
185
178
188
187
184
190
165
162
186
177
192
169
191
173
181
192
174
187
176
173
184
180
188
185
187
186
180
181
183
182
185
181
188
188
182
183
185
190
194
184
189
184
188
189
191
194
196
195
196
199
199
197
203
189
184
197
209
207
199
197
194
199
206
209
208
205
204
204
202
201
201
203
205
202
197
192
188
186
186
176
157
143
137
132
142
143
141
139
143
143
125
103
112
134
142
134
131
126
121
121
124
132
140
154
166
200
202
158
111
102
104
113
113
116
121
121
126
128
130
132
133
134
136
137
139
140
142
144
146
147
147
147
148
149
150
152
154
155
154
153
153
152
151
151
151
150
149
148
146
145
143
142
141
140
138
136
133
123
124
125
125
125
125
125
123
122
122
122
122
122
121
120
118
117
118
119
117
111
101
96
95
110
132
172
217
233
187
152
147
143
137
134
137
141
140
137
141
155
154
139
139
152
150
135
153
144
150
148
128
111
117
146
158
104
125
124
113
131
122
105
125
95
98
78
89
91
84
98
83
92
75
66
72
72
105
103
76
80
129
148
132
105
119
128
120
114
113
125
142
145
132
116
90
115
135
138
142
159
178
187
210
216
216
207
203
207
206
200
213
213
217
221
220
216
212
210
203
203
203
204
205
207
210
213
210
202
205
206
213
204
205
205
206
203
200
197
190
186
189
197
205
204
200
193
188
190
197
204
203
198
191
188
187
187
186
185
183
182
179
178
181
186
186
184
187
191
187
171
195
189
177
192
191
189
196
177
182
188
191
179
171
185
175
186
169
193
184
187
178
181
174
184
186
175
176
189
180
183
168
157
184
174
188
162
194
161
180
187
177
180
172
182
184
176
186
178
184
181
176
177
177
189
180
181
184
184
181
182
183
189
189
179
184
183
185
183
192
193
192
190
194
201
203
199
182
185
193
200
196
189
195
207
209
210
210
207
203
203
208
212
210
208
207
208
208
207
202
198
180
177
180
182
179
178
176
170
165
156
149
146
142
134
129
127
117
126
125
122
130
137
133
128
120
122
132
143
163
195
211
175
135
108
107
117
109
112
122
117
123
125
127
129
131
132
134
135
137
138
140
142
144
145
147
147
147
148
149
151
152
152
151
150
151
150
149
149
149
148
147
144
144
143
142
141
140
138
136
135
131
121
121
122
123
123
123
122
122
121
120
120
121
121
120
119
120
120
120
116
111
112
115
121
140
124
125
169
224
230
187
167
163
160
154
148
149
155
161
164
154
141
137
145
148
143
144
152
145
154
154
135
132
144
143
144
104
120
142
120
110
111
124
96
93
80
85
81
116
98
85
100
84
91
76
81
82
47
72
101
122
79
86
126
150
144
142
129
119
121
132
142
137
120
115
120
131
142
149
151
164
187
203
206
207
204
205
211
215
215
217
220
217
218
217
214
212
208
203
199
204
206
207
208
208
208
210
211
205
197
199
197
203
194
195
195
184
181
183
190
194
192
192
195
180
183
192
204
208
202
194
190
196
199
200
195
187
182
183
186
185
186
187
186
184
182
181
179
178
191
181
179
184
192
175
191
191
184
191
184
182
184
188
178
172
184
179
184
171
186
180
181
178
176
171
184
187
174
163
187
169
171
175
162
184
167
187
174
184
166
175
179
188
168
164
191
172
181
179
174
175
178
176
163
171
192
176
181
179
181
181
183
181
187
185
177
181
185
185
183
192
188
186
189
195
199
200
200
192
197
198
192
189
194
198
198
202
202
204
208
210
211
208
206
215
213
211
209
207
202
196
191
203
189
181
180
181
180
170
156
150
152
163
174
170
158
159
170
156
141
126
125
131
132
129
129
125
122
129
133
160
191
203
155
139
116
110
114
110
112
119
117
121
123
125
127
128
129
131
132
136
137
138
140
142
144
146
147
147
147
148
149
150
150
149
148
148
148
147
147
147
146
143
142
142
141
139
139
138
136
134
132
129
119
120
120
121
121
121
121
120
120
119
119
120
120
119
118
118
119
119
117
114
117
122
128
104
113
149
204
242
214
169
168
155
151
147
149
156
161
158
152
130
142
148
146
151
161
154
137
132
144
150
141
145
152
135
122
124
153
122
108
120
133
102
99
101
104
117
110
108
86
100
81
100
67
66
94
101
59
62
92
116
113
95
112
122
135
152
155
157
155
146
135
136
147
157
160
173
179
185
186
188
193
199
202
203
207
215
218
212
205
207
214
207
209
209
209
210
209
203
195
204
206
209
210
211
211
211
211
203
199
199
188
190
183
185
183
192
186
181
178
173
166
163
164
183
175
171
174
179
184
191
199
184
184
186
191
194
193
187
181
185
188
190
188
182
179
181
185
168
180
177
186
177
183
187
189
194
185
182
191
180
181
183
182
177
181
183
181
178
176
176
177
179
171
168
181
182
175
158
190
167
159
176
167
183
161
179
180
178
171
168
177
184
151
166
187
164
184
165
182
171
173
172
157
179
191
174
182
183
186
183
179
182
187
182
178
182
188
185
184
192
184
184
193
198
196
196
201
208
202
190
185
192
200
194
181
188
189
191
196
202
205
206
206
212
211
211
210
208
203
197
193
188
181
179
177
174
174
174
169
173
172
165
152
145
144
137
128
143
137
135
136
132
127
124
123
122
123
129
127
154
189
197
140
115
111
104
102
108
112
114
117
120
121
124
125
126
127
128
130
134
135
136
138
141
143
144
145
146
145
146
147
147
148
146
146
146
145
145
145
144
144
142
141
138
137
137
136
135
133
131
129
127
118
119
120
120
120
120
120
119
118
118
118
119
119
118
118
118
117
116
117
119
112
102
95
111
125
145
174
220
212
168
147
148
148
147
147
149
149
145
140
141
141
149
159
157
144
133
131
163
145
145
150
142
128
123
140
152
129
138
129
117
118
101
130
98
102
99
102
102
81
105
96
66
87
88
58
84
109
98
83
117
128
108
126
131
131
135
143
143
143
141
140
142
149
158
165
169
165
167
181
198
203
199
192
203
209
210
203
204
212
217
215
209
206
204
203
207
211
211
209
205
206
208
211
214
214
212
211
191
191
194
188
195
195
204
203
187
191
195
194
190
190
195
201
193
193
194
193
188
182
183
188
198
192
186
184
187
189
188
185
173
179
187
190
186
181
182
186
172
169
181
183
176
168
190
179
194
190
178
191
180
180
182
187
177
178
185
178
179
171
175
175
180
166
166
175
171
177
159
192
175
154
171
168
180
161
168
171
180
167
166
179
167
144
178
175
169
178
157
192
173
167
163
166
189
182
170
179
185
189
182
170
184
186
179
180
183
188
182
183
189
185
187
196
199
196
196
202
203
197
195
199
201
198
194
193
192
193
193
191
190
194
203
211
203
205
208
210
211
210
206
204
194
191
193
193
189
190
194
192
176
166
157
151
150
147
138
130
130
131
132
129
130
140
144
134
123
129
129
121
140
187
205
157
104
110
103
98
107
109
108
114
117
119
121
123
124
125
126
127
132
133
135
137
139
141
142
143
144
143
143
144
144
145
143
144
143
141
142
142
142
140
139
138
135
134
134
133
132
130
128
126
126
117
117
118
119
119
119
118
118
117
117
117
118
118
118
117
123
118
113
112
113
112
108
104
107
95
105
151
217
206
167
164
158
154
145
136
134
141
149
154
147
143
148
155
148
136
141
156
176
159
152
135
123
133
142
146
134
115
124
128
125
121
148
110
99
121
112
102
111
109
110
93
98
66
86
85
68
75
99
92
102
131
141
133
127
132
137
143
152
146
150
165
174
171
167
168
180
190
200
202
197
196
203
213
208
209
206
204
210
217
213
201
210
205
200
199
201
206
212
217
216
215
214
216
217
215
210
206
213
202
197
186
184
170
168
165
168
178
186
187
188
193
198
199
206
206
206
203
199
195
196
199
201
199
195
186
178
177
181
186
168
173
182
189
187
181
179
180
184
166
180
176
174
171
179
174
184
191
181
186
186
181
184
183
175
182
185
178
174
174
175
173
178
162
169
175
165
179
157
184
180
156
173
171
176
167
165
167
173
165
167
177
167
160
181
170
177
169
163
186
171
168
158
178
183
165
173
177
179
179
178
170
182
181
172
180
183
187
179
182
182
188
192
194
195
196
199
201
204
202
202
207
208
203
198
195
190
195
201
203
202
200
200
200
196
197
200
203
206
206
205
204
201
194
191
193
192
192
187
179
175
154
139
137
136
133
140
153
149
143
139
132
130
142
147
136
129
134
128
125
135
183
199
158
114
107
104
104
104
105
107
109
113
115
118
120
121
123
125
126
129
130
133
135
136
138
139
139
142
141
139
139
140
141
140
141
139
139
138
137
137
137
136
134
133
132
131
130
129
128
125
124
124
114
115
116
116
116
116
116
117
117
116
116
117
118
117
116
113
116
119
118
114
108
103
103
101
88
108
165
233
207
162
162
147
143
141
147
158
163
156
146
147
158
161
150
140
146
163
177
164
137
137
139
136
143
141
134
138
127
125
129
130
134
101
104
123
114
121
112
85
93
105
92
101
99
95
78
79
79
99
113
93
97
137
140
148
148
142
146
154
153
145
137
145
164
174
174
186
190
194
195
198
203
204
203
207
203
201
203
204
204
208
214
208
207
209
213
214
214
218
223
219
215
212
210
208
204
195
188
165
152
153
158
169
159
161
164
158
163
167
169
180
196
202
199
198
199
200
203
205
200
188
177
174
181
189
190
185
178
174
174
178
176
176
179
179
177
178
180
188
164
171
174
170
189
170
181
171
188
187
182
194
182
185
174
174
188
187
180
169
179
176
171
176
160
174
180
163
181
153
172
178
160
179
176
173
173
168
173
159
168
170
171
181
182
174
174
180
164
175
173
164
173
158
183
172
154
181
180
171
168
177
179
177
175
166
179
182
187
177
183
175
189
195
190
189
197
202
199
188
205
213
199
181
177
178
178
192
189
188
193
201
207
207
204
205
205
206
206
207
206
206
205
204
197
194
192
185
179
170
160
153
154
155
155
155
149
134
120
127
126
136
141
127
121
125
124
126
132
129
139
144
180
177
130
119
96
97
106
98
100
109
107
110
112
115
118
120
122
124
126
126
129
131
134
135
136
136
136
140
139
137
137
138
139
139
139
138
137
135
135
136
135
133
131
132
131
129
128
128
126
124
122
123
114
114
114
115
115
114
114
115
115
115
115
115
115
115
116
117
118
117
116
112
107
102
100
91
111
158
187
219
215
185
153
147
143
141
148
156
150
140
140
154
156
144
130
141
166
167
149
129
142
157
147
146
151
144
150
140
129
131
144
138
116
109
121
123
104
115
121
100
99
106
91
93
117
113
96
101
96
93
121
125
122
125
139
153
161
164
165
154
156
162
170
177
183
189
195
180
183
187
192
199
206
206
204
204
206
210
214
215
211
205
200
197
204
211
215
220
223
215
203
205
205
201
192
184
180
173
165
170
177
179
173
170
176
180
180
190
177
171
177
183
181
178
177
195
188
184
186
188
188
188
189
177
154
148
168
186
187
186
191
176
167
173
180
173
171
177
177
174
175
163
165
166
155
157
170
174
165
177
182
203
176
195
170
168
177
184
179
170
176
164
176
166
167
165
177
152
169
174
174
177
157
167
160
183
166
176
161
151
175
178
165
178
169
188
158
177
158
170
174
167
167
167
178
168
158
181
164
182
175
172
181
175
187
165
184
184
176
183
178
178
176
177
184
193
197
192
184
205
201
191
183
186
197
199
194
176
176
183
192
192
186
187
193
190
191
192
196
203
211
214
213
202
196
193
196
196
188
178
173
155
147
134
124
127
140
151
155
150
146
140
143
144
126
113
119
128
121
139
137
170
172
127
110
104
89
84
95
103
101
102
107
109
111
113
115
117
119
122
124
126
127
129
131
133
134
136
136
134
134
134
135
137
137
137
136
136
134
134
133
132
131
130
129
129
127
126
125
125
124
123
122
121
112
113
113
114
114
115
115
114
114
114
115
115
115
115
116
116
116
116
116
113
109
106
105
103
135
149
177
228
218
175
158
139
147
154
154
149
142
145
156
151
152
149
148
158
164
149
127
152
167
150
155
161
153
155
134
117
131
144
143
134
129
131
134
121
114
107
114
124
121
112
110
106
123
107
116
132
106
100
127
151
145
141
142
146
152
159
166
178
175
177
186
194
194
188
183
185
191
197
199
200
203
206
207
208
207
206
207
208
207
206
205
206
210
213
211
205
201
202
206
199
199
198
197
196
195
191
186
193
185
183
189
194
191
187
186
184
182
178
176
179
185
193
198
203
196
190
188
187
185
184
185
203
192
181
178
181
182
177
171
185
184
177
171
176
180
176
171
167
171
176
164
165
135
161
172
157
161
176
183
187
171
190
179
173
186
186
175
168
177
163
171
165
169
164
173
152
170
174
167
175
160
182
161
165
173
171
168
159
174
175
158
167
176
175
165
178
161
171
175
169
169
169
178
159
154
176
165
174
168
166
181
168
178
167
186
187
182
181
175
166
170
179
188
189
187
191
198
206
199
195
200
209
211
200
187
189
192
186
176
177
186
188
183
186
187
189
192
198
203
205
203
206
200
196
196
198
198
198
197
202
191
176
168
169
166
149
131
145
143
139
139
137
128
120
120
114
127
127
132
193
176
109
101
105
99
93
93
94
96
99
102
107
109
111
114
116
118
121
122
125
126
127
129
131
132
134
134
132
132
132
133
135
135
134
133
132
131
131
130
129
128
127
126
125
124
122
121
122
122
121
120
119
111
111
111
112
113
114
115
113
113
114
114
115
115
114
115
117
117
114
113
110
106
103
102
126
104
104
170
224
205
161
151
140
140
141
143
146
148
149
150
147
149
151
151
150
149
149
149
162
162
157
149
151
151
139
134
147
148
143
137
142
146
130
107
114
120
109
101
114
120
117
119
125
123
135
116
115
146
138
116
132
134
139
142
144
148
156
164
165
165
168
172
173
173
173
175
187
192
198
200
201
204
206
207
209
207
205
204
206
208
211
212
212
202
199
209
219
217
211
207
205
201
199
200
200
196
191
188
193
189
190
195
193
185
180
182
178
188
194
193
193
196
194
189
191
189
187
187
185
182
181
181
179
184
187
186
186
185
179
171
172
193
176
158
175
179
169
180
169
172
168
170
156
130
158
168
160
159
164
175
180
183
189
174
177
192
184
170
168
178
162
165
165
169
161
169
154
169
172
160
178
156
179
159
162
191
176
166
159
172
176
160
168
184
157
163
176
162
170
175
169
170
172
177
155
157
173
168
166
165
160
177
174
177
176
188
186
186
175
172
169
178
187
189
186
185
190
196
202
202
205
206
201
193
190
193
211
205
197
190
183
179
178
180
193
194
194
196
199
203
203
200
208
205
199
194
194
197
200
200
202
206
205
197
185
172
157
145
128
134
144
146
143
144
147
145
128
124
139
164
186
152
107
83
93
98
98
91
90
96
101
102
105
106
109
111
114
116
119
121
123
124
126
127
129
130
129
129
129
129
130
131
132
132
130
130
128
127
127
126
125
124
124
123
120
119
119
118
118
118
117
117
116
110
110
109
110
111
112
113
112
113
114
115
115
115
115
116
117
116
114
111
109
105
103
101
106
114
144
189
218
219
168
146
136
139
143
142
138
140
146
148
144
147
150
149
145
146
158
172
164
153
158
150
151
154
139
152
153
155
153
147
137
129
122
118
130
104
98
108
103
98
111
127
126
131
138
147
121
119
153
140
133
141
152
157
156
154
155
158
156
158
163
166
166
167
173
180
182
186
190
196
202
206
206
202
203
203
204
206
208
211
213
213
210
208
210
214
212
203
198
198
200
195
191
191
187
180
177
178
184
191
193
189
187
189
188
184
183
185
186
186
189
194
191
185
187
190
195
198
197
194
191
191
184
178
174
173
172
174
182
191
197
170
171
173
157
169
179
155
168
171
152
180
146
135
152
167
170
158
161
166
179
192
188
166
177
189
175
169
172
177
160
163
165
167
157
170
159
162
167
160
176
159
171
164
169
177
179
160
156
174
175
161
175
181
152
165
173
163
168
173
167
169
173
173
156
166
171
168
162
171
160
167
180
177
182
185
178
186
173
176
179
187
188
184
186
194
192
183
186
194
200
192
178
171
180
193
177
179
186
195
196
193
200
210
199
199
199
198
200
203
204
202
205
207
205
197
193
194
193
190
188
186
181
179
181
182
175
166
151
147
146
137
120
120
129
131
126
131
142
171
181
123
89
86
79
89
95
93
92
97
101
100
103
104
107
110
112
114
117
119
122
121
124
125
126
126
126
126
127
126
127
128
128
128
126
126
125
124
124
123
122
121
121
120
117
116
115
114
115
115
114
114
115
110
109
108
108
109
110
110
111
112
114
115
116
116
115
116
115
114
112
112
112
110
109
109
115
136
146
145
190
226
172
165
153
137
132
140
150
157
152
136
149
152
155
158
161
162
159
154
158
155
140
159
167
149
154
153
152
155
156
149
132
119
123
135
129
110
101
102
101
107
113
110
135
131
143
144
153
145
127
160
153
157
162
163
163
163
164
165
171
169
171
178
184
183
179
176
179
186
193
198
201
203
202
200
200
201
203
205
207
208
210
210
217
216
214
210
204
200
196
194
196
193
193
193
191
187
189
194
200
197
188
182
184
187
181
169
171
172
176
182
187
188
185
183
182
186
190
191
189
186
185
184
182
184
188
191
189
183
180
181
179
176
174
174
166
152
155
172
156
152
148
162
148
126
142
144
163
156
177
166
173
180
183
173
178
181
167
173
177
174
158
160
164
164
155
174
166
153
162
165
160
169
174
173
164
125
170
161
154
176
163
154
177
168
161
174
170
165
168
171
166
169
175
169
156
171
166
162
159
179
166
158
174
169
181
182
173
187
180
187
181
181
181
184
191
195
191
185
198
203
204
202
203
207
207
202
192
195
186
171
169
182
192
192
191
192
191
190
193
197
200
200
201
207
208
204
200
200
199
195
195
191
180
167
160
159
155
151
158
147
147
149
138
129
125
117
119
121
148
184
168
107
97
93
80
83
88
92
93
92
95
98
102
104
107
109
111
114
115
118
119
120
121
122
123
124
123
123
125
125
124
125
124
124
123
123
122
122
121
120
119
118
118
117
116
115
113
112
112
112
112
111
114
109
108
107
107
107
107
108
110
111
113
115
116
116
115
115
115
114
112
111
110
108
106
106
97
94
110
123
180
229
181
149
137
133
143
151
145
147
156
158
157
161
162
159
159
161
158
152
150
153
155
166
166
149
147
156
162
153
141
135
137
140
133
122
109
119
109
97
102
103
100
105
140
161
141
139
157
164
165
148
158
160
161
163
167
171
172
171
174
173
174
176
177
176
176
178
184
195
204
204
199
197
198
201
207
207
206
205
205
207
209
211
213
210
206
207
212
213
205
196
202
202
203
202
200
199
201
205
200
190
183
183
181
175
172
174
173
180
190
196
193
186
182
183
185
187
187
185
183
184
186
186
192
196
193
185
184
190
193
189
168
167
174
177
160
139
142
159
167
149
159
136
166
135
144
113
155
151
184
168
170
176
179
180
179
175
162
178
178
170
158
155
162
163
154
178
172
148
161
171
147
171
172
168
157
105
162
162
147
173
152
156
181
160
166
171
169
169
168
171
166
169
177
166
153
169
161
156
160
183
172
157
173
170
184
188
176
191
186
189
183
177
182
195
196
188
188
198
199
199
197
196
205
215
208
194
175
180
184
188
194
194
181
165
187
188
188
188
190
196
200
200
200
204
205
203
200
200
201
202
196
202
200
184
166
157
157
157
142
130
130
144
150
141
125
110
118
119
169
188
129
80
98
84
83
79
80
86
90
89
93
99
101
103
105
108
109
112
113
115
117
117
118
119
120
121
120
120
123
122
122
122
121
121
119
119
119
119
118
117
116
115
115
114
113
111
109
108
108
109
109
109
112
107
107
106
106
106
106
106
108
109
111
113
114
114
114
114
116
115
113
109
107
103
100
99
90
103
127
127
152
210
222
177
150
132
137
151
152
155
160
155
154
157
156
151
148
150
158
163
151
157
179
165
154
154
142
163
145
143
137
134
139
145
140
130
119
103
99
112
105
86
102
144
158
148
164
159
146
157
168
176
176
177
176
174
174
175
172
167
172
174
176
175
171
172
181
192
192
199
203
202
199
199
200
201
210
210
210
208
208
209
212
215
203
207
211
209
198
189
189
195
201
202
201
199
198
197
194
190
178
179
185
190
189
186
191
201
195
197
195
189
186
190
195
198
206
208
208
206
205
207
208
207
191
197
198
193
188
185
180
173
184
182
160
155
174
158
122
112
163
167
165
133
150
165
152
121
148
140
172
165
163
178
168
173
175
168
158
176
171
167
162
148
160
164
154
178
176
149
165
173
145
166
174
157
161
140
158
157
151
173
146
165
180
163
159
160
168
170
167
170
165
168
178
162
155
168
162
159
165
179
176
166
180
177
184
190
177
189
187
181
178
182
191
199
195
188
192
202
204
204
204
203
206
208
206
200
200
187
176
177
181
185
189
193
194
196
197
196
197
200
201
201
201
200
200
199
197
195
197
200
197
196
194
195
199
201
192
180
181
170
153
143
143
141
135
132
127
157
165
135
105
72
74
80
81
77
77
83
87
88
93
99
100
101
104
106
106
108
110
112
113
114
115
117
117
117
118
118
120
119
118
118
118
117
116
115
115
115
114
113
112
111
111
110
107
105
104
103
104
106
107
108
108
105
106
106
106
106
106
106
106
107
110
112
113
113
112
112
114
113
112
110
108
104
101
101
107
124
129
142
166
175
204
194
172
150
151
162
156
152
156
153
144
142
144
151
156
154
151
150
146
165
157
148
143
142
151
146
146
140
137
140
142
139
131
125
127
106
107
103
89
117
160
167
166
153
146
162
171
164
166
172
185
183
178
173
173
176
177
175
175
173
174
179
184
186
188
190
198
195
192
194
202
207
205
200
206
208
210
211
211
211
213
214
220
206
198
199
196
189
192
202
199
200
200
200
204
206
200
190
183
187
188
187
189
193
189
182
181
186
184
181
189
204
207
198
204
208
210
208
207
206
202
197
200
192
188
189
183
174
176
187
176
172
176
172
163
166
150
109
113
166
145
131
89
169
139
144
136
130
160
162
149
172
153
165
168
162
154
171
163
166
166
144
158
166
155
176
178
153
169
172
147
167
190
156
164
177
151
151
168
179
143
166
171
166
153
159
166
170
166
168
163
166
177
159
160
171
168
166
171
175
178
175
183
177
176
184
172
184
186
175
167
185
196
191
189
196
201
198
201
201
205
212
215
210
204
201
197
200
189
171
166
179
192
194
202
205
205
203
201
200
198
196
201
199
199
201
199
195
196
201
200
203
201
194
188
183
174
165
159
172
168
154
152
153
156
165
173
174
154
105
94
103
106
82
80
80
82
85
87
88
90
92
99
100
102
104
104
106
108
110
111
112
113
114
115
116
116
116
118
117
116
116
116
115
113
113
112
112
111
110
109
108
108
107
102
101
99
100
101
104
106
106
105
106
106
107
106
107
107
107
106
106
108
109
111
113
114
115
116
114
112
109
108
106
103
100
97
103
99
99
87
90
148
208
206
176
154
151
152
141
130
138
139
135
145
158
159
140
144
132
166
152
148
147
150
154
134
138
145
148
138
148
130
125
115
118
118
128
122
100
128
170
168
167
170
156
143
145
162
178
180
174
177
181
185
184
178
174
175
177
178
178
182
186
186
182
182
183
184
185
191
201
207
208
209
211
209
212
213
208
204
211
214
208
209
201
195
194
192
188
190
196
198
195
191
190
189
186
181
176
183
182
188
191
188
185
179
170
177
187
194
195
196
201
205
205
208
208
210
197
200
198
207
207
193
191
175
178
177
170
175
170
154
166
173
169
176
177
166
170
87
89
128
109
73
132
113
138
112
144
156
162
146
165
151
160
184
154
169
160
165
148
149
151
159
159
147
174
177
154
150
188
149
155
187
163
152
181
152
150
175
160
142
170
166
157
158
159
165
177
169
168
165
178
171
168
164
162
165
163
168
184
181
176
188
184
173
188
174
180
188
161
169
191
187
195
197
187
196
198
199
205
204
200
202
206
208
213
216
199
188
190
191
184
177
176
184
181
179
183
186
187
187
189
199
204
206
202
200
199
195
189
192
193
191
187
184
181
176
171
165
162
161
160
159
157
159
165
164
131
117
111
87
72
80
88
75
78
82
84
86
88
89
90
96
98
100
101
102
104
106
107
109
110
110
111
112
113
114
114
114
114
114
113
113
111
110
109
109
108
107
106
106
105
103
102
100
100
99
99
100
101
101
103
103
106
106
107
106
107
107
107
107
107
109
110
111
112
113
113
113
111
108
106
104
101
98
95
92
83
88
75
85
117
134
170
189
191
173
152
116
107
138
137
123
141
157
130
140
131
119
158
141
141
143
144
139
140
144
137
141
135
149
124
137
131
127
115
95
109
126
157
185
184
173
169
162
161
158
155
157
164
174
182
175
182
190
193
189
183
179
177
178
176
176
178
180
183
188
194
196
203
207
204
200
202
205
207
208
205
207
208
208
211
214
210
196
196
198
200
196
195
204
217
202
196
188
182
179
176
174
171
186
187
192
190
182
183
191
196
201
208
210
206
203
205
206
205
212
213
219
214
217
210
210
205
206
206
204
195
190
188
178
170
173
170
142
147
172
178
175
162
148
82
134
93
76
79
84
117
93
137
149
128
140
163
167
164
166
163
177
156
157
157
155
146
156
155
150
170
174
158
150
187
155
150
181
165
158
182
161
159
164
157
141
172
157
157
158
158
163
170
176
160
172
170
178
173
159
165
170
152
164
183
180
178
180
176
169
185
174
177
181
160
170
192
192
177
181
191
178
201
199
202
200
199
206
211
215
220
205
202
199
197
194
188
183
180
174
172
173
178
181
180
178
177
181
191
199
200
196
195
198
201
187
187
186
182
178
174
168
162
158
169
165
157
167
175
157
132
106
106
95
91
98
88
75
79
81
81
82
83
85
88
92
95
96
97
99
101
102
103
105
107
108
109
109
110
111
111
112
113
112
112
111
111
110
108
107
106
104
103
102
102
101
101
99
98
96
96
96
96
95
96
99
99
100
106
105
106
106
107
107
107
108
108
109
110
110
111
111
112
111
110
107
104
103
99
96
92
92
89
83
97
80
77
129
148
163
184
196
187
161
140
136
132
134
149
124
110
124
122
141
133
138
143
139
130
130
119
139
129
138
142
121
127
123
122
129
120
123
146
156
178
186
180
184
172
161
156
155
161
168
172
177
182
187
187
187
186
185
186
190
193
177
177
180
185
188
190
194
198
200
208
208
200
197
203
207
205
205
199
202
210
210
208
206
202
198
198
200
198
191
185
187
193
191
187
181
179
180
183
186
187
175
168
164
160
155
163
184
200
189
195
199
199
201
207
213
214
213
208
211
207
216
213
220
220
211
209
216
199
189
191
180
185
174
167
137
134
155
170
170
146
129
98
125
132
99
88
100
100
109
140
124
126
141
173
165
159
156
162
167
151
150
153
152
154
156
154
159
169
173
165
153
187
171
151
173
170
161
178
161
161
152
156
149
181
155
157
155
148
158
164
175
156
169
161
175
175
158
160
176
151
168
180
172
170
172
173
173
188
179
181
176
159
166
164
179
189
182
194
192
197
198
199
198
201
208
208
206
208
220
224
221
211
201
196
193
190
181
180
182
189
194
195
195
196
186
186
189
196
200
200
198
197
196
196
195
191
187
182
176
170
162
165
153
144
157
165
156
147
91
87
91
90
79
74
80
79
81
81
82
83
85
88
93
96
95
97
99
100
101
102
104
106
105
106
107
108
109
109
110
110
108
108
108
107
106
105
103
102
101
100
99
98
98
97
96
95
94
94
94
95
94
95
97
98
98
106
105
106
106
107
107
107
107
107
109
110
110
111
111
111
111
109
106
105
102
99
94
92
87
87
84
72
96
135
119
83
122
137
121
154
207
188
158
165
153
137
138
118
118
131
137
126
142
127
118
145
147
144
150
158
158
149
166
154
160
163
154
160
173
180
169
158
157
174
188
173
169
154
147
157
172
179
181
182
183
185
187
188
187
185
183
181
181
184
189
193
195
195
195
196
202
202
200
198
204
212
212
206
204
201
205
209
205
200
194
188
185
184
186
194
200
199
193
188
176
174
173
172
173
175
177
178
187
182
188
198
198
193
191
187
195
199
202
203
205
211
215
216
214
211
216
214
217
205
204
201
202
192
194
194
197
199
192
197
173
164
157
133
117
141
159
150
146
147
119
136
75
96
97
98
139
132
117
146
156
163
155
151
142
156
155
146
147
152
148
153
155
152
165
165
169
169
156
184
178
155
161
177
159
176
157
160
157
160
159
179
159
154
157
143
156
165
168
161
160
159
166
175
167
149
172
152
168
178
174
164
159
168
174
178
172
180
164
147
172
154
184
185
186
199
186
180
196
196
193
195
201
199
197
201
211
215
217
213
208
205
203
200
204
200
195
194
193
192
191
193
196
188
186
193
200
198
193
189
191
192
192
190
188
188
184
180
182
182
170
161
161
144
121
114
116
78
67
79
78
81
84
72
77
79
82
85
87
89
90
91
95
96
98
99
100
101
103
104
104
105
106
106
107
107
108
108
106
106
106
105
104
102
100
99
98
97
95
94
94
94
93
92
92
92
93
93
93
94
96
96
95
105
105
106
106
107
107
107
107
107
109
110
110
111
111
110
107
106
105
102
100
98
94
92
85
91
104
115
110
62
41
93
103
81
82
128
122
121
185
194
184
172
181
178
178
159
150
159
172
172
173
155
161
190
177
139
172
177
135
153
142
171
187
194
174
156
154
157
169
183
179
175
174
164
158
161
164
167
174
184
184
184
183
182
180
177
175
173
189
190
190
189
190
192
196
197
208
205
204
208
213
214
211
208
210
210
210
203
193
192
188
178
189
184
181
182
186
183
170
158
159
162
166
172
178
185
191
194
193
186
189
199
204
206
207
203
210
212
213
213
214
215
215
215
224
223
228
222
223
212
212
209
206
198
182
189
198
194
182
160
152
146
147
143
103
98
135
129
127
111
119
126
105
129
82
112
130
105
132
132
151
132
158
141
129
156
154
141
148
161
155
140
151
149
164
158
163
166
157
179
169
156
149
181
157
181
159
167
165
159
162
167
165
149
165
151
158
166
167
166
161
158
161
173
177
146
167
149
158
180
188
155
160
175
179
168
166
183
160
146
160
162
191
153
183
195
165
184
191
191
187
188
195
200
206
215
211
210
213
218
219
211
202
196
205
201
197
195
192
190
189
191
188
186
186
190
190
187
188
192
185
186
185
184
185
188
188
186
185
181
161
144
145
140
119
102
110
87
57
57
75
78
73
80
76
79
82
85
87
89
90
91
94
95
97
98
99
100
102
103
104
104
105
105
106
106
106
106
105
105
106
105
102
99
97
96
93
92
90
89
89
89
89
88
88
89
90
90
90
91
93
93
94
105
105
106
106
107
107
107
106
107
108
110
110
110
110
110
106
105
104
102
101
98
95
93
88
94
81
78
56
53
99
114
76
85
112
79
69
135
137
80
86
95
119
157
157
126
153
159
161
166
116
124
146
118
52
127
141
102
115
110
143
133
137
147
153
147
164
172
180
185
172
181
169
169
173
177
178
175
175
178
187
184
179
175
175
179
185
189
187
190
192
192
193
196
198
197
207
208
212
216
213
208
209
213
215
213
207
195
186
190
190
181
168
172
175
177
182
188
189
186
197
197
195
193
190
189
190
192
184
189
202
212
211
211
210
206
210
211
212
214
216
217
216
215
210
207
209
199
204
202
209
207
205
213
194
183
177
171
172
149
146
141
118
142
116
81
119
114
129
108
99
103
106
128
81
113
103
91
120
101
115
133
154
123
148
152
144
139
151
154
158
148
151
149
162
155
161
162
163
178
160
164
149
179
156
181
163
172
154
149
159
166
181
152
167
156
160
160
167
164
169
156
158
165
174
156
171
155
155
182
189
136
169
182
184
162
165
188
158
152
149
162
170
170
178
155
176
184
181
188
189
192
200
207
212
217
227
219
214
217
219
214
206
201
195
196
198
203
204
203
203
205
192
186
183
184
187
188
188
188
195
194
192
188
187
188
186
184
179
174
171
168
158
140
120
106
113
124
129
119
103
91
79
70
80
81
82
83
84
88
92
95
93
94
96
97
98
99
101
102
103
103
103
104
105
105
104
104
104
103
104
102
99
97
94
93
91
90
88
87
87
87
87
87
87
88
89
90
90
91
92
92
93
105
105
106
106
107
108
108
107
108
109
110
110
109
109
108
106
105
104
102
100
98
94
92
86
68
88
72
70
113
94
40
46
77
79
68
120
105
23
49
53
77
130
107
81
87
102
119
93
55
104
83
80
27
83
93
53
66
93
146
166
140
116
98
147
169
181
177
180
184
179
182
170
169
172
181
189
191
186
180
179
181
185
187
188
188
190
191
186
191
195
196
198
202
202
201
205
209
212
211
207
206
210
214
208
200
194
191
190
195
195
186
181
190
194
192
192
197
200
198
182
186
191
193
194
195
198
201
210
211
211
203
194
200
210
211
219
217
215
215
216
216
215
214
213
214
218
209
213
206
200
184
178
186
184
173
160
159
172
181
157
158
119
114
119
97
107
127
109
110
85
100
93
115
91
103
97
94
100
90
100
153
140
125
168
144
134
141
154
138
154
154
151
150
158
155
161
159
171
181
155
174
157
168
158
174
166
171
145
145
155
171
191
153
160
162
163
162
161
169
169
159
150
155
164
163
163
160
160
174
181
145
158
168
174
156
163
181
141
143
166
164
164
190
149
132
181
162
176
185
186
186
194
202
203
200
202
201
201
203
210
216
216
214
204
203
205
207
205
201
199
199
203
194
184
181
187
193
189
182
193
193
191
188
187
186
183
179
185
172
176
180
164
152
155
154
146
132
127
105
72
72
83
69
80
80
81
82
84
87
91
94
93
94
95
96
97
98
100
101
101
101
103
103
103
102
102
102
102
101
100
98
96
93
90
90
90
88
86
85
86
86
86
86
86
87
88
90
90
90
92
92
92
105
105
106
106
107
108
108
108
108
109
110
110
109
107
105
104
103
101
99
97
94
90
88
84
88
68
72
87
65
51
60
73
69
29
71
89
50
58
44
46
117
98
32
44
65
71
58
19
66
105
105
3
36
86
68
32
66
89
100
119
163
167
157
147
169
165
175
194
194
189
178
180
174
168
167
176
188
194
195
191
189
185
181
179
181
187
191
193
194
193
190
193
201
207
210
210
213
210
203
203
210
212
208
195
184
182
192
199
201
197
188
189
194
193
183
173
167
158
147
154
163
177
188
194
197
200
202
195
200
204
201
201
213
222
218
210
207
206
209
213
217
219
220
213
210
207
194
202
202
196
178
158
141
149
153
147
139
137
162
123
148
139
93
116
117
68
105
117
101
117
115
103
108
89
110
104
95
106
95
121
152
134
151
160
141
140
143
155
136
152
137
149
149
153
152
159
155
175
182
149
176
163
157
159
168
170
171
153
153
150
168
184
149
156
173
168
171
155
182
165
169
141
150
160
161
143
153
161
162
180
183
149
156
169
160
170
180
130
136
169
159
180
154
109
170
172
164
178
181
173
165
174
190
195
193
176
191
203
207
212
218
215
207
208
207
206
206
204
201
201
203
199
198
192
184
182
186
189
188
182
185
187
189
191
193
191
188
184
180
187
181
162
158
143
107
105
116
116
101
79
60
65
83
74
77
81
83
85
87
88
89
92
94
95
96
97
98
99
100
100
100
101
101
101
101
100
100
99
99
97
95
93
90
87
87
87
85
83
82
82
83
83
83
83
84
86
87
87
88
89
89
91
105
105
106
107
107
108
108
108
108
108
109
109
108
106
104
103
102
101
100
97
93
88
85
82
80
76
70
65
64
67
70
48
45
58
78
73
49
41
54
82
58
20
30
50
55
62
46
29
66
55
78
101
34
18
50
105
115
96
102
125
118
161
187
182
181
181
185
193
198
191
183
174
180
186
188
187
187
189
192
191
189
187
186
186
187
189
190
188
195
199
200
206
215
217
212
209
211
202
201
214
213
193
178
181
191
202
203
194
185
185
189
181
176
178
185
186
181
180
184
197
199
207
215
218
212
205
202
198
208
217
220
216
212
208
205
208
205
217
221
214
201
194
204
205
215
215
196
193
174
171
176
189
171
163
174
155
172
163
100
156
133
116
127
86
121
106
70
109
125
139
106
109
99
105
102
111
104
110
124
120
127
111
140
131
147
143
153
149
145
139
144
146
147
160
153
159
161
176
177
153
171
169
164
166
171
158
177
169
156
152
164
199
155
148
168
163
176
142
185
155
162
156
141
154
154
149
156
167
159
157
178
152
153
169
149
161
175
146
160
165
172
152
109
145
151
134
167
177
154
170
178
147
173
174
158
178
193
188
194
194
211
207
213
205
206
204
201
198
195
191
188
198
196
190
183
179
180
184
187
183
180
175
173
175
179
184
187
187
185
181
178
177
175
169
163
127
99
81
90
114
89
70
73
76
76
78
82
86
87
88
90
94
94
93
94
95
97
97
97
99
99
98
99
100
100
99
99
98
96
93
91
90
89
89
88
86
84
82
81
81
81
81
81
79
81
84
86
86
87
88
89
89
106
106
107
107
108
108
109
109
109
109
109
110
108
106
104
103
102
101
99
97
93
89
86
84
80
75
70
67
64
62
61
55
65
69
57
38
33
46
62
35
40
36
55
61
47
46
34
25
20
51
51
73
132
67
51
64
89
113
130
145
169
149
147
190
196
200
196
190
187
187
188
178
175
174
180
189
194
191
187
187
185
184
183
184
184
185
185
203
202
207
216
215
205
200
202
200
206
213
213
200
181
180
195
200
201
197
190
190
192
182
166
166
181
191
186
181
187
195
198
194
192
193
197
199
201
205
211
216
213
211
211
209
206
208
214
223
221
216
196
190
199
201
204
205
170
174
171
154
146
154
130
119
159
153
166
176
147
143
136
121
153
66
80
132
75
95
42
83
109
141
106
100
109
122
98
106
137
105
125
123
113
110
147
148
133
136
146
146
148
139
148
162
156
147
156
149
169
169
175
158
170
171
165
168
172
159
165
163
160
159
161
195
161
145
162
167
176
152
181
166
160
162
148
153
160
153
153
159
158
161
168
173
144
176
142
154
147
142
154
170
171
119
119
142
110
173
175
158
161
143
111
181
182
145
177
174
172
177
182
206
191
194
207
204
205
208
214
218
215
204
194
196
192
185
179
178
178
178
177
174
174
175
178
180
183
184
185
181
186
189
186
180
174
169
165
164
121
77
55
77
96
101
85
77
77
78
81
83
84
88
92
89
91
94
97
99
100
99
98
99
98
98
98
99
99
98
97
96
95
92
90
89
87
87
86
85
83
81
80
80
80
79
79
78
80
83
85
85
85
87
87
89
107
108
108
109
110
110
110
110
110
110
110
110
108
106
104
103
102
100
98
96
93
89
87
84
80
75
72
70
66
59
55
64
59
45
33
38
51
51
41
36
41
35
41
37
31
49
57
38
39
21
32
63
84
142
93
55
75
75
116
149
163
170
191
173
182
190
194
192
191
186
183
181
180
180
182
186
188
189
188
189
186
183
183
187
193
198
202
204
216
214
197
195
210
214
203
206
204
201
194
188
192
200
202
197
184
181
191
194
180
168
165
179
177
178
179
179
181
190
201
194
196
201
206
210
213
218
223
212
205
204
209
210
205
204
208
207
198
200
203
212
215
200
193
198
183
186
189
189
169
173
182
167
182
157
143
152
136
150
129
66
81
132
70
93
76
69
66
90
77
132
116
109
129
119
109
123
123
144
133
120
111
134
148
144
122
141
140
145
150
139
147
165
154
148
166
157
177
167
177
161
167
177
171
169
168
159
157
156
165
169
160
192
173
146
161
162
169
158
168
169
154
163
152
148
164
157
153
152
155
163
151
165
154
159
136
147
145
116
171
162
138
119
145
144
125
178
164
151
141
85
138
164
113
162
166
175
183
192
179
151
170
203
213
204
197
192
192
197
203
206
206
197
192
185
180
181
182
178
172
176
175
174
174
176
180
184
187
186
184
182
181
181
177
167
156
152
173
141
69
60
69
77
77
70
74
81
87
89
87
86
88
89
90
93
96
97
97
96
96
99
99
98
98
99
99
97
96
95
93
91
89
88
87
85
84
83
81
80
79
79
78
77
76
77
79
82
83
83
83
85
85
88
109
110
110
111
111
112
112
112
111
111
110
110
108
106
105
103
102
99
97
95
93
90
88
84
80
77
74
73
70
63
59
51
46
41
42
46
46
43
40
43
51
51
60
57
47
49
46
59
42
30
19
6
26
67
131
83
77
64
78
112
131
166
151
182
183
185
187
190
192
191
189
185
187
188
188
187
186
188
190
189
188
188
191
197
204
209
212
205
203
205
209
207
201
198
199
199
195
196
197
199
207
203
182
180
195
200
188
179
182
182
176
192
179
173
179
182
180
184
194
190
194
202
209
212
211
208
207
209
199
191
192
197
201
205
210
196
196
208
212
212
207
197
199
189
179
182
166
159
168
175
146
119
114
156
136
117
133
121
102
118
63
112
109
84
76
87
69
98
72
99
117
117
132
113
114
112
142
149
139
120
134
124
153
121
128
153
140
149
148
140
144
162
148
158
166
166
169
166
180
164
160
178
179
171
162
160
161
151
165
171
159
188
182
147
165
159
168
164
161
162
152
160
150
146
164
160
157
151
153
163
144
145
154
140
133
136
146
99
175
155
113
124
152
129
159
160
154
118
86
111
169
150
155
150
164
179
156
148
132
167
165
190
201
204
202
200
196
193
193
199
206
196
192
184
178
178
181
178
172
179
177
174
172
172
176
180
184
186
182
179
179
184
185
178
169
155
134
139
128
90
49
57
69
81
82
86
91
91
88
86
86
90
91
92
93
94
95
97
98
100
99
99
100
100
99
98
96
95
93
91
89
88
87
85
83
81
80
79
78
78
77
75
73
77
79
81
82
82
82
84
85
87
111
111
112
112
113
112
112
112
112
111
110
110
108
106
105
102
101
99
97
94
92
89
88
83
81
78
75
73
70
68
66
54
51
51
51
45
38
41
51
57
53
47
53
60
67
74
75
72
84
92
96
85
73
73
115
163
127
150
121
85
101
136
144
160
173
186
193
194
194
194
193
186
184
184
187
192
194
192
188
186
188
193
199
205
207
203
201
207
194
190
196
200
199
204
216
198
195
205
209
192
180
185
191
206
195
190
191
180
167
176
199
186
192
194
189
189
195
198
197
213
213
214
215
216
215
211
207
208
207
205
204
209
214
211
205
206
205
202
188
189
197
182
166
168
167
183
181
146
81
67
86
101
116
76
98
107
105
139
135
123
95
113
88
59
79
70
84
62
89
77
98
100
114
116
117
110
148
146
126
135
116
145
131
120
145
152
141
156
142
140
150
170
146
156
158
159
161
160
177
173
154
167
182
175
167
163
168
150
163
166
161
182
183
147
166
162
172
172
164
155
159
159
151
153
162
160
158
152
152
161
151
148
141
140
127
119
128
107
147
130
114
117
151
131
150
146
136
114
109
155
143
111
113
156
157
115
118
133
164
136
167
191
204
197
197
198
197
193
189
190
194
193
191
183
172
169
171
172
170
169
171
173
174
175
176
177
178
186
191
194
187
178
172
170
170
163
124
93
97
121
99
88
100
103
95
87
84
83
84
86
89
87
89
92
94
95
97
99
101
101
100
101
101
101
101
99
97
95
93
92
90
89
87
85
83
80
79
78
77
77
76
74
73
77
79
81
82
82
82
85
86
87
112
112
113
113
114
113
113
112
112
110
110
109
108
106
106
102
101
99
97
94
92
89
86
83
81
78
74
72
70
67
66
63
56
48
45
49
53
51
47
52
50
47
47
46
46
46
45
50
54
85
98
119
103
101
88
127
117
123
139
136
138
125
142
152
163
177
190
198
200
195
189
185
187
188
189
190
189
189
188
192
192
194
198
204
207
205
204
182
191
201
204
209
211
205
196
207
204
202
196
186
187
200
209
202
199
188
179
182
192
192
185
194
189
185
187
193
200
203
203
201
202
203
203
204
205
203
199
198
208
215
216
217
216
202
186
204
192
187
182
188
191
170
154
149
142
100
85
141
141
106
93
118
130
122
102
87
89
73
95
80
77
65
76
91
57
35
74
33
74
89
81
85
104
99
139
131
145
134
145
116
136
149
126
144
152
139
142
159
140
141
163
170
145
151
162
161
172
156
171
183
154
153
180
180
181
167
170
154
167
164
167
178
184
152
164
160
161
168
168
150
163
161
158
158
158
157
152
149
149
152
158
152
150
131
120
110
124
109
131
112
111
123
139
137
129
131
129
113
97
113
94
55
139
138
86
88
117
130
125
147
168
181
184
191
188
191
200
207
205
201
199
195
194
184
169
162
165
169
169
162
164
166
168
170
174
179
183
190
196
200
197
190
183
177
173
159
172
192
172
153
151
144
98
90
85
80
78
79
81
84
87
84
88
92
95
95
94
94
94
101
101
101
102
103
102
100
98
95
94
93
91
90
87
85
83
80
79
78
77
76
76
75
73
77
79
80
82
81
83
86
87
87
112
112
113
114
114
114
114
112
111
110
109
109
108
106
106
101
101
100
98
95
92
88
85
83
80
76
74
74
72
68
65
56
58
57
53
52
54
55
53
51
53
57
59
62
69
74
81
68
64
53
83
79
100
117
124
124
173
162
156
162
172
170
177
198
192
185
185
191
198
198
194
190
193
196
194
189
186
188
193
196
195
195
198
203
206
207
205
207
202
203
207
202
191
190
197
200
203
199
195
206
216
208
196
202
186
181
195
203
194
184
183
187
169
162
175
189
191
193
199
187
193
197
197
196
197
198
197
199
200
197
192
192
194
194
190
199
189
192
192
183
170
163
175
137
111
90
70
80
107
144
152
153
144
146
125
103
101
67
32
30
46
52
54
73
48
33
34
34
49
86
76
98
88
83
134
139
141
130
127
142
148
137
145
154
141
136
147
150
147
147
169
167
143
162
166
172
176
159
170
184
163
151
180
177
190
168
171
155
171
164
174
177
189
164
161
167
149
167
174
152
159
159
162
156
154
160
151
151
150
139
156
146
149
117
111
114
123
117
125
112
111
123
111
118
127
125
128
82
48
98
121
169
131
123
127
134
115
85
77
72
112
152
183
164
164
173
189
199
195
185
178
191
190
180
164
157
162
166
166
164
163
162
161
162
168
177
184
187
190
196
203
211
215
209
203
193
173
150
130
137
122
91
53
62
67
74
80
82
81
82
85
86
88
91
91
91
92
95
98
100
100
101
102
103
102
99
97
95
93
93
91
89
87
84
82
81
79
78
77
76
76
76
75
76
78
79
81
81
83
86
88
87
112
113
113
114
114
114
114
112
110
109
109
108
108
106
106
102
101
100
99
96
91
87
84
81
78
73
74
77
77
71
65
68
62
58
59
60
58
57
59
57
57
61
58
58
62
58
61
75
78
89
82
88
87
97
116
96
112
182
180
170
188
200
200
194
200
205
204
200
197
195
194
200
194
190
191
197
201
199
195
189
192
199
206
208
203
192
184
187
205
212
198
193
202
204
196
202
203
200
202
207
197
188
194
189
187
186
186
182
173
164
161
146
155
165
173
181
188
190
188
195
201
201
194
188
190
196
200
205
202
199
197
197
198
203
209
199
185
179
176
179
171
139
117
102
112
134
155
185
173
142
112
93
67
55
35
19
9
19
4
13
5
4
14
33
26
32
29
34
54
53
71
117
58
94
89
134
128
99
145
137
142
154
141
144
125
144
154
139
157
154
166
174
146
179
157
173
159
162
172
179
172
159
183
171
190
167
174
150
171
162
176
174
191
172
157
188
153
177
185
161
154
155
160
153
155
169
156
159
157
132
151
148
117
121
102
121
105
143
106
89
115
112
111
114
138
127
97
59
97
71
98
95
98
109
114
122
166
192
169
171
164
173
176
178
172
170
172
172
171
174
180
179
178
168
153
148
155
160
158
163
164
165
164
164
165
170
173
187
192
197
199
199
201
201
199
204
184
179
155
124
101
109
105
57
65
75
81
80
79
83
89
87
87
87
88
91
99
110
117
98
99
100
101
102
102
98
97
94
93
92
91
89
86
83
80
81
80
78
76
76
77
77
77
75
77
78
80
81
83
86
88
88
113
114
114
114
114
115
115
113
112
111
111
111
111
108
108
106
104
102
99
96
92
89
85
80
79
77
77
76
74
71
69
65
65
64
64
64
64
63
63
62
65
58
58
71
67
63
74
65
71
91
94
84
101
125
119
144
152
158
162
176
192
197
190
201
200
200
200
199
198
196
195
200
201
202
203
203
202
200
199
202
200
203
207
200
189
189
197
210
207
195
187
192
193
195
202
208
205
201
192
188
200
203
190
188
177
184
193
177
149
136
139
177
177
180
166
169
189
189
190
194
200
199
199
205
208
204
202
205
199
196
195
199
206
201
185
185
180
183
178
156
152
123
124
148
154
154
129
90
48
68
42
17
3
3
1
14
30
20
15
15
30
14
7
5
0
30
21
46
50
44
73
56
68
105
96
126
108
140
114
126
132
155
143
137
156
155
140
158
146
149
172
165
154
175
164
183
166
160
177
182
184
176
178
185
179
175
175
145
177
182
172
172
189
192
157
184
172
180
175
169
166
172
157
147
152
171
157
155
157
156
140
158
117
120
102
126
125
133
97
101
108
102
117
138
105
112
79
57
53
78
141
149
120
117
102
114
135
138
140
149
137
173
175
166
159
153
160
181
179
162
168
174
171
164
151
142
150
160
161
163
159
160
168
170
167
168
175
182
190
199
203
204
204
202
199
183
190
199
189
148
110
111
136
141
109
87
73
78
79
72
83
86
78
81
102
129
138
122
103
99
100
101
102
102
101
99
99
94
93
91
89
87
85
83
82
81
79
77
75
75
76
76
76
77
77
77
78
81
84
86
87
85
113
113
113
114
114
114
114
113
112
111
111
111
111
109
108
108
106
103
101
98
95
92
89
82
81
79
78
79
77
76
74
72
72
71
68
68
67
66
66
75
95
101
89
74
63
63
74
90
89
93
126
153
136
129
160
111
135
160
173
183
194
200
198
201
200
200
199
197
195
193
192
188
190
193
194
194
192
189
187
194
198
202
200
193
193
203
214
216
199
198
197
185
198
216
212
195
196
182
182
201
201
199
216
208
196
178
154
137
147
174
193
174
164
167
173
194
209
188
170
183
186
189
193
194
186
182
188
186
177
188
205
198
179
177
189
177
178
146
99
106
96
109
133
137
140
134
78
47
47
9
0
8
45
77
93
90
82
70
57
58
59
69
60
46
8
1
8
43
34
51
56
56
114
122
81
94
136
136
113
125
135
169
147
141
148
154
162
163
157
154
164
161
165
158
157
170
180
177
177
182
180
188
176
180
178
182
171
162
173
183
168
174
180
187
167
187
178
184
182
178
168
172
154
142
141
153
143
149
152
151
141
160
134
127
120
113
115
117
108
103
106
97
107
127
87
96
81
62
78
57
44
32
6
3
1
2
3
17
27
68
107
133
175
161
146
138
152
176
177
163
163
168
157
169
162
128
136
165
162
158
157
162
170
173
171
172
176
178
185
191
195
198
201
203
203
202
184
162
155
164
166
146
120
125
100
79
72
64
71
88
92
86
108
130
132
115
96
88
91
98
100
101
102
102
101
99
97
94
92
91
89
87
85
83
82
80
78
76
75
75
75
75
75
77
76
77
79
82
85
86
87
86
113
113
113
113
113
114
114
113
112
112
112
112
112
110
109
107
105
103
100
98
95
92
90
85
84
82
81
81
81
80
80
79
78
76
74
73
72
73
73
75
79
79
82
97
114
113
101
62
65
54
66
101
113
125
159
176
192
204
202
197
198
201
202
201
201
201
200
199
197
195
194
196
194
191
188
188
190
193
195
200
200
197
194
199
209
214
214
201
205
193
197
221
217
195
191
198
191
204
215
212
219
214
186
166
137
126
149
181
196
185
165
167
169
181
182
180
176
167
168
174
177
176
174
171
165
165
175
180
196
201
189
184
193
183
156
130
103
118
92
108
108
117
139
129
82
34
5
1
1
14
42
91
122
132
134
111
84
87
81
88
104
126
114
108
80
36
1
22
40
45
35
67
99
74
77
125
117
91
117
141
139
150
138
152
142
147
169
155
160
163
167
154
172
160
169
180
189
191
175
186
172
200
181
175
180
190
171
180
169
186
169
177
175
180
178
189
183
180
181
177
165
174
155
143
133
126
111
122
134
140
146
150
133
123
133
129
126
114
107
128
120
114
108
104
102
95
12
0
11
2
2
1
22
52
38
19
2
3
15
7
76
158
155
114
111
123
154
181
187
179
174
161
164
169
160
140
138
158
174
168
165
160
157
157
162
170
176
177
184
191
195
199
203
205
206
191
190
179
168
172
177
160
134
93
92
100
86
99
114
93
110
144
127
104
92
90
96
101
104
98
99
101
102
102
101
98
97
94
92
91
89
86
84
83
81
78
77
76
75
75
75
74
73
76
76
77
80
83
85
86
86
86
114
114
114
114
114
114
114
114
113
113
113
113
113
112
111
107
106
103
101
98
95
92
90
87
85
83
82
83
84
85
85
83
82
81
80
80
80
81
81
70
79
84
76
66
77
97
107
121
93
90
77
64
114
150
110
129
142
159
172
184
193
195
195
200
200
200
200
200
199
198
197
204
201
196
193
192
195
199
202
198
196
194
197
206
213
212
206
203
203
210
210
198
196
201
199
199
209
204
198
203
196
168
145
144
155
180
196
185
165
156
156
181
174
174
176
175
170
168
174
179
184
179
172
171
171
172
175
192
187
179
169
164
161
139
109
117
138
122
79
64
88
124
92
32
0
1
17
41
40
118
131
131
148
155
153
123
83
69
64
91
86
116
137
117
103
97
20
3
19
35
46
63
64
72
83
100
68
96
126
132
145
141
145
153
145
151
164
153
160
170
175
156
171
179
182
194
180
192
180
192
165
198
193
176
183
190
182
188
169
189
176
177
179
173
184
180
179
176
179
177
161
171
156
143
144
138
124
132
139
136
143
143
131
128
132
143
127
120
108
109
114
101
111
100
61
21
0
36
61
102
138
135
121
101
52
74
49
2
1
36
51
79
74
81
102
135
169
187
188
183
167
154
159
156
152
149
142
148
167
161
165
166
162
160
161
161
159
177
185
194
200
203
205
205
203
210
212
210
201
187
174
165
159
130
90
77
114
124
117
131
125
96
88
81
84
93
99
95
90
98
99
101
102
102
101
98
97
94
92
91
89
86
84
82
81
78
77
76
76
76
75
73
72
75
76
78
81
84
86
86
86
87
115
115
115
115
115
115
115
115
114
114
114
115
114
113
112
111
109
106
104
101
98
95
92
89
87
85
84
85
87
88
89
87
87
85
86
84
86
86
87
98
74
75
96
96
76
66
72
89
111
105
90
102
119
133
153
109
118
134
155
174
188
194
195
198
198
198
198
198
197
195
195
193
194
196
197
197
195
192
190
184
189
197
203
203
200
202
207
208
207
211
207
194
196
209
215
201
205
206
209
207
185
166
166
165
183
195
182
163
166
180
186
184
173
166
171
174
170
168
168
178
175
170
171
175
170
166
169
155
156
171
180
162
137
128
131
117
52
22
30
69
56
22
29
0
11
70
109
124
89
132
143
150
156
157
129
100
86
76
79
88
98
48
6
56
114
123
77
1
15
33
30
48
51
66
67
87
61
101
108
116
137
128
144
141
153
165
162
166
161
167
171
168
174
185
179
180
176
188
189
196
164
184
202
181
186
182
195
188
172
187
181
169
186
169
187
174
177
181
184
184
166
169
158
151
160
157
141
139
146
141
150
146
148
143
131
122
106
121
124
112
112
101
104
56
48
75
128
135
138
115
78
38
2
6
29
36
67
64
3
90
96
58
46
62
96
130
159
175
186
192
173
162
149
159
167
152
150
160
158
157
163
164
161
160
163
166
164
175
183
192
198
201
203
203
202
194
195
196
192
175
153
139
136
125
148
170
142
137
128
73
60
72
82
92
97
95
94
100
106
98
99
101
102
102
101
98
97
94
92
91
88
85
83
82
80
77
77
76
76
76
75
72
71
74
75
77
81
84
86
86
85
87
116
116
116
116
116
115
115
114
114
113
114
114
114
113
112
111
109
107
104
102
99
95
93
91
89
87
87
87
89
90
90
90
90
90
91
90
90
88
88
86
104
104
88
94
117
119
102
87
105
128
139
134
129
144
167
185
186
190
194
196
197
199
203
200
200
200
199
197
195
193
192
187
188
190
190
190
188
186
185
191
192
196
201
202
198
199
203
200
207
196
195
213
210
196
200
197
195
210
209
179
168
174
167
185
179
174
169
165
167
170
167
169
175
172
172
166
161
172
178
169
155
147
156
161
152
151
165
165
160
156
154
151
136
94
48
25
41
60
68
64
6
16
1
39
110
132
157
146
70
100
127
140
150
154
115
100
110
91
74
66
19
11
3
45
116
129
105
17
16
38
17
39
37
38
55
76
117
139
137
142
130
121
148
137
157
166
154
168
159
161
167
173
181
178
182
167
188
188
189
196
173
171
198
191
190
175
202
187
177
184
181
164
187
170
189
189
183
186
182
186
175
172
170
160
162
155
142
132
142
143
156
141
151
140
136
109
103
124
132
89
77
90
80
40
92
122
93
63
36
8
2
1
9
22
29
31
21
77
64
120
68
86
96
116
142
146
153
163
173
183
167
165
164
170
174
167
160
162
167
165
165
159
151
150
159
170
175
175
181
188
192
197
202
205
207
213
206
193
177
167
164
165
167
181
156
132
121
90
73
91
95
79
82
85
91
97
98
93
89
98
99
101
102
102
101
98
97
94
92
90
88
85
83
81
79
77
76
75
75
75
73
71
70
73
74
76
80
83
85
85
85
87
116
116
116
115
115
115
115
113
112
112
112
113
113
112
111
109
107
105
103
102
99
96
94
93
91
89
90
91
92
92
92
94
93
94
95
95
94
94
94
91
91
103
127
133
107
94
113
116
125
133
148
170
179
172
163
177
180
187
197
200
200
199
200
201
201
201
199
197
195
193
191
191
188
185
182
182
183
185
187
201
198
196
198
204
209
206
200
204
193
199
198
183
190
205
200
213
223
199
166
160
158
157
171
185
162
156
174
185
181
173
166
174
178
168
169
175
180
187
177
149
149
149
154
157
153
156
168
157
162
167
159
137
111
82
57
50
43
57
42
49
66
60
1
16
141
155
156
146
81
123
129
151
160
142
94
65
56
29
3
5
2
25
10
48
118
138
130
51
1
38
52
41
34
77
72
69
107
71
75
108
131
128
140
144
152
150
146
158
160
161
169
174
183
173
194
176
185
191
189
194
193
170
183
202
197
175
200
187
179
187
186
173
186
175
188
198
181
186
177
188
185
171
174
161
152
153
160
149
150
141
147
140
137
132
139
123
108
125
116
95
75
53
29
74
87
57
31
19
0
8
13
2
16
34
30
38
19
46
38
121
59
94
100
139
166
160
163
172
175
190
187
159
172
165
162
172
161
150
164
160
163
164
162
160
161
164
166
174
180
187
191
196
202
206
207
205
202
201
206
213
207
185
163
146
114
92
78
97
113
96
103
96
94
89
88
91
96
100
103
98
99
100
102
102
100
98
97
94
92
90
88
85
82
81
79
76
75
73
73
72
71
69
68
72
73
75
78
82
84
85
85
87
116
115
115
115
115
114
114
111
111
110
111
111
111
110
109
109
108
106
105
104
102
99
97
95
94
92
93
93
94
94
94
92
94
96
98
100
100
100
99
100
101
94
98
107
100
100
124
141
136
128
119
125
156
182
184
193
182
175
178
184
188
192
196
198
198
198
197
196
194
192
191
186
185
183
182
181
181
182
182
189
198
202
199
202
211
213
208
205
202
190
184
192
198
202
210
200
177
163
163
161
166
175
177
156
168
185
188
178
176
186
192
184
190
177
172
172
168
162
137
114
144
161
159
160
164
162
157
160
164
162
149
137
129
109
81
84
81
48
57
59
65
50
19
4
91
167
163
158
80
98
114
146
167
154
122
82
50
38
18
11
17
10
16
82
135
148
128
61
12
23
56
65
41
101
81
38
35
17
90
113
112
95
131
148
144
137
151
156
167
165
171
179
180
170
198
188
163
194
196
193
210
175
170
211
202
179
196
187
179
193
193
187
186
178
185
188
170
186
181
198
194
163
161
169
144
141
158
148
147
138
146
154
133
139
137
136
95
120
98
73
63
59
26
94
66
43
57
53
29
7
5
22
30
29
37
37
14
55
27
124
81
86
106
124
158
158
165
167
154
165
172
171
164
163
166
165
164
160
152
165
165
165
163
161
162
168
174
170
178
187
193
197
201
202
201
206
201
200
203
201
194
188
188
167
158
145
117
87
73
67
66
81
83
88
89
91
92
93
95
98
99
100
101
101
100
98
97
94
92
90
88
84
82
80
78
75
73
72
71
70
69
68
67
72
73
74
78
81
84
85
85
86
114
114
115
114
113
111
109
109
109
109
109
109
109
109
109
109
109
108
107
105
103
101
100
97
96
95
95
96
97
95
95
96
98
97
94
95
100
99
94
92
92
85
79
86
103
119
126
108
96
117
142
146
141
126
117
143
167
192
206
212
214
209
201
202
200
199
198
197
194
189
186
189
181
177
180
181
180
185
195
199
194
195
202
208
206
202
201
193
178
177
194
197
184
184
196
185
178
165
151
157
181
180
153
158
183
188
170
161
166
169
166
184
173
163
161
164
163
155
148
167
169
166
160
159
164
166
164
155
149
133
138
143
141
146
136
128
93
87
60
77
50
47
54
10
20
115
161
128
74
103
128
133
152
165
150
115
83
56
36
15
22
68
93
107
164
149
103
65
16
30
39
58
57
89
60
64
102
101
101
125
103
114
146
127
146
155
153
164
172
168
183
184
172
180
194
189
167
186
183
187
211
193
171
195
212
173
193
175
201
195
195
182
189
175
188
202
165
188
188
193
182
194
152
169
168
157
150
141
145
133
142
136
134
131
143
109
103
105
67
56
69
38
59
131
71
64
63
44
39
31
26
27
31
39
44
41
34
40
16
130
72
99
135
175
168
163
167
175
174
172
177
176
170
167
166
161
160
164
165
163
155
145
146
157
162
165
171
178
181
186
190
193
197
202
205
204
202
202
202
194
182
173
171
163
134
134
114
72
67
74
80
73
74
85
97
99
97
96
95
101
98
97
98
100
101
99
97
93
90
88
86
83
82
80
78
75
75
73
71
69
68
68
69
69
71
74
78
80
83
86
87
85
113
113
113
113
112
110
108
108
108
108
108
108
108
108
108
108
108
108
107
106
105
103
102
98
98
97
97
97
98
98
97
95
95
98
101
100
100
99
100
89
88
89
88
80
71
76
89
114
146
164
156
160
163
164
187
198
202
204
205
204
204
205
206
206
204
201
200
198
195
190
187
189
190
189
185
181
183
191
200
200
199
199
200
199
197
199
202
190
183
181
188
191
187
188
192
189
173
154
164
181
160
140
155
180
179
171
162
166
179
185
183
171
172
173
174
177
178
171
163
153
154
153
151
154
159
159
153
148
147
154
162
152
164
176
141
106
108
88
110
112
91
43
36
43
2
43
109
138
93
65
132
125
146
164
162
147
121
88
64
62
86
103
115
145
169
121
84
87
29
37
19
55
68
60
78
76
71
113
137
134
136
148
123
151
148
146
149
169
172
173
181
161
188
184
182
182
178
183
191
163
201
211
190
199
208
184
200
184
198
194
184
176
194
185
193
201
183
193
190
194
188
194
175
166
172
156
144
150
143
126
150
139
129
108
96
118
103
75
41
56
48
18
103
143
69
38
41
34
35
36
33
27
25
37
55
39
58
16
28
130
63
106
181
167
178
176
164
166
177
181
179
184
173
166
161
155
154
156
155
157
160
158
154
151
147
153
165
169
176
185
193
197
198
199
199
204
204
205
205
201
195
191
190
158
117
99
95
104
129
122
99
114
108
114
121
110
95
92
97
98
98
99
100
100
98
94
90
93
91
88
86
83
81
79
77
75
75
73
71
69
68
68
68
69
71
75
78
80
83
85
87
86
112
112
112
112
111
109
108
107
107
107
107
107
107
107
107
106
107
108
108
107
106
104
103
100
100
99
100
102
102
102
101
101
99
100
103
101
95
97
104
110
104
104
112
118
121
131
145
148
163
182
180
180
195
196
192
180
185
197
211
216
212
207
207
205
203
200
199
198
196
193
191
177
180
183
189
197
202
194
184
190
191
194
202
210
209
195
181
188
192
193
190
192
197
194
188
174
150
154
165
148
144
168
184
184
175
174
181
186
187
182
173
159
166
169
167
162
158
151
144
159
159
158
160
166
172
167
159
165
164
172
175
164
172
169
126
101
113
158
148
122
105
68
55
56
46
5
27
110
100
41
75
123
137
142
146
154
145
118
102
109
121
123
151
179
161
106
91
81
26
48
55
55
69
74
67
76
75
103
104
113
104
93
106
141
115
141
163
158
156
187
172
159
187
181
186
187
195
188
189
175
195
213
194
199
209
198
197
186
189
198
185
185
206
191
188
202
199
192
185
194
192
191
188
173
176
170
150
152
142
129
137
128
130
86
61
93
108
100
42
44
52
48
137
135
61
31
32
50
43
34
29
32
37
40
41
47
49
2
73
128
68
122
180
165
171
157
140
148
168
172
166
182
164
157
156
145
137
148
165
167
166
160
154
152
152
159
170
172
176
183
188
193
196
200
202
203
206
207
206
205
206
206
205
188
196
217
211
189
166
146
135
115
104
88
74
77
95
101
89
92
99
109
117
118
112
102
96
94
91
88
85
82
80
78
76
75
74
72
70
68
67
67
67
70
72
75
78
80
82
85
87
88
112
111
112
112
111
109
108
107
107
107
107
107
107
107
107
106
107
108
109
108
107
106
105
104
103
103
105
106
106
106
105
107
103
102
101
99
97
102
108
101
114
125
126
123
130
140
149
185
161
165
173
181
202
212
209
223
217
209
203
200
201
206
211
204
201
198
196
195
194
191
189
188
192
191
184
177
178
187
195
182
196
205
202
194
192
195
197
184
193
197
193
192
194
186
173
165
170
164
162
173
177
171
167
168
164
169
172
164
159
158
155
162
165
167
167
164
161
161
163
171
169
164
161
160
158
149
140
143
154
157
163
174
176
169
162
159
184
138
128
121
134
101
76
51
33
44
8
22
79
56
30
71
108
131
140
149
145
141
150
145
147
159
169
139
103
94
93
65
12
43
65
44
75
93
60
29
92
124
77
86
88
83
140
107
145
160
139
159
162
177
163
171
181
188
189
178
196
203
188
196
189
206
196
200
206
206
194
193
182
202
191
197
214
192
186
208
199
192
182
196
193
191
183
179
166
179
160
143
140
138
112
113
127
122
116
97
83
60
67
55
60
78
122
129
62
31
28
26
38
41
33
34
42
46
41
46
18
13
115
91
71
148
167
178
169
154
148
156
163
165
168
178
176
177
173
159
150
149
148
159
160
154
150
152
152
154
160
170
173
178
182
186
191
197
201
199
204
205
203
203
207
208
206
213
200
188
158
124
86
86
105
88
94
118
144
142
126
116
114
120
116
108
100
94
93
93
96
93
90
87
84
81
79
77
74
74
73
71
69
67
66
66
66
70
72
74
77
80
82
85
86
87
112
111
111
112
111
110
109
107
107
107
107
107
107
107
107
107
107
108
109
108
107
107
106
107
107
107
109
110
109
108
107
105
107
105
102
102
106
108
107
102
90
88
98
92
79
82
97
71
90
118
146
175
184
188
217
203
213
220
219
217
216
212
207
207
203
199
195
193
191
188
185
183
174
169
176
183
181
175
173
200
201
200
197
198
200
196
189
196
200
202
198
193
187
177
168
177
177
168
165
173
174
165
161
159
167
174
170
159
157
161
163
172
166
166
172
173
169
172
180
162
163
164
166
170
173
173
171
165
177
176
167
168
168
167
178
152
137
159
154
123
132
107
105
65
67
65
46
19
13
63
38
25
61
93
120
147
152
146
151
148
143
146
128
92
88
99
69
42
14
43
30
48
101
66
60
94
80
119
121
128
142
136
124
134
152
161
146
165
157
166
165
172
182
199
181
168
182
206
203
191
180
207
212
205
195
204
201
211
186
199
192
198
211
194
199
209
188
199
189
200
188
199
179
191
165
178
169
153
144
142
119
130
128
115
88
96
87
29
74
72
62
83
106
131
63
11
31
24
34
42
44
43
42
35
26
13
19
76
121
68
89
157
166
168
167
165
165
160
151
153
167
176
180
167
139
131
152
161
146
146
159
168
166
160
150
144
147
155
161
171
179
184
187
189
191
195
200
202
200
201
204
205
202
189
169
157
159
179
166
162
161
168
163
143
111
96
106
110
100
87
91
96
100
101
99
96
95
92
89
86
83
80
78
75
73
72
71
71
69
66
65
65
66
70
72
74
77
80
82
85
86
86
112
111
111
111
111
110
109
107
107
107
107
107
107
107
107
106
107
107
108
107
108
108
108
109
109
110
111
111
112
111
110
105
109
110
105
104
105
102
95
86
104
101
79
80
109
120
107
118
138
169
184
192
191
181
184
190
204
210
208
206
209
208
202
204
201
198
196
196
195
193
192
183
177
173
170
164
164
181
201
191
204
214
210
199
193
195
200
210
206
202
198
190
180
173
171
155
159
182
190
172
170
175
163
164
175
174
166
168
170
169
171
177
169
166
172
172
166
164
167
165
165
163
160
157
155
155
155
164
157
161
152
148
169
173
161
149
176
173
126
144
149
166
136
109
117
93
44
58
24
16
40
66
70
70
80
108
127
133
138
140
132
121
97
88
84
67
34
31
47
52
25
62
104
69
63
105
97
85
93
139
134
114
118
133
102
140
158
150
148
172
169
174
175
190
188
199
181
186
214
196
183
201
217
206
191
200
206
215
195
197
198
200
207
193
207
199
177
205
200
200
181
204
186
203
176
169
170
167
141
125
137
83
115
99
69
75
60
66
70
91
77
70
92
126
90
10
20
37
26
20
27
30
23
16
14
27
63
100
76
84
133
156
162
177
179
174
168
167
164
165
171
165
175
183
174
156
151
153
151
152
164
170
171
170
163
154
153
152
157
164
171
177
183
188
192
192
196
199
200
201
203
204
203
196
197
192
176
181
162
160
146
147
117
101
110
118
114
106
97
98
97
95
95
95
95
95
96
90
87
84
81
79
77
74
71
70
70
70
68
66
65
65
66
69
71
74
77
80
82
85
87
85
111
110
109
110
110
109
109
106
106
106
106
106
106
106
106
105
105
106
106
108
109
109
110
110
110
111
113
114
114
112
111
109
110
111
108
103
100
97
96
100
105
126
147
142
129
141
171
189
171
174
167
158
179
192
188
189
196
203
206
210
213
213
210
203
201
199
199
200
200
199
197
201
196
193
192
191
189
189
191
210
202
194
193
196
200
202
204
201
196
191
187
181
173
170
171
177
186
173
166
182
184
174
180
166
169
151
140
155
162
158
166
177
176
176
178
180
181
178
174
164
164
162
161
160
158
159
160
176
164
170
168
172
187
179
163
184
148
152
165
148
152
133
134
114
115
86
63
65
49
47
18
21
41
63
70
66
56
49
47
43
49
66
52
47
35
31
44
55
68
50
32
67
108
109
68
113
108
85
74
90
121
158
124
101
108
126
114
142
173
165
168
176
169
182
202
215
195
179
205
213
196
191
208
205
196
198
208
204
203
199
207
204
208
191
208
193
174
200
204
201
184
201
194
198
178
167
171
162
136
115
135
116
112
72
78
75
50
98
82
95
94
50
54
88
93
26
5
12
16
17
13
8
15
36
57
87
93
84
52
103
150
168
169
172
169
159
155
164
169
166
162
180
177
183
182
156
130
131
144
149
153
152
153
160
163
160
158
160
161
163
166
171
178
187
194
191
192
195
199
200
201
203
206
198
206
208
191
195
183
197
184
166
159
149
136
124
119
115
105
90
92
95
99
102
101
95
92
88
85
82
80
78
75
72
70
68
68
68
67
65
64
65
66
68
70
73
77
80
83
85
87
85
110
108
108
109
109
108
108
105
105
105
105
105
105
105
105
104
104
104
105
107
109
111
112
110
110
111
113
115
115
113
111
112
110
110
110
106
102
105
114
124
120
122
138
158
170
165
155
141
156
172
173
177
182
186
208
207
205
208
214
216
213
209
207
209
206
203
201
200
199
196
193
185
192
196
192
189
194
202
208
205
199
196
198
199
195
193
194
195
193
191
190
186
181
179
180
172
161
168
182
178
169
169
169
162
172
160
160
182
177
158
164
173
179
179
172
172
178
176
166
175
173
171
172
171
170
170
170
161
170
181
183
192
181
161
180
174
158
158
158
173
175
160
132
109
95
103
97
80
75
58
51
29
22
19
21
23
27
28
22
28
23
44
23
22
37
50
64
63
48
46
34
94
149
113
50
122
144
101
81
73
42
95
134
154
118
110
110
151
181
153
168
169
176
196
199
183
202
196
191
212
204
190
207
206
202
199
211
197
210
198
207
202
207
193
211
196
179
191
205
206
193
198
199
197
182
184
190
161
153
139
137
119
126
118
110
102
104
86
92
62
96
59
32
21
20
22
31
24
38
41
29
33
59
83
88
94
75
86
103
126
136
176
166
161
164
167
173
180
175
168
167
176
175
175
169
162
158
148
132
133
146
153
151
151
151
155
162
159
162
166
169
172
175
179
182
191
189
191
196
198
197
200
206
209
205
206
198
202
174
177
154
119
108
108
116
116
113
116
121
127
118
106
97
93
94
93
95
87
84
81
79
77
75
72
69
67
67
68
66
65
64
65
66
67
70
74
76
80
83
86
88
86
108
107
107
106
106
106
106
105
105
104
104
104
104
104
103
105
104
105
107
109
111
113
114
126
125
123
119
115
112
110
109
116
113
108
105
108
116
118
115
101
113
92
78
88
84
111
112
122
134
151
171
195
212
210
197
215
215
215
215
213
210
207
205
205
203
201
201
200
198
194
191
191
187
183
184
191
196
198
197
194
195
198
201
199
195
196
199
189
187
182
175
171
174
183
191
177
174
171
170
170
169
166
164
168
176
181
178
173
173
177
180
179
175
163
164
179
182
173
172
161
161
169
173
168
166
173
177
176
181
175
170
175
172
170
177
167
155
169
183
171
140
127
146
147
149
121
130
92
96
81
83
89
85
65
56
78
73
61
40
63
66
81
97
88
80
100
54
57
74
67
79
81
83
84
101
105
143
114
133
164
62
39
98
119
127
114
128
156
159
163
164
160
179
195
177
187
182
205
194
205
213
183
200
221
189
184
206
204
204
198
196
205
202
199
205
200
198
182
204
200
185
184
201
194
194
194
179
156
147
175
162
108
118
100
80
105
82
97
110
93
98
43
41
47
39
51
74
61
62
52
65
71
84
75
60
84
99
105
112
133
151
160
172
173
169
168
169
170
176
179
174
176
165
151
143
146
150
148
143
127
124
142
153
150
147
148
160
155
163
167
165
165
171
175
175
180
184
190
195
198
197
193
191
202
194
187
186
187
184
177
171
145
155
147
107
98
89
101
108
127
123
113
101
92
91
91
90
87
84
81
77
74
72
69
67
67
67
68
67
67
67
66
66
70
71
76
78
80
81
83
84
83
107
106
105
104
104
104
104
104
103
103
103
104
104
103
103
104
104
105
106
108
110
112
113
107
114
122
129
132
128
123
119
105
105
105
105
105
104
98
91
116
136
131
154
148
139
142
146
142
135
137
148
152
156
181
211
209
210
212
213
213
211
209
208
207
205
203
202
200
199
197
195
193
190
187
186
188
190
192
192
200
200
201
203
201
199
201
205
204
197
193
201
211
209
191
174
167
169
167
161
161
169
174
172
175
175
175
176
177
180
184
187
187
184
177
173
174
173
171
174
180
179
174
162
153
160
173
176
164
164
154
151
162
168
170
177
168
173
180
167
151
147
151
165
160
148
128
125
138
115
113
121
88
62
96
72
97
88
78
53
93
98
115
66
74
114
79
53
66
37
71
75
60
75
106
99
103
145
104
64
149
172
59
39
76
100
122
146
144
140
150
166
156
187
208
171
191
200
187
201
200
194
205
191
220
223
172
211
201
205
202
208
203
195
195
202
214
202
189
211
191
177
180
192
190
200
200
176
166
169
179
158
149
106
80
79
76
88
122
135
123
70
65
67
46
64
65
67
71
42
58
58
80
78
98
63
73
89
96
103
132
167
178
171
163
170
176
175
175
183
186
177
162
190
205
188
161
147
144
142
147
143
150
148
141
143
144
150
162
163
167
173
176
178
179
180
188
186
185
187
191
194
194
193
191
195
198
194
183
167
154
148
155
134
115
120
125
119
113
120
102
103
104
101
97
95
92
88
87
84
80
77
74
72
70
68
67
67
68
68
68
68
66
66
70
72
76
78
79
81
83
84
83
105
104
103
102
102
102
102
102
101
101
102
103
104
104
103
104
104
106
107
108
109
111
111
115
114
111
110
113
119
126
130
137
128
117
108
101
98
99
102
120
118
98
117
130
141
123
85
129
145
163
172
178
186
190
188
213
213
214
215
214
212
210
209
209
208
207
207
206
205
205
205
203
202
201
199
198
199
201
202
198
197
197
197
197
197
200
204
200
201
202
201
196
185
171
162
154
168
175
171
171
176
175
167
174
172
174
179
180
179
182
187
186
184
186
186
178
172
171
170
168
172
178
176
169
169
170
165
178
179
175
177
186
185
177
175
173
172
173
166
174
186
173
159
160
144
154
160
182
136
129
118
89
92
118
106
120
120
109
124
124
71
99
104
120
123
67
101
68
94
108
61
75
100
92
95
115
131
140
104
90
148
151
108
85
126
125
131
149
135
112
162
174
169
193
196
204
208
186
192
194
198
193
210
204
202
225
200
205
210
202
219
203
196
196
196
201
200
192
203
185
202
202
185
209
205
202
186
187
168
147
138
173
134
119
125
95
116
130
135
146
73
37
55
57
77
100
103
120
94
116
111
96
82
104
122
144
145
151
156
156
159
164
163
166
161
171
183
177
165
166
172
189
195
193
180
168
161
155
148
156
151
153
144
138
146
147
147
152
148
151
162
171
172
174
178
184
180
176
179
186
194
197
198
200
200
196
186
173
161
154
151
137
126
145
138
141
101
94
80
83
86
88
88
88
90
90
88
86
84
80
77
74
72
71
70
68
68
69
69
69
69
68
68
70
72
76
79
79
81
82
83
83
103
102
101
101
101
101
101
101
100
100
101
103
104
104
104
106
106
107
108
109
110
111
112
114
114
112
110
110
110
111
112
113
116
125
134
134
125
118
117
92
81
85
88
81
80
143
187
164
166
179
200
215
220
223
226
215
215
216
216
215
213
211
209
210
210
209
209
206
204
203
202
192
192
192
192
192
194
195
196
197
197
198
198
199
200
203
206
206
201
195
189
186
182
178
175
171
174
173
166
164
170
174
172
179
182
190
196
192
183
182
187
182
175
179
186
180
178
177
170
169
165
170
176
176
177
179
179
176
175
173
173
178
180
182
184
187
166
159
165
178
181
164
157
148
169
174
163
169
169
163
135
152
144
123
133
145
140
124
113
97
143
124
124
145
115
96
136
90
115
134
113
77
82
88
120
136
143
137
149
98
133
154
146
107
122
134
144
141
144
125
146
183
185
175
175
169
193
202
181
173
211
195
186
210
206
204
224
210
214
198
218
200
203
202
189
197
209
201
199
187
207
197
177
193
207
208
178
191
186
149
129
163
164
147
130
118
145
134
142
145
100
46
66
82
76
101
111
120
150
118
131
131
117
140
141
144
141
157
170
159
150
158
167
163
155
166
187
187
177
184
198
186
178
175
175
165
149
143
147
146
142
147
143
142
153
153
152
154
151
152
159
167
171
176
180
178
176
177
181
189
195
198
199
207
202
195
191
191
190
184
178
174
158
135
115
73
64
66
73
85
87
88
86
85
87
88
86
86
83
78
76
74
73
72
71
69
69
70
70
70
70
69
69
71
73
77
79
79
80
81
82
83
102
101
100
100
99
99
99
99
99
100
101
103
105
105
105
108
108
108
109
110
111
112
113
109
113
117
120
119
115
110
107
111
105
101
102
106
113
125
137
141
131
132
132
142
141
141
113
123
167
199
195
191
204
212
207
210
211
213
215
215
214
213
212
210
210
209
207
202
197
192
189
190
189
188
189
191
192
191
189
187
189
192
194
195
197
198
198
182
183
183
183
183
186
190
193
188
181
174
172
173
176
180
185
187
188
194
201
198
186
180
181
178
169
173
179
175
174
177
174
174
170
169
170
174
184
187
181
175
178
181
180
176
177
183
187
180
168
175
179
168
151
149
171
170
168
141
157
168
134
116
152
167
128
138
144
148
143
169
135
137
112
150
139
147
143
86
131
131
113
119
133
99
104
129
140
137
142
128
127
85
164
116
148
161
141
136
138
144
172
163
154
198
203
186
197
192
185
189
215
193
171
209
208
188
211
214
209
205
213
200
210
191
205
204
190
201
208
199
199
199
192
178
193
203
192
195
194
210
183
153
163
165
173
151
120
135
161
143
143
142
119
99
91
92
90
97
105
108
123
127
139
154
129
131
158
155
155
164
167
163
169
176
171
180
181
184
181
179
187
193
189
182
176
174
173
159
138
133
141
152
146
153
152
152
158
157
158
161
165
165
165
167
172
174
173
180
182
185
187
190
193
196
199
204
204
205
205
205
197
178
161
131
91
90
86
113
100
116
107
75
80
85
89
92
94
93
90
85
83
79
77
75
74
72
71
70
70
70
70
70
70
70
70
72
74
77
79
79
80
81
82
82
100
99
99
98
98
98
98
98
98
98
100
102
104
104
104
107
107
108
108
109
111
112
112
114
114
114
113
113
114
115
117
112
108
104
101
100
99
101
105
127
123
131
157
149
146
147
165
177
162
163
187
207
209
207
210
214
215
216
217
216
215
213
211
211
209
208
206
204
200
195
191
187
185
183
183
184
183
179
176
179
183
188
190
193
194
192
190
171
175
179
177
173
174
181
189
185
178
175
181
184
183
185
189
194
188
187
192
196
190
182
177
169
169
177
184
178
169
169
170
161
170
174
170
173
187
184
164
166
171
181
181
171
166
168
167
162
157
167
172
169
162
159
172
163
137
151
173
160
161
179
158
138
137
181
176
152
141
132
135
129
141
162
145
147
123
112
153
121
148
154
136
124
107
138
168
121
121
169
159
115
154
128
155
194
178
150
129
149
176
181
184
169
180
201
196
187
208
190
191
210
200
196
212
204
200
217
200
199
212
212
209
191
205
204
204
205
201
190
184
212
202
189
207
202
206
208
191
199
192
180
171
170
167
164
145
152
158
159
153
147
144
111
94
113
115
115
107
146
130
125
154
157
155
138
155
156
152
156
160
160
163
173
180
170
169
169
169
172
184
194
193
191
182
168
160
159
160
156
150
151
144
147
142
135
137
135
137
151
159
163
163
165
170
169
164
177
180
184
186
188
191
197
201
201
205
206
201
195
188
179
170
173
160
152
171
183
193
175
159
135
133
127
117
110
104
97
93
84
83
79
77
76
74
72
71
70
70
70
70
70
70
70
70
72
74
77
79
79
80
81
82
82
98
97
97
96
96
96
96
96
96
96
98
100
102
102
102
105
105
105
106
107
108
108
109
108
111
114
115
114
112
110
109
106
108
110
109
107
105
100
95
92
97
89
88
92
119
132
149
164
177
189
192
197
207
215
217
219
220
220
219
217
214
211
210
210
207
203
203
204
203
199
195
196
196
196
196
194
192
189
187
191
196
201
204
205
206
203
199
207
196
185
182
186
190
188
184
188
181
174
171
172
176
183
190
192
190
189
190
191
190
186
183
172
173
177
184
184
173
166
170
170
171
171
166
165
176
181
175
177
171
173
173
167
171
180
179
165
153
151
155
169
179
170
164
161
166
153
154
168
156
157
168
153
171
158
139
135
143
115
160
181
149
164
154
140
129
160
145
134
134
154
141
127
117
138
155
168
163
156
154
164
145
159
174
160
157
172
161
152
159
196
191
190
160
182
192
183
204
201
198
206
210
198
198
212
206
199
215
200
207
220
212
204
210
202
217
210
199
200
182
214
203
197
202
196
192
200
205
205
193
198
189
159
156
162
161
156
154
174
174
143
118
100
115
145
135
128
110
120
183
130
158
143
148
182
158
163
155
152
158
158
148
150
166
181
170
169
176
175
173
179
185
179
181
179
173
171
170
165
158
161
161
167
155
146
150
149
147
144
148
152
158
166
171
173
171
174
176
180
185
189
194
198
201
199
204
204
199
197
204
211
214
212
210
207
175
171
136
112
81
94
93
87
80
76
79
80
82
84
82
81
79
77
75
72
70
70
70
70
70
69
69
70
70
72
74
76
78
79
80
82
82
82
97
96
95
94
94
94
94
95
94
95
97
99
100
101
101
102
102
103
103
105
106
106
107
111
112
114
114
113
112
112
112
107
109
108
104
103
105
102
97
86
86
92
90
113
121
137
156
166
178
188
194
204
216
217
209
215
216
217
217
217
215
212
211
210
203
196
194
195
194
190
185
188
192
195
196
193
191
191
192
201
206
210
211
213
214
210
205
200
201
199
192
185
183
190
197
193
197
197
191
187
186
185
183
172
181
187
183
176
173
175
178
188
179
167
170
181
178
173
181
186
172
172
179
173
166
174
187
187
178
179
181
175
175
173
162
170
175
190
194
194
186
164
153
165
166
174
177
140
151
165
145
144
177
166
148
162
141
141
167
159
143
156
159
158
140
169
95
119
140
152
121
105
154
158
156
154
183
140
160
152
166
177
173
165
170
158
152
194
182
191
186
179
184
176
175
180
188
196
190
181
175
198
210
198
202
214
213
203
200
219
212
216
216
197
218
196
180
210
199
212
180
193
215
185
196
210
209
203
201
213
178
156
168
168
178
177
166
166
155
132
31
96
139
136
150
148
153
136
150
136
135
176
161
150
166
152
152
144
147
166
172
161
155
166
167
172
174
173
180
186
184
196
182
172
174
176
168
157
149
151
161
173
160
151
162
161
155
146
140
139
149
161
166
170
174
177
180
184
190
196
198
198
196
204
210
212
208
205
205
202
196
169
150
132
130
142
127
113
112
96
95
95
92
89
89
89
86
83
82
81
80
77
75
72
69
70
70
70
70
69
69
70
70
71
73
75
78
79
80
82
83
82
97
95
94
93
93
92
91
92
93
94
95
96
97
97
97
97
97
98
99
100
103
105
106
109
111
113
112
111
112
113
113
108
109
111
110
106
100
95
92
108
129
138
167
181
164
164
170
178
180
190
200
204
204
210
219
217
216
214
213
212
211
210
209
204
202
199
195
192
187
183
180
184
185
187
189
191
195
200
204
205
204
204
204
205
205
203
202
197
196
194
194
194
188
176
165
177
174
178
189
196
195
195
197
192
195
195
194
193
183
172
169
172
185
187
176
176
185
182
169
166
188
177
167
192
190
166
173
174
183
172
170
183
172
159
173
168
181
189
186
172
154
156
173
154
181
178
149
156
172
148
124
176
164
167
176
159
160
144
167
145
115
141
179
109
156
121
91
145
150
153
110
113
174
155
156
171
160
168
165
152
187
185
170
166
179
186
179
173
185
195
191
186
195
204
190
189
187
201
204
203
212
190
202
208
202
200
216
196
214
208
216
211
218
215
217
212
182
233
212
182
206
214
210
198
203
202
202
206
203
194
189
189
180
172
175
185
188
174
156
151
131
153
159
129
152
137
160
152
146
155
131
145
166
157
146
160
142
150
160
158
165
173
176
154
161
170
170
167
174
180
175
182
178
173
173
178
180
172
161
158
158
155
144
131
122
122
125
150
166
166
156
159
165
168
172
178
183
190
196
199
198
197
196
200
204
206
206
206
205
202
198
196
191
194
205
157
151
139
130
129
139
131
110
93
86
85
87
84
83
80
78
75
74
73
71
68
68
69
69
68
68
69
69
70
71
74
76
79
81
82
83
81
96
94
93
93
92
91
90
91
91
92
93
94
95
96
96
97
97
98
99
100
103
105
106
108
111
113
112
110
112
113
112
115
112
107
105
107
115
125
133
154
142
134
136
138
131
136
164
199
198
201
209
215
217
218
219
222
220
219
217
215
212
209
206
204
202
199
196
193
191
188
187
170
172
176
179
184
192
202
209
202
202
203
205
205
203
197
193
185
182
181
187
193
196
194
191
189
188
191
195
194
190
192
197
200
200
198
199
200
191
182
182
169
177
186
186
176
168
172
181
170
159
188
187
172
182
171
156
171
180
185
184
184
188
188
186
194
184
172
172
178
173
163
161
169
162
161
164
169
164
160
180
164
162
163
137
145
181
157
148
148
131
177
142
97
144
108
168
143
162
149
124
165
159
145
189
162
183
183
173
194
182
171
166
166
178
193
196
194
197
196
185
193
193
196
188
195
196
207
209
210
203
213
202
190
216
207
210
204
208
214
218
215
222
210
220
218
217
217
192
206
220
207
191
209
198
198
209
207
192
187
193
184
185
186
188
191
188
175
162
161
162
165
161
154
143
141
153
148
155
152
138
136
156
145
132
124
147
158
137
149
169
160
176
184
187
171
169
185
173
158
169
176
177
186
191
175
149
141
149
157
160
158
149
134
123
118
118
115
132
144
151
162
171
172
171
181
181
180
180
182
188
196
202
200
203
204
203
203
203
201
199
194
173
123
83
91
108
109
100
117
106
85
73
77
84
88
92
83
82
80
78
77
74
72
71
69
69
69
68
68
67
67
68
69
71
74
77
79
81
82
82
81
95
94
92
92
91
90
89
90
90
90
90
91
93
94
95
97
97
98
100
101
103
105
106
108
111
112
111
110
112
113
112
109
107
105
105
108
116
125
131
110
122
136
126
141
177
183
192
179
187
196
206
216
223
226
225
219
219
219
219
218
215
211
208
207
205
201
198
196
194
193
192
189
190
190
188
186
188
192
196
205
205
205
206
206
203
197
192
192
186
182
185
186
184
181
180
190
191
194
195
191
188
193
202
201
196
190
192
195
190
187
192
190
186
180
179
185
188
180
167
177
176
169
173
173
175
189
186
163
159
172
175
159
164
174
165
161
171
176
176
172
163
157
160
150
147
150
148
152
156
147
145
168
152
145
116
188
149
130
157
155
183
169
72
146
130
178
141
139
155
146
147
174
162
169
173
151
181
170
166
193
168
164
172
188
183
181
179
178
183
187
184
193
192
196
194
195
186
187
187
207
204
201
205
194
199
208
207
213
203
217
214
213
222
206
220
218
227
205
200
224
210
204
198
225
211
208
206
195
190
193
192
194
189
181
176
177
181
182
181
175
174
156
143
142
120
133
180
128
142
145
152
137
150
148
160
163
128
140
156
142
147
169
179
178
172
169
172
173
170
171
177
174
178
178
168
151
139
140
148
153
162
172
175
169
162
158
157
160
160
164
168
171
176
177
172
178
183
189
193
194
194
196
198
197
200
203
203
203
203
201
198
189
191
176
165
177
156
118
97
86
83
80
86
95
91
82
83
82
82
81
79
78
75
73
71
69
69
68
69
67
66
66
66
69
71
74
77
80
81
81
81
81
95
94
92
92
91
90
90
90
89
89
89
90
92
94
95
97
97
99
101
102
104
105
106
108
111
113
112
111
113
113
112
113
114
114
113
108
104
101
98
102
103
113
116
128
144
152
165
179
197
213
217
218
221
223
222
218
218
217
217
216
214
211
208
206
203
199
196
193
191
189
187
194
196
199
202
204
204
203
203
202
199
196
195
195
194
191
189
183
182
187
197
203
201
200
201
200
198
196
193
187
182
183
187
192
183
174
175
180
178
179
188
174
181
184
181
181
188
192
191
172
171
171
155
177
178
145
173
189
172
181
190
174
168
178
179
172
178
177
173
170
162
151
146
148
145
165
175
159
143
150
176
161
168
131
165
160
124
146
138
162
151
163
150
147
178
147
129
156
160
155
176
165
183
191
147
168
173
165
181
175
176
183
191
201
191
188
190
188
186
187
186
190
186
191
201
208
203
198
196
198
215
196
203
210
197
204
216
216
205
215
204
206
214
209
212
216
215
210
218
219
198
214
207
217
204
206
207
198
201
207
199
178
173
169
173
184
194
198
197
177
183
170
132
104
110
109
170
155
134
161
154
165
131
132
147
150
151
144
160
150
123
136
152
168
167
172
172
168
181
193
189
183
183
176
165
158
162
170
175
160
167
175
177
174
170
170
171
172
162
164
171
174
185
196
195
192
193
195
196
196
196
197
197
197
200
202
201
197
193
187
180
164
151
133
133
112
109
101
105
109
101
87
81
83
84
84
90
83
81
81
80
78
75
72
70
68
67
66
66
66
66
65
65
68
70
74
77
80
81
81
80
81
95
94
93
93
92
92
91
90
90
89
90
91
92
94
95
97
98
99
101
102
104
107
107
109
112
114
114
113
114
115
114
114
114
113
112
111
112
115
116
124
126
128
145
155
161
181
189
197
214
226
225
221
223
223
221
222
220
218
215
212
210
206
204
201
199
196
193
191
188
186
184
180
181
184
192
200
204
204
201
205
203
200
198
196
194
192
190
200
200
203
208
206
199
194
193
185
183
184
190
197
201
201
201
194
188
181
182
185
181
179
185
188
185
185
184
169
155
161
179
181
176
164
169
166
159
170
168
178
171
173
182
183
176
176
183
179
183
176
161
152
149
153
162
171
158
150
137
135
146
147
144
160
161
167
152
130
146
131
152
152
153
163
171
180
162
124
166
166
175
167
177
173
177
171
164
187
172
183
197
181
191
189
192
190
181
183
192
191
187
189
191
189
178
173
189
203
208
204
203
188
202
211
191
202
212
198
213
211
210
214
200
205
207
216
199
219
215
219
214
212
212
221
199
218
196
202
219
210
197
194
191
201
195
187
185
186
187
185
184
181
170
176
165
127
99
86
133
162
132
115
149
126
137
73
86
126
132
138
147
156
154
152
161
178
186
169
160
177
181
171
174
175
164
167
182
180
154
129
121
146
150
152
152
149
150
154
158
170
164
170
180
181
188
198
198
200
199
200
202
205
205
202
200
205
208
211
211
211
211
209
205
210
193
164
149
128
126
111
100
88
84
75
75
87
97
94
91
82
82
80
79
77
74
71
69
66
65
64
64
65
66
65
64
66
68
72
76
79
80
80
80
81
95
93
93
93
93
92
92
91
91
91
91
92
93
95
96
97
98
100
102
103
105
107
107
109
112
115
115
114
115
115
114
111
109
108
108
111
118
128
133
142
159
164
180
189
198
219
208
207
214
217
217
221
227
228
223
222
219
216
214
212
209
207
205
204
202
199
197
196
195
194
193
192
189
186
188
193
196
196
194
208
209
210
208
204
200
196
194
188
190
191
191
190
190
192
193
200
196
194
197
201
201
195
189
182
184
182
182
182
175
166
166
188
175
164
166
172
173
170
167
170
153
185
184
164
173
168
171
161
173
172
171
183
184
173
169
179
172
161
161
170
172
165
161
148
139
139
139
144
150
150
159
152
176
145
118
164
123
145
173
160
163
147
174
150
152
179
150
159
175
181
164
173
163
170
191
184
175
190
181
192
188
180
186
199
186
183
189
189
191
202
212
201
202
203
211
207
206
204
212
194
191
207
205
202
202
208
207
206
211
219
202
210
207
222
193
216
219
216
205
222
217
210
212
225
211
209
212
204
197
194
188
192
191
188
186
183
184
192
201
202
177
172
172
145
74
69
68
163
133
127
120
130
139
107
97
74
77
110
111
139
165
148
180
181
177
168
168
173
165
159
165
170
172
177
175
156
141
150
170
141
151
165
174
178
178
179
180
177
174
176
177
173
171
172
171
186
188
193
201
207
210
208
205
196
198
198
197
199
204
206
208
202
197
190
183
212
192
176
169
156
159
154
146
138
123
100
85
83
82
80
78
76
73
69
67
64
63
62
63
65
65
64
63
64
66
70
74
77
79
80
80
81
93
92
92
92
93
93
92
90
91
91
92
93
94
95
95
97
98
100
103
104
105
107
107
108
112
115
115
114
115
115
114
118
117
114
111
110
111
115
117
127
119
130
158
168
173
193
205
221
223
222
221
223
225
224
219
217
216
215
213
212
210
207
206
204
201
197
195
194
195
197
197
204
202
199
199
200
203
205
206
197
200
203
201
196
192
191
191
187
189
186
178
174
179
185
187
188
189
190
193
196
197
194
190
189
196
197
194
193
187
179
177
186
189
183
171
169
175
173
163
169
166
160
156
147
145
155
156
155
168
168
165
174
179
169
159
143
151
155
155
150
139
135
142
148
159
156
141
156
173
152
129
157
154
134
130
144
143
163
162
144
133
185
162
157
178
141
165
167
177
182
168
174
176
189
186
183
189
188
175
193
189
189
196
191
181
182
192
193
192
196
201
195
207
214
221
205
202
200
210
212
206
206
225
223
197
218
215
210
204
225
202
211
209
223
200
208
219
207
201
227
211
203
224
213
218
214
203
201
211
216
211
193
193
195
194
187
181
183
188
193
202
194
169
167
139
133
88
142
150
134
129
120
131
124
111
55
43
132
164
127
148
169
157
174
167
177
183
171
166
174
174
189
180
171
170
172
166
149
132
141
152
167
177
179
174
169
165
174
178
179
181
188
192
193
196
185
183
181
181
183
190
198
204
206
206
203
199
197
198
198
198
202
191
183
160
164
134
133
137
149
136
113
92
82
72
69
73
84
82
79
76
74
71
68
66
65
63
61
62
64
64
63
61
64
66
68
72
75
78
80
80
81
91
91
90
92
91
92
91
90
89
91
92
94
93
95
94
97
98
100
103
104
105
107
107
106
111
113
113
114
115
115
113
110
111
111
112
115
121
127
132
123
127
156
167
180
209
218
219
213
219
224
225
223
220
220
220
218
217
216
214
211
207
202
199
196
192
186
182
182
184
187
189
193
195
196
194
192
191
192
194
190
193
196
193
189
188
191
196
185
188
182
168
161
167
173
173
177
182
186
186
184
183
183
183
184
193
193
186
185
185
182
181
183
183
183
181
176
172
172
176
171
160
167
166
166
171
159
151
148
148
153
159
164
170
171
166
157
148
139
139
145
146
149
160
163
160
158
155
158
147
137
158
165
130
139
136
163
144
149
157
114
160
176
148
182
161
156
178
181
182
157
172
182
186
174
159
184
201
185
189
185
193
200
198
200
190
191
202
205
205
208
209
221
219
210
216
210
213
202
200
212
214
220
207
222
211
200
217
217
197
227
197
208
211
222
212
204
223
204
191
218
213
213
207
215
220
220
217
214
208
207
214
217
204
191
184
183
186
191
199
198
194
194
186
176
146
98
82
121
153
130
152
129
126
119
96
81
28
74
188
183
140
165
169
165
178
173
167
177
176
164
164
158
155
163
170
160
144
146
163
161
165
169
170
167
165
165
166
164
174
176
180
192
195
190
191
194
197
199
195
188
183
183
185
190
194
198
202
205
209
210
209
198
201
208
189
162
178
200
187
148
126
104
106
118
118
113
113
84
82
77
75
73
70
66
65
65
63
61
62
63
64
62
59
63
65
67
70
74
77
79
81
81
91
89
90
89
90
88
89
88
90
89
91
90
91
90
91
95
97
101
103
105
106
107
109
110
111
112
114
115
115
115
115
116
111
111
113
110
103
103
110
128
150
172
207
221
217
223
221
222
223
224
223
220
217
217
217
215
215
214
213
211
207
203
200
198
196
194
192
192
191
190
190
189
190
192
196
200
200
197
194
199
199
199
197
192
185
178
174
173
178
181
178
175
172
166
161
169
169
170
170
169
169
172
177
175
173
174
177
179
178
177
177
177
173
173
175
172
167
172
181
178
167
178
177
170
168
160
167
180
174
155
175
170
161
155
152
140
145
150
160
172
168
154
145
144
148
148
152
145
146
137
135
126
133
135
131
164
144
144
155
121
198
162
155
161
174
177
173
182
169
169
178
185
174
170
197
193
191
191
193
193
189
188
189
181
188
196
204
209
211
206
200
200
208
211
207
208
214
214
208
208
211
210
210
211
223
206
215
225
206
226
199
208
215
215
216
199
211
216
183
215
211
203
215
208
216
211
222
213
205
221
206
201
211
205
193
193
192
188
192
197
198
201
188
183
168
125
103
163
161
132
147
128
137
123
80
93
109
99
128
195
190
170
162
173
179
160
161
169
166
151
168
164
176
171
167
156
144
149
143
141
134
155
173
164
168
172
156
150
152
159
170
174
173
176
182
178
182
184
184
187
191
189
183
185
186
189
193
197
201
204
206
204
196
187
181
168
147
126
115
106
117
98
97
109
115
94
94
83
80
75
75
75
73
68
65
63
62
61
61
61
62
62
62
61
63
66
70
73
76
80
82
81
91
89
89
89
89
88
87
89
89
89
90
91
92
92
93
96
98
101
104
105
106
108
109
109
110
111
112
112
112
112
112
114
109
105
103
106
112
120
126
163
191
199
200
203
214
222
207
219
220
222
222
221
220
219
219
218
215
210
207
205
204
204
204
200
199
197
196
195
195
194
193
188
188
189
189
190
192
195
197
188
188
187
186
184
183
181
180
168
171
172
170
169
169
168
166
168
166
166
171
176
178
179
179
170
169
169
171
172
173
177
181
184
183
181
176
170
168
170
174
175
166
163
171
172
168
164
155
159
170
171
175
170
170
170
165
159
163
160
156
154
151
151
157
162
167
168
152
143
115
141
146
114
144
119
153
141
152
156
141
157
154
159
181
160
174
180
180
172
181
184
175
186
205
201
194
194
198
200
196
192
193
195
195
200
202
198
192
192
196
196
191
193
202
211
213
212
211
212
213
196
211
223
221
206
219
215
209
217
215
229
204
195
211
218
217
193
211
207
195
215
199
200
205
202
205
207
210
211
214
215
205
196
205
204
199
200
193
180
176
183
189
202
197
188
172
143
136
173
159
141
149
117
125
141
114
107
136
164
155
156
160
168
163
167
165
157
167
171
174
163
168
155
162
159
166
167
157
150
133
129
140
132
136
165
172
162
165
161
156
154
158
162
165
171
178
185
184
182
180
181
185
187
187
190
192
195
197
196
193
189
187
178
180
169
149
141
144
135
118
95
104
94
77
81
81
77
78
74
75
74
75
73
70
65
61
63
61
60
60
61
62
61
61
60
63
66
68
71
74
77
79
80
92
90
89
89
89
88
87
88
88
89
89
91
92
94
95
98
100
103
105
106
107
109
110
109
110
111
112
112
113
113
113
113
118
113
101
95
111
140
161
151
169
182
194
192
190
204
214
219
219
220
222
223
222
220
219
218
214
209
205
203
204
204
205
197
196
193
191
190
188
186
184
184
186
187
187
188
191
197
202
201
200
199
198
196
194
192
192
192
193
192
189
189
191
194
194
191
178
165
161
163
164
163
161
170
170
172
174
175
176
181
187
180
185
186
180
174
171
169
165
168
165
151
159
161
157
164
148
147
158
172
163
161
164
164
163
155
163
164
159
154
147
146
152
150
148
126
132
109
151
176
129
131
134
148
145
132
144
147
171
152
157
157
174
172
183
176
181
189
172
180
193
194
187
182
191
198
196
194
193
190
184
180
179
200
204
204
202
206
215
219
216
215
209
205
206
208
211
218
225
223
212
200
201
194
214
224
206
207
210
213
205
199
222
221
193
196
213
197
210
213
188
200
201
199
209
211
196
206
227
217
204
207
208
204
200
200
193
182
178
188
191
203
202
191
173
151
148
171
186
147
125
132
130
134
143
134
140
172
176
188
180
165
171
165
158
162
174
165
166
160
153
162
170
170
173
168
155
145
131
139
149
148
152
174
181
168
158
157
163
172
175
169
164
168
177
169
173
180
187
189
186
183
182
181
184
190
196
199
199
198
197
199
208
204
187
185
193
185
166
160
148
140
119
110
84
77
72
84
82
77
73
71
69
68
67
62
61
60
60
60
60
60
59
60
61
64
67
69
72
74
76
79
94
92
91
91
91
90
89
88
88
89
89
91
94
96
98
99
101
104
107
107
108
109
110
109
109
110
111
112
113
113
114
119
119
122
130
144
155
158
157
166
187
201
202
204
213
220
217
221
221
221
222
222
221
218
215
213
212
210
208
207
205
202
200
194
192
191
190
189
188
186
185
184
187
190
192
192
193
194
195
194
195
195
194
191
186
181
178
186
186
184
181
178
178
180
181
191
189
190
195
195
188
177
169
175
176
178
182
183
182
182
184
162
166
168
167
166
167
168
169
166
168
162
163
160
163
178
175
167
157
168
155
159
155
150
153
159
157
149
143
144
145
146
151
127
126
120
139
173
162
134
93
135
120
134
135
150
143
174
153
146
196
170
175
192
189
181
182
181
177
193
197
191
194
195
196
188
187
194
204
201
188
188
198
197
197
199
201
203
203
203
203
196
197
201
205
205
202
202
204
216
211
202
211
206
200
213
211
208
206
202
204
208
220
219
176
206
210
191
214
206
188
199
205
206
215
209
199
208
216
211
208
215
211
204
201
199
193
189
189
182
179
185
194
196
189
170
155
170
188
164
121
121
129
148
146
137
106
137
166
170
165
172
168
156
157
165
171
161
155
153
150
136
145
153
158
154
144
136
129
123
134
155
170
176
182
179
167
165
151
142
147
159
165
161
155
167
166
169
174
175
175
178
185
187
187
189
192
195
199
201
203
198
200
202
202
199
192
180
169
142
132
125
98
76
67
84
90
88
84
77
71
69
68
66
65
62
61
59
59
59
59
58
57
58
60
62
65
68
71
73
75
78
96
94
93
93
92
91
90
90
90
90
91
93
96
99
100
101
103
105
107
108
109
110
111
109
108
108
108
108
108
109
109
104
106
113
121
125
129
143
158
181
182
188
196
209
219
218
215
223
222
221
221
221
219
216
213
209
209
209
208
206
202
198
194
185
184
184
184
186
187
187
187
190
191
193
195
196
194
190
186
194
196
197
198
197
195
192
190
189
189
187
184
180
176
174
174
167
167
170
176
182
188
197
204
189
186
185
188
190
188
185
184
190
182
176
174
170
166
170
177
166
162
168
156
146
152
157
164
177
163
169
154
158
153
145
145
143
148
150
154
157
149
135
129
136
137
164
151
121
96
106
134
105
111
134
149
138
165
174
125
168
189
183
194
185
177
187
183
180
188
202
192
188
205
206
192
182
192
204
206
194
185
192
206
203
195
194
198
195
188
187
194
202
208
209
203
198
201
209
215
203
213
202
210
222
208
210
217
213
210
211
205
205
193
213
192
210
202
194
210
201
199
195
206
208
212
199
212
214
192
198
210
204
203
205
207
203
196
191
188
194
188
185
190
193
191
173
143
155
184
172
122
115
113
137
150
153
147
113
109
158
167
165
161
160
164
162
159
160
151
144
146
143
144
153
162
168
166
154
146
142
150
156
161
165
159
157
166
162
164
167
165
162
161
167
174
179
176
176
178
177
176
179
186
187
187
187
188
191
196
200
202
213
204
198
195
186
169
155
151
164
165
159
150
135
143
129
100
83
80
75
74
74
72
67
62
61
59
58
57
57
56
55
55
55
57
60
64
67
70
74
76
78
96
94
93
93
93
92
91
92
92
93
94
96
99
101
102
101
103
106
108
108
109
110
110
111
110
109
107
105
105
104
104
104
98
104
123
136
135
130
130
148
145
166
193
204
201
203
224
221
220
220
219
219
217
215
214
210
208
205
203
200
197
194
192
186
184
182
181
180
180
180
179
188
188
189
192
197
198
196
194
192
192
192
193
194
195
196
196
190
188
187
185
180
174
171
171
168
171
174
174
169
162
160
161
178
171
166
168
171
171
170
169
165
160
161
168
168
164
166
174
170
160
169
159
151
156
150
157
166
170
175
162
160
161
156
150
151
153
149
144
144
142
141
146
151
144
117
113
136
148
96
116
119
138
156
143
137
163
138
156
184
172
191
191
175
187
192
196
203
189
192
197
196
192
184
186
190
197
195
183
178
182
182
175
178
174
180
192
196
192
194
203
195
200
206
210
212
209
195
181
200
212
192
181
212
216
214
218
207
204
211
208
211
184
206
208
207
199
206
209
205
215
197
206
196
214
204
211
207
191
203
198
197
198
204
207
202
199
197
191
179
178
180
189
193
199
196
169
149
174
161
128
135
108
100
126
150
163
146
131
145
152
171
159
159
155
146
140
155
152
146
145
137
134
142
148
157
166
166
171
151
140
147
159
158
161
172
175
159
161
163
167
169
167
163
160
163
165
169
173
173
171
169
169
176
178
182
187
193
198
201
203
200
202
203
203
204
203
198
193
181
159
141
150
140
139
114
93
77
73
68
66
67
68
67
66
60
58
56
55
54
54
53
52
52
55
58
62
66
70
74
76
77
97
95
95
95
95
94
93
94
95
96
98
99
101
102
103
102
104
106
108
109
109
109
110
111
109
107
105
103
102
101
101
102
113
126
133
132
134
148
164
167
186
213
211
210
221
222
226
220
220
219
218
216
214
214
214
212
209
205
201
198
195
192
190
191
188
183
179
176
174
173
172
173
176
181
188
193
197
199
199
198
197
197
196
196
197
198
198
190
187
184
182
177
171
170
171
179
175
173
175
179
184
190
195
181
176
174
176
179
181
181
182
183
181
180
179
172
161
153
150
149
143
147
150
149
152
158
164
163
172
168
169
164
165
165
161
144
150
151
151
151
146
141
143
142
132
156
144
137
107
117
148
149
152
130
132
159
148
158
179
190
185
193
182
191
210
201
204
193
195
199
195
197
198
191
194
193
189
182
178
183
187
182
172
186
188
194
201
204
206
209
212
217
207
200
203
210
210
203
195
187
207
214
194
206
206
204
210
206
199
200
208
220
196
200
211
201
205
216
207
209
223
204
206
196
211
207
199
194
201
210
193
200
197
200
200
197
202
204
195
188
184
182
191
188
189
195
175
171
152
156
153
137
120
111
98
124
139
130
123
153
148
141
145
144
132
131
130
144
151
162
156
169
159
158
148
141
141
135
143
155
141
153
163
153
155
163
153
159
162
162
157
152
154
164
172
175
175
173
171
174
179
182
183
176
178
182
185
188
190
190
190
194
199
201
197
195
194
186
176
185
171
167
164
134
98
82
84
73
73
72
69
66
63
61
60
58
57
55
53
52
52
50
49
50
52
56
60
64
68
72
74
76
99
97
97
97
97
97
96
96
97
98
100
101
102
103
103
102
104
106
108
109
109
109
110
105
104
102
101
99
99
100
100
105
130
157
170
175
181
193
202
224
217
223
219
219
223
215
219
221
221
220
217
214
212
212
213
212
210
208
205
201
196
191
188
176
172
167
163
161
161
161
160
161
167
176
183
187
188
189
190
195
197
198
200
200
198
196
195
194
188
183
180
175
170
170
174
177
171
169
172
176
174
168
163
172
172
175
180
183
183
184
186
184
185
181
174
171
172
173
171
162
162
153
157
147
138
158
163
159
156
139
158
153
148
150
154
154
153
146
143
147
145
140
140
145
152
141
131
121
133
138
141
128
94
132
147
134
164
187
188
197
187
174
185
200
201
200
183
182
194
203
198
194
187
184
201
193
188
191
197
187
170
167
178
195
197
192
183
183
193
201
203
198
197
201
204
199
193
201
216
211
208
222
210
218
213
201
197
217
209
199
207
215
200
195
218
195
211
219
202
207
221
208
206
215
196
195
195
191
196
201
204
197
194
197
198
196
204
205
190
190
178
174
188
186
186
198
182
178
170
160
148
143
136
123
123
119
123
139
123
126
135
145
161
154
135
144
137
130
136
159
149
156
143
148
151
158
160
140
136
134
156
155
154
167
162
152
165
159
153
148
151
160
166
163
157
162
167
170
171
173
174
170
162
169
170
173
177
180
183
186
187
195
195
195
196
196
195
192
190
176
165
150
122
121
121
123
110
82
91
102
104
94
79
65
58
57
56
54
52
51
50
49
48
49
51
55
59
63
66
70
73
75
100
100
99
99
98
97
97
101
102
102
102
103
104
104
104
105
105
106
107
109
110
108
107
108
103
101
108
112
109
116
135
152
158
157
149
147
157
171
178
178
200
200
196
209
217
217
222
223
223
220
217
217
218
217
215
207
206
203
201
198
194
190
187
183
180
177
176
175
170
161
155
145
152
160
169
179
189
195
196
192
188
184
184
189
193
190
184
182
180
178
178
179
179
176
174
185
186
182
181
186
185
182
182
172
172
171
170
169
170
174
177
172
170
170
171
166
157
154
156
158
159
168
178
172
154
145
148
150
154
148
134
144
159
158
165
154
148
139
142
151
150
143
142
138
141
139
134
137
143
139
129
117
141
152
145
151
176
188
181
176
174
190
202
191
180
184
189
203
197
193
192
189
184
186
193
184
186
185
182
176
175
184
194
197
195
189
184
192
204
204
196
198
193
192
197
200
201
208
217
213
213
209
207
202
208
218
204
207
214
207
219
209
214
195
210
192
208
217
202
211
227
214
212
218
193
195
203
203
211
213
208
194
200
202
183
198
196
195
205
189
182
177
180
187
191
189
185
171
170
165
150
135
132
127
116
109
119
132
142
145
146
150
154
151
156
155
148
146
152
154
150
159
157
156
142
126
133
147
146
139
143
150
156
158
157
157
158
165
165
163
156
147
144
151
160
155
157
156
161
171
175
174
175
175
178
179
177
178
182
188
191
192
194
195
195
199
201
196
188
175
180
183
180
143
126
102
86
81
74
67
64
66
67
63
58
58
57
54
52
49
48
47
47
47
50
54
58
62
65
69
71
74
102
102
101
101
100
100
100
102
102
103
103
104
104
104
105
105
105
105
106
107
107
105
104
105
101
93
93
103
106
103
103
96
95
91
91
104
130
154
168
184
201
206
206
215
219
216
217
216
217
217
215
215
216
214
211
212
209
206
202
198
193
188
185
191
189
187
187
188
187
184
181
177
176
173
172
176
183
188
189
198
201
201
198
195
195
196
196
192
190
187
184
179
172
165
160
162
168
170
169
168
164
163
167
173
173
172
170
170
172
176
180
160
153
147
147
148
146
141
138
153
154
158
165
165
160
156
156
160
158
155
151
159
160
149
153
148
150
150
149
145
137
138
149
146
148
146
141
140
143
144
140
139
138
144
159
177
186
184
178
184
187
187
181
180
192
201
199
195
190
184
183
191
196
192
183
192
184
178
180
185
186
183
180
181
185
187
190
198
207
208
204
201
205
208
208
209
210
209
208
206
207
200
198
197
206
221
220
196
204
204
219
220
215
204
201
208
212
207
195
203
212
208
211
205
191
211
218
213
199
210
215
206
202
202
192
202
189
184
198
200
189
176
168
171
179
186
188
176
170
162
149
135
131
128
119
121
118
122
127
128
136
146
147
125
131
134
132
133
140
145
146
158
160
163
161
153
149
142
132
128
133
141
149
155
159
164
167
169
171
168
158
149
146
144
143
144
147
147
150
158
159
157
158
159
166
173
178
183
188
191
192
192
191
188
185
187
188
181
171
162
135
123
136
122
111
85
62
63
65
66
68
68
67
64
61
58
56
54
51
49
48
48
48
47
50
53
57
60
64
68
71
74
104
104
104
103
103
103
103
104
104
104
104
105
105
105
105
105
104
104
104
104
103
101
100
98
107
109
107
105
102
106
115
101
133
172
200
208
203
194
186
184
195
206
215
220
220
215
211
216
218
219
218
218
217
213
209
206
203
200
196
193
190
187
185
179
177
175
174
174
175
175
174
170
178
186
188
188
187
184
182
190
195
197
193
188
186
187
188
189
183
173
163
159
160
166
171
154
156
156
160
168
167
161
160
161
165
170
172
170
164
157
154
153
159
165
168
168
168
167
165
160
156
150
148
152
160
164
163
165
159
154
150
158
163
152
154
155
148
146
158
169
158
139
131
131
138
145
149
149
147
147
148
161
158
165
181
186
180
179
184
183
193
201
206
207
196
180
173
186
199
203
193
189
195
197
191
186
186
183
175
165
163
171
182
180
184
191
196
198
200
201
202
200
209
210
203
201
208
209
203
194
206
208
215
217
210
210
208
200
199
199
208
218
213
220
206
217
215
202
201
206
203
204
206
201
199
218
210
215
205
209
189
206
204
206
200
208
198
191
203
204
200
189
178
175
181
187
188
185
175
165
153
139
132
129
125
123
114
120
126
123
131
138
131
131
128
128
131
135
135
130
124
135
137
141
150
157
149
133
124
132
131
131
136
142
144
141
137
147
157
164
162
162
163
157
147
146
150
149
150
156
158
159
163
168
173
178
181
184
185
184
181
188
188
186
185
187
188
181
170
165
157
150
132
101
118
141
142
98
97
89
76
63
56
58
64
58
56
53
50
48
47
48
48
48
50
52
55
58
63
68
71
73
105
105
105
105
105
105
105
105
105
105
105
105
106
106
106
105
104
103
103
103
102
99
98
103
96
91
102
111
110
117
135
136
145
148
142
144
163
187
200
221
216
214
216
215
219
228
231
221
222
222
220
219
217
212
208
207
204
201
197
195
193
191
189
184
182
180
177
176
176
176
177
172
181
190
190
187
188
194
198
192
192
191
188
185
183
179
175
171
169
163
156
149
146
147
150
151
155
159
169
185
191
188
188
185
182
176
169
164
162
162
163
178
184
187
181
173
168
163
158
165
160
154
151
153
157
158
157
166
161
156
145
149
158
151
148
149
145
142
147
150
146
150
164
149
145
143
145
148
156
171
185
172
181
189
186
178
177
185
193
199
201
195
193
198
195
195
208
204
208
203
193
194
201
196
183
179
173
168
166
168
175
184
193
199
200
203
206
204
200
200
204
199
206
205
197
196
203
206
202
213
218
209
211
216
209
212
219
214
203
204
203
206
210
218
210
213
216
207
215
214
201
199
191
190
190
194
194
208
214
215
189
190
200
207
195
197
200
194
196
201
204
201
190
183
185
187
187
191
181
173
161
140
126
122
121
126
118
129
135
124
128
135
122
129
130
130
127
117
109
112
120
125
122
117
124
134
127
116
120
146
151
156
156
153
149
146
144
138
144
150
152
156
159
158
153
147
150
148
146
150
153
156
163
171
173
175
176
180
184
186
185
188
191
192
191
192
192
185
177
169
155
167
171
131
106
112
119
123
98
72
61
65
67
62
56
59
56
53
50
48
47
47
47
49
50
52
54
57
62
67
71
72
104
104
105
105
105
106
106
106
106
106
106
106
106
106
106
104
104
103
103
103
102
100
99
100
99
97
94
84
75
89
118
123
128
129
129
142
163
169
163
158
165
186
206
213
215
216
214
221
221
220
216
215
213
210
206
207
203
198
193
190
187
184
182
178
177
175
173
172
171
171
171
187
190
191
187
182
177
172
168
183
186
190
192
195
198
198
196
182
181
177
170
162
157
156
158
161
172
176
173
167
162
162
170
166
164
162
162
166
173
180
185
170
163
152
146
150
156
152
143
149
148
152
158
157
148
142
141
128
124
133
137
140
142
136
137
149
144
140
145
149
141
137
142
137
137
143
154
159
160
162
167
176
181
181
176
178
188
196
196
190
205
202
194
205
215
210
204
207
204
195
187
186
189
185
177
181
174
172
178
188
193
194
194
200
198
201
206
206
202
201
205
201
202
204
205
206
205
204
203
202
206
197
204
212
203
201
204
209
199
209
208
198
207
201
203
205
214
212
218
214
202
200
183
198
190
180
201
197
193
199
207
187
199
207
197
191
196
191
194
199
201
197
185
177
177
181
184
191
185
180
167
140
118
110
109
115
111
124
129
118
130
148
144
128
107
92
100
119
133
137
137
142
138
130
129
127
111
102
112
130
149
165
162
147
136
136
140
145
139
135
136
139
143
152
161
161
166
166
165
168
169
170
176
170
171
171
171
174
180
183
183
190
194
195
191
188
188
185
181
194
169
160
148
119
98
90
75
82
73
66
65
66
64
61
58
58
56
53
50
47
46
46
46
50
51
52
54
57
61
67
70
71
103
103
104
104
105
105
106
107
107
107
106
106
106
105
105
105
104
103
103
103
102
101
99
100
98
93
97
108
112
107
105
86
95
111
132
158
183
195
196
210
214
219
222
222
219
220
223
217
217
216
213
212
212
210
207
200
197
193
188
185
183
181
179
181
179
176
174
172
171
169
167
167
169
176
187
200
205
199
190
185
191
194
188
180
176
176
177
175
171
162
153
145
144
148
153
140
150
157
158
158
158
163
172
176
177
180
182
182
179
174
170
184
177
168
162
162
162
158
153
148
147
153
160
159
152
150
154
142
130
146
164
164
158
157
169
167
164
155
145
139
136
146
163
156
152
153
161
168
172
176
181
178
175
174
179
186
192
196
198
206
205
198
197
206
210
200
191
196
196
193
186
178
175
180
185
177
174
174
180
188
192
193
194
192
193
197
204
205
201
199
200
200
195
194
201
206
205
207
212
219
212
194
192
195
191
194
196
187
187
197
203
194
198
198
209
201
206
208
210
209
210
211
196
216
212
188
206
190
184
188
201
182
186
196
199
191
195
194
206
199
199
197
189
179
174
175
179
188
187
188
177
150
125
113
109
114
113
123
123
114
124
139
137
145
145
142
134
123
120
130
145
145
145
146
147
136
115
106
112
121
135
148
150
144
137
131
126
128
119
115
119
120
118
123
132
135
144
150
156
162
162
161
164
166
168
170
171
173
176
178
178
184
188
188
185
185
189
192
191
176
183
174
136
122
127
112
68
58
62
68
71
63
56
56
63
56
55
53
50
48
47
46
45
49
50
51
53
56
60
65
68
70
101
102
103
104
105
105
106
107
107
107
106
106
105
105
105
105
105
104
103
103
102
100
98
90
97
98
93
89
86
89
97
138
138
150
169
178
178
186
199
199
214
220
221
223
218
212
216
215
216
214
212
211
210
208
205
200
198
194
192
190
188
186
185
176
172
168
166
166
166
164
162
169
165
161
161
167
176
180
180
163
170
176
176
174
175
178
181
171
169
165
159
151
146
144
143
159
163
163
165
170
170
168
170
159
160
162
165
170
173
175
175
148
152
158
160
156
152
152
155
160
160
160
160
160
161
165
168
172
159
167
170
162
160
161
167
163
156
148
155
175
180
169
158
149
155
166
178
184
183
179
175
183
183
186
191
193
193
197
204
204
191
193
206
208
199
194
194
198
190
182
181
186
189
184
177
167
160
159
172
191
202
202
199
204
206
208
209
207
203
202
202
199
190
185
192
199
202
205
210
214
213
210
214
208
197
193
180
175
185
183
193
198
182
207
217
205
198
204
206
208
217
212
200
209
214
190
203
200
199
201
197
176
178
186
192
185
195
195
204
200
199
201
201
192
180
175
177
181
185
192
188
168
149
137
129
138
137
137
132
124
123
121
112
118
117
116
114
111
110
113
117
129
127
134
140
131
120
118
122
135
144
152
159
164
166
159
149
148
142
138
140
139
133
126
124
119
128
137
145
154
156
155
157
154
159
164
167
171
177
182
184
178
181
183
182
184
187
184
178
178
175
166
147
151
142
128
106
100
80
62
62
69
68
61
53
53
52
51
50
49
48
47
46
47
48
50
51
54
57
63
66
68
101
102
103
104
105
105
106
107
107
107
106
106
105
105
104
106
105
104
103
102
101
99
97
94
88
83
84
88
97
126
163
177
144
125
133
141
142
162
192
174
195
201
202
212
212
210
220
214
215
213
210
209
207
204
200
197
195
191
187
183
180
177
175
172
168
164
164
168
172
172
171
164
171
175
171
165
166
175
182
192
191
188
185
185
184
179
174
172
167
159
154
154
161
170
176
170
178
179
174
169
162
160
165
163
165
169
173
173
167
159
153
155
151
149
150
145
137
133
134
146
151
151
147
147
151
149
143
160
160
168
157
150
165
167
157
162
164
161
161
169
169
159
151
168
173
180
185
189
191
191
189
191
195
196
195
199
206
209
208
205
203
207
203
190
191
199
199
186
190
190
184
181
182
180
176
157
172
190
198
193
189
195
205
210
211
209
203
198
196
199
201
200
194
192
196
201
201
196
193
196
193
191
194
188
187
195
185
175
195
182
195
210
168
209
208
212
195
205
207
208
214
197
183
208
207
193
212
216
193
196
196
195
200
202
196
185
204
199
195
202
198
199
202
195
182
178
181
173
179
190
193
182
171
160
149
141
140
137
136
143
149
145
135
142
130
116
112
119
125
125
120
125
114
116
121
114
115
124
128
132
147
157
153
144
139
138
137
149
144
139
140
146
152
149
144
133
139
142
147
155
158
158
161
160
163
164
162
162
165
170
173
181
183
183
182
179
172
156
140
114
137
147
126
127
119
121
122
155
135
108
88
73
60
56
57
50
50
50
50
50
49
48
48
46
47
48
50
53
57
61
64
67
99
101
102
104
105
106
106
104
104
105
105
105
104
104
104
107
104
102
101
101
98
92
88
88
92
110
119
130
142
132
119
107
137
151
148
154
165
173
182
196
205
211
217
222
219
215
216
212
211
210
208
208
208
205
202
195
193
191
188
180
171
169
171
163
168
171
168
162
162
168
175
177
173
175
184
188
186
186
190
190
184
179
179
182
180
173
167
167
165
162
159
157
155
153
151
159
163
156
146
154
174
179
169
179
185
188
180
166
153
149
149
154
167
167
159
161
167
165
158
152
151
146
151
162
159
156
166
168
173
170
172
167
160
165
166
170
176
170
165
171
172
171
176
184
185
187
193
201
207
206
202
194
205
204
211
208
198
203
196
204
194
189
186
185
192
194
185
188
190
173
163
174
176
167
169
182
180
187
180
187
206
205
208
207
196
189
194
200
200
199
199
200
202
201
204
207
203
201
207
203
192
190
184
188
167
169
178
182
186
185
183
217
207
191
206
196
212
201
197
202
209
209
180
209
204
196
202
189
215
211
211
204
200
204
177
187
210
210
190
197
201
197
191
194
194
186
179
170
180
179
180
187
183
174
175
156
151
138
145
161
166
154
127
111
89
105
135
116
111
106
111
122
137
143
130
135
134
117
129
145
145
155
149
130
134
136
114
123
134
141
144
148
151
159
171
169
166
165
166
167
167
168
170
173
175
177
176
174
173
173
174
180
184
181
174
178
188
188
180
178
171
146
128
108
101
121
124
88
101
87
85
89
67
50
48
78
79
77
73
63
55
48
43
43
45
50
52
55
58
61
62
65
99
100
102
103
104
105
105
103
103
104
105
105
105
105
105
96
95
96
98
98
97
91
87
88
98
104
102
112
117
110
119
125
111
114
149
188
202
204
211
210
215
214
215
221
222
217
215
212
213
212
210
209
207
202
197
197
192
186
184
188
190
183
173
180
177
174
175
180
185
188
188
187
185
186
188
187
184
185
189
188
186
184
185
187
186
179
172
175
170
164
162
164
166
165
164
174
175
173
171
176
181
178
171
172
161
154
153
149
144
151
163
165
170
166
161
162
163
158
156
151
162
162
160
170
176
173
173
167
164
159
167
170
164
168
167
165
173
179
182
183
180
178
181
194
199
198
191
190
196
200
199
204
201
202
211
202
184
190
204
199
203
189
185
202
200
189
196
191
175
180
184
168
167
184
190
171
174
185
190
198
205
203
204
204
199
198
204
208
205
201
200
198
201
202
204
206
200
194
197
193
200
208
200
206
196
187
175
181
185
182
185
175
207
205
206
193
204
196
197
201
207
208
178
200
202
192
198
190
206
206
204
206
200
186
180
190
182
166
194
197
200
195
191
194
193
181
173
178
186
185
181
180
176
176
186
180
170
150
147
153
155
154
141
110
81
78
110
138
149
138
139
119
131
150
141
130
133
130
133
129
131
150
161
147
137
137
132
116
124
132
144
157
161
159
159
163
162
163
167
170
172
175
178
174
175
177
178
179
179
180
181
178
177
176
176
175
172
165
159
137
129
131
122
96
102
120
101
70
52
64
65
62
64
61
92
78
65
48
39
40
46
50
51
45
46
48
49
52
55
59
61
63
99
100
101
102
103
103
103
103
103
104
104
104
104
103
103
104
101
99
97
94
90
84
80
99
93
88
62
44
64
84
90
118
165
196
182
166
176
181
168
176
199
215
215
212
210
209
212
211
210
208
206
204
203
199
194
194
197
193
185
185
188
183
172
171
176
180
179
175
173
174
177
167
170
173
174
175
178
183
189
186
188
187
186
187
188
183
176
168
167
168
171
172
168
159
151
149
147
152
162
169
167
164
162
153
144
140
149
162
172
180
186
179
174
163
156
153
146
140
143
157
168
171
168
171
171
164
160
180
177
170
175
175
169
176
180
195
183
177
180
183
184
184
180
175
185
188
185
189
200
205
200
200
193
194
192
193
195
191
195
200
200
216
213
180
168
176
172
150
170
181
174
172
182
182
171
190
193
194
202
203
196
198
197
194
195
200
206
206
199
193
191
199
200
198
197
198
194
191
194
198
190
186
183
190
189
194
195
190
183
201
197
184
186
191
184
195
198
192
197
197
198
200
171
188
199
188
192
192
194
200
197
205
208
203
198
182
190
186
198
199
200
194
191
197
195
182
173
176
183
185
180
173
165
169
183
178
174
160
155
155
158
167
166
170
137
130
106
79
87
107
105
108
92
129
163
146
121
119
132
141
134
129
133
148
164
164
152
144
149
149
151
157
164
171
182
169
167
166
166
164
161
160
161
167
167
168
170
172
175
176
177
179
175
178
186
186
176
169
169
174
171
156
136
138
145
119
89
97
62
57
53
45
76
95
76
50
50
49
46
43
42
43
44
48
48
47
47
49
52
57
59
62
99
100
101
102
103
103
103
104
104
103
103
102
101
100
100
99
96
93
89
87
84
81
80
63
67
68
82
113
112
103
131
179
155
147
160
177
196
206
202
215
218
211
203
210
217
214
208
209
208
204
201
200
202
201
198
193
197
195
186
179
177
174
169
173
164
157
158
165
165
156
146
145
149
152
153
157
166
174
178
178
180
178
174
173
175
173
168
178
172
165
161
160
161
162
162
171
167
167
173
175
170
166
167
166
168
165
163
175
189
181
163
162
156
145
139
144
150
160
172
173
170
170
172
169
162
161
168
171
167
159
169
181
183
183
174
169
154
157
171
177
180
181
175
184
189
194
200
208
211
203
190
194
188
193
187
193
206
195
192
193
197
188
176
175
173
171
176
196
181
159
154
166
170
172
182
180
189
187
198
200
195
204
201
199
202
207
209
204
196
192
192
193
195
192
192
195
192
189
191
201
188
182
181
178
173
175
177
178
173
187
177
185
177
183
189
192
193
188
195
190
188
194
171
181
198
184
187
193
184
196
193
186
206
213
195
175
200
207
193
202
201
195
194
201
201
188
180
172
174
179
181
176
165
162
167
175
184
177
167
158
154
158
151
118
100
117
105
82
74
95
103
129
122
142
158
150
144
144
141
149
158
146
122
117
125
134
142
149
155
154
149
146
143
145
153
160
160
162
166
167
167
168
170
167
166
165
167
170
173
174
174
179
176
180
191
195
190
189
194
174
177
180
168
150
110
82
112
88
48
47
55
101
107
44
50
47
52
53
50
43
40
44
48
47
47
47
47
48
51
56
57
62
100
101
102
103
103
103
103
105
105
104
104
103
102
102
101
91
91
92
93
94
94
94
93
106
114
120
111
129
178
200
195
144
131
164
214
211
172
158
169
176
197
209
206
206
208
208
209
209
208
206
204
204
205
203
199
195
189
184
182
181
177
171
168
163
166
167
162
155
154
161
168
173
173
173
172
176
183
187
188
183
185
184
179
177
177
174
169
164
169
175
177
176
172
169
167
153
154
155
158
161
164
164
164
150
153
150
149
160
173
163
141
141
149
151
150
152
151
149
150
150
143
141
144
143
145
156
167
158
172
174
175
172
170
175
169
166
162
173
183
178
180
193
201
200
197
200
209
212
204
192
185
188
178
188
189
185
182
176
192
176
181
172
166
180
191
186
178
173
149
156
175
173
169
169
160
172
189
191
201
206
206
214
205
208
208
208
204
197
191
192
195
199
204
204
205
209
206
200
199
196
200
200
190
179
185
182
169
179
185
181
178
167
189
178
173
184
188
183
190
187
184
194
181
180
195
180
184
191
181
193
190
180
196
194
186
197
183
182
196
205
204
198
197
204
203
193
188
177
172
174
182
184
176
164
155
173
189
184
169
155
150
148
133
132
126
118
107
112
70
63
113
120
136
142
141
142
137
131
126
121
135
139
134
125
110
114
139
140
141
139
141
149
151
148
149
163
163
164
165
163
159
158
160
166
165
164
165
168
171
171
171
175
177
181
186
188
189
190
192
176
163
165
156
161
175
141
97
100
101
103
122
91
48
58
56
57
52
46
43
42
43
43
43
43
45
47
49
49
51
54
55
61
100
101
102
103
103
103
103
103
103
103
104
103
103
102
102
110
111
112
111
107
102
98
95
65
74
88
124
165
144
100
109
133
160
174
156
139
154
180
191
212
212
202
197
207
214
211
205
207
208
209
208
207
205
199
193
190
186
183
181
176
169
169
172
170
166
164
168
173
175
170
165
170
168
167
169
173
177
180
182
190
191
192
193
191
187
180
176
172
172
171
166
163
165
172
179
187
190
189
183
178
176
170
163
162
159
158
162
166
162
150
140
148
159
166
169
173
171
165
164
153
157
163
162
159
167
173
168
175
189
188
177
164
162
177
182
185
181
181
180
174
175
186
195
201
196
197
202
198
187
185
193
184
178
177
173
172
175
175
181
178
172
180
180
173
185
187
162
153
167
177
179
181
185
190
195
195
206
205
204
205
210
214
206
209
208
204
197
191
190
193
198
212
213
207
204
208
210
209
210
203
197
194
192
176
180
181
177
166
149
167
181
174
195
202
186
184
193
183
186
186
181
189
183
181
188
176
183
185
183
188
186
193
181
182
196
209
177
182
200
204
205
201
200
204
200
193
190
182
170
167
172
177
177
167
150
171
185
178
163
152
152
156
145
151
162
160
137
120
79
61
91
89
126
138
148
156
136
125
135
115
115
110
117
136
138
130
131
157
160
158
156
158
156
155
159
151
152
156
160
161
160
163
166
161
161
161
163
166
168
170
170
172
179
184
184
184
186
186
183
177
169
177
174
151
128
123
135
172
139
105
69
52
56
53
55
46
47
47
47
44
41
38
36
41
43
45
48
48
50
52
54
60
99
100
101
102
103
103
103
102
102
101
101
100
99
97
97
91
89
84
79
72
67
65
64
84
113
141
135
113
92
90
115
135
159
174
179
198
218
214
198
187
202
211
214
216
214
213
216
208
209
208
206
205
202
197
191
187
190
189
182
172
169
172
176
165
171
177
177
172
167
165
166
163
161
163
168
171
172
176
182
182
178
178
182
183
178
174
174
168
172
176
175
170
164
161
160
148
153
155
154
152
149
145
141
138
141
148
157
161
158
155
154
176
167
153
149
152
154
158
167
170
173
180
178
171
173
174
163
186
174
158
163
174
177
181
175
173
176
179
187
196
196
187
182
203
200
201
201
193
183
183
190
186
184
170
163
172
185
187
173
179
176
155
153
179
183
165
162
160
181
174
176
194
178
171
207
202
199
199
194
196
205
207
209
208
207
204
200
198
200
203
206
208
207
199
193
198
203
204
207
211
192
187
198
175
164
158
158
177
142
161
165
170
167
189
190
186
199
182
180
186
179
179
174
179
178
170
183
177
187
182
180
189
176
178
196
194
185
198
193
199
203
203
204
204
198
192
192
183
173
168
165
163
170
168
154
175
182
173
162
151
147
154
151
154
143
143
129
104
108
105
97
75
126
137
136
145
143
143
143
141
145
135
120
119
122
120
115
109
127
144
154
158
157
160
168
166
165
166
165
160
156
155
158
161
162
165
166
168
169
171
172
170
177
182
183
182
184
184
183
179
185
174
172
178
173
165
162
128
83
50
49
44
48
59
43
48
49
47
42
37
36
40
45
39
40
43
44
46
48
51
52
58
98
99
100
101
102
102
102
102
101
100
97
95
92
90
89
89
85
80
77
77
83
93
99
79
112
113
90
109
139
150
169
170
126
87
100
142
162
169
182
193
201
206
210
213
210
207
210
214
212
207
203
202
202
201
198
194
193
186
178
180
187
185
177
182
176
170
167
168
169
169
168
169
167
169
173
172
167
170
178
179
169
165
171
174
172
173
178
183
183
182
179
174
169
166
165
157
158
160
162
160
155
152
152
149
158
160
154
151
156
160
159
160
152
151
167
181
177
173
181
174
160
159
160
152
152
161
163
174
172
172
184
179
160
157
159
154
164
166
170
181
182
175
176
183
185
189
193
194
190
185
182
178
173
157
163
167
162
171
168
156
152
165
181
177
164
152
142
155
177
178
174
193
205
197
191
207
197
203
200
201
204
195
202
197
197
196
196
198
201
204
204
204
209
208
208
214
215
209
206
206
192
183
186
166
173
172
165
156
163
166
174
177
186
177
191
181
198
176
173
187
180
174
168
178
170
167
183
172
190
178
175
180
195
175
184
193
197
193
196
192
200
205
206
206
199
193
195
185
180
177
168
159
168
174
164
163
167
163
162
153
143
151
156
151
140
146
160
137
120
97
101
97
122
135
159
164
139
133
137
148
152
157
156
142
128
130
142
122
127
129
132
139
143
146
153
151
152
154
155
153
151
153
157
154
156
159
160
160
160
162
163
167
170
174
175
175
175
178
182
174
179
182
175
147
139
136
91
84
100
98
65
80
92
53
51
50
46
41
41
43
43
40
35
40
40
41
41
43
46
49
51
57
97
98
99
100
101
101
101
99
97
96
96
96
94
90
87
91
79
78
86
98
94
73
69
99
92
83
68
43
75
101
105
60
78
134
154
175
174
193
183
190
200
210
214
215
214
210
205
204
203
203
203
204
202
198
195
197
192
187
186
188
187
182
177
175
175
172
166
161
160
164
169
161
164
168
175
181
183
182
180
187
176
178
182
172
169
180
187
183
179
174
170
169
170
171
172
172
167
161
157
156
158
159
159
166
155
151
150
154
167
170
154
150
159
170
157
147
135
147
157
137
131
141
162
158
165
166
186
177
175
176
168
163
163
166
182
192
184
182
186
186
182
185
193
182
182
180
176
177
179
177
173
167
163
170
183
181
166
160
166
175
176
176
171
160
154
160
170
185
181
183
191
195
193
193
197
200
200
200
202
205
205
203
200
208
203
205
200
199
203
201
206
206
208
216
218
208
201
203
205
196
191
199
192
162
151
165
174
165
158
174
176
174
172
192
196
184
186
200
172
175
181
171
172
149
157
178
175
193
176
181
178
192
186
172
173
188
195
191
196
212
209
202
196
194
197
201
203
188
177
163
174
171
155
164
172
159
153
150
159
149
149
163
147
146
166
172
147
140
90
52
83
94
125
144
157
136
156
151
142
151
144
135
136
142
140
132
127
119
113
114
123
127
127
133
144
150
147
146
149
150
150
153
157
156
158
161
163
163
163
163
163
168
168
165
163
168
178
182
179
155
175
170
171
161
164
143
114
93
123
142
110
82
70
48
42
47
45
41
39
39
39
38
38
38
38
40
41
42
44
46
47
52
99
100
98
98
100
100
98
98
96
95
94
94
92
89
86
76
82
90
80
70
66
72
95
61
46
30
21
64
89
93
86
97
96
117
145
150
154
186
180
200
204
206
206
207
209
209
206
207
206
204
204
203
200
196
192
182
183
185
189
189
184
176
169
165
160
156
160
169
174
174
171
174
172
169
168
169
170
172
173
167
170
177
179
173
170
168
165
149
155
163
169
171
170
168
166
154
160
165
165
159
154
152
153
143
140
155
170
163
153
152
152
132
118
128
140
151
147
159
161
156
167
180
165
172
164
159
162
153
130
136
153
164
174
175
177
178
186
183
171
169
183
195
198
207
196
187
186
188
187
185
183
179
183
185
183
181
182
184
184
179
175
170
169
171
175
178
181
197
195
195
194
191
190
197
207
194
196
199
204
209
210
207
204
202
197
200
199
202
209
206
209
212
206
205
205
201
199
197
192
177
194
190
186
190
167
152
173
167
153
157
180
179
166
171
193
191
189
191
173
174
183
181
175
167
165
181
181
186
180
191
186
187
173
173
168
191
174
183
194
205
191
187
199
206
201
197
200
192
189
173
168
160
148
152
149
163
167
154
164
179
170
167
169
162
155
143
136
160
113
62
87
106
127
134
144
130
150
148
146
138
131
143
146
129
134
141
124
128
113
105
115
129
139
147
154
127
124
124
128
133
138
144
150
153
155
159
162
164
167
169
171
171
176
179
178
181
183
180
173
163
184
167
160
147
129
135
175
156
108
73
72
81
69
50
52
45
43
40
38
37
37
36
35
35
36
37
39
40
42
44
45
49
102
103
98
96
98
99
95
97
95
93
92
91
89
86
84
82
78
77
71
72
68
55
55
47
64
93
107
140
130
96
76
116
147
161
184
178
192
225
217
204
204
204
203
204
208
209
208
208
206
204
203
201
198
194
191
196
194
190
184
176
169
163
160
167
167
168
169
168
166
162
160
148
149
149
151
153
157
162
165
175
182
178
170
171
176
174
171
172
176
178
175
167
159
155
153
161
165
167
164
158
153
153
155
161
160
169
174
158
142
144
152
158
150
158
146
140
155
166
131
160
143
157
153
155
159
171
167
163
178
180
169
176
178
166
171
165
181
188
182
182
191
190
179
178
180
184
190
198
205
205
202
194
196
190
177
170
170
170
167
165
169
170
165
164
173
185
192
199
194
190
191
197
204
208
210
206
205
204
203
203
200
195
192
198
194
200
202
209
216
212
214
214
212
212
208
199
196
196
191
188
207
202
183
184
192
181
164
171
149
108
131
173
187
170
190
197
193
189
180
168
179
179
172
175
169
176
179
175
181
190
185
185
178
179
167
183
166
178
194
188
192
195
194
197
201
201
198
189
192
185
183
178
171
172
167
166
152
145
164
175
164
159
156
142
126
116
116
145
112
71
90
107
107
116
157
159
149
134
149
138
144
135
134
144
131
114
121
132
137
146
152
145
132
125
127
129
129
132
136
140
142
144
147
146
149
154
159
163
168
173
175
174
178
180
179
180
183
182
178
181
152
147
168
160
173
172
130
91
100
86
68
68
75
65
35
41
40
38
36
36
35
34
33
31
32
34
36
38
40
41
41
45
104
105
98
95
98
98
94
95
93
91
90
88
86
84
81
82
78
75
67
70
72
62
62
78
64
71
80
67
81
89
111
158
206
190
183
201
195
180
188
200
203
207
209
210
210
210
209
204
203
201
200
199
197
193
190
194
189
181
174
171
172
173
175
168
172
176
173
164
156
153
153
152
153
156
157
160
164
169
173
162
173
172
169
178
180
171
167
161
163
164
163
162
163
166
169
164
159
153
150
150
151
150
149
147
152
152
145
141
146
149
144
119
151
154
148
176
154
138
160
149
158
153
155
156
156
139
159
170
171
187
175
156
168
177
168
178
174
175
184
193
195
191
186
171
190
201
195
191
196
196
190
200
195
191
190
186
179
175
176
175
169
160
158
171
188
191
182
187
185
186
193
206
214
211
204
205
202
199
197
198
200
202
202
197
196
205
208
212
216
210
210
198
199
202
200
194
192
189
181
185
172
184
201
197
190
181
163
149
127
113
141
171
187
181
184
178
173
183
181
160
176
172
174
181
180
171
179
180
189
183
180
168
182
178
168
167
171
172
181
183
195
197
186
185
196
203
200
200
192
186
188
184
176
179
184
181
173
154
167
191
168
146
162
162
134
145
119
81
70
84
94
105
129
135
146
150
159
150
155
160
148
135
124
122
132
139
134
141
134
131
133
135
132
127
124
127
128
132
137
142
146
148
150
152
155
159
162
165
168
171
173
173
176
176
174
174
178
181
181
188
173
167
180
169
151
150
152
126
100
64
58
53
47
61
63
39
37
36
35
34
33
32
30
30
30
33
35
36
38
39
40
41
104
104
98
95
98
97
93
92
91
90
89
87
84
82
80
73
76
77
68
66
66
60
65
45
44
39
25
42
125
164
184
166
128
131
129
125
141
164
174
202
207
213
216
214
209
207
207
202
200
198
197
196
194
190
188
181
179
176
177
180
181
179
177
175
170
164
157
152
148
144
141
143
145
147
149
152
158
166
171
176
171
154
145
150
149
148
157
164
165
165
165
163
160
156
153
157
155
154
156
158
157
152
147
137
148
149
144
151
162
155
140
155
156
161
155
153
136
141
154
143
153
168
162
134
153
156
150
173
158
144
150
172
170
160
180
170
166
177
199
211
203
192
188
186
196
202
198
193
194
199
201
198
194
193
196
195
189
182
180
164
174
176
166
163
174
185
188
182
191
201
205
206
206
203
201
194
192
190
190
192
196
199
201
197
199
210
210
209
207
199
200
196
186
182
187
193
195
186
169
169
160
167
187
194
185
174
167
140
106
142
185
180
172
188
177
182
167
184
181
163
182
168
175
186
192
168
173
186
196
177
180
168
184
179
168
168
173
171
173
188
182
182
189
196
198
199
200
207
194
185
178
176
179
186
196
189
152
160
187
182
176
180
175
161
155
133
102
120
99
59
65
99
124
132
142
153
160
141
129
121
145
157
145
140
149
145
127
108
101
95
98
112
128
142
149
138
138
137
137
140
146
150
153
160
162
166
168
169
169
169
169
173
176
178
178
178
178
178
177
181
191
178
165
163
154
144
127
142
141
124
122
124
124
106
58
37
36
34
33
32
31
30
28
30
31
31
33
35
37
39
39
38
102
101
99
97
97
95
93
90
90
90
89
87
84
81
78
77
73
72
67
69
68
55
55
47
37
34
35
113
161
145
140
162
149
154
157
203
225
214
238
210
212
215
215
212
206
203
204
201
199
196
194
193
191
187
184
188
186
183
182
181
178
171
166
166
161
153
144
137
135
139
143
143
148
155
161
166
168
169
170
160
159
162
171
177
170
167
173
165
165
166
168
170
168
165
162
161
164
167
165
161
155
152
151
161
160
151
146
152
155
153
154
157
152
141
124
135
142
152
154
138
146
150
134
154
157
159
168
158
135
151
173
177
181
187
193
196
193
190
188
187
190
197
203
202
195
195
204
205
196
193
199
200
204
202
195
191
189
182
173
175
174
168
164
172
185
186
178
195
200
205
208
206
203
200
200
210
210
210
209
207
205
203
202
204
205
213
210
204
201
194
196
206
194
188
188
186
183
176
167
182
174
174
167
155
161
158
133
112
124
156
175
188
169
170
173
162
143
157
163
168
188
179
184
164
166
141
144
164
180
167
171
190
185
178
155
168
157
168
172
182
185
191
198
203
202
198
194
196
196
195
182
183
198
197
192
211
187
182
189
188
174
162
171
154
127
127
102
86
84
92
100
105
110
118
132
132
128
139
164
147
163
147
133
141
122
98
110
116
122
127
124
117
111
108
107
132
135
138
140
143
146
146
145
150
153
157
161
164
166
167
168
173
173
174
175
177
179
181
181
167
184
167
143
122
65
63
110
105
87
73
70
52
40
38
28
35
34
31
30
29
29
28
27
28
29
29
31
34
36
37
38
37
100
98
99
98
95
92
91
88
89
90
90
87
84
81
78
79
76
75
67
65
67
71
89
84
77
113
136
152
101
69
121
117
163
201
199
187
185
169
185
210
207
207
209
209
206
203
203
200
197
195
193
192
190
187
185
186
184
180
177
173
169
164
161
141
145
147
146
143
145
152
158
158
159
162
164
165
163
159
156
170
162
161
163
155
146
147
152
165
165
164
163
162
161
161
162
162
162
160
155
149
145
144
144
149
139
124
123
135
139
147
163
153
126
146
165
163
158
172
161
166
147
161
164
168
158
154
148
159
168
177
174
172
163
155
170
192
198
202
198
191
187
186
186
179
177
183
197
207
209
208
210
201
207
210
208
202
199
199
198
183
187
187
181
181
188
195
197
202
199
199
202
202
199
199
201
196
198
200
202
202
201
200
200
210
208
211
205
201
201
196
199
198
191
191
189
174
162
161
164
177
146
147
162
142
112
100
96
102
161
171
158
175
158
137
157
151
143
138
143
148
139
139
134
138
131
119
122
133
153
155
150
176
172
166
142
158
152
163
164
179
191
198
196
196
201
202
197
197
200
205
191
189
196
178
162
183
157
164
171
167
168
164
165
159
134
125
94
89
99
107
112
119
117
120
133
154
168
156
130
125
108
111
131
134
124
120
120
116
117
120
128
139
144
136
124
110
116
123
129
136
142
145
144
146
148
151
153
156
159
162
165
168
167
167
171
175
179
181
182
185
168
174
178
171
157
142
90
56
36
42
51
41
38
38
39
33
31
29
27
26
26
26
25
25
26
26
28
30
32
34
35
35
98
95
98
99
93
89
89
87
89
91
91
88
84
81
78
78
72
73
71
72
68
62
72
82
82
98
94
97
138
144
176
196
185
163
178
176
207
209
210
203
198
197
204
210
210
206
203
197
195
193
192
193
192
190
188
180
181
179
174
164
154
147
143
148
147
149
156
163
162
153
144
163
157
150
147
150
157
165
169
161
158
167
174
164
159
163
163
155
159
163
164
161
160
160
162
158
154
150
150
152
151
146
141
137
134
125
131
148
152
149
155
133
152
163
152
157
155
158
157
150
164
169
166
153
163
159
172
191
163
159
169
173
170
166
176
179
180
186
194
195
189
185
185
191
201
200
189
189
201
204
197
191
192
201
210
201
185
186
199
194
189
182
180
186
195
198
196
194
196
201
200
190
183
191
205
203
204
204
204
204
204
205
206
212
205
205
198
197
201
198
202
188
180
183
188
179
166
163
166
141
135
113
118
134
101
79
111
186
183
154
144
144
147
131
132
119
133
125
139
145
115
134
127
139
122
122
125
120
138
151
133
139
161
163
157
167
182
176
165
191
178
174
185
196
197
201
207
207
200
202
193
190
191
170
160
179
171
165
161
172
168
148
162
169
150
118
70
87
117
120
119
118
131
156
161
143
130
130
128
122
138
123
106
118
121
116
126
112
119
124
126
132
142
148
149
148
147
142
136
138
146
154
157
162
161
159
157
155
155
157
159
161
164
170
178
182
179
173
168
162
169
168
154
154
135
118
84
85
68
69
51
34
44
40
31
32
30
27
25
24
24
24
24
23
24
25
26
28
29
32
32
33
97
93
101
100
93
89
87
88
86
93
95
85
82
84
80
73
74
78
78
67
57
62
74
99
114
144
145
153
146
108
115
144
143
143
172
194
184
186
201
200
201
204
208
210
209
205
202
196
196
193
189
188
188
187
184
179
175
169
164
160
159
160
162
164
164
156
148
140
131
132
143
138
140
143
151
157
152
147
150
147
152
156
158
158
158
160
162
167
164
161
160
162
165
167
168
165
165
170
161
163
152
147
136
128
141
137
141
161
168
155
136
142
139
145
150
145
144
155
165
174
175
165
155
158
155
152
159
152
162
181
183
171
174
180
170
170
182
188
187
186
182
179
182
187
194
200
200
199
200
200
198
197
193
195
202
206
203
200
199
203
199
195
195
197
198
197
197
195
193
192
193
198
205
210
211
200
202
204
203
201
201
206
210
203
204
205
205
202
199
199
201
186
182
180
193
186
174
179
170
142
141
167
154
132
138
115
152
165
140
138
129
142
139
128
124
108
127
127
117
122
116
134
130
120
119
126
136
135
129
130
141
144
166
141
132
167
159
143
177
178
155
179
189
179
187
202
213
210
210
208
183
180
167
198
197
184
170
152
153
172
162
149
121
130
142
139
116
95
49
93
126
150
175
139
99
117
119
117
104
106
126
126
104
99
118
122
106
111
113
126
124
132
126
136
140
144
144
144
143
144
148
154
159
154
153
156
164
169
168
165
164
167
166
173
178
176
166
164
182
164
162
154
137
120
112
155
105
89
62
45
38
46
37
38
34
30
29
27
25
24
23
23
23
23
23
24
25
26
28
28
29
32
95
93
101
99
92
88
88
89
93
98
95
85
79
78
75
79
75
65
59
70
94
113
119
87
76
57
35
61
95
89
93
86
135
175
202
210
196
190
191
209
209
210
211
210
206
200
196
191
191
190
187
185
184
181
177
169
170
172
173
172
170
167
164
155
155
149
144
142
138
138
144
139
152
145
125
120
131
139
140
138
133
129
130
136
142
144
144
154
154
154
156
158
158
156
154
151
158
151
137
125
127
127
124
133
126
123
140
149
130
119
127
143
131
122
124
139
161
168
159
169
169
159
151
159
162
157
156
160
162
142
130
147
159
165
182
184
190
187
181
178
177
178
184
174
184
191
191
190
194
201
205
217
212
207
205
206
208
212
216
211
210
209
209
209
206
203
201
198
203
206
207
208
209
206
202
199
194
191
194
201
204
202
198
200
200
199
197
195
195
197
198
187
194
193
194
184
173
178
171
159
141
143
167
189
162
161
168
152
122
116
127
137
138
131
145
150
137
142
129
119
131
100
115
111
109
110
104
119
124
130
124
141
138
154
174
168
151
154
169
158
165
184
188
179
183
195
207
212
210
203
191
187
177
189
177
191
170
159
157
138
97
95
89
117
140
94
72
72
74
92
182
157
124
124
128
121
122
146
133
124
118
125
124
110
113
125
122
99
95
98
94
101
98
106
108
123
125
129
134
139
143
145
146
153
148
145
148
152
155
158
161
161
168
168
159
166
177
170
161
185
205
172
151
160
119
120
95
79
85
77
111
62
28
39
31
30
29
27
25
24
23
23
23
23
23
24
25
26
28
28
29
30
96
98
104
99
91
89
89
92
100
99
90
84
80
78
80
72
80
88
92
101
107
95
77
82
112
117
109
137
178
195
194
204
203
180
169
174
178
192
206
208
209
210
211
209
206
201
197
190
191
190
188
186
183
179
174
179
178
175
173
169
164
158
155
154
154
147
141
141
139
135
134
123
124
122
128
144
152
142
132
129
143
157
159
150
139
136
138
137
138
141
144
147
148
146
145
148
148
137
140
135
147
141
138
154
152
145
139
138
134
136
145
143
144
146
147
152
166
173
169
171
161
148
153
170
167
147
130
136
145
135
139
170
179
177
192
193
182
166
166
184
200
203
203
190
191
189
184
183
190
199
205
203
204
203
200
198
199
201
202
206
207
208
209
209
208
206
204
212
215
213
206
204
208
207
203
200
194
190
196
206
211
205
198
198
201
201
198
198
201
201
198
192
202
198
195
193
185
174
160
139
140
144
137
164
177
172
158
140
128
118
123
121
135
125
129
134
130
126
131
120
115
101
115
109
114
124
105
114
108
123
118
116
97
116
137
128
145
169
163
159
173
171
175
179
179
187
199
205
200
200
190
198
188
197
180
168
194
174
157
144
98
95
89
117
119
66
48
68
164
158
133
149
134
141
131
125
116
116
110
129
135
126
114
112
111
114
126
136
131
132
130
134
128
127
124
133
134
137
143
149
152
152
150
148
147
149
154
160
162
164
165
169
166
165
169
169
163
162
165
139
83
91
81
61
65
80
44
28
42
62
56
37
33
42
30
29
28
26
24
23
22
22
22
23
23
24
26
27
29
29
29
31
101
105
109
100
92
92
92
97
103
94
82
83
86
86
91
97
93
89
84
80
74
68
65
96
107
112
127
120
92
94
109
130
142
145
169
201
210
207
202
205
205
206
206
205
203
201
199
192
192
191
188
186
185
181
177
176
174
170
168
165
162
158
156
153
155
148
141
143
145
140
137
140
143
146
147
142
130
129
140
159
158
158
157
155
150
144
139
148
148
148
149
151
154
156
157
154
151
150
166
169
167
153
149
150
135
129
127
125
122
130
152
140
140
153
171
175
169
162
155
144
149
161
169
163
151
151
162
177
176
174
171
171
175
179
178
167
172
170
166
170
176
184
194
194
189
184
182
185
189
191
190
185
193
201
205
211
217
219
216
209
211
211
211
211
213
214
214
217
215
207
197
199
208
212
208
202
202
203
206
207
207
204
201
197
202
205
205
207
208
204
196
190
200
194
188
189
182
168
163
163
153
146
153
147
140
108
107
123
126
123
125
126
136
126
117
113
117
109
118
122
92
107
108
103
108
125
119
121
105
117
122
106
109
115
107
94
107
138
157
144
148
136
158
175
183
194
202
198
189
198
176
190
175
191
177
182
160
164
127
123
142
131
119
79
106
56
121
188
130
84
99
104
131
139
111
127
126
108
113
115
118
137
133
106
108
123
114
136
137
142
147
151
149
149
149
139
138
137
139
141
143
144
143
156
157
159
162
164
161
158
155
154
158
155
151
148
145
133
110
126
134
113
115
114
65
59
34
19
51
70
26
33
38
32
34
30
29
27
26
24
24
24
24
25
26
27
29
30
31
31
31
34
107
114
114
103
95
96
97
102
102
88
78
84
89
87
90
77
76
76
77
77
74
74
76
78
69
55
83
109
103
92
71
86
146
178
183
188
197
210
212
211
209
207
204
200
197
195
194
192
191
188
184
183
183
182
179
175
174
173
171
168
162
154
148
137
142
138
134
139
144
145
146
142
145
141
138
144
150
154
159
176
168
159
156
158
159
157
153
150
149
147
146
146
149
152
154
160
165
173
166
161
147
141
134
114
121
122
100
99
123
124
115
124
129
142
149
141
141
156
171
167
163
161
157
151
149
153
158
169
167
165
158
155
169
182
182
177
189
195
192
189
184
182
185
177
180
186
193
197
197
194
191
186
188
189
190
196
205
208
205
211
214
214
212
211
213
213
212
205
204
200
199
206
215
214
206
205
207
209
208
204
200
197
195
197
200
201
202
204
204
197
188
181
191
191
180
171
162
162
179
154
169
144
163
136
106
139
170
164
145
131
124
123
109
113
117
111
104
104
106
123
112
111
106
114
105
103
108
115
112
106
101
115
115
113
114
107
91
94
117
140
145
136
154
151
165
183
186
191
184
189
181
186
182
183
171
169
175
167
162
151
90
87
133
77
40
149
162
91
97
126
125
131
122
137
126
125
127
123
116
119
111
96
99
116
116
110
119
122
124
126
127
123
124
130
139
146
147
147
147
147
148
151
154
150
149
146
145
147
152
156
158
158
163
159
156
145
142
151
142
125
115
135
134
119
110
109
98
101
88
31
33
41
43
35
38
34
33
31
30
29
29
29
29
30
30
32
33
35
35
35
35
37
115
122
120
108
102
106
108
105
97
85
81
85
86
81
79
75
77
75
71
75
82
82
76
80
94
83
74
78
106
147
157
182
196
189
191
211
221
219
208
211
210
208
204
200
196
194
193
193
192
188
183
182
183
183
181
184
179
173
169
164
159
152
147
146
149
145
141
143
144
144
148
145
149
151
153
154
151
152
162
159
163
166
166
162
156
150
147
147
149
152
154
156
159
162
164
166
173
173
147
147
147
149
133
136
111
115
115
110
110
108
124
145
137
134
143
161
179
178
162
128
144
155
146
137
150
168
171
164
173
170
169
182
185
178
178
183
182
176
177
186
189
181
176
177
181
187
190
189
187
191
196
199
197
194
193
196
199
197
194
199
205
209
210
211
212
209
204
203
200
199
203
212
218
215
208
206
205
205
206
208
207
203
199
202
197
194
194
197
196
191
185
179
181
187
180
173
165
160
169
160
171
156
142
153
145
144
113
110
104
104
104
111
93
96
89
96
107
90
109
111
111
113
111
121
111
97
97
105
115
107
96
104
92
87
96
104
101
92
85
82
101
106
112
96
128
167
189
192
190
186
198
187
199
169
153
182
188
164
143
139
127
139
120
107
173
138
65
84
121
122
110
125
98
116
125
126
133
139
116
142
120
113
110
103
118
131
118
127
131
131
133
124
125
127
135
130
134
140
144
145
147
149
152
147
147
144
143
146
155
162
166
171
164
164
182
172
155
168
168
170
173
98
61
81
57
47
67
74
41
37
54
43
32
30
34
34
33
32
31
31
31
31
32
34
35
37
38
39
39
38
37
38
123
131
128
116
115
121
123
106
92
83
84
83
81
79
75
80
83
85
85
83
79
73
67
81
76
85
113
129
137
160
178
192
204
204
214
220
207
207
214
201
203
205
205
203
200
199
198
196
194
190
185
183
184
184
182
178
173
167
165
167
169
169
169
171
170
164
159
157
151
146
148
153
140
129
139
157
159
154
154
153
143
135
137
145
146
138
129
135
139
144
149
154
158
162
164
169
167
159
147
151
158
153
138
133
117
122
106
95
107
109
119
115
126
144
157
162
162
149
129
135
135
140
145
149
160
159
144
154
150
153
164
172
170
166
167
169
177
177
173
172
173
178
185
181
178
174
172
170
170
176
183
180
182
188
196
202
204
203
203
199
205
209
211
215
219
216
209
212
207
204
208
212
213
212
211
206
205
205
207
209
210
208
205
203
194
189
194
199
197
193
191
188
178
182
178
178
180
162
148
173
161
162
131
131
123
105
101
118
111
90
81
83
86
102
101
96
109
91
105
96
88
93
95
96
94
97
96
102
102
108
109
86
94
94
89
90
98
104
106
98
108
103
105
89
109
131
175
202
197
196
199
185
188
153
135
208
173
181
146
153
137
97
155
206
128
66
75
120
126
126
139
117
112
117
120
127
125
126
105
91
121
135
120
104
99
104
111
110
114
116
130
131
140
139
144
134
138
144
149
153
155
155
155
162
164
162
158
157
158
158
156
153
158
153
164
166
162
145
89
52
51
94
58
17
17
14
65
68
19
45
33
39
45
40
37
35
34
34
33
33
34
34
35
38
39
40
41
42
41
41
40
39
129
137
134
124
125
133
136
107
87
81
85
80
79
83
82
81
74
77
86
83
75
82
98
118
138
158
161
164
179
183
173
187
208
209
209
213
207
205
204
193
197
202
205
205
203
201
200
196
194
190
185
183
183
182
180
179
177
176
177
179
178
174
170
166
163
157
156
156
147
139
141
109
135
144
133
134
144
147
143
144
144
144
144
144
146
148
150
144
147
150
153
155
159
164
168
164
161
155
164
152
142
125
123
126
112
127
115
99
106
108
123
147
141
144
147
142
140
147
154
149
137
145
161
160
154
155
154
161
134
152
176
157
152
165
158
149
161
171
180
189
192
190
191
182
172
167
171
179
181
179
176
180
182
189
199
203
203
205
210
205
208
209
208
211
216
214
208
217
213
213
216
215
208
205
207
207
209
209
206
202
199
199
200
199
189
187
198
206
203
198
197
196
182
182
168
163
177
164
146
159
173
157
150
117
98
102
117
97
89
74
99
97
91
95
104
107
79
99
80
92
96
72
91
83
77
94
95
100
68
75
84
77
91
89
96
116
109
105
130
120
109
94
110
108
101
83
136
199
191
211
192
198
186
177
165
185
184
161
141
135
116
153
202
139
119
134
124
156
146
140
161
153
146
147
151
143
125
141
134
115
99
101
119
127
129
128
122
110
106
99
113
119
135
134
138
153
153
154
158
162
163
162
159
156
159
159
156
156
159
161
160
157
162
157
161
146
139
154
132
126
119
121
95
136
128
35
77
47
44
37
46
38
40
36
42
39
39
38
38
38
39
40
41
40
41
42
43
43
42
41
41
42
132
143
139
120
122
136
135
110
89
80
82
80
83
86
81
80
82
81
91
90
91
119
130
141
125
114
127
141
126
155
179
165
163
181
183
172
162
164
193
205
210
214
213
211
210
205
200
200
197
193
189
186
184
183
182
184
178
172
171
173
172
166
161
158
152
149
143
135
134
136
135
134
145
151
145
137
135
135
134
134
127
127
133
130
118
114
119
128
132
128
132
147
151
149
155
146
146
143
146
148
134
127
140
126
121
104
98
121
114
113
101
117
111
126
116
130
151
158
146
134
138
131
125
137
154
158
157
167
164
174
176
161
159
165
161
159
169
174
168
167
182
190
183
173
169
169
176
185
191
197
202
191
191
205
204
199
210
213
209
197
206
218
212
202
217
226
210
212
209
205
202
202
204
207
209
205
204
207
212
213
209
206
206
201
190
183
189
200
204
198
192
189
200
192
159
142
166
155
153
184
148
123
108
90
95
102
87
88
86
92
97
98
102
99
88
85
106
102
77
78
102
100
71
76
74
72
73
71
71
76
82
87
81
84
98
109
110
108
111
124
117
106
90
92
115
93
99
176
198
196
202
204
184
201
184
185
170
179
160
137
193
200
156
120
90
109
110
104
101
113
122
126
130
115
108
115
113
113
120
135
143
121
102
113
131
137
130
136
124
108
100
105
119
133
141
147
154
160
158
151
148
152
158
154
154
154
156
160
163
164
165
172
166
169
177
175
163
160
167
153
145
92
95
100
60
75
64
28
34
40
43
42
42
41
39
40
40
40
41
41
42
42
42
45
45
44
44
44
43
43
43
43
134
145
140
120
121
135
134
112
92
82
82
79
80
81
77
77
81
80
93
92
85
93
91
78
95
91
84
73
106
125
117
108
153
159
157
155
172
213
212
214
217
218
215
213
211
208
204
201
199
195
189
185
182
181
181
170
168
165
164
163
161
158
155
159
156
158
157
152
152
154
152
148
137
134
138
128
111
113
129
121
120
119
118
117
120
133
147
138
142
139
141
146
140
134
139
147
153
152
148
152
151
137
123
134
123
111
119
102
114
77
100
87
107
121
133
130
130
136
129
148
132
125
142
155
146
143
157
163
155
148
152
164
170
166
164
166
167
171
177
178
172
167
165
182
180
184
191
191
185
185
190
186
180
192
196
194
200
200
200
209
203
211
217
211
209
216
218
210
210
210
210
211
210
208
206
204
207
209
209
210
211
210
206
185
186
188
192
198
202
200
194
169
185
186
200
197
169
150
155
148
122
106
107
100
96
101
93
104
90
93
95
82
85
93
83
97
95
89
84
91
99
92
77
69
67
69
73
74
72
71
73
78
74
76
87
96
102
112
125
111
108
111
96
88
107
94
78
147
184
207
205
200
189
175
185
189
199
175
144
170
184
133
154
159
115
109
130
126
111
112
131
133
105
131
135
106
114
115
88
84
90
136
122
100
119
119
127
113
123
134
136
130
124
123
124
125
133
143
148
147
146
146
148
153
153
154
157
161
164
166
166
174
178
173
159
150
150
149
145
168
120
129
126
102
105
105
50
46
44
40
35
35
39
42
42
42
42
42
43
43
44
44
44
45
45
45
45
45
46
46
46
45
140
150
143
126
128
138
137
113
95
83
82
83
85
86
82
85
86
79
88
100
104
109
109
115
107
97
130
166
171
121
98
153
175
189
181
185
208
218
218
217
217
216
213
210
209
207
205
204
202
198
192
187
183
182
182
179
180
180
177
174
170
169
168
166
156
154
161
165
159
140
117
101
94
97
114
131
137
141
147
147
143
140
147
157
155
137
117
137
140
142
144
145
140
143
156
134
130
136
147
155
155
144
128
124
120
118
110
131
88
110
100
87
125
130
114
118
166
167
152
150
146
134
125
128
138
137
124
154
188
186
160
160
169
166
163
171
167
152
149
172
187
181
172
184
193
200
200
194
190
189
189
191
182
192
200
202
204
202
205
218
207
207
215
213
203
206
219
212
212
212
214
214
211
206
201
206
214
216
211
209
211
207
198
182
185
196
207
206
197
194
198
205
179
151
159
153
148
176
149
104
108
106
109
103
95
97
92
83
89
88
87
90
84
81
88
93
83
75
77
81
79
71
64
63
62
61
64
66
65
62
59
60
59
61
68
72
79
97
116
116
112
123
109
91
94
91
62
133
190
210
203
195
186
154
166
192
161
166
195
162
131
112
93
140
164
125
106
118
128
111
117
124
117
100
133
153
121
116
132
109
79
69
92
113
110
111
131
124
119
114
115
122
129
133
134
133
137
143
147
150
152
156
158
160
158
155
153
153
154
154
154
162
172
183
188
183
171
159
151
117
138
153
125
127
115
92
100
96
85
68
52
44
42
40
38
44
44
45
45
46
46
46
47
46
46
47
47
48
49
49
49
48
146
150
145
136
140
148
145
124
105
87
83
88
92
91
87
80
87
85
92
109
110
101
96
94
111
157
134
95
87
121
148
136
145
183
202
219
228
212
215
215
214
212
210
208
207
206
204
205
201
196
192
190
188
184
182
176
175
174
170
166
162
161
161
145
142
143
140
133
133
138
139
150
161
165
153
133
123
125
131
130
142
153
149
138
130
133
138
140
125
115
124
136
136
131
129
127
139
164
174
155
140
139
138
131
133
120
126
106
121
94
98
106
112
112
121
142
163
154
156
138
83
85
124
118
103
125
155
166
157
147
153
166
162
154
160
142
168
172
165
174
177
167
164
175
193
199
190
186
195
197
190
178
174
184
190
193
197
194
198
211
211
207
205
207
207
209
216
220
217
213
211
211
209
203
199
205
212
216
212
208
204
196
187
184
192
200
201
195
187
179
174
180
170
166
174
172
164
163
89
74
111
115
104
94
87
89
79
71
68
85
93
83
88
95
80
83
83
79
71
68
68
67
61
70
65
59
55
55
56
58
59
61
59
60
63
66
70
83
98
108
107
117
109
98
87
92
71
98
180
189
187
199
198
183
175
208
178
200
200
165
158
140
161
156
147
107
95
98
120
135
128
119
118
118
95
121
166
145
118
134
135
100
77
71
62
71
83
107
110
112
110
110
118
133
146
149
151
153
154
155
158
162
165
166
164
161
161
162
166
170
172
164
162
162
165
168
170
175
179
166
155
131
113
89
56
68
55
50
47
43
40
42
47
50
51
47
47
48
48
49
49
49
49
48
49
49
50
50
51
52
52
50
146
144
143
146
153
156
151
145
122
94
83
89
92
87
83
83
96
92
91
115
127
122
130
141
151
159
138
155
157
158
176
207
224
214
213
208
204
222
216
217
215
214
213
212
210
207
206
202
196
190
189
191
190
185
181
184
181
176
173
171
170
168
167
158
158
161
159
154
158
170
176
168
157
150
151
151
146
144
147
148
129
113
116
126
130
128
125
106
113
126
132
126
124
136
151
163
160
153
137
130
147
160
151
142
132
137
116
114
104
99
94
109
122
95
122
166
162
169
128
133
118
144
162
134
126
138
124
101
113
140
148
121
107
134
167
171
162
144
146
168
173
168
175
183
191
194
190
190
195
196
192
189
194
203
201
203
210
207
211
206
211
207
201
204
210
213
216
222
217
211
209
208
206
202
198
206
208
213
216
213
207
202
201
207
216
212
197
193
199
191
172
160
165
165
159
172
146
112
85
63
101
99
92
89
81
82
71
71
89
81
71
86
91
82
85
78
80
75
66
63
67
68
63
72
70
66
60
55
56
59
63
68
63
59
61
66
70
75
82
105
120
122
107
109
98
96
80
74
160
194
185
195
196
194
176
184
204
152
149
183
171
116
86
112
151
173
186
181
135
130
143
138
127
123
130
98
94
145
154
108
105
139
131
116
125
106
97
94
104
113
115
113
112
117
123
134
140
147
151
151
150
152
154
158
158
159
161
162
164
165
166
167
170
157
133
122
123
113
94
148
160
112
102
99
39
37
34
37
41
45
45
46
49
50
50
50
50
51
51
51
52
52
52
52
52
52
52
53
53
53
53
53
143
135
141
155
163
159
156
158
135
100
82
86
89
86
85
83
115
127
127
150
153
132
140
151
123
126
155
149
154
163
183
165
183
196
204
209
213
219
215
221
217
215
215
214
210
206
205
202
196
190
190
193
193
188
182
183
178
173
172
173
174
171
169
171
164
163
168
171
169
158
143
141
147
150
148
148
153
158
159
148
143
144
153
158
152
146
144
168
154
148
150
152
156
156
151
143
132
129
140
159
169
155
132
137
138
127
134
117
93
112
112
118
105
131
130
154
157
134
135
83
90
110
108
81
77
83
68
105
88
78
77
97
142
163
145
125
143
159
175
190
185
171
168
186
179
181
194
199
192
189
194
196
205
211
204
206
212
207
213
216
213
211
209
206
204
207
211
211
208
206
205
205
202
198
195
188
188
192
197
198
196
198
203
208
194
184
186
191
191
190
190
187
166
161
142
142
134
102
92
66
80
66
82
95
86
88
79
82
81
84
82
81
92
94
78
83
72
63
63
64
61
59
58
60
62
63
59
55
55
56
56
64
57
51
55
62
67
72
74
94
120
123
105
114
118
104
85
42
103
191
192
189
198
196
194
200
170
156
136
118
138
128
124
128
115
127
129
135
157
195
180
152
141
140
130
134
129
108
122
150
105
87
94
116
129
120
121
128
126
125
127
131
134
135
134
124
130
136
140
142
145
150
155
155
159
162
164
163
160
157
155
160
169
175
174
171
162
141
120
109
101
102
124
141
126
116
76
42
46
48
47
47
50
53
55
54
54
55
55
55
55
55
55
56
56
56
56
56
56
56
56
56
142
133
146
167
171
163
161
164
145
108
84
86
91
94
101
124
149
143
116
125
125
107
122
137
145
132
138
138
145
152
170
179
174
199
205
212
219
206
219
219
214
211
211
211
207
204
203
204
200
196
194
194
192
189
185
184
181
178
178
179
179
176
173
172
170
171
168
160
157
158
155
152
151
141
129
129
133
121
102
106
114
125
131
133
133
138
142
134
126
126
128
130
140
145
138
134
137
146
158
158
144
141
152
151
134
146
139
113
113
103
123
108
129
96
123
157
147
118
9
39
55
44
27
40
60
79
103
107
108
113
122
131
137
135
128
146
147
141
137
152
175
184
179
174
167
170
184
193
190
187
190
200
204
207
202
207
209
203
212
220
214
216
216
204
200
205
204
205
204
203
202
201
199
196
194
195
199
204
205
205
205
206
207
206
183
177
195
203
193
194
209
195
155
157
143
115
126
104
69
70
72
53
80
99
91
99
88
78
91
87
88
102
96
79
80
83
69
63
68
67
60
57
62
55
55
52
47
45
48
51
51
59
57
56
59
64
68
72
74
71
78
94
97
107
126
111
99
64
68
158
201
185
186
182
179
194
184
185
203
156
123
123
111
116
97
86
81
94
105
114
129
152
154
138
124
112
113
123
107
122
145
119
98
98
96
105
107
113
122
131
130
124
123
131
140
140
140
140
142
145
152
158
162
162
166
172
177
180
181
183
184
187
179
176
180
181
179
182
188
176
160
172
160
125
107
112
83
72
70
63
56
52
54
56
57
58
58
59
59
59
59
58
58
59
59
59
59
59
59
59
59
59
144
136
154
176
177
168
167
169
154
118
90
87
92
99
114
119
146
136
108
122
132
121
146
168
164
146
123
121
126
159
158
171
193
201
209
204
197
211
214
216
210
206
207
208
205
203
204
202
201
199
196
191
188
186
185
180
179
178
178
177
175
171
168
173
168
169
170
167
165
161
153
149
140
135
135
128
121
125
137
138
134
124
114
112
114
107
96
111
114
127
136
137
144
141
125
134
146
147
142
143
141
144
156
144
142
138
134
124
118
130
119
108
105
112
151
155
132
65
1
58
89
59
33
57
47
29
56
34
60
62
59
81
105
116
122
101
114
139
157
156
153
158
163
178
182
183
184
193
203
203
196
196
195
195
197
206
205
197
210
209
209
217
214
200
205
213
204
211
208
205
202
199
199
199
199
195
205
210
205
200
200
195
187
192
193
193
194
197
196
192
188
183
165
175
180
147
135
102
78
71
77
59
80
94
90
103
87
96
95
94
100
102
87
71
71
60
60
61
63
62
59
60
67
67
60
46
36
36
45
54
57
49
52
57
62
62
63
65
68
87
64
85
107
104
122
107
105
82
42
100
198
190
187
195
179
183
180
165
148
111
97
99
114
121
109
103
103
100
112
95
100
92
115
149
154
135
124
121
122
114
117
144
130
112
119
115
119
124
124
125
128
131
135
139
140
152
151
151
154
158
159
158
156
162
163
164
164
166
171
178
182
183
189
190
183
181
185
186
183
178
183
170
155
137
100
100
92
79
74
63
54
52
56
59
59
61
61
61
61
61
61
61
61
61
61
61
61
62
62
62
62
61
145
133
165
196
187
174
173
172
160
124
92
92
102
110
120
133
154
146
132
136
132
136
152
162
159
158
146
142
137
142
181
192
192
177
168
189
212
217
214
214
213
210
208
207
205
202
200
203
200
197
196
195
191
186
181
180
180
180
179
179
178
178
177
174
180
183
180
173
167
162
158
165
157
145
140
146
152
145
132
126
113
110
125
126
123
137
149
153
151
153
145
134
139
147
142
130
148
148
137
134
142
150
146
147
152
152
143
136
130
117
103
117
125
135
138
135
135
90
3
36
101
75
39
30
25
15
30
28
22
20
33
22
44
47
86
118
150
166
135
130
126
108
138
175
165
189
189
182
188
183
196
194
194
190
188
200
215
213
201
207
216
216
209
206
208
204
196
202
209
207
202
202
201
199
201
203
197
192
181
187
179
179
177
192
181
192
188
181
183
172
169
175
175
174
165
137
114
98
74
80
63
50
82
116
110
105
94
97
98
96
86
77
70
66
65
56
54
53
56
61
63
55
46
38
37
43
42
33
38
52
54
53
51
56
58
54
61
70
68
70
61
75
89
101
116
119
118
86
62
74
174
199
181
181
184
179
177
172
156
142
121
115
95
123
111
113
118
104
96
107
120
114
119
102
120
151
146
120
89
104
104
102
123
114
107
111
111
129
129
120
127
133
121
121
130
123
128
136
144
151
155
154
150
161
163
167
169
171
173
175
178
175
179
188
186
180
187
190
176
180
162
112
115
55
17
29
30
41
47
54
57
57
59
61
62
62
63
64
65
65
65
64
63
63
63
63
63
63
64
64
64
64
148
137
168
197
186
173
170
170
162
132
104
105
117
126
136
134
151
143
134
138
132
134
150
152
148
161
157
138
138
149
156
168
158
184
216
218
217
220
210
214
212
209
207
204
201
197
195
194
191
188
184
181
179
177
176
175
175
175
176
177
177
178
178
170
169
167
165
167
166
161
154
139
150
160
160
152
140
128
120
140
136
148
147
149
157
142
132
146
148
141
128
126
140
145
134
147
150
146
131
141
152
137
138
157
151
149
150
141
127
118
119
134
138
133
135
128
142
100
1
34
102
67
65
41
25
31
46
22
27
34
71
80
82
82
59
55
86
94
119
169
160
133
162
164
164
161
166
182
184
178
190
194
188
186
194
204
206
210
222
213
209
206
207
206
202
200
202
197
197
194
193
193
188
187
194
198
198
198
191
197
188
187
185
177
154
157
169
183
191
182
184
171
153
141
129
110
108
107
83
81
70
60
114
121
102
88
110
98
93
85
77
70
66
60
56
47
52
54
50
44
41
42
41
33
29
33
34
32
43
51
45
52
43
46
57
55
47
44
44
47
47
50
55
74
89
94
110
83
49
57
160
175
154
151
180
169
175
178
147
118
96
95
90
108
111
109
110
116
115
110
111
113
107
123
125
117
144
162
143
83
93
90
89
140
114
94
114
110
119
114
133
145
137
142
138
140
139
137
135
139
149
157
161
158
159
162
163
164
167
169
172
169
164
170
178
176
179
186
184
176
180
164
168
124
107
102
68
57
55
56
60
63
61
63
67
62
63
64
65
65
65
64
63
64
64
64
64
64
65
65
66
66
151
140
169
196
189
178
173
168
150
119
105
120
137
142
140
142
148
134
122
128
129
134
153
148
136
148
174
167
150
153
151
178
210
217
210
216
213
209
221
214
212
209
207
204
201
198
196
191
192
192
190
187
183
181
181
179
177
176
174
172
171
170
170
177
171
162
157
157
160
160
156
169
162
155
151
149
148
149
152
155
155
139
134
116
107
138
150
145
136
129
137
151
152
146
143
156
147
129
146
145
120
134
155
150
148
149
146
130
113
115
128
133
130
135
146
123
146
121
1
3
104
70
56
88
1
16
42
56
87
83
75
72
41
37
38
48
76
113
138
141
168
190
165
164
181
156
146
165
156
143
149
160
177
189
196
206
205
205
214
219
210
205
205
205
204
204
207
211
204
197
194
191
180
177
186
180
188
200
198
202
185
175
168
172
168
175
188
201
196
178
175
170
146
129
146
161
126
82
73
78
61
72
128
114
98
102
123
107
90
69
55
48
41
31
22
24
25
24
20
19
20
21
20
26
26
30
30
29
42
50
41
38
25
18
24
29
23
16
22
16
24
20
16
33
43
46
75
64
50
57
157
169
168
165
198
171
163
162
132
125
125
118
112
109
104
112
116
106
111
119
110
119
114
118
116
117
104
98
142
152
85
81
94
88
135
118
108
118
137
125
112
100
100
121
117
123
130
138
143
145
145
142
139
151
155
161
165
167
167
166
165
177
170
173
179
178
177
181
178
176
181
174
174
161
147
121
83
59
53
54
61
63
59
60
68
64
65
66
66
67
66
65
64
64
64
65
65
65
66
66
67
68
152
138
163
189
188
180
169
160
134
110
112
132
142
141
136
152
148
126
103
109
124
136
155
151
147
130
142
153
145
171
208
200
196
208
222
218
213
214
212
214
212
210
207
204
201
197
195
186
186
186
185
183
181
180
179
171
171
171
172
174
177
180
181
175
176
174
169
166
167
169
170
168
147
129
127
135
141
146
149
142
131
134
119
134
170
157
139
131
138
142
146
145
132
132
151
118
103
148
151
121
144
161
154
152
154
152
141
129
123
125
129
128
134
140
143
132
144
134
35
11
81
85
35
93
73
36
85
96
76
56
42
68
72
60
82
71
56
40
36
45
62
71
66
76
132
159
165
176
171
167
183
172
188
191
191
199
203
205
216
214
213
205
196
196
205
206
199
204
199
191
187
184
174
169
174
185
193
203
201
204
185
172
162
170
179
175
168
181
191
188
188
182
163
150
123
96
95
97
91
87
68
103
131
110
107
123
99
76
57
34
23
22
21
17
12
11
9
6
6
11
16
17
14
18
25
33
29
23
35
45
38
25
22
8
3
15
21
19
21
13
19
19
13
20
23
24
44
48
53
53
163
170
169
161
181
173
179
201
182
188
193
179
175
158
141
107
102
124
119
102
107
101
95
103
104
102
100
91
92
116
143
109
83
88
102
136
101
112
105
109
129
133
120
114
114
125
129
134
137
141
143
142
140
146
148
152
156
159
161
162
162
164
169
173
173
176
181
180
170
154
140
138
107
75
100
140
139
106
82
59
57
65
70
65
61
66
67
68
68
69
68
67
67
65
65
66
67
68
68
68
69
69
149
136
159
183
184
175
157
142
127
126
139
145
140
139
143
157
152
132
101
103
125
133
144
148
154
136
149
179
184
178
164
171
189
215
220
203
199
210
217
212
210
207
203
199
194
190
187
187
183
177
174
174
175
174
174
177
175
171
166
162
159
157
156
161
164
164
160
155
151
146
142
115
118
131
147
152
145
139
139
131
134
132
154
146
123
136
137
142
153
142
124
126
132
130
127
133
161
139
137
153
147
151
149
155
150
141
136
136
137
133
127
143
154
140
121
142
141
138
87
0
29
97
49
68
47
60
26
12
1
33
77
65
58
48
47
64
64
82
76
66
70
92
142
174
159
159
154
160
172
172
191
195
190
186
195
201
193
193
210
207
205
197
188
189
196
195
187
186
189
185
182
184
183
179
178
200
198
196
187
194
185
182
180
187
193
181
174
184
185
175
165
155
167
163
145
145
124
84
81
69
78
102
123
95
116
100
62
37
23
10
7
10
11
10
8
5
9
11
8
7
9
14
16
11
18
27
24
17
29
39
30
17
20
14
12
21
21
15
16
17
13
21
21
16
20
22
28
36
37
31
171
177
159
151
164
188
181
178
137
130
128
114
117
157
168
169
139
100
93
100
93
84
90
85
94
105
107
106
93
97
113
154
142
102
91
121
140
101
96
104
96
97
108
117
142
124
122
118
118
123
132
137
137
147
145
142
142
145
151
157
161
165
171
173
173
176
177
172
163
156
163
124
60
60
79
68
61
71
97
102
77
60
69
74
67
67
67
67
68
68
68
69
69
67
68
69
71
71
72
72
72
70
142
136
160
181
186
178
156
127
121
134
156
161
155
153
153
155
152
146
118
115
130
126
130
129
133
145
153
146
154
174
171
202
216
197
179
204
224
215
205
206
204
202
199
197
194
191
188
187
184
182
182
182
178
172
166
160
160
160
161
162
164
166
166
166
159
150
145
147
149
146
141
150
151
155
158
150
138
135
138
147
136
144
133
135
153
149
151
145
142
129
122
132
142
136
125
155
122
135
148
150
158
156
164
144
140
139
140
135
128
130
137
153
139
137
124
138
146
152
110
40
6
66
77
37
54
45
39
32
2
9
68
66
49
47
27
3
10
27
31
62
74
76
138
160
94
82
97
126
157
163
183
192
189
193
201
207
206
207
205
206
198
192
193
194
191
187
186
192
196
194
191
195
196
190
186
194
188
182
173
185
183
188
189
178
174
161
162
164
157
163
169
147
125
142
143
109
83
73
87
68
73
106
61
98
73
72
36
21
15
11
12
11
5
0
0
0
0
0
0
2
6
9
8
13
12
17
18
18
30
35
23
15
10
9
14
14
1
0
3
4
0
7
10
7
16
20
21
21
26
31
176
183
173
169
170
186
187
186
159
156
142
120
117
111
106
107
144
173
135
92
101
129
121
121
136
122
111
126
114
107
95
87
132
129
99
76
109
125
117
110
98
112
123
108
113
134
135
136
138
144
149
151
149
152
152
153
155
158
160
162
162
163
161
159
164
166
156
148
153
107
143
124
101
118
111
69
70
70
52
60
92
96
68
59
74
67
67
67
67
67
68
68
69
70
71
72
74
75
76
76
76
73
137
136
157
174
182
182
163
133
131
142
154
158
163
166
157
153
148
153
135
128
134
124
131
140
122
137
157
163
175
195
210
213
193
200
215
210
213
221
213
204
202
201
199
198
195
193
191
179
181
182
184
182
177
170
164
174
174
173
172
171
170
169
169
173
166
158
156
161
167
167
162
150
142
134
133
137
144
155
164
155
145
139
158
158
139
134
122
123
124
133
139
130
123
134
149
122
133
136
143
143
141
143
126
139
144
147
142
131
126
132
142
130
127
138
139
141
160
147
121
52
0
1
47
120
104
86
73
37
8
2
36
86
82
76
56
49
3
3
3
1
4
24
47
54
38
59
76
84
105
138
174
161
164
170
170
173
196
210
200
204
199
195
198
198
194
191
190
192
192
189
191
195
193
187
186
185
181
178
170
180
178
184
187
177
179
179
189
177
157
163
164
160
157
164
146
133
123
90
79
89
87
69
57
46
72
44
22
12
10
10
12
11
5
1
2
1
1
1
0
3
11
12
10
13
9
13
16
17
26
31
20
23
11
9
12
4
0
0
2
0
0
3
4
10
15
14
21
22
24
54
175
174
179
169
166
179
191
188
159
146
125
125
140
127
117
96
93
131
174
176
155
121
151
136
114
122
118
105
109
104
80
85
72
125
134
82
46
88
88
78
101
118
94
94
127
129
133
136
138
141
148
154
156
153
156
162
168
172
172
168
165
169
168
167
171
172
158
149
155
167
132
126
143
113
116
113
90
84
88
83
72
71
79
77
67
69
68
68
68
69
69
69
70
73
74
76
78
79
80
80
80
77
139
136
151
161
170
177
162
146
153
160
152
141
152
166
160
155
143
151
139
132
134
126
143
144
139
142
149
174
184
170
181
180
201
213
215
215
207
201
206
209
207
204
200
196
192
187
184
185
183
179
176
173
174
178
181
169
169
168
166
165
163
162
161
158
161
162
157
147
135
121
110
137
141
149
155
156
152
148
146
154
154
159
151
137
134
134
136
143
135
135
135
129
134
144
143
141
143
134
129
140
138
131
145
139
143
137
124
123
133
130
117
100
152
142
133
158
170
115
142
64
5
5
2
118
129
85
84
45
2
2
15
71
88
72
35
44
57
34
4
2
1
4
0
4
66
127
157
155
153
165
168
156
152
174
191
187
199
213
207
194
199
197
192
193
198
195
186
180
177
176
186
196
194
191
197
183
178
171
157
163
160
170
176
174
170
162
171
173
179
198
192
172
155
167
144
111
105
89
80
81
40
47
29
30
63
65
9
19
12
9
9
5
1
1
1
1
1
3
1
0
0
9
16
9
8
14
16
9
14
22
18
14
10
12
8
0
0
4
0
0
5
5
3
16
14
2
17
27
6
61
181
176
175
159
175
188
186
165
143
145
125
123
128
178
204
201
174
148
127
137
173
82
57
63
59
48
51
45
44
65
63
68
82
61
91
115
59
38
76
45
51
82
83
100
98
108
120
134
141
143
145
148
150
150
150
151
155
160
165
168
169
169
177
172
160
152
134
113
106
106
129
129
144
116
107
97
104
101
94
90
92
91
84
74
69
71
71
71
71
71
71
72
72
74
77
78
81
82
83
83
82
80
128
133
147
143
140
153
166
161
163
169
156
147
157
163
167
151
146
149
144
124
122
132
130
139
137
110
101
137
158
185
182
192
202
207
205
204
208
212
211
207
205
204
202
201
198
194
191
188
184
179
174
171
168
166
165
162
159
158
160
163
165
164
163
159
154
146
141
142
148
151
151
151
157
153
145
147
150
148
147
141
129
120
121
127
127
116
104
106
103
106
99
116
140
128
115
114
108
120
140
144
138
140
146
150
134
134
138
142
134
114
108
156
134
126
159
163
120
134
131
108
26
18
2
64
137
101
93
41
3
13
5
53
82
79
33
6
54
61
14
3
29
40
44
43
63
34
48
89
101
124
138
134
133
163
178
181
193
199
200
196
194
195
196
197
187
203
191
178
186
183
175
197
195
192
193
185
197
188
173
172
170
165
170
168
155
163
170
187
169
142
131
131
165
173
119
89
97
112
81
77
77
73
11
33
28
17
12
10
12
19
13
13
2
1
1
2
1
1
6
1
1
11
17
8
13
16
14
11
10
16
21
15
12
12
0
2
6
1
0
0
7
5
12
17
12
13
18
31
1
62
179
175
181
162
175
184
193
193
191
209
218
183
153
149
120
135
153
159
134
128
134
158
162
125
123
118
82
90
105
92
91
90
100
91
91
127
146
82
82
84
52
64
63
80
95
109
116
125
133
138
142
145
148
159
153
151
154
157
160
168
177
183
179
173
174
170
144
109
89
70
55
68
69
82
111
108
89
101
100
99
98
98
96
88
80
79
78
75
72
74
76
75
74
75
75
76
79
82
84
82
81
79
128
135
140
128
120
134
156
170
169
173
160
151
161
166
169
148
131
139
152
144
126
123
147
133
133
121
116
166
191
192
191
201
208
211
207
207
211
214
213
210
208
205
202
199
195
190
186
182
180
176
174
173
172
170
169
165
165
167
167
164
157
148
141
147
150
152
152
151
148
142
137
132
139
138
130
122
117
117
122
114
115
119
122
116
106
105
111
125
108
102
102
106
104
98
101
102
113
132
139
128
122
131
140
133
150
161
142
127
135
142
151
127
135
158
167
151
139
144
122
130
57
6
2
27
139
102
113
51
9
13
8
17
70
92
73
29
46
31
3
2
4
4
2
3
1
3
16
38
88
124
108
149
169
179
166
184
203
194
206
206
207
193
187
193
190
186
207
193
176
176
169
169
172
183
171
200
196
191
184
179
182
178
168
178
171
179
167
152
128
136
165
198
181
141
148
180
155
83
93
80
132
129
13
23
10
11
11
17
8
7
3
9
2
2
0
0
6
0
0
0
0
3
20
12
13
13
13
11
12
15
18
12
15
12
0
0
1
0
9
0
7
16
14
16
17
20
11
13
2
119
151
153
155
168
181
173
172
185
182
164
149
142
148
134
135
108
86
111
136
115
102
108
146
189
137
119
146
142
113
122
127
116
106
106
116
136
146
163
165
168
130
122
101
99
104
103
106
112
121
131
139
145
147
151
154
158
158
154
147
139
132
129
155
157
149
156
156
153
163
127
114
91
86
88
68
58
68
77
84
93
100
102
100
93
86
90
87
81
76
75
76
76
74
75
76
77
78
80
80
81
82
83
130
135
134
125
117
131
157
177
174
176
163
153
158
155
153
148
135
134
137
148
145
127
130
108
135
150
129
151
171
169
185
175
184
191
196
202
209
213
212
214
211
207
204
201
196
191
187
180
177
175
174
174
174
172
170
171
172
173
172
170
165
160
157
152
149
142
134
129
131
134
136
130
125
121
128
139
144
140
134
137
140
141
138
133
131
129
127
112
102
101
119
122
107
105
109
119
120
119
109
99
105
114
114
136
133
135
129
131
138
136
138
149
161
153
137
145
160
145
145
126
104
20
2
3
133
130
120
115
25
4
13
10
48
81
95
77
54
8
2
5
1
0
2
50
101
121
124
84
67
117
125
165
195
184
182
196
192
198
210
196
214
215
199
179
175
159
192
188
178
165
155
172
177
189
200
196
188
194
195
186
188
187
169
168
165
174
169
189
201
200
191
182
158
136
169
155
126
116
112
64
111
110
34
35
12
7
18
6
1
7
8
16
6
3
1
4
2
0
0
6
3
3
20
16
14
11
10
13
14
13
13
14
10
11
9
40
7
1
0
0
1
14
18
19
5
11
9
11
50
152
154
175
163
162
161
176
193
191
161
130
89
71
96
118
126
145
152
137
162
158
140
96
97
114
159
145
92
148
146
129
132
132
132
147
153
146
153
169
155
155
148
179
181
167
150
140
132
121
117
119
123
126
127
141
149
155
156
158
162
160
154
145
150
152
137
122
129
136
127
94
93
79
102
80
58
56
65
75
79
82
83
87
93
98
101
102
101
96
91
89
88
86
84
80
82
82
81
80
80
84
88
84
131
131
131
136
137
147
168
172
168
171
161
151
152
142
135
131
131
120
114
123
139
138
116
115
116
139
153
146
119
111
140
163
175
189
201
211
218
219
216
215
213
209
207
204
201
196
193
186
183
179
176
176
175
173
171
167
167
167
165
162
159
157
157
147
145
139
133
132
137
141
143
146
149
152
151
149
151
152
148
149
135
124
122
119
112
105
104
93
108
111
116
107
101
125
140
131
128
126
124
128
138
136
123
125
118
125
133
139
141
141
151
134
138
133
152
171
164
121
118
121
107
31
3
7
68
137
135
137
69
22
4
6
52
71
43
70
84
37
2
18
74
129
130
144
116
94
82
84
80
85
125
167
166
169
167
174
187
191
188
209
205
204
193
173
180
172
168
181
189
189
187
205
188
177
185
193
194
203
204
191
184
179
167
137
142
180
198
197
170
158
160
174
182
165
114
125
111
89
122
82
85
77
79
60
39
15
12
13
9
14
7
7
1
1
2
1
1
8
9
0
2
18
19
16
14
10
9
11
12
11
12
15
22
1
27
8
0
1
0
4
1
5
3
17
4
7
17
38
149
137
139
171
189
183
172
187
179
173
132
108
112
110
87
86
89
98
106
97
93
105
150
163
125
114
111
155
152
113
128
143
142
151
146
149
159
157
167
157
165
181
166
164
159
167
177
178
169
159
153
152
155
156
156
149
151
151
152
157
167
175
177
175
172
164
165
156
122
118
157
166
147
133
116
118
66
58
52
56
61
67
72
79
88
94
97
103
106
109
108
107
106
102
98
90
89
88
86
85
86
88
91
91
130
130
131
141
148
156
170
164
158
161
154
147
148
138
131
120
119
111
121
112
116
152
147
121
118
130
145
118
109
152
188
184
192
203
212
218
219
216
212
214
211
208
206
204
201
197
195
194
188
182
178
177
176
173
171
175
176
175
171
164
156
149
145
139
141
142
144
149
155
157
156
157
161
161
150
136
137
136
125
122
105
103
113
107
89
93
114
137
134
119
127
140
144
147
131
133
131
133
133
132
136
141
139
144
148
154
144
136
138
140
147
157
138
142
168
144
138
133
110
117
118
82
1
2
28
133
140
132
121
89
29
14
52
42
3
24
75
106
132
127
94
71
36
4
3
0
12
4
25
100
123
100
113
160
140
143
179
154
148
170
170
182
194
192
177
182
171
185
176
186
187
185
180
192
191
200
206
203
199
195
181
167
167
164
168
186
177
182
185
171
144
115
103
109
137
147
125
140
121
86
87
60
61
46
50
31
4
2
1
5
1
3
1
1
1
5
1
1
0
0
30
40
16
14
13
11
8
6
6
9
11
12
21
7
0
5
0
1
0
0
7
2
0
22
35
23
25
93
174
118
159
177
154
166
198
179
194
176
120
116
114
113
120
120
114
116
113
124
118
113
124
146
147
141
147
147
179
169
108
96
98
122
119
116
136
146
152
162
158
168
162
166
168
169
169
175
174
172
168
163
157
152
149
155
153
155
161
164
165
168
173
174
173
177
171
168
183
164
105
121
97
101
103
89
113
106
77
79
77
74
72
75
81
85
87
94
100
107
111
113
114
114
113
103
100
97
95
94
94
93
92
101
134
143
141
143
149
157
165
164
154
154
146
139
140
131
126
124
121
111
124
113
109
145
149
152
134
120
139
130
133
149
136
190
195
202
207
209
210
209
209
211
208
205
202
200
198
194
191
191
185
178
174
173
172
169
165
162
161
158
155
152
150
147
146
149
153
157
160
164
165
164
161
156
150
147
141
136
142
140
122
113
115
117
115
108
105
109
115
101
109
118
131
132
125
125
124
131
123
117
112
104
106
118
126
133
132
141
146
150
153
148
153
140
145
153
160
145
159
172
145
140
109
114
44
2
3
80
151
127
131
133
108
58
70
42
42
91
117
114
86
36
0
3
2
3
1
1
6
86
152
125
93
95
113
118
131
158
165
150
134
104
129
152
183
193
142
147
173
184
187
195
190
192
182
185
187
188
189
178
179
191
184
170
175
177
158
175
181
175
148
126
110
110
123
150
143
130
161
134
90
89
99
52
26
44
55
62
41
11
4
1
1
3
4
6
1
0
0
0
15
51
54
28
13
11
12
10
7
3
2
7
11
17
22
32
30
24
76
19
10
0
1
3
9
43
52
22
28
84
143
154
164
181
162
175
159
166
171
203
195
181
156
153
147
147
128
135
117
113
117
117
91
95
127
114
103
90
101
113
165
149
126
129
144
148
145
136
132
146
143
158
162
166
171
169
165
160
163
165
165
164
164
166
169
153
151
156
165
169
166
167
172
173
177
166
157
166
166
142
118
116
76
72
80
37
52
58
77
100
92
80
69
67
72
77
80
86
92
98
102
106
111
117
120
117
114
111
110
109
107
104
100
101
138
155
156
153
160
166
163
165
155
154
146
136
133
121
115
119
121
113
108
115
116
112
117
170
151
138
155
149
145
151
169
184
189
198
204
208
210
213
216
210
207
204
201
200
198
195
192
188
183
177
174
173
171
165
160
159
156
153
153
157
161
165
166
153
160
165
164
159
154
150
147
146
140
147
148
135
136
146
145
150
155
146
129
125
130
124
109
101
97
104
110
115
119
120
129
124
120
121
124
124
126
128
124
131
132
145
150
148
143
135
141
147
160
158
135
143
151
142
136
132
121
129
79
1
2
50
124
94
108
146
109
53
91
81
72
53
15
1
5
9
1
1
2
5
0
41
111
88
45
54
56
66
50
35
100
157
166
184
171
131
131
135
156
166
134
132
168
156
169
163
153
178
176
179
194
171
166
165
175
185
183
179
180
189
173
178
160
150
148
147
132
148
139
121
144
142
128
119
123
97
95
50
34
37
24
45
44
53
43
30
12
22
30
34
22
1
22
50
74
70
30
3
12
9
9
7
4
1
1
5
8
1
24
18
16
141
126
1
0
10
8
27
48
40
35
18
48
108
102
131
162
189
171
179
171
181
161
142
111
129
123
124
131
136
145
140
124
129
118
96
100
91
110
116
89
70
85
70
89
148
134
109
118
143
142
134
135
135
129
143
154
160
171
170
166
171
170
167
162
157
155
157
160
158
157
156
157
158
158
160
161
171
166
172
170
159
155
120
62
29
67
92
43
65
62
78
67
58
62
66
67
68
70
70
68
79
85
91
94
96
102
109
112
119
120
121
123
122
120
115
114
105
136
158
165
166
176
178
164
160
153
157
151
141
135
120
111
111
118
125
113
132
128
93
122
127
162
161
131
134
173
163
164
181
189
199
207
209
210
212
215
211
208
205
204
203
201
199
197
192
187
183
180
179
174
166
160
159
157
156
158
159
158
155
151
151
147
135
117
106
112
129
142
137
115
117
134
137
141
149
146
145
131
123
128
128
121
121
129
130
128
137
127
123
127
118
121
136
135
136
132
129
133
136
131
129
136
137
123
129
148
138
119
129
122
154
144
147
144
129
135
143
139
122
117
20
1
50
123
85
92
147
65
5
54
68
35
2
1
5
1
1
1
1
0
0
98
107
16
5
55
69
72
57
44
124
162
151
159
158
176
175
165
177
184
156
151
150
176
175
178
192
193
198
194
193
178
175
168
180
192
184
178
178
172
166
158
182
179
157
137
136
136
185
178
188
183
169
124
103
106
103
101
79
91
37
4
33
38
39
54
70
68
84
87
82
61
70
76
80
55
17
11
18
13
8
8
6
2
1
1
5
8
13
2
15
22
36
2
16
57
41
41
65
66
10
16
31
79
161
121
105
163
178
159
154
180
178
186
182
118
99
99
122
125
120
109
110
123
126
143
129
117
124
95
104
121
116
113
107
97
102
158
139
112
136
150
147
141
135
122
127
135
140
155
157
154
155
159
164
167
166
164
161
160
161
164
163
158
159
165
167
164
171
170
173
173
171
177
179
170
120
60
59
98
44
64
110
88
56
61
66
66
64
65
68
69
72
80
87
89
90
93
96
98
111
116
121
125
125
125
122
123
120
139
159
178
175
174
172
159
155
143
135
148
142
130
127
102
104
105
133
134
139
147
119
116
136
133
138
133
145
142
159
173
186
178
179
192
203
205
206
210
212
209
207
206
204
200
194
188
188
183
180
179
179
178
176
177
173
168
161
157
154
148
138
131
131
124
123
135
153
161
152
140
129
124
126
135
136
127
118
114
113
108
105
111
128
144
148
143
140
132
127
131
136
137
136
135
126
134
141
141
134
127
124
126
115
121
122
120
129
144
141
127
119
109
114
140
154
144
141
157
168
151
144
110
18
2
41
139
91
78
132
59
24
43
2
3
22
4
2
1
2
1
4
36
112
47
9
2
24
67
77
73
64
130
135
94
134
145
154
169
184
168
182
179
163
164
171
185
187
197
199
192
182
173
170
179
159
173
167
167
152
167
177
166
165
171
182
127
113
118
124
186
183
156
154
142
113
95
91
101
114
98
116
101
29
15
27
17
15
16
30
41
59
75
77
81
79
53
25
12
12
11
11
8
2
9
10
7
8
6
4
6
9
6
12
20
15
12
38
73
84
42
12
23
3
33
46
104
141
138
171
165
170
183
191
198
175
136
143
185
199
153
100
100
96
95
104
107
94
90
100
107
108
110
88
101
102
90
111
109
108
114
153
156
115
110
132
137
144
129
132
135
129
141
155
146
146
149
153
156
161
165
166
164
171
164
156
154
158
162
163
162
164
165
164
160
178
173
131
120
114
73
88
102
125
82
35
72
74
68
63
65
66
64
62
62
69
71
76
83
88
90
89
87
103
105
109
114
118
119
119
118
120
136
157
175
175
175
170
154
144
122
126
137
135
133
128
117
93
97
115
132
140
150
163
130
138
154
141
153
153
128
125
177
182
180
190
209
217
208
201
203
210
210
208
206
202
198
193
191
189
184
181
181
180
177
175
175
169
166
162
158
156
153
149
147
147
152
158
157
152
147
146
146
153
153
152
142
125
114
122
137
132
138
141
139
137
138
139
139
145
143
143
141
137
131
131
134
121
119
116
117
119
120
118
116
126
127
133
140
138
132
134
142
122
123
133
151
156
146
149
170
144
144
142
117
51
1
37
130
122
62
92
66
9
2
2
9
17
11
8
1
1
0
74
93
1
0
1
23
43
67
70
79
128
83
29
59
94
88
91
136
164
180
192
190
190
191
182
179
185
177
165
164
176
184
185
186
184
163
171
150
176
182
177
187
164
143
140
161
155
119
148
163
126
167
172
134
97
89
91
81
105
100
146
103
78
41
22
21
8
6
10
11
29
49
42
30
31
19
8
5
7
7
5
4
4
11
11
8
9
7
6
8
1
6
14
15
12
11
12
15
27
14
17
8
33
53
72
153
104
93
134
178
185
167
148
169
184
143
122
130
138
157
167
142
116
117
110
105
107
101
96
101
89
85
116
99
99
119
97
108
101
103
100
136
157
125
107
116
128
129
124
124
134
140
148
163
158
159
158
155
155
157
158
158
157
161
163
159
155
156
159
160
166
170
178
158
136
144
143
122
83
91
68
23
54
69
33
39
58
58
61
65
67
64
62
63
67
68
71
76
82
86
89
90
92
93
95
99
103
106
109
110
107
144
163
177
177
179
173
157
136
130
123
107
126
150
129
117
116
89
91
108
135
146
166
164
123
145
142
162
167
166
160
161
168
179
180
171
175
195
208
207
207
208
207
204
199
194
192
191
191
187
183
182
180
175
172
171
164
163
159
156
154
154
155
157
148
152
156
158
157
154
153
152
157
141
128
130
139
143
140
137
138
140
140
137
134
132
130
128
138
136
132
126
120
116
118
123
133
127
120
117
117
115
110
105
110
126
135
132
133
139
135
123
131
144
136
122
143
173
169
144
152
146
140
133
96
1
36
156
158
85
38
28
20
6
16
9
5
2
7
1
30
99
47
1
0
3
4
14
31
74
66
125
80
53
56
101
124
108
133
132
137
171
183
186
190
183
181
189
172
170
166
165
175
180
180
183
170
175
159
171
169
162
175
167
157
155
167
186
173
168
138
100
130
141
124
105
133
126
83
99
102
67
97
134
114
81
80
10
0
2
10
4
3
12
11
12
3
2
3
5
5
3
2
2
4
9
8
5
6
5
4
7
3
7
6
2
7
18
19
14
2
20
1
8
74
88
122
139
130
128
141
163
170
177
157
170
202
177
164
122
103
117
120
145
160
161
138
121
127
118
102
107
103
109
115
96
85
90
84
84
111
120
109
91
132
160
130
126
130
137
132
128
140
148
142
137
143
150
156
159
161
163
164
163
152
161
166
160
154
155
159
159
159
181
176
166
162
144
126
118
124
105
106
107
88
80
60
50
41
45
52
60
63
64
66
68
68
68
69
70
74
79
85
88
87
87
87
89
92
95
99
101
97
154
168
173
170
171
168
155
138
132
127
107
115
148
143
117
129
134
98
110
137
126
153
182
176
157
141
152
176
169
183
173
177
159
155
177
198
203
203
206
209
208
207
204
200
196
193
192
187
184
181
180
179
175
172
170
166
164
160
157
156
157
159
161
169
164
161
164
170
170
162
154
144
150
153
149
138
132
137
145
143
143
143
143
143
141
136
132
130
125
118
115
114
113
110
108
107
118
132
142
142
137
130
126
126
120
122
131
136
135
142
152
142
148
143
137
151
165
160
147
141
139
138
140
122
6
5
112
171
134
51
19
26
21
28
19
7
3
1
69
81
1
2
1
14
0
8
12
3
17
105
81
51
69
67
75
103
73
118
151
141
169
174
181
187
177
174
163
181
186
180
170
167
168
178
190
180
175
168
173
160
155
132
147
164
163
174
173
161
74
126
159
146
125
148
156
123
100
106
129
109
81
125
44
91
129
89
38
19
2
0
4
11
12
5
9
4
5
6
7
4
3
3
5
4
8
6
2
4
4
3
5
3
4
5
6
9
11
12
14
18
0
9
48
101
115
110
118
160
156
155
166
175
177
159
170
191
170
123
110
111
100
107
115
110
140
149
135
117
94
82
90
80
100
89
110
112
98
118
106
108
107
115
126
106
120
158
128
116
112
127
134
123
129
139
131
138
145
152
155
154
153
152
150
151
158
158
152
153
164
169
167
187
179
173
184
181
175
160
112
117
123
96
71
52
62
57
46
36
38
43
49
56
62
68
72
70
71
71
70
70
71
75
78
85
86
87
88
89
91
93
94
95
152
163
161
152
149
144
136
132
110
117
131
116
130
157
131
113
149
151
131
128
131
124
161
169
187
170
159
181
162
162
173
152
177
200
203
201
204
209
209
213
210
206
204
202
199
195
191
182
178
176
177
177
174
172
171
168
166
163
162
164
166
166
166
165
165
165
165
164
161
157
155
166
156
144
140
143
143
135
125
128
133
138
138
132
123
118
117
108
108
110
115
120
122
118
113
123
123
121
116
115
122
136
147
143
141
144
144
132
119
124
139
130
135
138
143
148
144
136
135
151
151
146
138
135
65
2
35
159
153
100
53
26
21
25
12
2
25
96
66
7
2
1
2
1
1
7
27
3
42
81
59
77
74
47
88
137
161
167
140
157
175
181
183
170
167
177
163
171
174
170
165
169
170
171
174
178
176
181
160
156
119
121
160
169
171
145
152
131
129
137
153
158
148
128
129
117
102
120
132
80
124
79
107
103
56
74
81
45
21
8
4
7
8
4
11
4
4
1
1
1
3
4
7
6
9
7
3
5
5
4
6
5
5
5
5
6
8
10
10
13
2
35
90
111
95
97
135
148
154
162
159
177
176
167
164
172
168
186
142
108
132
128
119
114
114
117
119
121
122
113
97
91
80
74
72
78
89
97
106
104
113
119
104
110
107
105
161
144
109
106
123
123
126
136
136
137
141
141
139
137
139
142
144
144
150
151
147
153
167
176
176
159
165
150
125
105
114
114
65
82
76
50
44
29
36
42
39
40
39
39
42
50
58
63
65
68
70
72
71
69
66
65
65
73
77
82
86
88
88
88
88
94
147
155
150
139
129
121
117
112
110
95
113
133
141
152
141
118
139
158
154
142
138
130
133
140
175
171
151
143
161
166
182
186
171
173
194
205
201
205
218
211
207
203
201
200
197
191
187
186
181
177
175
173
168
165
163
161
159
158
160
164
167
167
165
167
169
171
171
171
170
170
170
151
149
146
143
145
147
141
133
138
133
130
130
131
129
125
123
125
127
127
124
123
125
127
128
122
124
129
132
133
132
130
128
124
134
137
128
122
124
125
122
135
143
145
144
147
150
150
152
166
145
136
134
139
114
26
2
94
138
127
77
39
30
17
13
8
82
14
0
1
3
10
1
1
5
0
1
29
80
5
62
69
74
100
154
153
96
90
94
126
127
152
182
174
162
172
176
156
166
172
176
181
180
171
165
160
171
176
172
140
135
175
164
162
143
169
171
148
163
138
143
165
119
131
95
67
130
134
63
81
86
104
102
61
46
97
78
62
54
40
11
0
0
3
10
3
2
1
1
2
4
6
4
5
8
5
1
4
4
2
4
6
7
3
1
2
11
12
6
0
23
124
96
120
160
83
107
149
158
163
148
168
178
188
180
153
125
121
156
157
126
119
117
121
111
106
98
89
100
119
123
107
101
110
99
102
116
102
102
91
115
111
117
120
115
121
112
159
146
124
119
135
141
135
133
133
137
141
142
144
148
151
152
141
150
155
152
153
162
171
173
168
183
163
146
156
152
122
92
52
31
60
102
71
43
49
47
43
42
40
42
47
53
54
51
58
61
65
67
66
63
59
57
58
64
72
78
81
82
82
83
86
145
145
138
130
119
112
112
106
110
88
88
129
153
154
155
141
152
134
158
174
134
168
135
136
136
160
178
166
165
145
158
172
181
186
188
195
208
214
213
207
205
203
200
197
193
187
183
187
182
177
174
170
165
161
160
158
158
158
159
160
161
161
162
168
164
160
159
160
159
153
148
150
157
161
158
155
153
146
137
138
125
116
119
127
128
121
114
124
121
113
104
100
102
102
101
120
123
129
137
145
150
151
150
158
138
123
122
119
110
111
121
127
125
132
144
140
128
146
184
165
143
150
159
141
130
74
16
38
93
117
101
56
28
17
32
18
1
4
5
3
1
1
1
5
2
0
1
74
31
24
62
100
140
126
78
97
54
55
82
85
93
136
182
196
181
156
150
171
181
184
181
180
179
176
176
174
158
173
173
150
197
184
154
152
157
129
145
118
145
153
151
127
112
95
110
162
136
71
105
67
97
72
89
55
63
89
37
71
63
49
21
9
12
4
0
3
4
3
2
4
6
5
1
3
6
3
0
2
3
0
1
1
2
5
5
3
2
2
3
54
95
119
77
87
165
127
105
156
147
151
168
174
166
173
176
146
129
116
105
131
146
113
105
110
107
101
98
97
94
92
93
106
107
96
89
82
76
81
79
104
93
95
93
102
112
106
112
109
137
147
135
129
130
134
142
144
149
155
157
158
157
153
148
149
153
156
157
161
166
171
173
170
175
200
192
146
111
96
90
40
63
69
49
45
45
42
38
41
42
42
41
44
48
48
46
47
49
53
57
59
58
56
53
53
58
64
67
69
69
70
72
75
142
133
125
120
112
108
112
118
81
96
103
99
137
172
181
149
129
167
119
162
162
142
159
142
148
171
164
191
179
139
146
166
178
190
196
200
205
207
206
207
207
207
203
198
192
188
186
180
175
172
171
171
169
168
168
166
167
168
165
161
159
160
162
159
158
155
154
152
150
147
144
149
156
158
153
150
150
145
137
120
119
121
124
121
108
94
87
92
92
95
103
117
127
124
115
135
134
129
123
116
113
113
115
108
118
126
126
127
131
131
128
114
117
119
127
144
155
160
165
151
149
160
139
88
97
106
46
67
37
69
126
78
32
24
20
20
61
8
1
1
6
0
1
1
1
0
17
59
5
32
117
142
106
68
51
65
106
110
70
81
145
194
179
167
167
150
154
159
172
176
174
175
172
159
150
161
182
167
159
179
146
137
156
159
154
128
91
129
147
133
115
159
176
164
189
128
77
124
78
98
50
68
54
56
69
45
79
50
54
59
42
18
5
0
5
0
1
1
1
2
5
4
2
4
7
4
1
4
4
1
2
4
1
1
6
2
1
25
60
95
98
82
118
76
124
125
128
144
155
158
169
160
173
169
148
150
133
131
127
121
133
139
128
94
108
108
110
115
97
81
89
94
90
92
97
87
70
73
87
87
85
94
99
91
98
112
102
109
99
124
149
138
127
133
136
148
151
153
154
156
158
156
153
156
151
149
157
171
181
184
183
191
188
178
157
154
141
115
125
128
72
64
64
60
43
42
41
38
40
40
38
39
45
49
50
41
41
44
49
53
54
53
51
55
57
59
58
56
55
57
59
69
135
124
111
104
98
104
124
117
116
84
99
106
110
140
180
178
123
160
143
121
169
169
158
162
128
158
161
151
179
180
167
181
187
196
204
209
212
213
213
205
206
205
202
200
199
195
190
184
182
179
175
172
169
167
166
161
159
154
148
148
153
160
163
160
158
153
149
150
154
157
157
150
153
151
143
137
137
140
142
144
140
131
122
120
128
135
139
133
128
129
140
126
125
111
99
101
92
106
124
127
118
110
122
120
118
120
122
122
121
129
139
146
128
125
142
154
155
153
161
153
145
143
131
128
141
144
78
3
38
2
49
95
45
13
23
11
54
54
3
1
3
1
0
1
1
3
43
2
15
117
130
83
98
77
63
124
146
73
78
116
89
66
129
145
142
159
144
157
174
173
162
157
152
156
184
180
171
165
168
142
176
185
163
150
152
143
161
143
109
99
155
159
156
154
116
97
82
101
124
91
71
54
58
81
56
87
78
61
54
63
36
37
26
13
1
0
6
4
1
5
10
2
7
11
3
5
6
11
1
6
1
0
7
4
0
20
65
66
74
84
74
85
106
116
129
121
110
138
149
164
168
164
166
163
156
133
135
123
127
120
115
105
118
104
79
64
75
90
91
86
85
92
82
81
94
107
112
114
117
115
108
110
121
123
115
113
119
122
111
117
142
152
142
134
139
142
150
150
144
146
157
160
156
150
150
150
159
175
179
172
168
172
165
159
138
144
151
118
109
106
126
83
56
57
70
51
33
38
40
35
34
39
42
41
41
43
41
38
39
43
48
52
53
59
61
62
59
52
48
48
50
56
120
107
102
105
105
107
115
115
114
114
99
108
103
121
155
190
172
158
154
143
136
154
181
177
125
132
161
154
162
186
189
173
173
176
184
195
203
206
207
207
208
205
201
197
195
191
188
185
180
174
171
170
171
170
169
153
156
158
157
155
154
152
150
154
156
159
159
159
157
153
148
138
143
136
125
133
152
151
135
132
139
144
143
141
139
136
132
140
135
127
127
114
122
128
137
134
115
112
116
119
117
115
127
143
146
149
151
148
140
129
119
121
151
150
150
135
110
137
149
125
118
133
140
136
140
137
105
48
22
4
32
81
68
15
9
12
2
63
64
2
1
1
3
7
1
0
13
18
114
103
60
65
107
66
99
163
141
84
86
53
81
86
113
159
144
129
159
180
159
135
144
158
168
184
177
179
159
150
152
186
166
140
135
118
154
163
123
114
87
114
139
145
132
127
148
126
97
111
95
100
34
92
114
57
58
98
66
89
50
29
50
49
53
21
27
36
15
12
22
10
1
5
5
9
2
4
7
3
4
11
4
19
16
16
27
72
88
54
31
60
73
54
102
123
140
113
125
145
152
157
160
157
156
157
146
126
122
108
106
111
121
118
117
135
130
114
94
86
92
97
97
108
106
102
97
90
87
95
105
115
120
126
126
119
112
116
125
130
128
118
110
127
149
145
123
138
138
139
141
145
148
148
147
153
154
154
160
172
178
178
179
178
160
174
174
144
96
64
90
91
115
120
68
86
60
41
50
37
35
35
37
34
30
29
33
38
40
42
43
45
48
53
56
61
63
61
56
52
50
47
44
46
120
110
106
104
107
115
119
105
112
112
119
130
108
121
135
163
182
164
167
181
162
147
140
172
177
151
158
164
145
158
172
185
186
188
193
200
206
211
213
208
210
211
207
200
193
185
179
181
178
175
174
174
171
163
156
150
149
146
142
142
148
154
157
155
159
163
164
164
161
154
148
166
150
141
146
146
138
136
142
148
152
153
148
142
138
136
135
119
122
116
113
104
102
101
111
129
125
135
142
147
150
150
159
156
156
150
142
139
141
137
129
116
144
137
125
134
120
142
140
127
122
130
137
128
133
132
127
126
55
39
36
70
97
39
13
20
2
25
44
13
1
1
1
0
1
2
45
128
26
42
81
81
84
61
122
163
170
134
109
150
161
167
164
116
110
97
172
176
143
157
167
179
199
178
154
155
151
163
163
125
124
112
111
139
146
101
146
110
109
165
166
150
148
176
101
73
111
92
88
27
61
103
69
64
101
45
72
33
56
60
49
28
47
36
25
49
15
42
30
15
8
2
1
9
4
5
7
2
8
12
9
50
50
45
58
66
60
42
68
6
139
61
89
148
131
123
139
146
159
161
163
151
144
153
148
142
123
111
103
104
102
106
104
99
117
120
102
88
92
102
105
93
95
98
102
104
105
104
103
96
95
95
99
108
117
118
115
112
124
129
123
125
144
162
170
140
132
130
139
144
142
143
148
146
153
159
166
176
179
179
183
199
192
195
180
170
167
134
111
106
61
65
86
84
39
41
45
36
31
35
43
38
30
30
33
29
34
40
43
44
46
51
56
63
65
62
56
54
55
49
41
40
113
111
113
108
107
110
106
124
122
137
124
116
140
128
163
148
166
189
173
169
181
160
141
138
191
181
175
182
156
151
159
184
191
200
204
203
204
208
212
207
210
211
207
201
195
188
183
178
177
176
176
173
167
158
151
155
157
158
157
158
163
167
168
168
169
168
167
167
168
167
164
155
153
149
146
145
146
146
144
121
126
132
136
137
136
134
132
133
135
128
127
131
128
123
130
129
126
128
125
125
129
125
127
128
130
130
126
127
134
140
143
134
135
139
118
155
156
134
120
135
140
126
125
120
138
144
139
129
103
60
26
40
110
82
9
11
20
11
8
27
14
3
5
2
1
82
95
6
3
35
89
85
88
44
120
177
172
138
148
192
146
144
147
82
113
103
123
145
132
105
136
165
137
156
173
166
173
175
130
129
98
102
153
160
140
172
133
106
159
180
149
151
191
91
67
122
89
79
25
102
89
60
92
74
58
51
82
71
67
48
25
30
33
58
36
46
25
44
21
20
15
2
15
7
7
9
6
21
20
14
19
40
37
46
68
81
48
50
98
43
62
152
85
114
117
129
159
140
161
165
167
149
140
159
159
146
138
143
131
122
114
125
122
106
114
123
123
111
98
93
95
94
88
81
81
90
97
97
91
83
87
91
91
93
99
109
117
127
121
123
135
138
132
134
143
143
133
129
134
138
138
143
151
151
156
158
165
178
191
201
212
194
197
201
170
140
140
133
122
96
102
136
87
51
75
62
63
58
43
35
40
41
40
34
24
25
30
36
40
41
43
47
51
61
66
65
58
57
60
56
46
42
102
107
123
130
130
119
101
104
147
155
145
120
128
142
149
168
159
193
184
169
183
171
175
141
153
179
200
195
180
173
163
173
180
190
197
200
202
204
207
209
209
206
201
197
196
195
193
181
179
175
170
166
164
164
164
159
160
159
156
155
157
159
159
161
162
161
160
161
163
163
162
157
150
142
141
142
139
130
122
142
135
127
121
114
105
96
90
94
97
95
97
111
112
114
124
123
117
115
109
114
123
116
111
113
119
132
146
151
146
139
137
140
140
148
122
149
145
134
141
139
147
117
123
127
141
148
131
118
116
33
52
55
92
117
67
34
23
37
44
62
60
0
0
0
95
70
1
2
3
48
89
89
91
29
145
192
136
136
173
180
140
121
79
78
102
111
71
122
90
112
124
113
140
191
165
109
117
163
141
120
136
168
155
146
155
146
127
193
179
111
132
166
58
77
151
111
63
8
87
101
47
89
34
83
58
110
66
45
59
44
65
44
23
38
17
35
35
25
46
44
2
17
11
1
6
12
4
44
35
18
27
53
39
55
58
95
51
72
101
91
31
80
124
85
114
148
155
160
159
146
137
119
106
109
100
123
129
144
128
114
103
107
93
96
84
82
95
104
99
93
92
89
94
96
95
96
103
113
119
109
106
103
101
95
91
96
106
111
119
129
133
129
124
122
124
141
139
136
134
133
135
140
145
151
164
179
194
206
204
195
192
209
199
207
210
205
197
176
156
132
73
68
65
61
60
75
39
32
38
42
41
37
39
39
35
34
35
37
39
40
42
43
43
52
62
65
59
57
61
60
53
46
103
109
125
136
140
138
132
100
113
166
166
162
146
130
140
159
164
180
197
200
187
176
180
174
152
164
183
196
201
184
171
179
180
183
191
201
207
208
206
208
209
208
205
201
196
189
182
184
183
180
174
168
164
165
166
167
167
163
158
155
157
159
160
149
153
158
160
162
161
156
151
149
137
138
152
153
141
137
145
125
118
112
114
120
125
128
129
115
114
110
99
96
87
92
100
101
110
123
121
123
134
138
144
136
129
128
136
140
135
129
127
126
134
130
123
139
127
140
151
137
129
107
119
128
132
139
133
163
118
3
69
107
106
134
100
5
6
10
46
63
75
10
2
27
46
2
1
8
3
30
83
95
55
16
118
151
131
154
186
173
158
121
68
68
80
142
142
62
83
180
151
157
181
123
102
120
139
119
114
145
196
157
89
75
58
122
163
164
74
92
139
94
125
145
94
76
69
114
109
47
76
52
51
55
67
55
20
20
71
53
89
16
40
42
42
32
34
34
59
37
13
23
1
1
7
16
5
41
43
18
17
42
53
60
78
74
53
56
76
75
76
80
105
119
113
153
148
162
140
125
124
133
138
129
111
102
96
109
126
131
117
112
111
103
86
70
68
77
79
68
55
68
78
90
95
95
97
106
114
129
118
112
115
118
116
114
116
111
110
112
120
132
139
137
130
139
145
148
143
140
141
142
141
165
168
170
175
185
189
189
192
189
191
188
180
179
188
190
181
183
162
161
152
150
122
82
123
89
85
61
37
35
43
47
51
49
46
43
43
44
43
40
38
43
53
59
57
54
55
56
54
47
103
103
107
114
118
126
138
134
125
135
171
189
161
168
163
146
168
174
194
200
181
184
189
183
174
162
158
185
204
192
189
184
185
188
194
200
205
207
207
208
209
209
207
205
198
187
177
186
185
183
178
172
166
163
161
152
157
161
162
160
157
152
148
160
164
169
172
173
170
164
158
155
166
167
154
146
146
143
134
139
134
130
130
127
117
105
99
103
95
96
90
95
100
122
131
113
120
129
118
110
115
121
131
134
129
123
119
118
119
122
126
118
124
128
135
142
129
125
124
130
109
115
114
115
117
123
140
124
133
83
102
98
85
117
99
40
64
43
44
53
36
4
4
1
1
0
1
2
4
14
68
87
39
7
60
117
150
157
187
168
148
94
73
64
63
136
173
115
101
125
113
105
84
88
100
131
134
117
129
158
97
51
33
62
149
106
63
22
115
173
90
103
104
38
56
63
110
89
51
63
62
63
76
33
68
45
19
49
39
19
64
22
61
29
32
33
39
47
43
20
36
21
2
2
12
24
18
22
56
32
10
79
77
58
91
56
57
70
112
53
93
128
123
94
111
145
132
136
117
121
124
134
146
128
121
127
108
100
121
128
113
93
95
107
104
98
93
95
99
94
86
90
82
75
72
68
64
63
66
83
92
102
105
101
100
106
114
111
116
122
122
114
108
117
131
136
142
146
146
145
146
145
142
139
149
159
171
186
192
194
197
188
185
178
177
169
143
118
106
100
69
27
29
22
37
46
39
80
116
127
106
79
46
30
43
53
50
48
46
46
44
40
36
38
46
53
52
49
48
48
48
45
105
97
98
107
106
103
111
145
142
134
158
167
180
178
164
174
154
155
187
206
199
188
179
190
180
175
171
167
180
195
193
181
191
201
205
203
204
211
218
211
207
201
198
199
201
198
194
187
183
176
171
168
167
167
167
171
171
167
162
160
162
165
166
169
170
170
168
168
168
166
163
161
153
148
150
151
145
137
132
119
113
107
106
104
100
97
97
105
96
109
113
121
117
122
110
126
128
139
144
150
150
130
117
109
132
153
156
148
142
139
136
125
120
142
131
122
131
124
149
146
121
150
120
100
95
86
111
106
122
156
159
136
93
93
89
81
50
58
27
54
27
2
1
7
5
8
0
3
12
34
83
104
40
28
94
118
149
189
170
168
155
99
60
84
58
128
175
157
123
112
85
79
76
109
111
124
81
75
129
69
35
84
121
162
65
19
33
135
177
54
18
58
94
75
27
65
104
64
31
48
72
58
48
95
36
39
41
66
34
62
58
34
44
22
36
5
44
40
62
57
46
9
1
7
17
34
36
8
75
57
18
79
67
85
101
61
2
45
104
102
47
98
109
92
119
117
93
92
93
127
125
120
125
111
122
134
136
110
100
103
114
88
68
76
86
97
102
101
105
116
127
120
113
112
116
115
105
97
95
86
95
101
103
106
110
106
98
98
102
104
107
115
126
130
128
127
128
132
136
140
142
142
143
149
162
174
185
194
195
193
195
190
187
166
161
172
164
138
113
127
115
119
53
30
47
83
27
19
38
47
74
114
107
71
60
48
47
47
47
46
43
40
37
38
43
48
50
47
43
42
42
39
109
113
92
86
111
117
91
102
130
138
149
170
175
170
156
191
182
158
167
192
204
203
178
185
190
180
168
172
175
175
180
196
195
195
198
202
207
210
212
206
207
206
202
200
198
196
193
184
179
174
173
170
167
168
171
180
178
176
173
168
163
164
168
163
160
159
163
167
166
164
162
164
161
157
154
147
137
130
126
115
101
108
106
114
116
119
120
124
127
126
119
106
96
93
94
92
87
88
101
116
126
132
137
139
132
125
123
121
121
124
128
140
137
139
136
125
122
130
138
134
129
144
138
127
128
121
121
127
117
124
99
93
130
107
96
69
8
31
44
50
63
4
2
4
1
6
8
2
2
29
79
99
33
6
46
141
166
180
173
169
159
104
81
118
77
90
146
136
97
103
96
112
94
69
86
48
38
134
108
17
107
114
128
87
21
60
152
153
44
9
95
152
83
23
51
141
95
30
16
62
80
33
92
100
40
48
80
56
44
48
81
47
8
19
50
19
38
43
60
68
53
10
3
16
38
41
59
53
64
18
20
54
64
78
64
60
48
42
98
126
75
72
82
103
72
119
84
94
122
133
121
116
112
105
106
108
114
124
128
124
125
127
124
129
115
109
113
109
97
98
110
93
102
96
84
89
101
105
103
97
97
97
105
120
127
125
127
133
134
135
135
135
134
134
135
139
137
137
140
137
132
137
148
161
163
166
171
179
186
189
187
182
191
182
174
180
178
176
188
146
176
155
167
174
164
124
77
33
26
27
12
22
77
56
78
75
68
57
47
44
45
41
35
34
40
47
49
48
45
40
36
34
102
116
110
93
96
112
118
100
122
135
132
162
192
173
152
166
188
179
162
178
192
192
204
202
197
182
175
177
171
170
182
193
194
194
195
197
200
203
204
210
210
207
202
198
196
193
189
182
178
175
175
173
171
171
173
173
165
160
162
166
167
167
167
163
162
162
163
162
159
158
158
150
145
141
138
136
133
131
131
114
121
136
118
115
121
126
121
106
104
103
104
107
107
103
99
111
112
110
104
101
105
112
116
120
112
107
111
119
124
126
126
128
117
116
125
129
127
119
109
116
111
131
139
122
116
124
132
127
115
114
88
82
76
99
59
69
12
29
72
64
80
61
8
2
2
2
2
7
1
3
33
95
36
6
49
152
174
174
169
171
152
100
59
71
85
108
91
134
154
121
131
107
79
99
103
85
94
120
63
83
103
55
24
16
81
100
107
14
1
97
133
67
13
55
132
76
65
20
51
87
59
36
103
29
45
91
62
37
40
24
52
34
22
48
40
34
47
54
55
61
62
21
9
38
40
52
62
57
69
25
45
49
47
85
32
69
104
52
94
104
95
87
65
96
84
89
122
105
113
117
126
143
145
133
127
129
112
100
103
109
116
121
119
118
114
109
109
118
126
121
111
110
111
110
110
108
104
110
125
119
124
119
110
110
116
125
134
132
129
128
131
135
135
129
123
144
139
131
126
127
137
153
165
158
170
180
183
181
181
184
187
192
191
180
170
168
158
142
136
124
106
109
90
98
101
99
110
110
100
81
78
77
45
42
34
40
44
45
40
37
38
39
39
32
36
41
43
45
46
44
40
32
93
104
110
99
91
103
118
136
133
134
131
157
184
182
191
152
172
189
175
177
182
174
194
196
201
198
191
184
173
170
178
184
188
194
199
203
207
212
215
214
213
208
203
199
196
191
186
183
180
177
177
176
174
173
173
176
168
161
161
162
160
155
151
153
154
156
156
152
148
148
151
152
148
146
146
144
139
133
129
134
112
118
120
123
110
103
102
97
96
93
89
87
87
90
92
97
111
123
127
129
134
135
133
128
134
142
148
146
140
136
135
131
125
130
137
136
134
133
130
95
144
144
130
143
148
143
147
123
158
157
159
137
57
62
3
16
37
13
31
33
40
58
46
9
1
0
8
14
6
3
18
91
38
3
35
145
174
170
173
160
160
145
113
78
84
124
117
166
133
124
141
111
102
99
100
99
108
55
103
123
94
58
54
100
101
97
12
10
94
101
43
14
60
132
74
69
41
77
72
49
14
72
21
54
78
66
38
38
45
15
45
46
53
93
58
47
58
63
77
72
73
70
74
71
77
82
88
79
84
68
82
70
109
106
78
104
102
101
80
84
74
121
108
103
112
130
125
137
118
97
97
111
115
113
116
126
114
109
112
109
106
109
112
94
97
93
88
94
106
107
98
105
107
104
105
115
119
115
112
110
116
114
110
116
123
128
132
135
134
135
140
146
149
147
144
130
135
137
138
144
154
161
162
177
183
189
191
190
189
187
184
184
181
181
180
176
169
155
139
150
174
143
115
134
121
120
116
116
102
68
70
37
38
31
40
30
30
30
34
40
43
40
34
37
37
36
36
39
42
42
40
34
100
107
114
113
109
109
111
120
170
153
152
159
166
201
185
169
151
172
191
186
184
176
169
190
196
194
189
195
198
186
169
194
199
204
206
205
203
202
203
203
203
202
200
200
199
194
188
185
182
178
176
174
173
171
170
161
162
163
162
160
155
152
150
149
150
152
154
152
149
150
153
159
154
149
146
140
130
120
114
117
111
116
96
89
84
85
82
78
76
78
88
103
113
115
114
116
117
118
122
130
136
136
132
136
138
139
135
129
128
133
139
144
127
118
122
127
132
134
130
133
162
138
130
150
135
126
141
163
137
121
118
146
124
13
2
2
31
41
73
40
19
43
62
56
8
1
10
0
1
3
19
76
38
3
27
136
177
172
183
169
172
169
181
158
112
92
81
163
115
126
154
119
90
107
88
90
83
111
159
66
137
95
70
99
120
71
51
105
146
46
47
64
149
77
116
47
92
98
71
28
82
63
51
136
90
84
58
81
75
54
88
91
92
131
108
78
94
93
119
83
49
81
105
131
156
132
122
93
83
105
98
101
112
110
95
89
85
104
99
70
75
83
117
137
133
118
122
117
109
102
102
102
99
100
106
110
106
106
102
90
85
92
99
112
107
103
104
104
101
98
99
94
111
119
112
106
103
102
105
94
100
105
112
121
123
123
127
126
128
130
127
122
121
124
128
136
135
134
136
144
156
166
171
178
180
183
186
192
198
199
198
193
184
183
179
171
180
191
186
169
162
179
184
163
151
104
97
106
77
74
61
61
66
65
62
78
62
43
33
36
43
46
45
45
40
33
29
31
36
39
38
38
97
116
124
120
110
104
106
110
129
175
159
158
175
156
184
191
164
158
182
188
189
194
177
180
189
192
188
188
196
197
189
177
184
194
200
202
203
203
204
191
193
196
198
200
199
195
189
186
182
177
172
171
171
169
167
155
156
157
156
154
153
152
151
157
156
156
158
159
157
155
155
143
137
132
131
131
130
130
130
127
112
112
103
112
117
115
107
85
92
102
108
109
106
103
101
114
105
103
113
123
126
126
129
119
122
128
137
144
142
132
121
129
128
130
127
115
111
121
131
135
124
113
123
121
120
141
142
118
115
113
132
150
138
20
45
72
31
40
112
111
83
36
25
40
8
2
2
7
4
5
21
43
29
10
27
121
174
170
177
182
179
159
175
185
147
89
37
152
138
128
148
139
118
117
84
149
105
110
85
52
93
67
114
115
92
91
123
127
80
28
59
161
76
74
96
37
117
104
88
95
89
91
116
117
89
89
98
87
73
77
96
90
81
104
106
101
126
135
132
72
42
71
98
135
155
134
105
51
38
69
75
96
62
50
58
64
72
56
76
51
5
36
149
124
139
126
109
112
119
127
132
132
131
129
126
115
113
111
109
107
109
104
92
91
79
76
89
99
94
85
81
80
72
71
84
95
89
84
89
97
103
108
113
111
103
108
125
122
127
133
135
136
139
145
151
139
131
127
132
141
150
164
176
177
184
189
186
181
182
188
194
187
178
180
174
159
165
173
161
119
117
101
71
55
55
38
79
80
73
76
78
69
51
82
95
69
64
56
49
46
47
52
57
50
45
35
27
27
32
36
36
36
86
103
121
124
105
89
90
102
112
125
168
184
159
162
180
185
197
173
170
184
186
193
191
177
177
187
194
189
186
194
201
190
193
198
199
197
194
191
190
198
202
204
203
200
196
190
185
184
181
176
171
170
170
168
164
161
158
152
150
153
156
155
151
158
153
150
151
152
149
144
141
147
143
139
135
130
123
118
116
116
112
136
136
119
86
81
91
108
110
109
106
99
92
88
86
81
78
85
102
111
113
121
133
132
132
132
132
133
133
129
123
121
110
111
121
127
125
116
104
113
112
116
120
116
120
131
125
107
84
129
137
153
162
40
63
121
45
23
78
112
143
88
55
50
47
15
3
10
7
0
8
21
24
18
16
88
163
178
180
173
173
163
160
155
144
120
59
111
169
132
144
144
129
110
127
126
96
82
46
70
62
83
84
101
62
113
67
91
26
25
106
63
11
72
7
70
82
56
61
96
62
90
87
77
60
86
72
48
45
65
64
54
51
60
75
88
113
134
94
43
58
76
102
122
122
141
104
25
12
19
62
93
59
2
43
75
59
47
53
23
6
95
149
129
137
143
127
123
120
121
124
131
143
145
133
148
146
144
140
137
137
124
103
117
112
104
97
93
89
82
76
78
87
92
94
96
99
109
123
118
120
124
132
137
133
136
149
147
145
142
142
142
139
133
128
128
125
130
143
152
154
160
168
188
192
193
190
186
184
181
179
189
184
189
189
180
181
177
157
176
149
98
36
3
22
88
88
49
35
35
70
92
107
77
56
49
50
55
61
63
61
58
56
58
54
46
35
28
27
29
30
30
92
90
111
134
127
105
97
90
107
110
136
175
192
185
164
167
199
195
179
185
184
180
186
192
170
168
186
197
197
193
186
192
193
196
198
201
203
204
205
207
210
212
208
201
196
190
186
184
183
178
174
172
171
166
159
154
154
152
151
155
160
162
160
150
146
142
143
142
138
133
130
120
124
132
138
139
134
130
129
134
120
113
87
88
104
125
132
112
98
87
95
116
130
128
120
121
114
108
105
103
106
121
137
133
144
153
152
144
137
132
129
126
123
129
136
132
127
125
123
132
124
123
133
133
97
65
79
78
84
103
119
142
141
39
22
85
54
38
57
50
130
161
139
106
90
52
15
7
3
6
42
117
113
90
44
70
154
180
170
167
163
168
160
145
123
114
57
75
172
95
122
145
127
131
123
98
86
88
62
89
70
65
87
86
69
74
44
34
16
57
75
9
65
9
10
78
26
53
76
57
73
70
57
64
71
71
43
39
43
63
49
49
52
57
72
81
101
106
86
48
52
76
99
121
116
153
107
3
2
2
66
114
39
2
55
80
69
57
64
47
96
163
125
129
117
137
126
136
129
126
118
104
99
90
73
83
85
88
88
91
106
121
125
116
125
128
119
114
120
128
129
111
121
115
104
109
120
118
110
105
108
112
123
140
147
145
145
145
139
134
133
135
134
129
124
130
129
133
141
149
156
164
172
180
180
182
188
197
202
197
189
189
183
180
173
168
179
185
176
172
160
187
186
193
189
166
142
108
129
164
109
78
43
56
77
70
60
51
50
53
53
53
54
57
59
56
46
36
30
28
29
28
99
84
97
133
147
132
121
112
102
85
88
143
197
195
180
163
178
201
194
187
189
178
181
186
180
182
183
176
181
195
198
202
200
198
198
199
202
204
206
200
205
208
205
200
197
196
196
186
186
182
177
175
172
163
154
154
161
165
159
152
148
148
148
147
145
143
145
144
141
138
136
135
138
143
146
143
137
134
134
125
110
122
126
130
120
118
121
127
131
132
124
112
105
108
113
110
107
101
95
92
95
102
108
125
129
132
133
137
143
147
147
139
128
122
118
112
110
115
117
117
107
118
123
126
118
87
72
110
127
121
100
119
138
16
20
80
91
7
3
28
89
124
149
160
124
114
89
29
2
4
28
102
98
78
20
35
139
181
169
170
170
167
143
133
107
109
71
45
144
131
97
107
130
130
116
111
103
91
102
93
48
78
102
76
63
51
40
43
34
77
25
54
33
3
68
10
25
55
59
57
68
64
54
53
59
65
35
42
44
50
36
47
48
51
65
93
115
101
136
100
48
83
105
124
131
155
106
2
11
39
115
109
3
12
95
91
58
44
14
58
138
140
129
129
116
111
88
95
100
112
110
93
90
98
98
105
102
102
98
88
86
93
97
103
110
118
122
124
123
119
114
106
114
115
113
112
109
106
109
108
121
123
121
130
142
144
142
149
145
138
131
126
126
128
130
125
131
137
141
147
157
163
165
172
177
183
186
190
193
194
193
192
197
200
189
176
176
179
173
167
164
148
155
133
142
130
56
94
106
73
74
54
4
18
19
33
34
39
41
38
35
38
44
46
54
59
53
43
37
35
37
29
126
100
98
114
139
165
136
145
138
130
95
98
163
195
190
182
176
186
197
191
177
195
176
173
175
175
182
188
179
180
197
198
198
199
201
203
203
202
200
205
205
205
204
200
196
195
197
189
186
186
176
177
168
168
162
165
162
155
148
149
156
156
152
156
154
152
151
144
137
139
146
144
146
146
142
136
132
134
137
128
121
114
111
109
109
118
128
120
117
112
108
104
102
101
102
97
106
102
101
107
96
81
85
100
108
116
121
123
127
136
145
143
144
132
125
129
119
102
100
113
114
122
125
119
117
123
127
151
138
131
139
166
129
148
107
93
47
27
3
33
47
113
137
146
134
126
124
118
59
2
1
37
42
36
3
58
104
153
162
164
153
154
159
140
119
103
70
56
175
160
120
108
138
153
118
113
103
107
98
91
81
93
94
66
59
60
34
43
62
42
48
50
16
44
27
8
36
58
58
73
64
56
57
55
55
58
42
42
39
47
52
45
46
57
62
90
119
107
138
120
58
82
99
120
116
162
85
7
65
116
120
37
4
79
108
53
21
4
7
82
118
154
150
149
127
147
135
131
114
112
113
128
123
128
130
107
107
126
122
105
107
105
101
101
100
96
91
94
102
107
107
111
111
112
108
93
81
87
102
111
122
128
126
127
134
136
131
138
135
132
133
136
139
140
140
137
142
142
150
164
163
160
169
171
171
175
181
181
179
184
193
194
191
187
187
191
192
185
177
168
168
156
142
121
128
158
153
170
105
56
53
49
9
12
15
16
21
27
26
24
28
31
27
30
39
50
56
53
47
41
39
30
126
113
105
100
110
141
143
129
143
165
160
105
107
175
190
207
190
169
174
208
205
173
197
183
180
175
179
188
188
186
189
193
195
198
202
205
206
206
206
204
201
199
199
198
196
194
194
192
188
188
179
180
171
169
163
160
160
164
169
171
166
158
152
154
159
161
158
152
144
136
131
139
136
132
130
131
134
136
137
125
134
137
135
140
146
137
120
104
112
111
101
96
98
91
77
85
98
106
112
117
113
113
123
112
115
119
123
128
131
128
122
119
117
120
126
130
134
135
131
132
124
120
117
115
118
125
126
99
124
125
119
132
112
124
100
54
7
15
2
28
39
57
131
134
136
136
124
108
99
65
4
1
46
110
31
41
62
129
166
153
140
158
145
135
107
93
90
74
116
162
118
129
162
133
128
119
119
108
100
97
91
82
84
70
63
52
47
48
43
42
55
30
19
36
14
9
38
59
56
68
63
57
59
53
50
53
42
46
44
46
51
49
50
57
61
87
113
87
123
139
61
81
99
100
113
156
81
43
86
149
109
5
17
128
95
30
24
3
2
2
65
123
113
131
138
138
146
141
140
141
130
136
134
132
122
114
132
108
104
106
94
106
108
105
103
99
98
103
111
116
117
97
97
95
97
105
114
115
110
107
96
95
109
118
116
114
118
117
124
131
134
132
133
139
144
142
151
152
151
154
152
154
167
166
166
171
177
179
178
183
190
185
184
184
185
189
190
182
174
164
175
167
178
190
172
151
137
128
133
119
107
80
48
26
3
1
13
26
36
41
34
26
27
29
33
39
44
46
45
43
42
31
132
144
131
114
112
123
132
108
115
111
151
169
123
126
176
177
201
200
173
168
206
189
175
184
179
177
180
186
191
190
181
193
196
200
203
204
204
204
204
204
198
195
197
199
199
196
194
194
188
188
179
181
170
168
161
170
160
154
157
159
159
161
166
158
160
155
148
149
155
157
154
144
141
139
143
150
154
153
150
149
142
142
145
131
106
92
93
116
102
87
82
84
92
104
114
116
107
101
106
117
122
119
116
114
114
113
116
126
139
142
139
139
133
142
148
136
132
128
111
117
110
110
115
122
129
128
118
118
125
112
121
129
114
107
117
18
0
4
1
30
54
36
96
129
130
139
148
118
102
103
65
2
12
94
45
37
32
58
117
128
183
151
142
132
122
103
82
44
73
150
151
153
163
134
127
117
124
104
102
101
99
78
80
73
78
53
51
50
40
51
48
25
26
29
11
15
32
55
56
58
58
57
61
54
47
51
45
50
48
46
50
55
56
59
67
79
123
110
105
137
79
56
55
62
77
95
121
73
96
135
84
5
7
91
63
51
53
17
6
1
87
143
117
118
117
88
104
120
126
126
109
106
109
116
114
119
98
124
120
104
115
106
95
114
109
107
111
113
107
96
88
107
108
104
100
103
111
117
118
125
117
120
132
131
119
118
127
130
133
134
132
130
135
148
159
146
149
145
145
153
158
159
162
165
162
160
162
161
161
164
170
180
181
183
187
192
194
188
180
190
180
173
180
185
190
192
176
187
205
194
196
194
197
167
133
95
39
13
17
21
36
44
27
31
30
30
33
39
43
44
42
35
130
141
141
137
135
136
156
138
114
110
113
143
179
167
146
180
186
192
196
164
183
210
179
180
176
180
185
184
188
191
184
194
197
200
201
201
200
199
198
206
202
200
203
206
205
203
201
196
189
186
178
180
170
168
162
161
156
153
154
156
155
155
157
157
156
152
149
151
154
151
145
144
147
151
155
155
152
146
143
138
142
141
131
124
123
123
120
105
95
97
112
120
115
115
122
117
111
110
107
100
97
99
99
105
112
121
128
130
128
127
128
144
133
130
130
127
133
139
135
138
125
116
115
122
133
135
126
99
103
110
140
120
103
91
126
120
52
9
18
2
43
63
52
128
129
128
145
143
116
104
103
38
3
22
15
18
44
12
34
97
127
111
151
125
90
81
80
26
64
160
168
164
136
136
99
120
119
108
108
105
100
87
87
82
81
54
54
56
47
54
39
37
30
25
23
23
22
53
59
53
57
58
63
59
51
54
51
52
54
51
52
58
59
63
78
85
91
106
86
103
72
28
74
93
44
54
158
125
112
174
90
24
57
86
61
72
61
9
2
38
143
126
138
133
102
127
124
123
118
117
123
134
135
126
117
113
115
104
109
118
119
122
117
109
112
115
111
99
89
92
101
95
93
96
98
92
87
97
113
111
119
124
120
113
112
116
120
131
133
137
142
147
148
147
146
145
146
145
147
158
168
168
164
153
158
168
178
179
173
165
161
172
173
176
179
185
189
187
182
174
172
172
156
135
145
156
134
131
138
129
122
102
85
73
78
94
126
120
68
22
13
25
36
32
28
27
28
34
37
38
37
37
117
129
141
146
137
138
180
190
118
118
136
124
131
149
160
170
173
181
201
201
173
187
197
188
178
180
187
184
186
192
192
191
193
196
198
198
198
197
197
200
200
202
205
206
203
202
202
196
187
185
178
181
171
171
168
159
160
160
158
158
159
156
150
161
154
152
155
158
155
150
148
146
151
154
148
138
130
129
132
141
136
129
125
129
133
126
114
118
114
107
102
105
114
118
116
110
112
121
126
121
118
121
121
111
113
120
128
124
114
115
123
117
121
119
121
129
124
112
110
124
116
112
116
126
140
148
144
118
111
110
120
90
108
98
99
128
105
47
55
4
1
35
89
90
133
152
138
146
143
108
95
60
7
3
30
35
57
28
60
91
73
148
162
121
57
43
44
15
20
155
140
167
146
151
123
136
119
125
123
109
96
102
96
89
68
54
64
65
51
47
46
46
31
29
33
22
18
58
59
61
68
65
67
65
58
58
54
54
61
60
57
59
57
65
85
100
97
122
105
86
79
48
113
188
141
40
122
155
149
174
119
77
93
70
62
91
66
7
46
111
128
94
114
127
120
111
105
108
115
120
122
116
115
117
121
116
115
103
106
109
102
98
88
77
67
69
89
108
107
88
70
78
73
74
84
86
81
80
84
102
109
108
100
103
116
125
123
123
124
127
134
141
143
140
136
141
150
159
160
161
166
171
171
185
180
175
173
173
175
181
185
175
175
174
174
177
182
183
181
195
182
144
109
108
110
90
73
49
20
7
14
37
31
14
4
4
0
41
76
48
18
17
21
27
28
27
29
29
31
31
31
34
123
109
111
140
151
128
124
161
157
111
106
143
161
174
180
164
176
191
179
200
188
172
190
197
183
176
181
184
187
191
193
194
194
194
195
196
196
194
193
186
188
192
194
192
189
189
191
192
185
185
179
182
171
172
171
167
166
159
150
149
155
159
157
150
142
139
144
146
143
141
144
147
148
145
136
126
125
134
143
146
133
130
139
142
131
125
128
119
116
114
113
114
114
111
108
101
98
99
106
115
118
117
117
128
119
116
120
123
123
130
141
125
131
122
119
132
131
123
130
128
122
123
124
120
117
115
111
129
134
132
106
53
78
99
101
103
117
72
73
59
9
1
61
59
108
164
163
156
153
119
98
78
44
63
91
84
52
53
110
114
152
179
128
102
68
39
26
25
16
117
141
153
149
135
134
140
120
136
132
111
97
111
100
81
63
66
65
61
58
50
52
49
39
41
34
16
17
55
50
73
83
75
70
69
64
62
55
58
65
66
65
62
59
68
83
93
116
128
113
71
67
58
92
126
136
78
153
135
146
182
146
84
80
74
79
89
54
5
125
133
113
112
106
104
113
86
110
107
127
130
115
96
104
119
132
126
91
101
93
81
102
105
104
126
117
104
95
90
90
95
100
101
99
96
94
99
106
106
101
113
118
122
121
119
121
125
128
128
129
129
127
126
130
138
145
141
145
155
162
161
166
170
167
175
179
184
187
187
184
180
178
182
180
176
172
172
174
174
173
166
165
175
176
168
153
129
118
121
83
57
24
24
29
38
34
30
37
21
10
22
26
21
27
21
24
26
26
24
23
24
24
25
145
141
112
107
117
118
126
130
168
162
127
98
109
146
147
184
177
175
169
190
200
184
189
189
188
182
181
187
189
190
193
198
196
194
195
197
197
195
192
186
187
189
191
189
186
188
191
195
190
193
187
186
171
170
169
160
160
158
156
155
155
153
151
157
158
160
161
159
151
143
138
143
139
133
132
134
140
146
149
141
151
149
132
122
123
122
115
122
115
114
120
121
115
114
119
108
115
114
109
108
103
105
118
118
119
121
124
128
129
127
125
136
142
147
148
147
140
132
129
133
124
123
123
116
112
118
125
133
134
137
124
105
115
129
118
131
136
120
87
39
4
3
3
57
76
126
166
174
163
133
104
98
99
127
89
80
48
50
74
73
174
161
155
155
118
59
38
27
16
49
131
152
153
146
143
128
124
134
130
111
106
108
94
80
71
73
64
59
68
62
50
52
48
49
36
22
15
41
49
71
87
78
67
67
68
67
60
62
61
66
72
69
67
73
76
106
114
118
120
95
78
75
112
119
141
99
91
140
138
176
138
96
85
82
83
101
73
3
41
132
145
105
112
125
121
128
111
100
102
96
103
107
118
105
93
126
139
114
117
120
99
98
95
90
88
84
81
84
91
95
96
90
95
96
94
97
106
116
120
112
116
122
122
117
110
110
113
122
131
141
143
138
135
138
142
144
139
146
156
158
163
167
162
165
170
175
179
183
188
194
198
181
181
178
173
169
167
164
161
166
134
141
151
144
138
111
80
76
48
49
36
16
15
18
18
21
26
30
33
32
26
23
26
22
23
23
22
20
19
19
19
17
127
135
137
137
125
119
133
130
100
141
173
154
137
120
104
120
179
181
184
187
192
185
178
174
193
196
190
192
192
191
197
195
192
191
194
199
203
201
199
204
202
202
202
201
201
203
206
205
201
205
198
194
175
171
169
161
158
158
161
161
155
154
156
150
152
148
141
140
146
150
149
150
142
137
144
157
161
154
145
147
142
140
139
134
125
120
121
105
110
106
96
95
103
105
99
121
126
120
121
131
121
105
106
92
103
107
104
107
117
121
118
116
113
123
126
115
117
126
123
125
120
126
134
125
115
117
123
116
129
133
119
124
126
138
122
103
143
103
46
29
1
2
4
29
76
110
141
158
157
147
114
105
91
102
48
52
38
36
61
78
153
182
182
188
165
127
105
57
10
17
83
163
152
158
132
121
134
132
127
112
115
98
83
95
73
65
72
71
69
64
52
51
48
49
41
37
17
32
62
61
82
74
61
64
69
72
67
60
55
63
75
75
76
78
71
89
110
134
117
120
121
91
103
101
174
129
72
133
149
158
123
109
81
65
85
104
61
3
2
7
81
131
119
120
130
123
139
129
124
120
139
139
140
128
130
120
106
115
115
106
112
116
118
112
116
116
111
106
102
95
87
104
104
112
123
125
120
121
128
129
124
117
115
123
132
132
125
119
126
133
137
137
139
144
149
146
144
154
159
150
150
162
167
166
170
172
171
170
173
179
183
189
190
190
186
181
176
171
167
170
174
174
148
133
139
149
176
149
73
40
46
32
48
67
94
118
89
36
15
32
29
18
31
28
25
22
19
17
17
17
16
14
98
139
135
129
161
153
126
130
127
116
146
177
175
170
165
125
127
157
198
201
188
189
183
178
186
192
190
186
188
192
194
193
198
199
193
186
186
190
192
191
195
199
203
206
206
202
199
203
202
199
192
184
180
180
181
178
170
161
157
158
158
159
160
154
147
140
139
143
146
145
142
150
151
154
158
161
158
148
140
145
149
141
133
129
118
111
120
121
116
109
101
91
86
93
104
107
116
128
130
119
107
108
117
113
103
105
114
114
108
104
102
102
104
105
108
116
124
125
123
126
125
121
118
120
125
127
125
130
121
116
117
118
118
124
132
137
97
52
38
3
18
16
3
10
59
88
119
119
128
139
138
115
97
107
47
21
23
70
59
53
138
184
170
171
159
150
122
89
39
9
53
144
140
156
130
139
144
130
117
119
113
104
109
83
79
78
62
84
59
72
58
53
49
50
47
32
31
27
56
58
65
70
76
72
69
74
67
64
61
59
64
77
80
78
78
85
115
116
119
141
164
108
101
121
198
142
101
132
157
139
117
100
74
86
89
90
59
21
2
1
26
98
110
119
114
115
102
124
134
128
112
106
100
98
104
109
98
97
106
109
102
100
106
110
105
103
108
110
105
101
102
99
101
106
115
123
119
114
119
114
103
101
111
117
115
119
130
130
124
121
126
135
140
145
149
148
144
138
140
153
166
165
155
167
173
179
178
172
168
172
179
186
190
195
197
193
183
173
165
139
131
140
140
107
57
35
54
85
120
139
129
138
138
122
99
80
35
20
25
23
24
23
24
26
26
25
24
21
18
16
14
19
106
114
144
143
115
133
162
151
145
126
128
144
152
158
161
159
164
162
159
181
209
205
184
179
185
190
193
196
199
199
196
197
200
201
199
197
198
199
198
195
197
199
198
196
197
205
212
206
205
204
201
195
189
182
178
170
164
159
158
158
156
153
152
151
151
151
154
157
157
155
152
138
149
158
155
143
139
147
158
150
145
124
113
127
143
143
142
129
126
113
101
105
118
118
107
113
109
100
95
102
115
117
111
120
109
104
103
98
95
98
99
106
111
115
116
115
114
111
107
115
121
130
129
126
124
115
113
123
118
124
137
130
113
117
137
130
132
6
48
41
12
34
11
1
22
67
98
118
130
131
126
125
110
103
55
50
51
30
81
82
107
159
174
159
143
130
112
90
63
5
16
114
152
136
147
138
139
129
122
126
120
109
107
80
80
75
70
81
65
71
61
60
53
52
53
41
35
26
49
67
76
77
74
67
68
76
69
70
69
65
67
76
80
83
89
89
105
124
117
129
144
72
93
117
170
138
96
112
162
153
119
92
88
98
108
84
72
32
2
11
49
110
100
95
95
109
105
89
100
104
103
111
113
96
76
94
106
116
117
116
117
115
112
116
113
107
102
102
106
110
111
110
109
105
105
107
102
103
111
120
123
121
115
115
120
119
111
132
135
141
146
145
143
145
150
140
149
147
134
132
147
158
158
147
153
163
173
179
181
182
183
175
177
179
182
186
188
191
192
184
161
126
105
114
110
76
61
77
126
152
90
26
17
50
58
35
18
27
35
29
23
20
25
25
25
24
23
22
20
18
17
19
98
99
105
156
177
137
127
157
173
176
155
147
155
159
167
162
137
156
172
171
187
199
208
185
186
187
190
196
200
197
192
197
197
196
195
195
195
190
185
192
191
193
194
192
190
195
202
207
204
199
195
190
184
176
171
168
163
159
158
157
154
151
150
154
155
156
157
156
153
149
146
154
147
140
141
147
151
148
144
135
131
134
153
166
151
132
128
131
112
104
112
111
96
88
93
109
108
103
99
106
117
119
115
104
105
110
114
111
111
112
108
111
116
121
123
126
135
145
152
132
116
122
128
128
120
107
118
122
126
134
140
141
138
137
138
127
152
62
2
10
58
60
75
30
25
61
76
108
134
146
147
140
124
93
67
105
116
35
44
75
52
121
179
158
144
124
104
82
81
28
5
41
144
137
139
141
145
139
127
127
129
114
92
90
91
81
78
78
70
68
64
70
60
55
57
50
41
29
42
65
81
83
80
74
73
75
68
72
74
71
70
75
79
85
95
93
98
113
111
122
122
56
90
120
145
136
103
110
139
125
110
66
87
102
110
92
92
56
2
1
33
103
105
82
64
76
71
87
97
113
121
119
121
128
132
131
127
126
125
118
111
113
121
120
121
116
107
105
109
110
107
106
106
103
103
105
103
105
114
114
124
127
123
128
141
143
135
137
135
134
137
141
142
143
144
144
144
147
148
140
135
148
166
165
160
157
160
168
173
173
171
181
183
185
187
187
186
184
182
181
185
189
161
137
154
168
164
163
141
96
101
89
113
83
63
49
32
27
27
33
37
29
29
25
25
24
23
22
21
20
19
19
104
107
126
137
161
186
149
131
144
173
178
174
171
166
183
190
165
143
127
157
185
172
182
190
188
185
186
190
194
195
194
202
200
198
197
196
195
190
185
192
186
186
194
199
197
194
194
188
192
199
206
208
204
195
188
184
176
168
164
162
161
161
162
163
161
158
155
152
149
146
145
145
144
144
144
145
143
140
138
138
157
161
143
126
116
102
88
97
93
88
84
85
89
93
97
83
84
90
97
94
86
87
96
102
102
105
106
109
120
128
127
116
121
125
122
112
102
94
91
96
114
128
102
98
126
130
129
120
126
127
124
127
136
138
132
120
130
136
54
2
7
48
76
105
71
64
65
95
135
156
151
153
142
100
79
103
121
99
46
69
41
102
182
164
149
129
94
56
66
51
5
5
118
155
140
152
145
141
139
133
125
110
92
102
100
90
81
80
72
70
69
77
67
58
58
57
47
35
37
62
77
80
83
82
78
77
71
70
75
75
75
79
80
85
94
101
106
96
111
133
123
82
101
119
134
128
97
125
125
108
99
74
92
100
101
110
92
60
3
13
105
148
122
134
126
113
116
121
115
118
117
109
112
122
123
120
109
106
113
113
103
97
100
94
98
101
102
104
104
100
93
114
118
123
129
134
131
127
130
128
126
128
132
135
138
142
146
140
136
132
134
139
144
148
149
144
138
143
158
160
150
151
162
164
158
150
149
156
165
169
170
173
177
184
189
191
189
185
181
172
178
176
172
185
177
141
126
120
140
142
93
75
75
67
26
21
25
32
31
35
37
31
36
28
27
25
24
22
21
19
19
17
121
98
108
145
153
170
182
164
143
155
177
189
185
173
186
192
189
198
155
124
152
170
178
187
188
189
189
189
192
198
203
199
198
197
197
197
197
197
197
199
194
193
200
207
209
209
210
216
214
212
207
201
195
190
188
185
177
168
162
159
157
158
160
155
151
147
145
147
148
147
146
139
146
154
153
146
140
139
141
147
132
121
111
92
80
92
114
111
106
100
97
97
96
90
84
92
85
84
92
95
91
91
97
89
93
102
108
110
114
109
96
110
107
103
98
96
97
101
105
108
91
92
100
118
126
111
105
115
112
112
112
107
103
112
126
128
121
131
155
169
94
34
8
90
101
91
80
65
93
143
168
159
146
106
95
87
115
137
64
56
43
74
156
158
140
128
95
66
59
56
9
7
69
146
148
156
136
135
148
142
119
107
108
101
96
96
81
86
73
71
68
80
75
65
62
65
54
39
30
68
76
71
76
81
76
76
78
73
77
76
77
82
83
86
95
107
113
103
116
141
138
105
109
115
129
128
99
138
139
135
91
66
96
106
103
95
47
45
59
116
101
107
120
127
123
128
118
114
114
116
109
97
99
96
81
96
96
92
88
93
100
98
89
90
88
91
101
110
113
114
115
94
100
107
117
128
129
125
126
133
127
127
132
130
123
124
132
142
147
150
143
132
127
130
134
124
129
131
134
145
156
152
139
166
169
170
167
164
163
162
160
168
170
173
177
182
186
189
191
202
175
178
167
130
113
102
85
101
89
109
113
35
9
18
20
26
26
30
27
31
34
25
28
29
28
27
25
21
18
15
15
14
75
103
94
86
121
148
161
182
175
169
158
161
177
173
157
178
192
199
185
182
172
162
191
185
188
192
194
193
192
195
201
196
194
193
194
193
193
196
199
199
204
210
211
210
208
209
211
207
203
198
192
189
190
192
195
178
172
166
161
157
153
151
151
144
141
139
140
143
145
143
141
148
144
140
141
143
140
131
123
113
113
111
106
111
129
136
126
131
123
121
127
121
105
99
104
98
97
96
97
104
111
112
110
114
108
104
102
103
112
115
109
106
107
112
119
122
121
119
118
105
120
130
126
117
112
112
110
114
112
112
114
115
116
120
124
130
130
130
142
150
94
2
17
84
104
86
82
68
86
124
147
153
150
118
105
96
144
124
56
43
41
47
123
156
138
132
108
94
76
78
22
4
22
132
147
145
146
143
137
133
128
117
107
100
95
100
84
90
74
64
59
78
82
75
68
72
60
47
26
64
76
72
76
83
76
73
74
76
77
73
74
80
83
87
96
102
104
123
117
131
142
101
102
117
114
144
146
143
132
137
81
88
110
102
104
76
41
52
116
138
114
94
95
104
110
117
103
91
82
84
93
89
79
79
85
85
84
81
82
90
103
114
119
99
87
79
82
89
94
103
112
111
114
113
116
123
126
125
128
119
123
129
131
129
127
126
127
118
124
128
130
131
136
142
145
134
139
138
136
145
158
163
158
144
157
168
170
170
172
175
176
177
177
176
176
177
179
182
183
184
183
184
179
177
166
139
127
105
61
48
66
123
73
47
55
76
47
26
16
20
26
20
20
24
24
24
22
19
15
12
11
12
87
70
79
79
76
113
138
158
181
188
175
168
186
197
177
186
189
192
189
190
193
188
180
189
188
189
193
195
194
194
196
203
199
196
197
196
194
195
197
199
209
215
212
206
205
205
203
200
202
204
205
202
194
183
175
181
177
173
170
165
160
157
156
152
150
148
146
145
144
142
141
138
137
136
134
130
126
122
120
135
120
121
135
139
136
131
122
114
118
105
78
68
78
82
75
76
83
92
97
99
100
98
97
91
91
96
100
100
100
97
89
108
102
98
97
98
99
103
108
101
98
93
113
110
88
99
109
106
109
111
117
129
139
135
124
134
121
145
131
40
8
1
9
87
110
108
95
77
69
94
134
145
155
143
114
99
134
117
99
63
58
48
92
145
142
135
112
91
87
81
20
4
4
104
150
137
161
152
124
124
136
122
97
109
103
103
91
89
80
61
59
77
90
82
67
74
67
61
35
50
77
78
77
84
81
76
73
73
75
74
76
80
82
86
95
99
103
129
121
125
139
107
92
113
94
134
168
137
124
106
76
104
113
109
107
102
96
56
38
108
107
121
139
118
104
125
130
120
100
89
102
113
105
99
106
109
98
93
97
95
83
76
76
104
99
92
87
85
88
94
100
121
125
122
118
117
116
116
121
119
129
134
132
129
129
127
124
140
136
131
132
139
142
136
126
126
126
129
135
139
141
151
162
156
164
168
163
159
161
165
166
174
176
179
181
182
182
181
180
174
153
161
165
168
193
190
162
133
137
125
87
58
110
133
98
50
26
22
20
11
8
9
18
14
16
17
18
17
15
12
10
12
116
105
90
106
98
74
116
137
144
163
193
189
173
189
193
177
190
184
186
196
190
185
187
193
185
182
188
196
201
202
202
201
196
192
193
195
192
191
192
207
210
208
201
201
210
214
211
206
201
196
195
196
196
193
189
178
174
169
165
161
157
155
155
154
152
149
143
138
135
136
138
143
143
144
146
147
146
142
140
137
133
136
133
122
118
114
101
90
84
78
82
95
104
100
91
95
92
101
118
122
111
103
106
111
109
114
116
111
107
103
98
101
98
97
97
95
93
94
98
118
124
102
110
112
103
115
100
88
87
97
117
124
118
116
121
124
119
142
59
5
43
50
64
70
87
111
99
95
76
89
141
143
137
145
131
126
113
125
148
73
59
38
50
113
141
138
112
89
103
56
5
9
3
40
141
141
155
143
126
132
133
116
104
115
110
101
96
87
91
68
71
78
94
83
63
72
71
74
48
44
79
79
69
76
84
86
84
69
76
80
83
85
84
86
95
107
116
125
131
136
142
132
95
93
73
95
137
120
144
97
83
116
115
97
21
16
68
77
32
87
131
112
104
136
132
103
90
92
123
130
115
115
121
115
108
105
97
84
79
87
96
88
74
78
89
95
93
90
90
90
87
76
90
101
107
113
118
124
133
120
124
128
129
126
124
126
129
124
129
136
142
148
147
136
123
116
129
139
140
143
151
157
157
171
177
179
175
173
177
179
177
177
177
178
178
178
178
178
178
165
165
169
142
113
119
133
141
161
172
168
176
174
140
87
70
35
0
0
14
12
9
3
3
6
8
12
14
15
14
12
11
13
139
126
119
142
156
145
137
138
146
147
159
186
194
193
201
192
181
178
185
187
182
180
185
191
190
184
183
190
195
198
203
201
200
193
186
187
197
207
212
213
217
212
204
206
209
205
201
197
197
197
197
196
192
188
185
185
181
175
169
165
163
162
163
156
155
152
149
146
145
146
147
141
137
136
139
139
134
129
127
134
139
140
127
117
126
116
85
99
119
125
126
127
113
100
108
93
116
121
106
102
110
112
110
113
109
105
103
102
101
104
108
111
117
116
113
121
130
133
134
124
114
124
111
96
89
99
85
89
112
113
101
102
105
113
132
129
119
128
114
40
5
0
3
17
28
87
122
97
101
95
93
136
145
157
143
135
118
91
111
96
38
33
41
40
117
130
121
89
79
36
6
7
3
41
163
136
163
143
128
141
144
135
118
119
114
109
103
103
91
73
78
79
87
86
75
70
73
69
58
39
75
69
81
81
80
84
89
83
80
80
83
85
88
92
94
103
114
112
133
152
143
173
107
33
84
118
135
124
151
80
105
120
119
35
45
75
19
27
50
66
116
130
115
120
126
120
119
110
107
106
112
118
118
114
110
103
115
111
96
86
81
90
112
115
90
70
69
69
61
55
57
67
65
72
86
95
97
105
116
111
111
107
105
116
131
135
128
124
124
132
125
143
123
110
139
132
122
128
137
141
157
167
159
156
158
166
176
178
174
175
180
185
176
171
174
176
173
176
182
164
171
184
186
171
131
83
62
54
79
45
42
75
67
54
47
15
53
17
16
9
4
9
10
4
7
11
9
5
10
17
15
15
141
135
114
131
136
128
144
156
159
152
153
168
172
178
195
187
183
178
176
182
189
188
182
183
191
195
194
194
193
196
204
200
198
198
204
204
200
196
195
190
184
179
185
192
192
192
199
198
200
201
196
189
186
188
192
185
180
174
167
162
159
157
155
147
147
147
145
142
139
137
136
141
138
138
142
143
141
139
139
142
128
123
121
115
116
118
113
130
140
129
112
109
104
102
112
108
118
113
100
102
110
110
106
103
103
98
91
91
100
109
113
104
116
124
128
131
126
115
110
97
88
87
82
89
81
85
87
86
96
95
98
115
115
101
97
125
109
108
128
133
132
113
85
74
18
8
105
125
90
94
76
91
130
147
160
138
117
64
97
93
45
30
36
58
73
67
72
68
42
5
9
4
3
79
162
135
154
151
143
145
144
135
124
119
118
115
103
95
82
72
83
77
87
86
75
72
79
76
65
39
79
79
76
76
81
88
85
85
80
77
78
81
83
89
93
100
115
120
123
134
135
168
155
39
97
153
121
172
134
74
119
108
67
3
136
99
2
2
1
39
80
104
108
112
115
121
136
111
105
98
93
92
94
103
111
112
116
108
102
110
106
80
60
67
80
84
76
74
80
75
62
68
78
91
95
92
92
101
112
118
119
124
128
127
125
129
136
125
141
135
131
108
98
91
99
125
142
137
126
135
145
149
157
161
153
153
162
173
176
176
177
181
183
186
190
191
188
184
181
170
163
119
123
153
165
158
113
81
67
28
45
84
132
113
145
114
40
0
0
19
8
11
9
7
8
8
4
4
13
18
12
16
78
119
143
131
121
124
122
129
149
165
178
194
193
182
181
183
189
190
183
179
183
189
192
179
189
194
194
194
191
193
200
206
195
190
194
194
187
184
186
175
172
171
181
194
197
197
204
204
199
195
193
194
194
191
188
188
184
178
175
172
169
165
162
152
151
150
148
146
144
142
141
139
140
143
146
145
139
134
131
139
123
120
127
128
131
141
150
127
128
117
109
112
105
96
98
108
110
103
95
99
105
104
103
102
105
107
111
117
114
91
64
86
93
98
102
102
92
83
83
89
77
88
95
93
95
108
103
94
109
112
106
104
98
99
112
109
128
136
137
132
130
149
146
55
7
7
71
91
50
64
114
109
97
118
137
134
114
78
72
89
110
40
23
23
32
30
26
25
36
36
30
13
3
24
160
157
153
159
150
136
134
131
127
131
122
113
100
95
86
77
84
80
88
87
78
77
85
83
72
42
72
83
76
77
78
87
86
91
87
83
84
86
89
91
94
93
116
139
134
135
133
138
157
95
126
132
119
201
93
88
110
118
64
15
131
71
74
94
56
32
53
77
91
97
101
105
111
136
130
121
113
107
104
108
114
127
117
109
115
123
112
97
94
80
71
75
94
106
104
104
110
96
96
95
96
104
115
118
115
114
118
123
125
120
116
122
132
137
128
110
129
114
104
104
93
94
127
144
144
147
145
145
157
164
162
161
164
165
165
169
175
178
183
182
172
165
170
180
187
181
164
126
130
135
132
166
187
183
175
161
136
65
23
22
15
65
85
79
45
0
0
20
11
18
8
8
14
15
15
18
20
16
102
112
134
149
143
141
153
140
157
163
160
166
174
181
189
193
193
195
195
186
178
183
194
192
192
189
191
199
202
200
201
203
198
197
201
199
190
183
181
186
193
191
188
192
194
188
182
195
192
191
194
199
198
191
183
185
182
180
179
178
173
166
160
154
151
146
143
141
141
142
142
139
137
133
131
131
133
138
142
133
134
135
134
133
135
136
133
116
113
110
114
114
99
92
100
120
122
118
114
114
112
112
117
117
118
114
104
98
100
105
107
99
97
93
92
92
87
89
99
100
115
109
104
120
111
94
97
101
106
107
107
108
100
93
96
114
131
122
107
120
129
110
22
1
0
3
61
109
54
46
88
128
91
128
139
122
117
117
75
118
127
61
25
9
16
3
3
28
66
42
40
40
4
2
121
169
144
154
151
135
140
141
139
135
124
115
104
99
94
83
84
87
88
87
86
87
87
82
77
52
60
82
83
85
77
86
94
86
83
82
85
88
88
86
86
96
115
143
147
145
142
124
131
126
144
107
127
145
83
122
97
97
72
2
60
91
117
106
101
120
104
86
74
77
99
115
111
117
117
121
127
130
124
116
110
114
114
118
122
114
100
104
120
93
95
96
92
85
84
98
114
119
120
117
107
100
100
104
107
107
115
117
113
114
119
119
113
121
131
138
127
113
95
106
96
99
91
108
128
129
136
155
164
164
169
175
175
169
163
166
173
175
179
181
180
178
179
183
185
178
181
196
189
167
137
110
118
133
155
135
143
164
131
105
74
47
23
59
97
118
55
0
8
11
1
2
12
19
22
18
10
13
124
117
116
130
145
144
136
137
152
170
180
176
167
174
190
202
194
190
194
196
191
185
182
193
190
184
187
199
203
200
200
200
203
204
202
199
196
192
188
193
201
199
192
192
191
185
181
179
187
196
198
193
189
188
190
190
188
185
184
181
174
163
155
155
151
146
142
140
139
138
138
139
138
136
133
131
131
133
133
138
149
152
146
145
147
140
131
139
138
130
117
107
106
119
136
125
122
116
115
115
109
106
112
111
100
93
96
101
101
97
95
101
99
98
101
103
99
103
115
113
101
100
99
84
84
93
94
99
88
78
82
96
106
110
114
109
87
87
110
115
99
103
58
42
0
6
21
56
30
7
41
101
73
82
138
149
125
79
69
79
77
107
41
23
14
2
10
72
85
97
108
88
54
5
57
178
150
157
157
147
150
143
134
125
122
123
112
96
89
84
89
92
85
85
93
95
86
82
84
61
53
83
88
90
84
90
98
85
82
82
85
89
89
86
86
102
112
128
141
143
147
141
126
138
126
99
138
98
107
131
108
125
79
1
46
73
82
108
91
93
86
89
92
89
94
92
76
68
82
99
110
110
108
113
120
106
115
114
99
88
92
96
91
100
94
88
89
98
108
109
106
100
109
124
135
134
125
118
115
118
126
130
128
130
134
129
118
109
119
146
145
142
114
101
112
102
84
93
120
130
136
142
138
156
160
167
173
175
175
175
176
174
167
166
178
188
187
180
176
182
170
172
166
171
170
142
138
131
124
88
81
78
95
63
78
152
128
83
89
31
55
67
13
0
30
58
44
14
6
11
11
7
91
97
99
92
114
139
133
129
118
129
160
173
165
167
180
188
195
195
193
196
200
195
185
186
189
189
191
197
198
197
200
202
205
204
198
195
197
199
197
197
193
189
190
192
188
188
198
185
189
195
196
194
193
194
196
192
190
188
185
181
174
164
158
158
155
152
150
148
144
139
135
138
139
139
137
135
134
131
127
130
136
135
134
138
138
134
134
127
127
116
102
105
123
134
130
133
122
110
111
118
116
111
113
105
103
104
103
92
79
80
89
78
80
84
92
99
98
100
110
106
93
79
99
118
109
84
88
89
97
106
107
99
91
88
87
95
94
96
96
95
117
147
120
24
3
3
37
41
19
20
5
55
69
36
56
155
134
42
27
38
74
101
72
38
9
19
26
94
149
142
108
133
99
6
75
178
165
161
155
148
148
137
123
122
116
120
112
97
92
87
86
92
83
84
94
96
88
85
91
68
53
83
85
83
95
92
91
93
87
85
87
91
93
93
94
95
108
124
140
145
142
144
119
130
139
122
132
88
106
119
105
95
87
40
12
1
44
89
97
88
85
99
109
97
89
97
104
93
76
63
71
90
101
97
89
115
114
114
108
105
113
115
105
106
106
106
104
96
88
88
93
102
90
84
92
106
117
124
129
121
119
121
124
124
123
127
134
129
122
124
142
153
145
88
73
98
110
107
105
116
121
124
137
140
148
157
164
168
170
174
178
179
170
164
166
166
165
172
183
180
177
163
167
176
176
176
170
184
175
190
195
129
109
124
133
70
27
23
1
3
1
65
129
128
91
54
31
16
11
12
11
4
120
128
144
163
156
154
179
153
132
124
141
160
167
165
157
166
184
195
192
189
195
199
198
192
198
200
201
204
203
203
207
199
201
205
208
207
203
197
193
200
191
181
181
184
181
180
188
197
194
193
196
201
202
199
195
188
185
181
176
171
166
160
156
153
152
150
149
148
145
139
135
140
137
130
126
130
140
148
151
142
146
140
135
140
137
131
133
123
119
119
127
142
155
148
129
122
112
101
102
108
106
99
100
100
92
90
100
110
109
100
92
84
87
89
95
101
99
98
103
94
86
90
93
61
65
85
100
84
88
93
94
94
99
103
100
102
107
108
114
115
119
111
101
22
1
13
24
48
82
38
2
40
112
83
28
107
126
76
25
51
95
57
100
79
24
9
33
108
170
154
170
181
146
113
67
139
160
158
149
150
150
145
135
127
116
118
111
101
100
93
86
90
86
85
89
91
89
90
95
84
55
78
84
79
100
88
86
92
86
83
85
88
91
92
92
87
105
127
139
156
139
135
125
126
131
109
81
111
127
84
13
16
38
97
49
7
70
115
141
109
103
105
108
100
95
102
111
118
117
114
106
97
94
101
110
86
80
91
107
107
104
107
108
112
115
110
105
110
118
113
99
107
113
117
114
108
104
104
105
115
111
109
108
107
108
116
126
117
132
132
131
141
178
157
116
76
103
114
116
124
120
115
121
132
141
152
158
159
161
164
167
176
181
186
185
177
172
179
189
167
184
175
161
171
192
194
176
172
172
158
188
207
148
111
69
86
64
52
74
95
92
74
54
53
15
0
6
14
9
5
7
5
111
111
114
119
134
148
156
169
161
138
114
118
148
163
151
159
166
177
186
188
188
193
200
195
197
194
194
200
201
200
203
205
195
188
191
193
189
190
194
188
189
181
177
188
198
197
193
194
196
199
200
198
196
196
195
197
193
186
177
169
163
160
158
155
153
150
150
151
150
148
146
141
144
145
145
146
146
139
132
129
142
139
132
140
143
135
130
128
120
130
149
151
143
137
135
124
123
117
114
111
101
93
95
76
70
66
74
93
108
110
104
98
102
102
102
102
94
83
81
88
92
93
100
97
119
112
91
96
102
107
103
97
102
107
104
103
113
97
89
92
100
97
128
123
115
119
71
58
74
10
22
91
123
119
92
87
100
93
63
2
82
89
98
103
63
11
63
105
167
158
165
175
153
128
55
107
159
166
158
159
150
144
134
128
122
129
118
99
98
98
99
90
89
86
84
84
89
93
95
105
57
74
92
83
101
83
91
95
90
88
92
96
97
95
94
93
104
122
123
160
145
142
159
89
60
119
91
123
77
5
3
2
65
94
7
1
1
15
44
79
76
73
81
98
110
105
92
101
97
98
105
111
108
98
89
106
96
94
93
90
103
119
122
113
94
96
118
118
95
92
110
106
110
109
108
118
131
133
126
133
137
135
128
128
131
127
117
124
97
98
118
129
133
170
163
113
94
98
118
130
141
143
131
135
136
141
152
163
167
159
149
164
167
171
175
181
187
184
179
186
172
185
172
165
165
152
178
163
153
126
139
155
179
165
178
207
199
181
87
4
8
0
5
1
7
11
6
3
11
14
7
6
121
116
96
79
72
75
102
121
152
160
149
122
118
142
148
151
173
178
166
179
197
192
194
195
194
192
192
194
196
198
199
202
203
202
195
186
181
182
184
193
187
186
193
198
196
194
195
187
193
200
202
203
202
199
195
191
182
172
166
166
167
166
164
156
153
149
146
144
141
137
134
142
144
145
143
139
137
138
140
135
129
136
136
122
125
138
138
143
147
150
145
140
145
145
135
120
94
102
107
109
122
119
115
112
109
101
110
99
80
96
114
109
109
107
100
91
86
87
90
100
96
102
117
122
111
101
99
98
101
101
97
94
94
91
86
95
94
92
100
97
106
124
107
114
107
130
143
71
3
4
64
100
127
118
117
91
110
102
62
30
27
71
84
82
117
62
65
69
75
174
160
159
152
94
67
89
170
175
155
159
154
144
141
129
120
124
117
103
98
95
101
88
93
80
90
88
90
92
95
101
64
69
98
91
89
89
110
113
96
87
93
99
96
94
98
92
105
117
138
157
157
155
169
94
47
86
104
109
10
3
3
3
91
62
42
94
66
77
108
111
103
101
96
85
85
94
95
105
110
98
88
90
84
76
81
97
101
93
103
105
99
106
102
111
112
104
115
124
120
122
111
114
120
120
118
115
111
115
127
128
136
117
132
127
125
129
122
132
132
129
110
97
122
153
160
153
134
135
112
103
112
135
137
133
142
143
141
153
166
169
167
175
175
173
177
183
181
177
180
188
177
178
166
155
105
83
112
146
152
150
116
90
65
51
44
63
70
98
121
114
91
62
6
14
9
8
11
13
10
6
5
1
123
135
132
126
117
102
101
107
109
130
176
188
164
153
145
148
156
181
182
173
185
192
189
200
198
196
195
196
196
195
194
191
193
194
192
188
183
180
179
178
184
190
192
190
190
191
192
201
204
205
200
193
189
188
187
169
168
167
167
167
165
162
159
160
156
149
145
144
146
148
149
154
149
143
144
147
147
141
135
139
136
139
139
134
139
143
137
144
150
141
143
155
130
99
101
102
80
79
89
97
104
97
87
90
101
103
111
108
98
101
97
106
108
110
111
111
109
108
107
105
106
103
96
86
78
75
76
86
86
86
88
94
100
103
102
106
111
94
99
117
114
108
101
96
108
109
103
31
23
46
87
101
100
118
114
119
82
118
52
31
24
74
56
87
111
108
58
65
61
160
165
147
126
111
71
60
134
171
156
161
151
143
133
135
125
122
106
94
99
95
90
92
85
90
97
100
89
85
101
107
70
65
101
93
89
90
102
98
95
89
87
93
100
99
93
101
105
112
134
130
157
150
167
126
80
88
104
74
4
3
25
2
55
88
101
107
106
104
95
91
103
110
111
111
104
103
115
114
116
126
124
111
113
110
91
85
92
88
89
96
79
71
100
104
111
109
115
112
106
118
122
115
115
112
117
130
135
132
130
127
134
117
121
117
116
127
120
116
143
144
135
128
101
104
152
169
157
136
128
136
125
131
154
156
135
124
139
152
149
156
177
176
175
173
177
184
183
179
182
174
169
187
191
175
160
125
97
104
107
115
99
143
152
101
102
131
88
53
56
24
33
70
3
11
15
15
11
6
4
5
3
1
112
122
126
133
149
153
148
140
130
116
123
141
159
176
177
149
152
178
182
168
172
186
196
189
188
187
189
192
192
190
187
193
190
187
185
184
185
185
186
179
191
200
199
199
202
202
199
198
192
184
180
182
182
176
168
168
172
177
180
179
175
171
168
166
161
153
147
144
144
147
150
138
137
136
137
137
136
134
132
140
139
136
135
139
142
137
127
129
135
136
129
120
109
95
85
92
87
92
111
105
81
77
84
95
104
103
99
93
91
98
96
92
93
96
100
102
98
90
84
92
95
89
75
72
83
95
100
104
98
92
92
93
93
92
92
93
85
94
114
103
84
99
116
101
113
110
152
142
73
35
63
58
41
92
118
128
115
89
61
6
1
15
80
80
125
120
70
38
40
99
162
136
128
113
80
36
91
170
163
164
146
143
134
126
121
129
119
103
105
107
108
101
85
97
94
105
94
88
105
114
79
56
102
93
89
90
92
88
93
92
88
92
101
101
95
94
107
108
122
165
159
155
177
153
53
71
89
89
48
56
3
4
73
93
72
100
80
91
103
100
101
90
95
116
110
96
104
97
97
109
117
116
123
123
105
104
107
113
107
118
116
90
97
102
102
99
103
96
83
83
84
110
115
113
110
115
121
122
125
117
120
104
93
89
86
107
105
111
139
131
128
151
130
93
99
151
162
149
140
127
132
143
132
146
149
146
144
149
153
151
150
168
168
166
169
178
178
175
176
186
188
168
183
172
188
210
188
167
109
98
63
93
112
113
116
111
109
107
49
61
57
71
46
5
11
11
5
1
4
4
1
3
87
109
125
127
139
143
130
119
137
153
153
136
122
139
165
162
158
154
160
184
191
177
183
189
188
190
194
198
199
196
192
197
194
191
188
187
189
192
194
199
198
194
191
194
200
201
199
180
175
170
172
180
185
179
170
176
177
178
177
176
172
169
168
164
161
155
149
143
140
138
138
131
133
134
134
132
131
130
130
127
125
121
123
129
128
123
122
126
130
133
122
107
113
120
110
112
122
114
109
92
72
89
107
106
102
98
98
99
100
107
113
106
99
91
90
95
102
107
109
99
99
93
88
96
110
115
111
102
98
98
103
105
104
105
108
110
111
118
109
90
102
117
100
113
102
94
128
139
26
2
31
99
39
6
27
49
60
108
79
50
10
2
4
53
90
141
98
24
24
46
141
147
140
108
97
43
61
166
171
167
143
145
144
135
117
126
130
115
108
112
121
112
103
99
89
97
96
96
101
122
91
52
99
97
93
95
90
90
91
93
96
97
98
100
103
104
113
107
127
182
145
153
161
172
135
101
88
103
109
71
12
16
1
30
108
92
95
99
77
100
113
102
85
90
95
93
97
99
98
87
91
111
115
113
122
98
95
117
117
98
99
96
87
97
91
89
97
99
91
89
89
85
101
106
100
98
101
106
111
113
115
112
104
104
93
112
115
106
125
133
133
148
161
142
109
104
132
150
178
151
135
145
140
133
142
147
149
150
151
158
169
168
171
170
172
178
178
177
180
179
178
157
165
161
148
147
153
162
172
145
93
14
1
0
0
1
1
10
7
0
10
0
6
4
3
1
0
1
4
1
1
1
99
101
109
106
116
131
127
131
133
142
157
171
165
154
157
159
163
163
166
188
194
178
177
195
196
197
200
202
200
196
192
191
194
198
199
197
195
194
193
187
183
183
187
187
179
170
165
168
174
178
177
174
175
179
182
182
179
175
172
170
168
165
162
157
155
152
148
144
140
137
135
139
132
125
126
131
131
123
116
120
118
118
124
130
127
130
142
140
143
131
130
143
131
118
129
117
140
131
117
109
103
101
84
79
78
85
97
110
116
109
103
122
119
114
109
106
103
100
97
84
84
87
97
108
113
107
99
93
94
98
102
100
93
92
95
107
97
87
90
96
85
78
95
76
82
98
100
94
43
38
3
78
80
27
4
6
7
38
96
45
51
12
14
1
46
101
163
45
9
25
91
146
130
111
103
76
43
143
173
168
147
146
149
161
123
116
117
108
107
106
104
113
123
104
110
101
91
100
103
128
105
55
93
103
100
103
96
94
94
96
98
97
97
100
104
110
99
111
138
131
136
153
150
154
180
131
79
95
97
54
33
54
1
44
66
88
87
77
89
95
96
106
119
126
125
114
100
97
107
97
81
78
76
85
107
126
92
81
105
103
91
93
81
76
67
66
69
75
80
88
99
104
114
116
116
124
125
116
108
104
105
114
115
113
90
93
93
109
103
119
132
134
153
168
157
133
142
111
141
174
171
147
130
151
160
162
160
157
152
152
160
163
170
172
172
175
175
175
180
173
157
173
158
158
126
57
41
59
94
127
148
156
84
56
63
74
94
100
70
27
0
9
3
7
0
0
1
1
1
1
2
18
123
115
119
111
102
101
90
88
104
121
130
147
158
161
179
166
165
180
178
172
186
193
188
191
192
195
197
198
196
193
191
190
193
196
197
195
194
195
197
181
177
177
180
178
169
167
169
187
189
187
181
177
177
180
182
184
181
178
176
175
172
167
162
160
156
151
147
145
144
141
139
133
129
124
123
123
122
117
114
122
119
123
129
129
127
135
147
132
137
133
130
132
123
111
110
114
105
89
83
76
66
63
56
68
79
90
82
82
93
91
87
81
87
96
104
106
103
97
93
102
98
96
97
93
85
80
79
81
85
91
92
88
83
83
87
76
74
80
80
84
92
89
90
79
99
104
108
115
136
149
118
66
76
33
3
13
17
13
92
114
45
36
67
3
43
98
102
79
15
4
51
115
137
127
106
93
28
113
172
166
156
145
145
153
128
128
120
105
112
109
94
101
123
111
137
118
93
107
121
126
114
61
80
106
102
104
100
93
100
100
94
93
100
102
98
100
99
141
127
110
138
146
158
167
164
130
78
82
24
10
42
31
90
67
50
19
63
93
51
54
78
97
88
81
108
134
131
142
130
123
117
114
125
121
96
113
118
99
106
109
87
89
100
91
78
73
72
81
93
94
99
91
96
97
103
118
127
123
118
114
110
115
118
115
102
100
104
118
105
100
107
119
133
149
160
150
165
136
125
136
150
155
148
125
132
134
138
149
153
149
145
157
166
169
169
171
172
173
176
169
168
170
159
175
184
178
140
99
96
57
1
78
83
58
64
72
80
46
38
0
11
4
0
2
0
1
5
1
1
8
28
46
132
131
138
140
138
146
142
120
110
112
123
138
138
144
184
180
161
161
160
165
187
194
187
189
192
196
199
200
201
201
201
197
195
192
190
190
192
195
197
199
188
176
170
172
181
193
201
202
195
188
186
191
194
190
183
173
173
173
172
169
166
162
159
163
158
151
149
148
147
143
139
136
138
137
132
126
122
124
127
118
115
121
124
118
122
128
125
116
121
129
120
105
110
112
96
109
82
83
90
75
56
55
69
93
96
97
76
69
84
92
101
105
101
95
91
91
93
95
97
99
98
98
98
95
93
97
103
101
101
96
85
75
70
69
70
83
53
69
88
84
87
85
79
93
104
96
95
91
87
101
139
109
2
52
2
2
20
22
62
128
118
65
33
15
45
68
64
91
59
7
34
77
126
113
98
76
16
98
181
162
160
143
146
134
128
145
139
116
118
118
103
94
110
107
128
121
96
109
122
123
122
71
69
110
104
100
102
95
98
97
95
95
99
99
95
101
122
149
122
125
128
133
152
155
173
119
78
60
3
1
94
122
91
102
87
73
64
47
78
62
37
44
84
99
78
76
102
94
101
121
125
105
96
98
91
102
125
117
109
123
121
108
109
107
94
91
86
97
112
107
106
123
127
124
117
113
107
104
107
111
107
102
104
107
119
121
126
119
124
119
112
115
123
137
153
152
145
149
151
150
146
158
165
165
143
130
144
156
149
148
163
162
170
173
174
180
183
181
182
175
185
161
140
141
152
166
153
120
75
96
131
78
109
98
52
38
6
22
32
5
1
0
1
0
0
0
2
1
8
31
55
67
148
143
134
126
124
141
145
147
149
135
103
105
119
116
131
150
160
161
151
156
163
169
195
188
191
196
198
199
199
201
203
199
197
194
194
195
195
192
189
186
185
184
188
198
203
194
179
178
178
178
181
186
190
187
181
167
169
170
168
163
160
159
160
157
153
149
150
152
151
145
139
150
144
137
133
130
128
124
121
122
121
129
129
124
134
138
120
121
123
115
117
129
120
106
109
122
96
95
83
72
86
101
113
99
79
76
76
91
108
107
115
117
111
104
98
95
92
89
86
86
90
95
98
98
95
90
85
76
75
69
59
57
64
72
75
55
77
97
82
74
82
83
95
82
72
92
101
106
93
109
135
158
48
11
10
9
14
2
5
35
52
31
33
19
46
76
59
67
94
39
10
48
63
65
65
48
8
99
195
157
159
143
152
142
126
144
147
123
117
116
105
100
101
99
95
105
94
100
102
124
129
83
66
116
107
99
105
100
91
91
100
103
95
93
99
99
122
107
135
117
118
140
148
149
162
144
63
33
1
6
14
29
93
84
94
100
92
73
69
102
106
81
64
86
100
88
78
90
84
87
110
123
95
69
77
78
90
113
107
100
106
106
121
126
121
119
100
94
106
109
119
122
131
139
142
138
127
120
122
124
122
111
105
101
121
113
109
122
115
118
126
128
132
141
145
150
164
156
128
147
147
144
157
151
157
151
146
154
163
159
151
162
168
170
173
183
187
184
181
183
173
177
136
130
126
56
102
112
93
87
93
102
43
51
50
68
100
27
1
8
3
3
1
3
1
0
0
1
19
44
63
58
126
143
151
126
108
115
124
117
144
161
157
140
119
106
104
129
141
162
177
173
163
170
186
195
196
197
198
198
197
194
192
197
192
193
197
195
185
182
185
188
196
197
182
169
172
177
171
175
187
199
198
187
176
172
173
179
181
170
161
168
170
162
162
161
153
150
152
149
143
147
157
146
145
139
134
133
129
128
134
123
118
117
123
126
123
119
120
131
122
117
118
114
106
103
106
93
87
92
91
104
111
92
87
43
67
88
105
120
120
116
123
93
92
98
101
100
108
110
98
94
83
72
72
82
86
75
60
63
63
65
74
85
84
79
80
96
102
94
91
96
97
95
87
83
90
108
108
105
116
115
107
112
148
72
1
16
68
39
7
2
2
8
24
16
24
76
83
77
84
84
23
2
22
38
44
35
22
102
170
164
154
158
151
145
131
129
125
113
117
120
107
103
93
103
123
119
96
110
109
126
135
89
56
122
104
102
93
116
118
98
96
101
98
101
92
95
101
105
116
129
122
122
142
147
152
172
65
12
121
63
1
48
109
61
62
77
84
75
74
43
75
95
85
76
89
101
100
97
112
99
80
101
128
113
81
68
54
62
92
101
115
106
107
108
127
119
114
121
120
121
119
116
115
114
128
111
109
111
112
113
109
108
119
133
130
118
112
122
122
115
113
121
124
134
153
144
145
163
170
152
145
150
148
145
155
163
162
161
164
165
164
156
159
163
166
167
170
174
177
178
188
173
167
162
113
103
96
84
45
29
80
94
95
14
0
0
1
4
0
3
0
0
1
29
14
1
1
10
35
52
55
32
157
148
143
148
153
148
142
170
162
162
174
181
172
157
147
150
139
139
155
173
179
175
172
186
189
193
197
199
200
200
199
197
192
191
194
194
188
183
182
189
186
188
187
184
186
189
186
188
182
176
174
177
181
184
184
170
176
171
168
172
168
160
159
155
158
163
166
164
158
153
151
140
140
137
137
139
133
126
127
126
125
122
112
97
91
103
120
112
109
110
113
115
114
116
121
113
115
117
102
96
94
83
86
87
115
127
123
127
130
123
115
91
104
98
90
94
85
77
92
101
101
102
100
87
75
78
90
77
87
90
85
81
81
90
105
90
94
100
87
83
86
81
90
95
102
103
92
93
97
94
102
125
146
174
128
15
51
92
6
1
7
8
6
43
47
23
85
101
65
58
68
23
3
4
24
27
41
72
192
155
149
156
157
149
143
118
121
133
114
101
106
91
112
123
116
109
96
114
118
142
143
116
56
110
109
102
106
102
100
93
99
105
97
95
96
94
96
108
122
125
123
129
135
151
160
168
137
2
118
89
20
86
105
111
78
66
70
98
96
79
42
55
90
82
73
88
97
97
91
113
113
74
78
114
122
104
71
59
60
85
97
92
111
136
104
121
133
136
143
123
117
127
120
110
112
107
112
115
114
113
112
101
88
82
84
98
117
113
126
126
118
118
119
120
128
142
137
151
167
166
167
166
154
160
161
161
161
163
166
167
166
172
168
165
168
174
177
174
170
184
167
174
186
177
180
185
134
95
122
106
34
9
7
0
3
4
3
0
0
4
5
53
74
40
19
1
1
20
46
50
38
13
172
180
178
175
159
153
168
165
170
175
169
166
182
193
186
170
162
157
164
176
183
182
179
182
186
193
198
201
202
204
205
197
195
193
195
198
198
193
188
179
166
166
177
182
181
181
180
178
174
170
169
172
177
180
181
173
178
178
179
180
173
166
168
164
171
173
163
153
148
147
146
154
150
142
139
141
136
129
130
118
108
105
114
126
126
117
109
112
116
121
123
121
116
111
107
103
103
101
93
101
116
119
125
119
129
133
132
131
121
108
103
106
106
90
83
91
82
74
90
72
70
73
77
75
68
65
66
84
98
96
85
89
94
82
65
76
83
82
86
92
90
93
94
84
101
93
73
88
101
92
96
108
115
107
156
142
24
78
60
77
50
1
3
27
89
47
29
93
59
63
69
53
17
38
44
41
51
82
170
167
162
156
153
144
141
120
113
110
106
109
102
121
135
125
102
102
94
101
99
132
135
138
65
100
122
100
108
103
99
99
100
108
109
101
105
101
95
109
121
116
123
139
140
165
167
178
154
18
24
27
109
118
73
93
91
94
54
53
93
82
109
85
70
102
93
69
92
107
93
83
98
112
90
67
73
92
110
98
80
94
79
80
77
93
113
91
106
139
137
144
148
143
155
156
141
144
146
135
117
109
112
113
116
122
119
111
109
100
98
105
123
135
126
119
125
137
135
149
163
165
169
171
164
160
156
155
160
166
168
165
163
170
172
175
179
181
185
188
190
178
182
179
172
154
156
162
163
167
91
103
36
14
48
50
64
77
80
100
101
124
134
81
10
5
0
1
5
29
54
52
30
0
166
163
176
192
186
167
159
163
145
156
179
181
178
184
186
186
194
198
194
187
184
188
193
189
193
198
200
200
200
202
204
199
200
199
197
199
201
197
191
183
168
166
175
176
173
172
173
157
163
171
179
184
186
186
185
178
176
175
178
178
172
170
173
169
166
159
151
148
151
155
155
152
148
139
135
136
131
126
128
128
133
135
128
112
100
103
112
118
114
107
100
101
106
111
112
101
121
133
126
118
117
118
126
125
124
123
122
115
105
103
110
112
101
100
102
92
81
72
59
55
67
70
61
58
72
89
97
81
85
78
69
75
84
85
83
88
89
76
83
92
89
95
94
104
80
72
89
106
90
77
102
99
104
108
120
173
131
26
99
119
27
21
2
3
48
98
58
23
85
61
62
31
13
14
5
43
93
137
155
168
156
161
160
144
134
128
116
116
133
136
122
146
119
100
94
105
98
105
106
117
132
142
79
87
132
102
103
97
97
101
96
115
133
113
99
103
99
109
121
120
124
137
144
154
167
140
175
94
3
46
71
63
78
99
83
81
96
72
84
71
74
89
90
79
89
96
80
85
105
112
94
90
113
113
84
67
99
88
80
85
79
109
116
102
104
110
97
98
119
128
131
141
134
134
122
125
105
101
114
103
111
115
118
120
114
107
108
111
100
103
125
139
133
132
141
135
135
143
152
154
160
167
165
168
162
160
164
167
166
166
168
171
176
180
179
176
175
180
184
187
186
156
153
161
141
108
142
133
99
129
140
124
115
68
67
50
17
15
74
64
0
1
4
0
0
2
18
43
64
51
20
0
161
167
160
154
172
187
182
185
171
161
151
153
180
199
190
197
201
203
200
198
197
195
193
199
200
201
200
197
195
197
199
196
200
199
193
191
191
188
182
186
178
176
175
170
168
170
170
167
165
166
172
180
182
177
171
183
176
175
178
177
174
173
174
172
160
152
156
164
164
155
146
139
142
141
141
141
135
129
131
138
128
119
117
120
122
121
120
113
108
100
95
100
108
112
112
126
120
104
100
111
121
125
124
115
115
107
92
87
100
112
112
102
97
95
87
78
88
104
107
105
106
103
97
96
96
84
68
77
69
70
86
94
84
80
92
82
75
97
88
90
98
77
94
86
78
85
91
98
105
102
102
92
114
126
118
133
165
109
40
0
1
82
55
1
13
27
72
87
13
42
36
36
29
20
32
58
152
143
168
164
159
166
155
139
122
117
116
150
165
136
143
143
97
94
104
103
97
115
121
126
151
137
92
70
131
116
105
91
90
100
108
138
156
122
94
97
103
110
125
133
124
121
135
159
167
167
155
136
14
101
96
64
62
75
90
74
91
82
92
95
89
86
90
97
97
92
88
87
84
98
121
124
114
115
125
106
85
97
111
102
95
81
101
115
108
112
106
103
105
93
88
114
117
128
116
124
111
99
101
121
116
106
99
97
94
95
103
120
129
132
123
118
127
137
140
139
136
137
145
154
162
164
160
183
178
175
172
168
164
169
176
176
173
172
174
178
180
179
177
174
183
184
177
148
132
126
157
145
162
104
125
86
57
91
53
12
43
81
57
9
3
1
0
4
0
1
19
53
75
52
10
0
158
180
192
188
197
203
191
191
181
186
192
178
167
182
200
196
193
189
191
198
203
201
196
201
201
200
197
194
192
192
193
187
190
190
186
184
185
183
180
177
173
173
169
162
164
170
170
178
179
179
177
174
172
170
169
181
175
175
178
175
173
171
165
159
157
157
160
157
147
140
139
146
148
146
144
143
137
134
138
133
130
127
127
126
121
113
106
103
103
105
110
113
112
105
99
111
119
117
122
122
113
113
113
111
93
81
85
98
111
108
93
80
96
89
80
88
85
75
80
91
77
66
65
64
64
72
83
81
81
76
77
85
86
83
84
84
101
71
84
89
75
102
92
70
69
96
115
110
107
109
117
115
111
118
129
165
154
169
89
1
35
91
40
23
2
2
30
109
81
17
38
47
54
53
21
91
140
132
172
166
174
158
148
140
118
120
111
126
152
138
135
135
93
103
109
100
100
116
110
128
162
136
109
66
124
131
106
103
91
92
111
141
145
116
96
100
108
108
116
129
120
112
126
162
172
170
178
170
104
54
103
88
88
88
85
85
92
92
94
94
86
82
79
82
101
111
100
99
86
98
103
86
92
114
114
117
105
62
98
88
69
97
89
96
128
111
119
141
131
125
116
102
96
99
86
99
111
100
96
87
84
84
94
101
92
82
83
92
98
109
114
114
122
129
126
142
147
153
156
160
163
164
163
167
171
175
175
170
165
166
170
167
169
172
175
177
180
183
184
185
187
183
169
146
144
126
91
74
72
115
98
89
133
142
121
142
142
91
63
49
60
55
0
0
0
6
29
59
74
50
11
2
170
159
160
162
171
192
210
199
202
202
198
194
195
198
198
195
193
191
192
194
196
200
203
198
198
198
197
195
193
192
191
183
183
183
183
183
184
182
180
173
167
168
170
168
171
176
177
174
184
193
194
188
185
188
193
173
170
173
172
164
163
163
155
140
149
155
150
141
139
147
155
152
149
140
135
134
130
128
133
128
123
117
113
112
111
107
102
98
94
94
99
103
105
109
115
104
99
87
100
112
107
109
108
116
94
92
110
117
110
96
81
86
93
82
79
97
97
88
94
102
77
63
73
85
81
73
71
50
81
96
87
83
86
83
76
88
84
108
94
95
99
60
62
78
102
122
112
107
113
108
105
109
135
110
130
152
144
135
159
77
35
13
21
47
22
1
4
38
127
86
7
27
56
73
64
86
79
131
174
156
160
157
158
149
134
132
114
91
123
156
134
123
95
106
102
102
112
119
106
114
154
142
119
69
112
137
106
107
98
87
99
115
111
102
94
106
108
106
106
112
118
120
121
144
162
170
185
181
140
83
67
65
76
91
75
72
72
83
99
115
96
96
100
85
80
94
106
92
100
91
94
113
104
88
99
123
100
109
85
83
105
86
106
91
89
118
109
104
130
130
129
130
95
98
113
114
108
88
101
69
73
85
102
106
93
91
106
79
62
70
97
113
119
124
124
135
149
158
158
157
158
162
168
152
159
166
171
173
172
170
167
166
172
177
174
168
165
170
176
176
181
168
164
163
137
100
48
79
67
72
100
103
27
46
112
136
69
5
0
0
11
13
28
34
31
35
46
59
62
39
9
3
190
184
175
178
175
171
178
189
192
197
207
209
199
192
197
202
200
199
198
194
191
195
201
197
197
198
199
198
196
192
190
190
185
182
182
183
181
177
173
172
161
160
169
173
175
177
177
185
186
187
188
188
186
183
180
181
179
182
177
164
166
170
162
157
160
156
146
145
153
157
154
149
147
141
139
141
136
130
130
131
123
115
113
118
119
111
101
107
104
104
108
108
106
112
122
122
121
108
117
119
106
115
124
108
118
132
122
93
81
82
77
75
68
74
80
74
73
80
82
90
91
92
90
80
67
62
63
96
89
81
82
86
83
79
82
91
106
93
82
72
66
80
81
108
114
111
103
111
109
105
127
123
118
130
123
118
148
130
147
154
61
53
5
61
55
65
69
7
6
82
87
5
14
52
69
70
43
92
180
148
153
178
152
146
142
115
111
101
109
151
144
127
111
117
102
103
109
111
111
111
148
150
118
66
97
136
106
104
112
99
101
106
103
107
99
102
102
108
107
106
123
130
114
127
127
159
175
178
173
108
87
88
54
81
80
54
78
91
79
96
103
98
97
101
89
88
113
104
107
113
100
87
106
116
94
88
94
89
81
99
87
81
87
107
111
100
109
116
105
116
139
143
124
107
77
59
92
86
83
104
83
72
89
106
100
95
102
109
87
79
84
93
111
127
129
126
134
137
140
151
159
161
164
167
167
165
165
172
182
184
180
172
173
174
176
179
182
183
183
174
164
159
171
161
121
131
127
103
96
82
94
117
99
100
84
73
125
130
108
66
58
66
71
72
50
33
34
45
52
35
7
0
166
179
187
192
189
186
190
181
181
179
180
191
202
194
177
196
197
193
192
199
200
193
188
196
198
200
201
199
196
193
190
188
185
183
182
183
182
179
176
178
178
172
164
164
174
188
197
186
187
185
182
178
177
181
184
187
178
165
164
170
169
162
162
162
156
153
157
161
159
156
154
136
132
130
135
143
145
139
133
132
122
121
126
122
116
113
111
115
108
115
108
103
116
113
97
96
109
116
111
110
118
122
119
119
119
97
83
86
77
92
75
80
80
88
88
78
81
94
97
88
91
78
61
65
83
98
106
101
84
91
87
79
83
84
93
113
103
65
72
101
95
94
105
98
89
110
115
116
123
114
116
118
122
126
91
128
167
153
140
132
116
75
43
28
53
115
71
18
9
3
70
101
65
33
41
52
49
73
177
156
156
163
161
136
137
115
113
117
108
114
119
113
114
114
111
109
97
116
109
103
116
171
143
70
76
135
122
110
110
106
104
108
106
101
100
106
104
112
109
110
122
125
125
128
137
141
160
180
184
149
79
78
71
92
111
96
50
82
68
86
102
89
76
113
98
68
91
114
105
111
116
98
77
88
113
102
89
79
42
61
91
93
92
96
108
108
92
104
117
107
117
132
129
132
113
81
83
86
60
81
110
110
89
92
112
116
111
81
82
102
100
96
92
114
122
129
139
144
147
153
156
156
158
162
165
171
177
177
173
171
171
170
172
171
169
172
179
180
176
175
179
186
170
144
144
137
107
100
156
123
67
98
139
121
84
79
83
104
123
128
134
124
98
82
62
38
28
38
46
35
15
4
141
144
168
198
207
198
193
178
188
200
204
192
183
195
213
196
196
191
190
198
201
195
192
192
194
198
201
202
201
198
196
195
192
187
184
182
179
176
174
172
172
173
180
189
191
180
166
175
170
169
176
187
191
184
176
170
170
171
174
170
155
149
155
168
139
146
161
150
147
148
129
103
120
141
150
145
136
132
131
136
129
127
125
117
116
123
128
120
120
117
101
99
108
109
114
114
113
116
122
125
123
121
122
101
93
79
93
101
84
93
89
100
80
79
97
106
100
94
94
85
80
74
79
90
89
85
86
96
97
95
77
75
89
99
120
95
75
85
97
72
70
87
72
77
101
97
117
107
87
115
109
138
126
102
143
142
121
133
143
157
161
98
72
39
27
30
1
30
78
49
3
7
60
128
97
61
31
64
176
166
164
163
167
135
141
126
123
122
114
116
119
119
112
113
106
111
118
131
121
98
113
164
151
82
66
120
127
104
105
104
103
106
110
109
104
107
105
112
108
108
119
123
127
127
129
130
147
169
187
179
137
96
110
84
81
87
72
39
62
75
81
107
93
96
108
79
73
86
101
107
120
135
119
97
100
110
107
99
78
75
65
66
93
103
103
114
115
108
93
84
107
99
109
121
117
99
90
89
85
90
109
111
123
136
108
89
116
121
93
85
88
96
89
105
119
132
136
141
150
158
155
149
150
160
171
175
168
166
173
178
176
169
164
161
164
169
170
167
164
164
184
169
158
169
145
122
144
169
105
79
117
89
61
85
44
64
87
103
106
110
115
110
101
69
54
37
32
41
48
38
22
11
155
142
132
143
164
185
198
194
183
182
198
210
209
204
202
199
199
192
189
196
199
198
198
191
193
196
198
199
198
196
194
194
191
187
182
179
177
176
175
176
174
170
168
170
173
174
172
167
165
165
170
176
179
177
173
162
173
173
163
157
155
154
156
154
161
163
159
160
163
150
128
136
139
143
143
140
139
142
145
134
129
128
125
121
124
129
129
112
116
107
91
96
98
91
105
108
111
117
119
115
110
113
121
87
108
104
103
92
90
99
94
80
97
111
113
103
87
81
86
95
92
92
99
105
100
98
106
100
67
65
79
94
111
93
56
53
77
59
30
58
85
74
71
100
85
110
102
90
117
127
130
113
110
133
131
116
127
121
162
180
171
135
98
56
49
26
1
86
119
105
64
5
3
30
101
118
68
85
168
166
170
167
169
131
142
135
128
124
117
118
117
139
118
114
106
108
115
119
107
101
111
147
158
106
67
108
138
110
105
106
105
102
109
112
103
111
110
114
109
109
118
123
130
137
130
126
139
154
174
190
180
137
98
79
70
88
104
65
38
44
70
93
106
96
109
112
65
75
96
99
96
115
130
119
102
107
107
106
102
79
82
95
91
111
124
118
105
119
118
84
68
87
78
60
58
75
83
80
81
88
91
92
92
97
103
91
70
106
106
106
99
101
99
115
131
132
131
135
150
161
157
151
155
159
163
163
157
160
170
174
170
170
165
164
169
170
165
164
168
176
165
172
166
142
148
166
160
89
46
78
77
85
89
41
66
68
109
125
115
108
94
78
75
59
40
20
18
31
43
45
39
32
152
153
151
140
130
148
180
178
192
195
180
169
178
195
205
201
204
199
194
196
198
198
202
194
195
196
196
196
195
193
193
192
191
188
184
180
178
177
177
173
176
175
170
164
165
173
181
168
171
173
173
170
168
167
168
180
181
170
156
155
157
156
155
157
157
155
162
162
138
128
146
150
145
140
139
142
143
139
135
143
139
140
144
146
146
138
123
118
111
104
98
106
107
97
102
111
120
122
112
105
109
115
117
103
95
79
96
91
85
82
85
116
107
83
71
86
97
95
92
88
95
96
92
91
88
86
89
83
86
87
92
95
79
64
75
82
54
55
75
87
70
62
103
99
98
94
98
113
129
124
100
123
145
139
95
100
113
130
144
157
145
156
138
89
53
54
20
62
107
71
41
46
2
15
5
75
80
98
155
161
165
161
148
128
137
134
125
120
119
119
114
124
108
102
107
107
105
114
109
114
113
128
160
133
75
94
138
122
107
106
108
100
104
112
105
111
112
116
110
110
116
119
132
141
127
126
138
145
158
178
185
167
92
94
103
67
69
101
82
32
51
68
77
89
99
127
90
75
73
94
105
97
111
125
112
90
122
105
106
104
102
94
84
82
97
120
127
124
121
107
89
64
67
60
52
58
67
75
84
90
83
98
104
85
89
107
104
86
104
109
100
100
99
105
116
126
127
131
145
159
161
161
167
164
167
171
168
154
143
146
157
161
164
168
169
165
163
168
177
182
175
169
163
163
167
152
123
108
145
154
145
110
71
78
89
103
120
123
115
113
105
86
75
50
30
14
17
34
52
60
62
63
146
154
152
154
152
141
128
137
164
181
179
177
184
184
173
193
203
205
203
201
199
197
201
197
197
196
196
196
197
197
198
196
195
194
190
185
181
177
176
171
166
164
166
171
173
170
167
161
164
169
172
171
165
157
152
163
155
146
148
154
152
147
149
146
132
139
149
134
125
136
146
133
139
145
147
145
143
143
145
153
149
150
153
152
148
135
116
118
99
98
97
96
103
102
99
106
104
98
94
97
103
100
92
104
106
104
117
101
93
95
110
81
78
77
91
106
98
86
90
107
111
106
93
85
80
83
91
77
71
90
103
81
68
70
58
80
64
76
70
63
87
100
100
86
107
105
107
129
120
106
127
142
111
109
111
130
125
120
124
121
146
144
152
126
53
54
45
37
24
14
74
48
3
1
3
14
80
96
142
158
160
163
148
135
136
132
119
114
121
119
111
123
130
111
111
103
96
110
104
118
116
120
159
150
85
76
123
131
108
105
112
104
103
112
114
107
109
113
110
111
112
112
128
129
114
121
137
142
150
165
177
196
133
57
102
97
88
85
82
60
22
74
40
65
73
105
114
96
65
81
114
106
96
114
128
94
93
86
113
93
87
115
123
117
110
122
111
83
104
119
74
57
52
56
61
57
61
74
83
93
99
112
123
118
102
104
122
120
105
86
91
107
110
108
118
119
129
135
142
152
159
162
166
170
164
163
167
165
156
151
152
150
156
159
157
157
164
171
175
176
189
179
173
185
172
149
151
194
148
134
112
85
83
75
59
70
60
64
79
84
82
64
40
25
24
29
41
53
63
68
73
88
153
156
144
149
164
162
148
143
154
162
163
163
169
178
182
183
195
203
204
203
199
196
197
201
200
199
197
196
195
195
195
193
193
192
191
188
184
181
178
173
164
158
161
168
169
165
161
162
167
171
170
165
160
159
160
158
164
157
148
153
159
154
147
129
146
146
131
130
142
139
125
140
145
150
151
149
152
159
166
156
150
148
143
134
129
124
117
126
111
118
115
102
105
105
100
90
82
82
92
98
95
93
95
108
110
104
101
99
102
87
71
73
91
104
101
88
82
94
115
109
88
71
81
100
99
84
75
90
103
88
71
69
70
77
80
31
55
67
76
102
106
91
98
107
96
86
117
121
103
121
126
132
92
80
125
118
114
123
112
113
159
146
126
147
122
44
60
41
50
114
90
63
56
12
3
20
89
79
131
159
166
168
157
149
139
132
118
113
122
119
111
123
150
128
111
106
113
120
117
106
114
122
156
159
103
68
112
136
116
110
115
109
105
111
116
108
111
114
112
115
113
110
129
128
112
120
134
137
143
151
160
174
180
91
70
101
99
86
82
78
48
57
87
29
71
69
104
108
90
74
81
98
97
99
115
120
122
87
94
97
72
88
128
134
119
110
118
100
69
75
97
80
41
26
42
58
66
71
70
75
85
98
103
116
138
144
129
123
113
90
82
81
92
98
108
114
128
138
141
147
151
152
155
165
161
157
159
169
176
170
160
156
157
155
155
163
174
177
172
179
182
192
184
167
175
187
176
109
89
84
97
116
126
105
74
61
55
69
76
56
37
27
13
26
41
60
69
71
72
76
83
85
150
159
176
173
156
164
194
193
190
190
196
198
193
190
191
184
190
190
189
193
194
193
196
201
201
201
200
198
195
192
191
190
189
187
187
187
186
183
181
169
171
175
177
172
163
158
157
167
169
168
164
159
161
169
178
164
163
150
136
136
137
127
116
139
154
140
127
137
126
111
123
146
147
150
154
157
157
153
150
153
143
138
134
126
122
124
125
122
116
119
112
106
105
97
94
100
97
101
109
111
107
113
124
113
103
105
102
94
75
71
81
113
107
98
93
102
118
117
101
65
82
98
105
99
85
81
90
86
84
74
66
58
68
74
44
58
77
89
96
95
91
104
116
87
77
131
126
86
83
86
117
106
99
135
130
108
115
73
79
121
142
160
129
141
160
67
47
66
61
42
87
74
66
18
2
12
69
74
145
162
169
160
147
154
138
134
121
113
122
117
110
101
122
115
103
122
149
137
156
104
115
123
144
161
127
72
103
135
125
118
116
115
113
114
116
112
114
115
114
120
116
111
132
134
116
125
130
130
138
142
149
158
187
159
57
62
90
106
94
88
68
67
83
73
55
77
83
86
103
91
74
89
102
93
88
102
105
92
98
111
97
98
99
125
145
124
117
131
104
60
34
62
58
51
52
60
62
64
73
82
76
92
97
81
90
109
105
118
133
129
110
83
91
98
100
108
120
130
138
144
145
148
155
158
171
178
171
159
155
160
166
165
163
162
164
169
173
173
171
177
182
176
169
179
186
164
131
135
137
148
123
72
59
77
93
83
84
79
57
25
9
21
37
60
74
85
86
81
79
77
77
58
171
169
166
164
157
148
146
174
176
178
183
187
190
193
196
193
189
178
172
179
188
192
196
196
199
202
204
204
201
198
196
196
193
189
187
187
186
183
180
172
172
170
166
156
147
146
151
150
142
136
140
151
161
163
161
168
137
126
150
160
136
121
133
130
136
131
115
110
125
143
151
155
154
152
151
151
150
147
146
140
125
119
123
123
121
121
119
129
126
113
102
114
120
109
113
111
107
101
97
101
109
113
112
107
102
102
82
88
94
103
103
91
84
94
108
110
110
108
100
100
103
92
77
80
89
89
85
92
89
68
60
59
62
69
57
82
97
83
75
80
92
101
84
86
127
110
104
124
119
119
128
107
132
112
91
109
87
99
138
136
114
150
158
118
117
140
78
71
45
37
89
49
39
37
10
11
74
113
181
161
166
157
157
152
134
134
122
113
121
115
110
119
115
115
105
130
149
106
143
116
121
120
130
156
141
71
89
124
126
120
115
120
124
122
120
114
115
114
113
121
116
111
133
128
113
123
126
127
139
144
151
149
166
195
104
52
90
80
84
92
85
54
68
82
89
65
96
80
96
106
96
86
95
106
105
93
105
88
82
115
100
91
100
115
134
137
120
100
112
104
37
24
64
63
36
36
43
50
68
80
91
98
105
114
110
104
111
106
107
112
124
110
115
112
109
104
109
119
133
144
146
153
167
165
158
160
171
174
166
160
162
161
162
166
168
163
156
158
166
173
169
169
177
181
169
150
139
132
128
114
47
52
94
62
55
65
68
50
27
25
30
45
67
76
80
81
77
75
70
55
40
32
133
143
161
178
185
183
180
178
176
174
176
186
192
186
176
179
186
189
181
178
189
197
192
195
196
200
204
206
205
201
197
196
196
194
193
190
186
182
179
176
173
170
168
168
170
171
171
171
167
157
147
147
149
142
129
116
110
140
159
132
112
115
112
129
133
123
117
138
163
164
152
155
157
155
150
148
148
143
135
124
113
123
117
110
120
119
121
96
98
96
107
123
118
105
104
104
100
94
92
90
81
77
83
99
85
80
85
87
85
81
76
76
110
103
104
114
96
91
101
95
87
102
104
109
112
95
98
80
66
55
63
77
76
77
92
94
88
64
85
107
99
97
77
116
103
89
119
136
127
109
102
123
128
115
123
108
99
129
119
108
119
164
169
158
108
106
57
111
43
63
16
9
50
57
37
14
65
83
181
164
168
157
150
150
145
129
119
124
120
113
114
121
117
120
112
109
118
119
118
112
110
118
132
145
153
96
69
119
123
121
120
113
118
111
121
122
120
113
110
114
115
116
121
119
117
122
132
117
132
142
142
151
144
181
147
60
93
94
83
74
74
68
65
70
52
97
94
99
84
105
101
96
103
94
111
107
103
104
84
82
123
117
83
90
118
121
115
122
109
113
98
13
32
69
82
69
59
59
71
67
79
84
97
116
110
104
121
119
104
92
99
110
107
103
108
109
110
110
125
138
142
150
149
161
159
169
176
172
173
177
173
155
145
138
142
151
159
164
168
166
171
177
181
184
182
170
157
164
159
89
100
103
84
56
55
69
55
39
46
48
56
76
70
72
74
70
59
49
41
32
22
1
146
145
143
142
150
168
183
185
185
182
179
179
183
190
195
192
186
186
188
184
184
191
196
197
197
198
200
200
198
195
192
195
193
191
189
187
184
182
180
178
174
167
163
162
160
157
155
148
152
156
158
153
141
126
114
118
145
129
100
98
90
89
118
100
109
130
159
171
158
150
160
152
155
153
149
147
147
142
135
132
131
129
127
118
109
104
94
107
115
114
113
114
108
104
112
111
107
89
75
80
87
76
62
60
84
89
76
74
78
73
65
108
100
110
109
88
87
99
101
97
107
108
106
98
92
93
89
76
65
74
78
67
77
97
96
77
79
101
112
100
85
86
110
100
88
119
114
98
106
97
101
115
112
112
104
111
123
113
109
85
114
141
182
184
121
38
42
81
49
24
1
9
83
130
114
33
52
75
187
169
156
139
152
153
150
139
127
121
117
118
123
117
112
116
111
107
113
113
113
109
111
119
128
142
152
109
68
115
125
119
121
115
117
112
116
121
123
120
118
119
117
116
120
118
116
121
127
120
125
133
139
146
155
159
159
79
66
100
98
84
73
83
69
92
65
71
82
95
93
97
95
101
109
103
101
114
106
100
88
72
99
116
93
89
90
122
89
105
109
55
99
100
32
11
46
72
65
58
76
73
79
83
89
100
107
105
100
108
118
119
112
106
105
110
120
117
120
118
126
131
135
149
156
162
158
161
170
176
178
170
157
163
157
153
156
159
159
158
157
171
178
182
180
178
176
172
167
165
125
105
121
91
92
91
111
81
61
75
69
62
68
56
62
61
54
41
31
33
42
45
41
27
125
140
152
153
144
132
126
145
153
168
181
185
183
185
190
197
187
186
192
189
186
191
196
195
195
197
199
200
201
199
198
192
189
186
184
183
183
183
182
179
175
170
167
167
165
162
160
155
148
145
150
153
151
147
146
159
157
143
137
147
147
138
136
161
174
173
158
148
144
143
145
155
156
155
152
151
151
146
139
142
144
123
122
122
115
124
120
110
112
106
101
105
109
112
118
121
113
108
111
103
80
68
76
78
71
58
56
60
53
58
81
96
77
101
102
87
108
118
112
108
111
117
97
86
91
86
89
56
69
69
79
101
97
81
84
92
92
97
84
83
106
111
101
86
112
127
95
107
90
110
112
122
104
89
73
97
120
107
121
121
145
145
130
171
164
98
112
80
27
12
6
2
92
187
141
102
75
101
173
172
147
141
153
144
144
143
134
117
113
120
126
117
110
115
113
109
111
110
113
109
114
122
125
141
149
127
67
108
129
120
125
121
118
117
117
116
121
121
119
120
118
118
122
120
117
121
124
126
118
123
136
128
150
140
161
101
56
92
97
94
65
62
83
69
73
64
70
91
108
97
92
102
109
109
97
89
113
93
100
78
51
119
100
81
63
70
101
95
89
84
56
76
76
72
48
45
73
86
86
102
102
103
95
95
118
131
120
116
120
118
117
123
124
121
120
123
128
127
133
134
134
145
149
150
163
170
170
170
171
172
176
171
167
165
167
170
171
171
172
174
177
176
170
165
163
158
152
136
138
161
135
110
97
93
78
60
61
69
75
60
47
55
63
40
33
28
31
50
72
82
81
62
139
139
148
156
158
152
147
131
125
129
145
159
164
166
171
186
184
186
188
188
193
195
191
193
195
197
200
203
204
203
203
194
191
187
183
181
179
178
177
176
174
170
165
160
155
152
150
156
151
146
145
146
149
152
155
159
138
140
136
114
128
156
151
148
147
140
138
145
152
158
165
152
152
152
149
148
148
143
137
131
139
129
129
129
115
108
106
100
103
102
103
112
121
122
119
117
114
104
100
105
104
95
90
95
82
71
67
66
67
71
75
89
95
99
92
104
122
112
105
103
122
103
111
106
86
94
67
70
69
87
103
96
87
92
99
78
64
66
108
101
73
94
103
83
129
88
97
98
116
109
113
90
90
91
109
122
112
100
104
131
129
158
144
158
144
124
134
49
12
26
7
3
65
168
165
118
71
90
156
167
147
127
131
131
132
140
135
118
113
120
121
120
111
116
115
110
111
110
115
112
115
125
128
143
143
140
70
95
130
121
127
122
117
121
121
117
121
119
117
119
119
118
121
123
118
118
120
134
116
118
134
129
146
148
152
118
82
88
101
103
85
52
88
67
79
81
79
85
112
108
97
102
106
109
110
66
96
106
82
89
69
77
127
88
70
54
88
97
87
68
68
85
87
107
110
89
71
70
87
97
109
120
116
110
115
117
111
112
110
111
120
125
117
116
127
121
124
121
127
131
132
139
139
150
159
155
152
163
171
172
177
177
173
168
165
166
171
178
183
181
180
177
177
181
182
171
158
157
158
117
93
119
102
80
46
45
70
55
37
31
45
65
43
37
43
55
74
96
113
117
113
87
158
165
169
168
167
170
176
180
160
147
150
155
151
146
147
176
176
182
187
189
193
194
188
195
197
200
201
201
199
197
195
197
194
190
186
181
177
173
171
173
175
174
170
162
157
157
159
161
164
159
146
136
137
141
141
117
129
129
122
132
151
150
138
138
137
137
148
162
164
157
154
155
155
154
152
152
151
147
143
147
142
135
120
115
108
98
109
108
116
124
126
125
126
125
119
112
113
110
106
102
87
66
55
88
76
78
74
59
62
68
56
46
87
97
103
117
110
106
113
123
112
108
100
97
94
80
77
89
81
87
97
94
91
91
87
62
92
103
105
82
75
97
77
104
97
102
92
108
118
112
98
96
96
107
113
102
99
114
124
128
107
125
152
152
150
130
86
64
13
14
12
12
49
149
165
135
74
57
141
159
151
116
132
129
126
133
133
121
118
121
118
120
111
115
113
107
108
110
116
114
112
123
130
144
137
146
79
81
127
122
124
117
112
118
121
120
123
120
117
122
122
117
114
123
118
116
116
137
120
117
130
133
142
151
138
118
89
87
109
99
107
76
67
98
81
76
85
80
102
113
105
105
102
97
112
105
97
108
121
53
78
61
87
118
73
31
42
80
100
68
71
76
74
89
99
107
110
93
77
75
92
105
119
133
127
121
133
117
108
102
107
113
108
110
122
128
130
123
123
124
127
141
145
149
159
157
154
160
164
165
171
178
176
170
164
160
161
165
168
185
183
179
178
179
176
164
149
143
106
70
100
87
55
42
58
65
45
39
26
37
55
41
41
69
82
100
116
126
129
128
125
105
151
158
158
152
150
157
167
169
167
174
187
193
190
187
190
178
171
177
190
193
191
193
195
197
200
202
202
200
197
194
192
190
189
187
186
184
181
178
175
160
162
163
158
151
146
147
150
148
147
141
136
141
147
140
126
129
141
130
121
134
140
139
151
154
158
159
162
167
164
158
158
159
158
156
156
156
156
153
151
144
136
140
129
126
125
112
124
135
128
125
123
122
125
125
118
121
105
92
92
87
77
87
113
108
86
79
77
65
72
79
66
102
99
86
106
124
122
129
122
120
119
95
97
91
78
95
91
68
105
110
88
81
75
73
86
108
90
89
85
83
92
90
85
104
112
103
113
112
104
98
94
97
100
126
106
87
110
118
122
88
116
129
108
115
135
159
105
101
45
1
23
9
36
138
147
151
92
51
104
170
152
141
141
131
127
127
124
120
118
119
117
121
113
118
113
107
111
113
119
115
111
122
128
141
134
146
92
72
124
126
123
116
114
114
121
111
116
116
117
125
127
120
115
125
125
119
119
136
128
123
130
125
135
146
142
121
72
84
105
99
98
93
66
84
91
71
87
84
95
111
111
106
92
77
91
83
111
106
109
100
50
58
64
54
107
49
13
30
40
53
50
48
51
70
84
97
116
122
126
109
110
100
106
122
108
91
103
130
124
110
102
108
115
117
120
118
127
125
121
113
109
120
123
136
151
162
163
159
155
158
167
170
174
178
177
175
173
171
168
176
178
177
170
163
157
150
142
144
69
105
113
83
66
78
68
34
19
27
58
81
76
75
97
109
118
126
128
126
124
127
131
119
136
142
150
152
149
145
144
146
147
152
155
152
148
153
163
176
170
173
181
184
190
198
201
199
201
203
203
201
199
198
198
186
186
185
184
184
183
181
179
176
174
170
164
157
151
147
146
151
150
153
163
177
178
161
141
142
118
114
135
153
160
162
165
160
151
155
170
164
137
134
159
154
152
150
151
153
153
153
153
160
141
130
122
118
122
129
136
136
116
106
108
111
119
122
114
120
113
98
94
107
116
110
101
95
99
89
72
75
88
79
57
59
81
114
129
116
110
122
124
107
102
112
101
96
98
84
89
103
101
99
80
65
88
102
79
85
64
67
82
93
93
88
98
95
114
96
99
117
69
93
90
104
112
114
93
96
123
121
106
104
126
136
127
162
155
171
136
73
85
26
12
15
18
83
132
110
83
34
79
181
152
149
128
125
127
126
121
119
115
116
120
121
118
123
117
111
116
118
121
120
118
126
127
134
135
144
102
64
117
128
122
120
123
113
121
108
114
114
114
122
128
125
123
123
130
123
123
128
132
127
131
128
134
151
152
129
74
88
98
110
93
99
93
66
101
90
93
94
103
111
120
108
83
81
86
76
95
90
133
89
78
26
46
68
93
111
66
42
68
75
46
44
51
65
60
60
79
93
99
122
122
118
123
135
130
114
106
117
127
128
118
111
110
119
132
131
142
144
146
141
135
136
130
139
130
133
145
155
159
158
154
158
166
175
181
184
186
184
181
171
178
182
180
178
178
176
172
101
93
163
134
109
94
99
69
88
122
118
121
124
120
131
119
126
128
128
125
121
121
126
131
123
133
134
139
145
149
152
155
152
154
154
151
143
139
145
154
165
168
169
164
168
188
202
199
202
203
203
202
199
198
197
198
193
191
187
184
181
179
176
174
167
164
162
162
163
165
163
162
162
160
158
156
150
146
147
152
161
164
171
169
155
144
146
150
158
168
168
157
149
147
153
163
159
156
154
156
159
160
162
162
150
140
130
142
140
133
140
127
109
101
106
114
110
110
114
111
97
92
96
115
126
113
99
99
105
106
94
93
98
75
65
91
106
117
127
105
101
121
119
118
120
114
108
92
89
98
92
89
95
99
85
72
84
96
90
80
71
92
82
89
94
88
97
84
106
94
86
105
84
86
93
97
111
126
91
94
122
130
128
92
109
119
113
144
161
166
158
153
76
77
53
4
14
15
42
58
113
99
12
95
176
156
131
135
117
128
128
124
124
118
115
124
120
119
126
119
113
120
120
121
127
128
132
126
129
137
142
107
55
107
125
119
122
130
112
120
120
124
119
112
117
125
127
130
118
130
123
122
118
130
126
128
137
125
152
138
118
83
87
89
107
102
101
96
85
89
96
86
99
114
114
130
112
85
106
108
49
33
47
104
125
100
89
68
48
46
91
87
101
95
72
99
101
95
99
90
78
79
85
95
114
116
119
117
122
140
145
130
109
105
107
120
127
119
113
120
134
137
134
143
154
157
155
142
150
134
134
144
146
154
168
173
155
160
165
168
172
177
180
178
177
180
182
184
187
186
178
167
168
190
153
142
137
131
98
113
112
111
116
115
125
128
117
131
124
123
124
124
122
121
122
122
115
156
161
152
143
153
155
150
156
153
155
164
168
163
155
150
169
174
178
178
180
185
192
197
204
203
201
199
199
199
197
194
191
190
188
185
182
179
177
176
175
171
169
167
164
157
150
147
146
142
140
136
129
133
145
153
178
170
165
164
162
167
173
175
165
159
157
150
147
164
174
160
159
159
161
164
165
163
157
152
137
146
155
152
145
143
136
122
105
103
113
92
81
93
90
95
110
114
123
133
111
108
110
116
109
109
97
105
92
91
89
89
120
100
101
99
106
119
111
108
106
109
101
93
90
83
81
94
101
82
62
81
110
90
67
84
84
89
93
96
65
91
98
86
98
68
103
74
85
100
95
106
125
97
91
128
125
116
109
110
111
100
124
122
149
157
145
159
93
35
69
22
11
23
34
27
135
159
13
64
150
147
124
131
123
123
120
117
119
124
123
117
119
117
117
120
122
122
124
127
124
124
124
124
128
133
131
125
63
96
124
117
122
114
114
118
102
107
114
113
119
118
128
115
106
125
126
118
124
125
122
132
131
136
149
154
131
81
86
91
92
106
97
103
89
85
96
100
99
130
106
130
122
109
86
115
91
55
61
86
83
142
89
114
74
6
47
49
58
70
92
59
73
72
58
68
81
73
78
97
81
97
102
105
117
117
114
123
132
120
102
105
115
119
125
123
130
135
142
149
150
150
153
158
159
152
146
150
159
159
158
163
175
168
151
148
162
169
166
168
177
182
188
189
185
179
178
181
171
152
138
123
106
112
126
124
105
116
122
125
128
126
120
119
122
119
121
122
120
122
123
119
116
156
168
165
162
165
156
149
159
162
167
169
166
165
174
186
169
174
176
176
181
190
195
195
204
205
204
203
202
202
198
194
192
189
186
182
180
178
175
173
169
166
164
163
161
157
155
155
158
162
172
175
171
170
171
168
150
156
160
159
160
173
182
178
162
161
156
157
164
166
163
160
161
157
160
167
162
149
146
154
157
153
151
144
136
130
119
103
90
110
90
86
103
109
115
111
128
115
110
126
119
114
107
112
109
108
95
85
98
68
75
117
106
95
114
129
121
115
115
117
112
96
95
94
87
98
108
96
85
66
85
100
78
76
93
86
85
87
79
85
77
91
92
99
75
83
67
84
102
90
101
108
106
93
114
126
135
113
112
91
108
119
109
106
127
133
152
152
154
54
90
69
3
8
31
50
76
143
46
91
159
152
144
118
131
126
121
120
124
126
121
114
119
120
120
119
118
120
122
124
121
122
122
121
123
127
129
128
69
93
117
110
115
112
115
119
112
108
122
112
116
119
116
108
117
125
124
119
121
123
125
134
126
131
139
153
151
83
65
81
89
98
88
102
101
104
108
101
104
121
107
128
118
85
93
65
84
76
53
66
80
116
111
91
115
76
62
32
34
40
47
67
59
89
96
94
91
86
85
83
94
95
110
118
111
118
130
128
122
126
121
122
119
118
132
140
132
132
135
142
149
150
145
139
159
156
147
144
149
153
156
161
157
166
170
167
165
164
171
181
173
175
180
186
189
186
180
175
166
168
174
166
147
141
144
140
132
136
131
123
122
120
119
120
121
118
121
122
120
122
122
116
108
154
150
138
138
146
145
152
159
159
164
171
172
167
163
163
167
164
166
177
187
193
198
202
200
202
203
202
201
200
195
190
192
188
183
179
178
177
174
172
172
169
167
165
162
158
158
160
166
167
171
170
166
168
167
160
160
146
147
161
169
167
160
152
168
165
154
158
173
167
158
168
163
168
167
161
156
157
157
156
159
158
158
148
126
106
92
81
96
105
104
100
104
103
99
105
75
95
103
101
90
92
97
110
98
93
105
96
97
96
106
109
98
129
130
124
126
115
105
108
106
100
94
96
102
99
89
84
72
86
95
81
73
91
102
89
77
104
100
89
92
93
81
85
73
90
52
97
103
90
111
112
93
117
116
120
133
125
105
116
120
111
111
109
115
130
152
144
167
105
60
93
28
48
40
52
61
56
89
44
145
169
126
128
129
125
122
123
124
122
119
117
119
122
122
117
115
119
122
122
121
123
123
121
120
124
129
132
73
88
114
112
118
117
115
114
114
104
125
110
115
124
112
109
120
120
120
120
119
125
129
129
145
125
127
138
136
88
81
80
82
90
78
94
101
109
112
100
117
136
113
113
141
74
71
65
61
75
36
31
42
40
106
86
117
101
66
67
27
22
21
39
46
52
57
78
99
104
102
91
109
95
106
122
116
111
117
119
125
132
131
134
129
122
127
128
136
136
135
137
145
153
153
148
139
152
157
152
150
152
159
168
165
165
168
166
160
162
169
172
184
184
184
184
182
176
167
160
163
159
157
157
160
159
151
140
126
130
130
127
127
123
119
118
121
119
120
122
121
121
118
109
93
175
168
156
159
163
159
170
192
179
170
173
182
185
185
184
178
165
167
183
190
182
181
191
195
198
199
198
197
196
193
189
191
186
180
178
178
178
175
172
172
173
174
176
175
174
176
179
174
168
161
153
149
156
162
157
158
157
166
171
155
137
136
142
152
157
161
168
169
156
152
165
161
162
157
150
154
162
161
153
165
157
152
143
126
117
120
124
122
105
85
103
86
71
100
84
87
106
107
102
106
113
113
116
106
133
122
104
110
126
103
106
105
122
119
113
109
120
132
109
104
104
95
97
100
78
61
71
58
89
83
74
96
97
75
71
102
101
77
65
91
98
78
64
85
77
80
106
90
105
108
103
105
107
101
120
116
106
95
137
120
132
107
122
121
100
130
129
147
184
50
95
75
8
29
65
70
22
48
13
151
157
123
129
126
125
124
123
117
111
112
118
119
122
120
114
114
121
123
120
120
121
121
120
120
124
128
132
82
83
111
111
117
119
116
112
114
106
122
111
117
125
117
110
121
117
120
121
118
126
126
108
128
135
145
134
132
99
88
81
79
92
81
90
91
103
112
104
107
136
116
102
158
109
53
60
23
58
57
39
37
17
77
62
39
106
109
107
95
66
63
58
64
79
77
67
69
93
113
102
102
106
100
103
116
109
92
90
104
111
114
126
132
128
128
122
130
139
143
141
143
151
158
159
153
155
153
156
164
165
160
159
157
148
150
157
161
171
177
171
177
182
185
183
178
176
177
177
182
184
177
165
157
150
144
145
136
135
126
117
115
114
114
118
121
119
121
122
121
120
113
100
82
167
160
148
146
141
131
139
142
140
141
144
147
152
164
176
185
181
185
196
198
192
190
196
196
198
199
197
196
197
196
194
191
186
180
178
179
179
177
174
170
170
172
173
170
166
165
167
160
156
153
149
147
154
158
154
150
165
171
155
141
147
153
148
153
153
161
159
143
142
160
172
172
161
161
174
178
169
166
171
166
150
141
141
139
135
131
126
99
74
103
94
72
84
84
97
109
99
90
93
101
92
94
111
119
127
107
100
98
101
93
119
125
138
107
99
117
109
104
110
111
94
91
89
73
70
78
74
101
85
80
86
85
80
88
102
79
62
62
83
98
83
65
57
82
73
106
98
89
115
97
93
127
79
117
133
106
86
113
116
107
129
129
94
103
122
115
161
183
185
120
48
111
67
47
57
69
46
2
37
167
155
120
125
131
126
121
119
113
108
108
111
118
119
116
111
115
123
125
119
117
116
116
119
122
124
125
127
97
82
105
103
106
114
117
116
118
117
121
115
120
118
121
106
125
121
124
120
114
126
121
91
9
88
128
132
160
115
63
80
77
97
87
92
91
106
119
111
128
137
105
92
118
152
104
57
37
1
35
66
70
26
32
79
51
53
111
128
110
74
97
86
71
69
81
104
96
75
84
99
103
126
122
108
121
132
117
98
90
100
103
114
121
123
129
126
121
137
149
149
146
147
148
146
146
142
136
135
131
122
123
135
143
144
156
166
164
169
175
172
173
179
183
183
182
185
187
188
188
181
168
163
169
169
159
152
150
147
137
129
128
126
125
130
122
121
123
123
120
118
108
93
74
151
152
150
155
160
162
176
159
169
183
188
178
164
158
160
173
183
189
186
187
192
192
186
196
198
198
196
195
196
197
196
190
187
182
180
180
180
178
176
167
165
164
162
158
153
150
150
153
151
154
155
153
154
156
153
162
157
147
138
144
163
167
154
172
154
150
150
145
158
172
167
155
159
168
173
169
161
158
161
151
143
144
146
138
122
104
89
74
94
95
84
84
86
88
91
83
84
87
80
77
73
97
126
121
99
101
110
110
100
123
120
112
106
103
106
105
112
120
107
105
99
87
75
76
90
94
83
75
65
77
88
79
77
81
72
75
70
81
91
71
64
74
87
81
94
100
76
97
109
96
104
112
100
133
119
90
115
129
98
133
88
76
98
102
109
136
186
176
186
171
56
57
74
126
84
67
56
20
28
155
152
112
135
133
122
113
113
117
117
113
108
116
116
113
111
115
121
122
118
117
116
116
120
124
125
124
126
104
80
108
108
107
115
116
115
118
120
120
116
120
116
124
108
121
119
122
117
112
126
125
100
60
112
116
119
140
112
62
93
70
91
82
89
93
113
123
110
121
160
128
107
55
100
130
118
59
17
39
33
35
43
27
58
67
51
42
100
128
114
42
66
93
88
80
91
105
105
99
85
89
89
102
108
104
112
118
108
108
109
101
106
115
123
133
130
128
135
142
145
149
151
149
145
141
138
135
136
129
116
119
138
151
154
162
164
160
161
168
171
179
181
181
182
186
187
180
171
177
174
162
139
117
113
123
134
129
130
127
125
126
121
115
116
122
123
125
123
119
117
105
88
68
155
168
175
173
169
161
163
169
173
185
199
205
203
202
203
196
202
203
197
194
197
195
189
195
198
198
195
193
194
195
194
190
188
185
182
181
179
177
175
166
162
159
159
160
161
164
167
166
162
166
170
163
158
161
163
158
146
140
141
140
144
151
153
154
149
151
161
167
166
158
147
156
176
182
167
159
167
168
157
153
149
147
140
125
114
109
105
107
97
78
59
81
99
79
81
61
64
73
69
83
96
110
102
84
95
80
86
110
98
110
99
111
114
112
102
107
112
100
93
97
102
87
81
98
100
87
85
69
78
77
73
82
90
84
74
83
88
86
92
80
90
81
70
93
106
84
75
104
99
100
114
96
118
113
91
88
128
107
105
120
76
84
74
75
134
133
132
184
163
175
117
15
47
105
103
52
58
28
3
139
131
133
139
128
122
116
114
119
121
117
109
115
113
112
112
112
114
115
117
118
117
119
122
123
123
125
128
106
77
115
119
112
117
115
111
116
113
122
113
118
121
125
116
112
112
119
119
115
122
127
119
118
121
110
130
132
121
67
74
66
90
80
84
89
112
124
111
118
155
121
104
67
82
93
100
86
54
46
41
33
30
16
23
99
51
21
81
41
111
141
67
54
59
63
90
113
106
99
99
93
76
87
110
108
102
108
112
108
109
100
102
111
122
136
136
136
134
134
139
147
155
158
158
149
135
124
131
143
140
132
133
150
153
152
152
158
164
171
179
174
177
179
181
186
189
183
173
175
156
140
128
120
125
129
121
145
139
127
121
121
118
118
124
121
124
126
123
118
115
104
87
67
158
183
201
200
198
191
188
192
190
191
194
194
189
186
188
187
181
182
191
195
191
193
201
196
199
199
196
194
194
194
193
190
189
187
184
181
178
175
174
177
168
159
153
152
153
156
159
153
150
158
164
155
146
148
153
146
137
131
131
138
147
142
126
131
148
155
153
147
134
136
160
171
178
173
158
155
165
167
160
165
156
147
138
127
120
113
103
81
85
80
93
85
68
80
77
64
53
67
81
101
99
89
61
78
84
71
96
82
96
138
126
127
99
106
114
112
111
101
99
103
85
87
102
99
90
87
84
74
73
77
87
91
84
80
87
88
86
68
80
77
91
78
80
102
96
79
94
109
97
97
104
124
97
97
97
121
103
88
123
86
85
78
94
123
131
107
137
158
160
194
193
75
69
74
59
38
48
29
4
132
147
141
137
126
129
128
120
116
113
110
106
113
112
114
113
109
107
110
115
116
116
119
121
120
119
123
130
111
77
114
117
107
113
114
113
117
108
127
110
114
124
119
120
107
110
121
125
117
114
120
125
139
145
117
129
127
121
59
76
72
99
89
86
85
108
127
120
118
152
149
102
71
78
68
83
70
54
21
39
45
31
40
20
41
92
41
48
63
19
133
112
98
103
74
55
72
93
110
116
97
102
96
99
118
117
101
96
100
114
114
107
95
95
115
127
130
130
133
140
146
150
153
157
158
160
153
143
135
131
139
154
147
158
160
157
160
158
161
173
179
185
189
186
184
186
186
182
180
166
169
176
173
168
150
118
120
119
115
116
121
120
119
124
120
123
127
123
117
115
104
88
68
132
131
140
158
177
188
191
198
193
188
187
185
184
186
191
188
186
189
193
193
192
196
204
203
199
197
199
199
195
193
193
189
192
195
191
184
179
179
182
166
163
158
154
154
156
154
150
140
155
164
158
146
137
131
127
132
139
144
153
155
137
125
134
138
122
126
124
104
128
150
175
178
158
152
165
168
159
160
174
169
155
137
135
122
114
116
90
87
84
81
78
78
83
74
55
58
71
64
66
66
65
84
90
93
62
70
103
116
119
122
121
106
86
121
125
119
108
101
106
77
89
102
98
86
93
92
70
78
77
97
93
65
74
100
96
76
52
85
78
104
89
66
92
91
94
102
98
102
108
82
122
111
90
97
117
95
92
117
102
77
75
85
84
93
111
110
97
141
183
188
197
77
66
86
18
1
33
29
25
147
160
143
140
136
117
123
124
132
124
92
106
116
113
87
108
115
98
116
107
115
114
119
124
123
125
126
122
114
79
109
117
117
107
98
110
111
111
112
113
116
117
116
115
115
116
118
121
110
108
122
124
129
122
106
133
125
129
83
61
80
94
73
83
81
106
119
131
121
136
161
97
57
60
72
50
75
57
38
30
38
32
18
18
28
64
66
56
73
42
53
105
37
70
119
102
97
102
91
80
94
106
103
92
93
98
101
105
101
110
117
119
120
118
123
132
144
128
119
129
136
145
157
149
157
165
169
160
146
138
140
144
143
145
150
157
161
162
167
173
183
183
183
182
180
180
180
180
185
178
176
165
155
131
125
124
138
125
117
119
121
119
120
124
125
124
126
122
114
117
108
85
68
136
148
161
171
176
178
179
184
180
177
175
173
172
174
177
177
184
192
197
198
198
197
196
200
198
198
200
199
195
192
193
189
185
183
184
186
185
180
175
168
171
170
162
155
151
151
152
152
145
132
121
119
122
123
121
130
127
142
146
123
116
124
120
105
112
120
110
128
165
175
169
157
151
151
161
169
169
169
171
161
154
152
140
127
122
107
84
89
82
88
109
119
99
80
80
88
73
74
81
84
90
86
75
59
69
75
96
88
89
122
106
90
126
128
101
86
99
119
86
93
94
84
89
115
100
71
92
89
97
90
69
69
94
99
79
65
86
86
105
85
59
95
92
106
104
97
87
99
84
120
122
98
99
103
107
91
113
119
85
80
108
89
76
117
98
102
132
165
177
163
159
66
33
49
48
64
55
26
36
92
166
150
142
133
130
106
131
135
127
122
112
105
110
99
117
119
106
122
119
123
115
117
122
120
120
127
131
111
84
106
113
117
111
104
101
112
110
110
112
115
116
115
113
116
122
122
122
115
104
117
130
125
130
114
132
133
126
74
64
75
96
87
90
72
106
118
131
118
157
147
130
49
73
66
35
80
65
51
45
36
40
36
40
34
48
27
48
68
86
15
84
103
49
83
100
117
122
113
90
100
77
84
101
99
101
107
98
107
105
115
125
125
130
134
128
130
148
142
141
149
140
142
156
158
145
141
153
163
159
151
147
143
143
147
156
164
170
177
182
177
178
180
180
181
181
183
184
179
173
170
150
133
111
113
117
126
129
125
115
115
122
126
122
123
125
127
125
118
110
93
71
77
124
132
136
133
128
131
137
163
169
179
188
189
183
177
174
183
190
193
190
191
197
200
198
198
198
200
201
200
195
193
193
191
186
182
184
188
188
181
173
179
176
170
166
165
163
157
150
140
141
140
140
142
146
153
157
136
128
113
106
111
115
112
109
121
116
129
154
194
169
147
165
127
148
166
169
167
169
169
165
158
155
158
135
126
132
111
101
108
102
109
111
87
67
77
97
86
80
79
75
89
86
53
55
49
66
83
83
95
99
86
98
86
134
99
95
121
113
100
92
92
79
95
101
93
94
89
89
90
94
69
56
87
106
88
71
66
88
108
102
58
80
95
96
105
96
79
91
91
89
125
102
87
87
104
90
99
108
107
74
97
114
105
114
119
103
121
126
137
133
152
152
155
30
54
84
162
155
41
1
75
157
160
146
127
132
108
141
131
121
119
94
104
109
108
114
113
108
115
116
115
107
113
124
123
118
121
127
106
90
101
112
117
115
111
94
111
109
109
110
113
115
114
112
111
121
120
127
131
121
118
117
122
133
114
120
139
127
68
64
80
91
96
93
69
106
114
131
135
128
153
151
73
68
83
49
71
67
62
65
50
53
47
44
54
68
41
36
23
70
77
50
92
56
71
101
107
110
125
120
111
122
102
80
93
104
100
103
92
103
102
108
127
130
124
132
154
155
152
158
157
151
148
133
150
163
158
137
133
150
156
147
147
145
147
155
164
170
175
178
182
183
185
185
184
183
184
185
185
175
172
168
175
164
152
137
140
126
115
115
122
127
127
128
129
128
123
117
110
95
78
69
90
148
146
143
136
131
137
147
131
137
147
158
167
174
179
183
194
194
191
186
185
191
196
197
198
197
197
197
197
194
192
190
189
189
189
188
185
181
177
176
179
172
163
162
167
168
160
150
164
156
151
157
164
161
148
136
134
141
131
125
134
130
121
128
136
137
173
168
131
127
148
132
132
159
177
172
165
167
168
163
162
160
153
133
129
133
120
117
117
97
97
94
83
102
116
94
88
60
81
103
82
55
52
70
52
74
71
100
64
53
119
78
99
101
106
132
120
106
95
95
85
92
97
104
100
85
86
98
82
72
58
74
105
94
71
76
76
97
97
80
64
99
91
86
105
77
81
99
106
117
107
87
81
83
93
82
92
105
88
72
75
103
84
108
99
107
93
88
106
154
153
160
197
150
74
76
46
94
139
44
41
133
135
135
128
106
109
112
94
100
97
97
114
111
108
102
103
108
108
108
105
101
108
120
122
119
118
116
101
93
97
116
118
112
116
97
109
109
109
109
110
112
114
115
113
116
113
115
119
126
132
119
121
127
111
109
136
134
76
58
91
80
96
86
72
105
113
129
142
142
130
145
102
37
33
53
58
64
58
61
61
52
39
31
35
73
61
58
65
38
86
63
68
91
59
88
102
100
110
123
88
82
88
96
95
98
105
106
120
114
124
128
117
125
138
132
138
141
151
160
151
152
162
147
134
148
158
155
142
137
145
155
155
155
158
164
170
174
176
177
185
187
188
188
186
184
184
184
163
159
159
153
163
162
163
156
144
128
120
126
132
128
126
130
131
130
120
110
98
77
66
72
98
141
142
147
150
150
153
157
185
187
190
189
187
186
187
187
194
193
194
196
195
190
189
190
198
196
192
191
192
192
189
186
185
187
189
188
184
180
179
180
172
170
165
160
158
157
156
153
151
157
159
151
138
132
135
142
141
126
129
134
126
127
135
130
148
169
150
114
105
146
161
147
163
168
167
162
166
173
172
163
163
163
147
143
140
126
118
109
100
101
109
116
117
119
103
74
63
103
100
79
73
71
74
75
66
56
103
70
40
89
89
70
96
110
106
109
99
103
95
85
102
109
95
102
99
95
104
81
73
69
74
94
100
79
67
78
95
98
87
63
84
101
74
96
97
64
89
90
120
106
85
81
82
93
78
78
80
117
82
69
91
105
89
109
98
116
89
93
143
110
137
166
126
163
87
32
48
78
111
73
28
143
135
134
123
83
110
104
99
107
105
119
116
113
113
102
101
111
110
112
109
105
107
111
114
119
117
108
101
94
95
122
118
108
117
106
107
109
111
110
108
110
115
119
115
114
129
141
124
124
141
129
120
122
122
116
129
138
86
53
91
79
104
71
70
104
119
127
139
154
127
134
113
35
39
15
16
34
26
29
56
49
52
60
37
43
62
66
68
62
70
102
56
101
91
100
119
99
81
103
109
92
87
92
93
99
107
107
115
129
124
118
129
129
126
139
130
152
152
156
166
160
161
168
164
155
152
161
168
164
158
155
148
154
160
166
170
173
175
176
176
178
181
183
185
185
185
184
178
169
162
148
149
139
134
122
121
135
142
135
126
124
125
124
128
128
120
109
91
66
60
76
108
142
150
161
171
178
179
177
175
184
194
198
199
198
196
194
201
198
200
205
204
196
193
195
199
198
194
191
191
193
192
188
190
188
187
189
192
193
191
188
182
176
169
163
162
161
157
152
145
147
148
146
147
149
147
141
146
130
122
127
131
131
131
129
142
110
89
129
148
158
154
152
160
161
161
162
167
171
169
163
163
160
143
147
141
123
123
110
122
115
100
111
131
103
65
67
108
101
91
94
72
57
72
63
69
76
71
33
57
91
60
64
67
104
62
72
113
98
89
105
104
102
80
91
94
81
89
80
66
79
91
90
80
76
78
81
102
88
83
70
93
87
75
118
73
74
83
101
107
80
66
82
94
81
72
73
103
104
84
72
106
104
104
109
102
95
81
101
127
111
121
112
144
157
154
25
58
156
91
45
28
119
137
125
124
89
114
120
128
119
122
118
112
117
121
111
104
108
110
114
110
109
110
110
111
115
110
95
106
93
92
123
116
108
116
113
107
110
114
113
111
112
116
120
115
106
129
156
140
124
130
120
121
125
141
140
125
134
86
55
80
89
113
64
65
107
126
125
148
139
126
132
162
70
23
37
27
47
31
28
36
17
19
35
57
73
86
51
61
85
52
92
89
82
100
75
116
132
95
80
61
87
92
93
115
124
119
124
114
109
119
126
123
132
137
124
142
150
151
161
165
160
160
159
173
166
153
144
149
157
153
142
146
152
158
161
163
167
170
171
174
174
177
181
184
185
184
181
175
164
161
161
175
168
157
139
123
129
133
129
122
118
124
128
133
128
117
102
78
59
66
92
119
172
179
183
190
198
202
201
199
202
202
198
197
202
208
211
209
206
203
202
201
200
200
202
196
199
198
195
192
193
194
193
197
192
188
189
194
196
192
187
184
176
166
163
167
168
160
150
150
163
167
155
142
136
130
123
112
133
135
130
129
115
107
121
115
122
123
157
175
149
140
159
146
155
164
167
166
167
167
167
165
156
150
147
137
134
138
130
117
119
117
117
110
91
96
127
115
116
98
82
76
67
61
63
74
73
43
32
32
45
72
63
47
50
55
88
99
72
90
117
90
34
66
106
64
50
82
86
79
87
85
79
80
81
84
91
89
92
70
94
89
66
114
96
66
90
85
119
88
76
70
99
90
70
75
84
119
83
83
80
97
124
105
99
112
85
74
120
109
87
76
128
153
148
194
77
34
59
89
110
93
89
110
125
133
105
112
115
118
112
116
111
109
117
118
113
106
104
108
109
112
111
114
115
112
110
104
93
115
93
88
116
113
114
114
111
108
111
115
118
118
117
115
115
117
107
103
117
121
117
124
124
127
130
145
151
125
127
75
62
79
97
107
73
72
116
124
124
145
146
141
144
112
107
65
17
27
42
25
46
25
13
12
19
17
13
61
88
81
94
96
100
118
100
109
73
72
109
109
111
76
59
73
91
82
87
113
126
128
139
138
135
142
142
133
132
123
121
137
155
145
144
164
163
166
163
169
177
172
159
156
165
157
158
158
157
160
166
171
173
179
178
178
182
186
187
182
177
174
167
166
154
149
135
139
142
134
120
114
122
127
124
127
135
137
122
110
93
69
60
81
109
128
185
192
190
190
197
201
200
203
207
207
202
198
200
204
205
205
207
203
197
195
199
198
194
188
195
199
195
190
190
192
194
194
191
187
184
183
182
179
177
164
165
163
159
157
157
155
152
155
157
147
132
131
139
138
128
143
140
139
128
116
124
135
130
142
142
148
138
123
124
152
132
157
160
160
160
164
173
175
173
167
156
166
153
139
149
147
141
136
127
140
134
106
113
128
107
92
89
97
80
66
70
69
77
69
67
61
37
52
82
64
47
53
45
70
68
82
80
70
84
27
34
79
65
44
77
83
79
105
90
72
81
97
84
78
102
92
75
89
98
66
87
117
58
73
82
92
100
74
69
82
112
67
85
79
110
99
93
81
88
95
109
93
107
80
85
111
123
96
105
138
158
89
116
184
168
80
21
18
50
49
67
137
113
129
111
128
124
118
121
107
110
112
114
108
108
109
108
113
108
122
115
114
115
109
105
107
108
121
94
85
109
110
120
114
106
110
112
116
121
123
121
115
109
108
125
110
101
115
124
134
143
137
130
137
148
124
123
64
66
88
97
91
86
85
123
116
125
157
147
118
159
129
58
111
38
21
24
6
54
19
29
28
27
32
23
23
55
53
80
75
119
135
127
103
125
89
91
87
100
111
107
91
80
86
92
96
104
114
124
134
133
129
135
141
143
136
128
115
134
161
162
160
162
161
168
168
161
163
170
165
151
154
151
146
143
149
160
167
169
180
178
177
182
188
188
182
176
167
157
157
154
157
141
136
132
117
121
124
126
131
136
136
132
128
114
107
95
71
67
91
115
132
150
153
168
185
185
180
180
189
195
197
195
198
206
208
202
207
204
200
199
200
200
198
196
195
200
200
195
193
195
194
190
191
187
183
180
176
171
168
168
158
156
156
155
148
141
143
151
148
140
140
150
149
138
138
149
141
131
124
124
133
145
144
131
136
129
129
124
134
139
130
145
178
151
155
179
169
159
168
162
164
160
157
152
153
152
146
151
145
131
122
106
129
131
112
108
108
104
73
66
94
95
75
77
89
58
46
37
67
58
44
54
31
32
42
53
81
43
63
42
24
35
77
60
37
64
63
90
80
72
62
80
94
86
89
106
86
88
88
77
73
113
75
61
83
73
106
75
73
72
99
76
82
80
99
116
82
101
95
71
106
94
98
102
98
102
112
114
88
109
103
92
79
157
201
177
136
49
5
91
34
36
130
137
121
106
128
131
123
114
121
118
108
106
100
102
114
118
111
105
120
112
117
112
111
108
98
111
114
99
85
109
111
113
110
109
104
106
107
107
111
115
113
109
110
111
110
108
113
122
125
124
131
132
133
136
132
116
47
77
93
91
84
97
87
114
118
124
159
141
125
120
156
67
55
80
56
38
29
48
39
40
35
14
11
27
35
47
22
58
85
77
103
133
128
115
134
117
73
73
91
105
112
109
108
116
116
109
111
119
129
139
132
127
142
150
155
144
137
135
149
155
173
165
165
167
156
152
166
169
153
142
131
143
152
154
160
171
177
176
176
177
180
184
185
184
183
182
179
180
180
174
165
152
131
111
131
134
136
135
134
135
129
124
122
116
110
94
76
76
102
125
135
165
161
158
165
174
184
195
197
199
199
196
199
205
206
204
199
200
201
199
196
194
194
196
196
194
195
196
196
195
195
196
189
185
181
178
173
167
162
161
156
154
155
157
153
149
152
159
158
156
157
161
157
149
147
151
146
141
149
161
156
145
143
144
134
133
136
134
137
139
137
145
131
144
157
148
143
160
170
168
169
164
160
155
156
157
150
144
128
106
125
131
133
124
116
107
90
81
96
107
87
73
75
73
53
35
63
73
37
50
67
37
31
55
61
75
56
46
52
47
22
50
66
30
65
56
89
77
58
61
64
69
105
84
104
94
82
98
85
78
116
95
66
82
99
92
92
90
63
74
87
82
94
74
112
94
88
101
64
95
103
102
102
104
98
93
115
104
110
83
71
101
165
201
191
159
183
113
3
26
28
17
118
130
117
111
116
120
120
120
108
103
108
107
111
119
122
120
114
110
112
114
115
116
108
99
109
122
122
109
93
104
109
108
109
111
109
109
109
108
105
105
110
116
113
115
114
113
116
122
123
121
129
145
136
129
136
134
55
76
83
103
89
107
95
112
99
134
160
136
129
111
118
110
48
38
72
48
23
56
62
56
70
57
28
24
46
31
1
35
59
96
97
95
134
133
115
122
106
89
85
93
103
108
111
116
122
126
125
118
114
126
137
142
146
135
144
148
159
160
150
131
152
165
176
180
168
153
151
150
150
156
161
161
157
154
163
174
170
156
170
170
173
180
187
191
192
192
193
169
149
143
135
128
136
150
143
138
132
128
124
124
127
132
117
110
102
87
73
80
108
129
135
173
178
178
186
198
206
211
211
210
209
208
208
208
207
206
192
194
196
197
196
195
195
196
195
190
191
196
196
190
186
188
193
190
188
187
183
177
173
171
162
159
159
161
159
155
155
159
151
151
149
144
139
136
136
137
132
136
140
134
120
115
117
116
99
107
109
106
98
106
132
145
134
143
150
144
160
175
165
166
156
155
155
149
142
143
142
135
126
125
148
140
130
123
116
98
103
93
107
103
69
63
69
50
68
77
58
47
37
63
55
28
51
54
48
69
45
60
48
45
31
62
30
44
42
69
65
40
39
45
30
82
93
119
95
95
93
95
77
104
102
81
82
89
82
87
81
96
65
87
88
84
89
96
110
94
89
82
74
110
94
104
101
99
91
90
122
103
96
92
64
121
138
144
148
148
193
187
69
18
14
3
84
148
119
129
123
122
120
126
109
114
121
107
111
124
122
118
118
117
113
117
110
114
103
94
117
122
114
110
95
94
108
104
110
114
110
110
112
111
104
98
105
117
114
117
118
117
119
123
122
120
127
126
126
131
143
169
97
69
79
104
97
98
97
118
103
121
152
145
131
138
85
112
83
24
56
56
12
36
61
39
59
67
72
53
71
51
31
45
42
75
80
76
116
124
132
145
111
95
94
90
93
106
114
117
124
134
127
130
129
131
131
138
151
146
142
143
146
150
149
136
150
158
157
170
176
174
169
163
163
171
174
170
167
167
164
163
167
174
166
168
174
183
191
196
196
194
184
186
162
141
147
149
143
146
133
134
131
126
122
124
128
130
113
106
96
80
70
86
115
132
135
171
175
181
194
199
194
190
181
179
182
188
190
187
186
187
187
185
186
191
197
200
197
194
192
189
191
195
195
189
183
180
184
183
184
187
187
183
180
179
173
169
166
165
161
155
151
150
147
148
146
143
138
134
132
133
139
135
126
111
102
108
113
106
105
100
94
112
129
144
156
136
139
137
136
145
159
160
152
152
151
149
148
151
146
143
146
137
137
155
154
126
127
120
111
106
122
106
80
69
81
93
92
88
78
59
51
44
88
33
20
62
64
74
80
59
42
64
52
28
38
29
39
38
4
31
27
15
37
21
42
87
110
113
86
100
101
90
90
120
78
82
104
77
79
86
95
82
71
92
86
74
88
101
113
84
101
73
108
94
90
101
96
90
78
98
121
107
98
75
84
109
85
135
127
154
174
124
115
119
20
2
51
165
124
127
122
117
113
122
116
124
129
104
105
120
119
115
117
113
118
116
107
105
102
108
122
114
104
106
95
88
110
105
110
111
106
110
114
115
109
103
101
104
111
115
117
117
120
125
124
123
124
130
144
134
133
139
91
75
87
85
108
98
99
106
114
114
139
114
156
100
125
51
108
41
21
61
25
26
59
34
46
80
90
78
69
55
58
68
77
91
80
80
80
81
122
139
110
116
106
91
86
99
114
121
126
133
140
145
140
134
129
135
144
134
144
150
143
141
149
152
155
145
143
151
163
173
177
170
164
162
150
154
158
158
154
150
151
153
165
171
179
186
191
192
189
185
178
145
141
149
139
138
142
127
128
136
136
126
125
133
132
123
115
108
94
75
68
91
120
134
135
157
149
151
160
162
161
164
183
179
178
182
182
178
176
178
182
182
185
188
193
195
195
194
192
193
192
190
192
194
191
186
181
180
182
186
187
184
181
181
176
172
168
166
163
158
152
148
149
149
153
156
153
144
138
138
143
127
122
128
127
123
122
123
132
124
114
126
135
139
139
110
123
143
148
149
143
150
167
154
145
144
142
157
162
153
151
141
144
146
136
124
132
119
118
124
117
111
98
108
118
84
51
60
78
57
64
86
34
47
42
78
79
60
68
60
67
69
46
24
63
25
49
26
19
38
35
20
31
38
65
107
101
82
79
101
96
101
119
105
101
91
100
76
97
88
101
67
70
93
86
90
98
97
105
84
90
110
81
84
91
100
97
87
75
113
109
106
87
73
95
112
108
117
126
135
160
130
129
137
60
37
15
131
139
115
117
112
116
121
126
119
123
103
108
123
117
111
112
108
114
110
109
97
103
125
122
113
109
112
98
88
111
106
109
106
105
110
113
111
112
112
103
91
108
112
115
115
117
124
125
123
124
144
141
112
135
103
58
87
91
74
111
117
111
87
97
126
133
106
135
109
114
92
51
76
24
53
42
40
46
24
31
65
97
112
104
65
42
42
57
73
76
72
71
80
88
102
119
118
108
97
91
96
108
118
125
130
138
151
152
144
131
131
135
122
115
139
143
146
148
149
148
143
156
149
147
152
157
159
159
157
154
173
172
141
113
116
135
149
162
171
179
183
184
185
184
182
165
168
152
134
137
141
130
118
146
142
134
126
127
132
131
126
114
105
88
69
67
93
124
135
135
204
197
192
186
172
166
172
174
170
170
175
180
184
189
194
184
189
192
192
190
190
193
198
197
198
193
186
186
192
193
189
189
187
187
188
188
184
181
180
172
169
167
166
166
164
160
157
156
150
147
148
146
141
139
141
130
126
129
132
128
125
123
119
94
103
106
106
97
97
112
116
112
125
134
141
143
152
152
125
126
145
149
163
164
147
149
150
149
140
142
140
136
129
137
118
102
103
106
103
82
60
67
90
89
79
84
47
45
21
52
112
71
69
79
76
63
58
53
73
34
32
15
17
20
46
17
2
30
56
65
80
80
50
95
90
98
111
120
100
106
98
88
94
105
88
90
71
73
91
81
107
100
110
99
93
92
105
51
96
88
98
101
89
88
123
100
104
87
61
100
113
122
110
57
103
114
160
122
151
188
93
15
153
145
118
126
120
117
119
129
120
121
112
115
118
109
106
114
117
107
107
109
93
103
120
109
110
113
112
96
91
105
107
111
108
108
110
108
104
109
116
107
91
105
110
114
114
115
121
123
121
123
131
129
118
150
108
60
84
82
87
104
117
118
106
78
115
134
101
123
130
95
115
50
68
66
47
50
72
40
26
37
47
62
100
129
92
53
55
53
76
79
81
85
99
89
87
110
101
111
110
108
104
102
105
112
119
121
143
155
155
147
149
155
145
132
142
134
145
156
157
149
149
134
131
136
143
149
157
162
159
167
135
107
108
125
139
148
154
164
171
177
179
181
186
189
188
187
181
166
169
173
141
127
156
149
133
125
130
133
128
126
129
109
94
75
61
67
99
127
136
135
185
199
208
211
205
202
207
206
202
197
193
190
186
184
184
192
192
191
190
190
191
194
196
199
199
196
192
190
189
189
187
190
187
185
185
183
180
177
177
174
172
171
170
170
169
167
164
163
158
148
140
139
141
141
138
131
135
135
123
113
115
114
103
106
107
109
104
101
98
92
99
124
118
135
140
148
142
109
109
128
162
158
158
160
147
154
159
151
152
154
148
142
134
138
108
108
109
111
98
80
84
96
94
67
68
85
47
30
39
107
90
67
84
65
31
34
57
44
28
12
31
32
23
26
14
8
6
20
58
38
70
38
71
81
76
101
110
111
104
93
97
92
111
102
97
84
79
81
81
78
99
104
113
95
84
113
58
75
103
86
101
103
86
105
114
95
99
60
85
108
132
102
64
61
122
140
184
140
145
164
107
86
134
137
126
128
116
107
112
118
120
124
119
111
104
103
110
118
121
107
110
99
93
107
107
97
105
107
107
94
97
100
107
113
111
110
108
104
101
106
113
109
99
101
107
113
114
116
121
122
119
120
130
148
156
146
110
73
84
81
96
106
107
117
135
91
96
112
97
98
109
96
83
88
32
56
29
22
67
32
29
46
38
60
96
120
115
81
79
75
89
95
101
90
94
104
96
94
100
106
108
111
113
112
111
114
120
127
131
131
140
153
167
169
149
145
143
111
109
119
127
123
125
119
123
137
147
148
151
147
133
99
83
91
126
150
150
152
164
169
175
178
179
183
188
187
182
175
155
166
164
137
150
172
151
134
127
125
131
135
131
126
124
106
82
60
55
71
106
131
136
135
174
183
187
194
199
199
200
199
201
203
205
206
206
204
201
197
188
180
181
190
196
193
187
195
194
198
203
202
194
189
191
192
189
187
187
186
184
183
183
181
180
177
174
172
170
167
164
159
161
156
147
146
148
139
125
128
118
114
111
99
89
85
83
96
91
92
84
89
98
102
129
103
114
148
119
103
92
59
109
144
171
143
135
155
156
157
149
145
151
142
143
152
124
120
119
137
113
92
95
111
113
91
67
96
80
38
39
86
86
118
77
84
77
55
39
65
54
34
23
40
15
24
20
23
11
10
7
9
30
62
61
45
77
63
59
90
109
118
95
110
90
100
116
83
95
77
71
89
80
101
106
110
112
60
96
88
68
90
99
92
110
105
81
112
96
89
91
87
88
114
107
100
74
103
117
145
144
123
152
138
104
97
65
141
141
121
108
107
125
116
122
121
118
105
97
109
121
119
111
110
112
86
95
119
105
99
108
104
105
97
108
101
107
110
108
108
105
103
103
106
108
108
106
97
104
112
115
118
122
122
119
122
140
140
153
148
131
82
96
91
88
118
113
118
137
114
101
90
109
70
64
122
75
99
23
47
51
18
64
43
42
52
42
62
100
101
137
106
82
86
78
83
91
98
103
118
110
86
93
89
88
97
116
130
134
135
138
128
132
126
123
123
133
145
138
122
147
124
103
93
112
131
152
170
165
164
157
146
140
127
103
116
142
166
167
157
152
156
161
172
176
179
180
184
185
176
164
155
172
158
141
153
158
143
134
129
136
136
127
129
137
132
118
105
77
52
50
74
113
134
135
135
193
179
180
191
183
179
197
197
202
206
202
195
191
193
197
193
183
183
187
187
193
196
188
194
199
204
204
200
196
196
197
192
193
191
188
185
183
180
177
175
170
167
169
172
172
169
167
156
159
156
144
131
124
119
117
106
99
96
88
90
96
86
78
87
89
91
105
106
115
129
109
115
121
107
101
78
75
111
169
180
138
139
155
163
165
152
148
142
157
159
139
125
129
137
137
120
99
115
107
95
96
88
91
114
60
62
81
83
96
122
83
103
78
39
67
71
38
31
47
33
24
24
21
31
17
4
14
26
60
22
40
80
71
46
54
90
132
115
106
109
101
111
99
81
99
80
87
91
81
80
113
117
80
66
110
85
69
79
102
102
101
102
95
99
89
92
78
75
80
109
99
106
70
68
102
146
140
128
149
162
134
132
87
143
151
130
112
127
132
117
110
112
107
119
103
113
118
108
112
100
89
97
115
118
115
115
111
109
120
113
108
105
102
107
108
101
109
103
97
106
113
109
108
94
106
111
113
119
119
118
125
125
145
144
124
135
105
79
104
94
100
116
112
115
140
130
90
76
86
100
45
82
102
87
45
20
57
10
66
57
50
50
58
66
79
95
123
116
96
101
91
81
100
79
115
120
113
98
96
100
115
88
83
110
123
133
138
149
143
137
133
125
112
113
128
146
133
146
155
160
147
148
140
157
148
135
129
135
144
157
173
178
171
162
158
161
166
168
168
172
174
177
182
187
188
184
181
184
164
157
166
163
150
143
141
133
138
138
131
131
134
128
116
99
68
48
57
85
119
138
140
135
190
192
185
190
190
189
196
200
198
197
196
197
197
196
195
199
188
179
174
170
175
188
196
191
192
194
194
193
194
195
196
198
198
196
192
187
183
178
173
173
171
171
170
166
158
153
151
152
149
143
134
126
121
118
117
120
112
108
101
106
115
106
98
110
101
103
117
114
108
112
107
95
99
96
91
84
124
145
129
93
110
138
156
169
170
156
151
158
157
147
136
137
144
141
130
134
123
133
103
107
90
92
97
108
83
73
78
108
105
109
107
102
42
60
76
62
22
37
58
28
42
14
13
43
11
12
25
28
28
24
65
61
80
64
78
95
123
125
116
109
92
113
94
90
93
86
88
83
82
90
108
99
65
78
105
80
75
95
112
99
96
105
80
97
97
64
66
77
98
114
104
94
79
93
103
132
117
126
146
139
114
84
92
124
139
136
126
128
123
116
118
120
123
130
105
106
114
101
99
98
99
113
121
112
106
110
111
125
118
103
107
109
99
102
110
107
109
104
101
106
111
110
108
95
107
114
114
116
120
121
122
137
131
147
132
145
139
75
92
92
100
115
108
111
128
123
116
81
69
95
80
77
89
93
81
50
63
45
63
61
52
48
41
60
68
95
118
119
109
100
97
83
106
101
102
115
133
122
104
111
102
105
106
105
117
123
116
120
141
155
153
151
152
145
133
131
148
150
143
141
147
144
140
133
137
141
148
157
158
158
164
171
169
166
164
163
165
169
174
171
172
173
177
181
183
183
181
174
177
175
158
137
128
125
120
130
132
129
125
130
134
125
109
78
56
50
72
106
130
138
132
134
166
174
167
173
182
187
193
187
187
188
191
194
193
188
183
177
181
184
186
183
177
181
193
192
190
188
188
189
192
194
196
188
191
192
192
191
190
185
180
174
174
175
172
165
157
153
153
154
149
145
146
147
147
145
144
137
126
125
116
103
94
94
111
122
115
110
102
102
104
89
76
108
121
103
90
105
139
115
73
117
151
160
158
161
156
155
162
159
152
143
138
141
145
139
128
131
139
113
110
95
103
88
106
103
92
89
102
105
102
97
115
84
63
85
62
23
50
52
44
37
40
14
8
44
13
23
32
8
9
67
37
43
96
55
34
110
126
138
127
111
89
114
88
98
84
92
85
77
84
98
100
85
71
92
90
71
70
87
105
92
91
87
60
91
95
54
67
71
106
105
96
70
82
102
94
110
77
89
118
114
111
72
126
149
134
123
123
127
125
120
121
114
123
131
118
112
122
106
107
96
109
124
124
112
110
117
118
123
113
100
110
118
106
103
105
105
105
108
108
104
107
113
115
99
108
118
119
117
123
126
123
134
131
132
125
116
115
89
102
96
99
115
106
112
122
108
117
94
67
80
98
69
62
61
86
38
11
21
45
54
51
43
42
56
64
79
102
111
107
104
103
95
102
117
110
118
127
127
126
103
113
120
109
119
125
121
155
136
137
138
135
138
153
162
158
151
134
132
144
120
122
119
112
122
119
117
126
143
152
153
155
159
157
158
161
160
159
163
168
171
173
178
183
188
191
193
193
187
183
172
152
141
146
150
143
133
134
132
130
135
135
118
97
82
70
72
88
107
121
133
137
133
178
179
180
183
179
178
185
174
173
172
171
171
175
181
186
182
184
180
179
180
173
175
192
194
194
193
193
192
193
194
195
193
195
196
195
194
190
182
176
171
167
165
164
162
159
158
159
144
138
133
133
131
123
115
110
100
93
103
115
126
127
118
120
110
111
111
95
101
114
101
95
128
100
82
109
126
114
97
125
147
163
160
167
167
154
161
169
154
147
141
141
143
141
134
128
129
123
106
114
123
113
95
86
97
112
105
105
87
126
114
110
89
85
63
52
36
61
47
52
44
18
32
20
36
15
18
13
1
8
54
38
85
60
11
58
107
133
142
128
111
97
113
93
96
81
92
81
79
85
97
93
80
88
94
86
77
82
92
113
87
90
71
64
91
85
62
71
80
113
98
91
72
96
98
94
104
99
83
114
84
100
160
180
150
133
133
140
132
118
116
118
117
120
123
128
117
112
89
95
99
112
121
115
110
115
119
115
112
113
103
108
117
115
113
108
105
104
113
116
105
103
114
119
105
105
115
120
116
121
130
128
122
131
147
139
109
93
96
104
101
96
113
106
112
125
96
79
85
62
54
79
70
53
35
72
56
10
13
44
42
60
57
58
54
68
65
92
104
95
103
91
103
99
115
125
125
117
122
129
141
118
118
118
120
132
126
114
132
149
155
134
115
122
131
123
127
143
133
125
130
143
136
135
126
139
148
150
148
141
140
147
153
150
152
160
166
166
166
170
163
168
176
183
187
188
188
187
184
168
158
159
157
150
138
127
145
143
136
130
134
136
129
116
112
80
64
82
111
131
135
130
133
179
181
189
191
179
172
177
176
176
176
173
168
164
161
160
170
168
159
159
168
169
174
190
190
194
199
200
197
194
193
193
194
196
197
197
196
192
184
177
175
167
159
159
162
160
155
151
152
148
144
140
134
125
116
112
112
126
139
125
114
114
108
106
101
84
81
79
88
93
83
93
91
74
97
130
122
127
135
158
152
152
155
173
167
154
161
154
153
144
139
145
150
145
134
126
127
118
115
120
99
85
93
101
105
92
77
103
116
118
104
127
92
78
40
48
69
51
55
56
32
15
45
35
36
6
9
1
1
45
80
76
30
27
65
70
76
136
139
124
108
106
104
105
92
87
88
79
90
87
89
90
91
92
87
91
68
86
99
100
88
79
80
87
93
84
62
69
93
111
92
88
90
107
82
99
104
69
79
89
77
110
141
136
151
131
131
143
134
123
118
115
122
123
120
126
118
112
90
90
102
114
116
105
102
107
108
104
115
119
107
104
108
112
120
122
114
107
112
118
112
110
115
114
107
100
107
117
114
117
126
129
121
117
170
131
101
89
86
111
102
92
111
101
98
126
103
54
78
61
50
65
71
61
42
53
60
33
25
27
12
39
59
43
52
62
72
93
101
94
87
71
88
107
110
127
126
126
131
115
129
118
105
108
115
135
154
138
127
123
131
147
152
144
135
129
121
120
134
120
100
107
131
122
134
140
140
139
142
144
146
152
135
137
143
151
154
155
159
165
168
172
178
182
183
181
179
178
164
150
149
158
155
146
146
150
133
140
145
147
148
145
135
122
96
66
56
85
119
139
139
132
135
168
173
174
175
177
181
185
175
174
174
178
180
176
167
159
150
151
152
159
169
172
170
172
180
188
197
201
198
193
191
190
187
189
191
192
194
193
187
180
179
169
160
157
156
148
137
128
130
131
129
126
125
126
127
126
123
111
110
111
112
107
94
93
100
101
106
95
77
71
83
107
85
112
135
123
110
135
129
126
144
149
162
168
155
152
157
142
145
145
147
149
145
137
131
131
135
125
118
128
89
98
110
133
82
93
108
102
117
115
124
94
80
73
46
62
56
64
68
35
26
35
35
33
40
2
24
26
48
59
66
41
35
45
55
52
63
144
143
124
110
112
96
109
93
95
81
83
98
84
83
91
102
79
85
92
49
87
100
77
90
62
91
90
79
88
57
79
98
103
87
82
102
103
70
99
95
82
79
37
101
143
92
84
149
128
123
132
133
133
126
112
116
122
115
110
115
124
114
103
103
118
121
110
105
106
107
111
121
122
112
113
113
108
116
124
120
107
103
111
120
123
120
113
110
103
106
114
117
118
123
127
136
105
120
87
101
100
99
99
99
96
111
97
81
115
119
69
74
56
61
68
65
69
69
49
57
44
48
40
27
23
53
39
53
49
76
86
86
92
74
62
60
102
110
128
125
125
137
124
113
145
128
112
113
112
133
150
160
136
116
125
146
147
140
143
136
129
123
110
106
80
89
112
100
108
116
125
137
140
135
132
148
157
165
163
157
156
165
174
174
175
178
180
183
185
186
186
177
165
154
144
135
136
145
150
136
146
155
158
154
140
119
102
71
59
69
100
122
131
136
141
136
149
148
142
139
147
156
157
161
157
155
158
168
178
184
186
173
171
169
166
163
167
168
164
177
184
193
197
197
193
190
188
195
195
193
191
190
187
179
172
169
163
155
149
141
130
120
116
114
117
114
108
108
114
114
110
108
106
123
135
130
116
109
123
104
87
74
80
88
100
107
95
125
123
114
102
102
110
101
136
110
131
158
161
158
163
157
149
139
146
152
148
136
126
127
132
121
97
111
101
123
113
104
90
100
109
124
127
123
106
123
80
90
62
61
83
44
79
54
32
48
39
22
27
39
19
39
35
30
37
69
34
33
31
43
55
90
153
142
119
119
121
98
105
101
99
71
90
96
75
82
91
95
71
98
82
58
110
104
90
84
62
92
83
71
90
64
91
102
103
92
84
107
92
83
102
97
86
41
68
114
58
74
115
96
114
136
141
131
125
121
114
117
121
110
98
109
118
119
105
106
120
123
120
119
115
115
124
119
125
117
117
119
116
119
119
117
109
101
103
117
122
118
115
112
114
112
112
120
124
121
119
95
107
119
96
97
76
93
107
92
100
105
93
72
92
114
85
61
49
52
66
64
75
82
66
68
52
54
58
48
27
35
35
43
47
62
83
77
78
87
59
51
81
102
116
128
119
130
136
112
119
131
133
120
116
116
101
112
148
147
123
127
143
150
157
139
130
134
132
120
121
130
123
111
125
129
120
113
115
128
144
146
154
157
150
144
147
155
160
164
164
167
172
179
185
188
189
181
174
171
170
171
174
171
161
167
160
149
140
135
126
110
95
78
59
67
105
134
140
136
131
136
140
141
144
144
148
152
150
147
153
160
163
159
154
151
150
174
176
182
179
171
176
182
175
181
184
190
195
197
195
190
187
194
193
192
192
193
192
187
181
168
165
160
152
140
131
129
132
124
129
127
121
122
129
126
116
115
121
118
94
87
102
103
100
77
66
67
86
74
65
95
110
113
94
99
96
89
115
117
130
139
154
166
155
157
157
142
151
148
147
145
141
136
131
127
125
117
130
144
119
112
107
90
105
118
138
94
106
119
110
100
77
99
55
90
69
49
94
53
34
74
22
22
33
38
42
34
4
20
60
30
50
47
28
48
45
122
151
132
107
125
130
108
103
108
99
64
95
89
67
83
90
89
82
114
62
69
118
81
93
75
80
92
90
81
91
74
89
97
100
94
83
100
77
95
98
79
53
91
108
71
61
99
80
70
96
118
122
123
128
127
118
121
119
112
105
122
123
130
123
109
116
118
121
127
119
113
121
116
130
117
106
114
128
131
118
115
117
107
100
106
108
107
114
110
122
116
110
120
127
118
110
97
93
109
82
93
92
64
83
83
98
94
88
69
69
93
81
67
63
45
59
66
69
61
67
85
70
50
58
49
62
46
50
25
54
46
96
87
66
109
53
59
66
87
88
131
131
127
123
122
131
131
119
127
120
98
116
55
77
90
106
114
85
71
98
127
119
119
137
116
93
83
101
114
116
112
114
126
132
126
121
133
136
133
128
134
146
151
148
159
161
165
173
182
187
188
187
190
181
179
181
178
171
164
156
163
153
142
139
141
134
110
88
67
56
73
115
140
141
136
135
136
152
140
153
165
165
166
161
152
152
159
160
156
160
158
142
138
155
175
184
182
177
179
183
184
186
191
198
199
195
193
194
193
194
196
199
199
195
187
180
176
168
159
155
151
149
153
160
161
156
146
140
138
126
125
140
122
107
102
109
111
104
88
72
79
93
88
78
103
115
102
114
109
98
115
116
122
138
133
141
154
166
152
158
154
137
146
145
147
145
144
140
135
136
138
134
143
150
122
99
105
87
99
119
128
98
103
114
115
116
100
88
82
69
90
60
60
98
46
65
60
25
44
42
31
37
11
5
55
52
27
55
53
34
41
61
124
151
132
126
118
134
111
94
117
84
65
95
93
73
87
85
81
94
112
54
79
100
83
93
79
84
73
85
101
82
86
82
97
104
106
78
78
81
104
86
70
111
84
55
60
98
89
64
70
80
93
128
125
125
125
119
122
123
123
120
119
128
131
122
104
114
125
128
123
120
124
131
137
127
112
101
117
114
112
112
115
118
112
104
105
110
115
121
108
118
119
115
120
129
124
110
97
102
102
66
95
88
63
76
72
85
69
76
86
73
81
79
57
42
82
59
59
78
103
78
84
87
74
42
37
62
74
83
45
19
60
64
99
62
94
92
82
83
80
81
106
141
128
151
127
130
134
132
128
126
114
95
131
96
97
101
64
103
89
55
91
105
83
76
98
106
89
77
86
92
102
110
113
115
122
130
137
135
133
142
157
161
159
160
166
169
174
179
182
183
185
186
181
178
177
179
172
153
147
157
149
139
138
141
138
133
109
77
58
66
89
122
139
139
136
138
134
145
145
165
178
176
175
171
171
164
158
159
166
175
175
165
156
147
149
164
173
172
177
187
186
187
191
196
197
195
195
197
197
196
196
195
193
187
179
173
164
168
166
159
158
161
156
146
152
136
122
127
137
135
126
125
115
118
114
100
93
101
104
93
88
94
90
112
115
105
117
104
108
109
127
117
113
129
118
112
141
163
157
141
146
144
157
152
156
155
149
142
143
146
143
136
110
111
107
108
116
105
124
135
114
122
120
104
118
97
81
110
84
91
85
47
76
68
57
59
36
22
43
33
43
12
16
22
66
33
46
38
61
30
57
66
115
139
135
121
112
126
104
98
109
80
67
102
90
63
79
93
81
93
94
61
96
99
95
75
89
73
71
76
110
83
86
80
93
102
100
80
85
83
97
85
96
75
59
77
87
88
80
66
65
74
82
113
115
115
136
137
128
124
124
123
120
122
124
120
113
119
125
127
124
121
124
129
127
125
116
106
122
119
117
115
121
124
119
112
112
114
115
119
107
117
120
116
121
128
119
102
96
112
78
62
79
70
83
62
66
68
64
79
84
71
63
76
55
57
52
65
46
57
85
106
70
94
86
63
46
49
60
92
116
70
38
50
93
88
64
92
97
97
96
90
89
119
133
131
148
136
131
136
143
146
136
120
90
98
88
85
108
104
103
106
60
101
107
88
78
81
91
93
84
93
103
110
113
120
130
139
147
151
155
160
167
166
165
170
173
176
180
184
188
191
194
196
189
185
173
165
165
158
139
126
129
128
136
139
131
121
103
81
50
65
95
126
140
138
133
133
135
146
142
148
148
144
156
165
173
178
176
168
163
161
167
178
176
161
153
162
172
173
174
179
191
191
193
196
196
195
195
197
196
195
193
192
190
185
179
175
163
165
161
155
158
164
160
150
147
140
139
138
130
121
121
122
110
99
93
93
92
96
103
106
114
95
114
103
95
123
124
116
116
120
117
112
124
104
83
126
160
154
112
106
130
168
158
149
147
148
138
137
149
147
125
107
117
118
127
126
119
111
132
132
123
117
102
100
116
108
86
99
102
93
74
77
99
78
71
68
29
22
37
37
37
16
10
53
53
39
41
36
45
35
58
71
118
130
140
126
115
126
113
105
105
87
75
105
85
65
75
89
76
99
85
76
97
80
104
73
95
65
76
69
113
79
80
80
99
95
82
74
84
89
104
104
94
50
74
84
101
63
85
59
61
71
105
94
97
122
123
128
114
112
120
129
128
125
126
125
117
121
123
123
122
121
123
125
124
125
118
105
122
124
124
121
118
123
121
116
117
115
114
116
112
116
122
127
128
122
109
99
107
113
62
59
66
51
85
51
36
71
48
72
72
99
51
77
62
74
41
47
58
31
76
88
94
110
99
82
54
48
65
93
100
103
64
1
37
94
80
74
99
96
99
105
101
99
124
132
142
130
127
135
141
143
139
132
136
113
94
51
58
61
84
112
81
46
84
72
74
84
82
95
92
100
104
104
107
121
136
146
135
140
143
148
154
155
156
163
171
173
176
178
181
184
187
190
191
192
183
173
174
172
158
144
140
137
139
141
134
116
89
62
44
68
103
129
138
137
132
132
133
163
154
159
161
162
176
183
176
178
173
173
179
174
167
171
168
171
172
171
176
186
192
192
195
195
196
196
195
193
193
193
192
192
191
190
188
185
180
177
179
170
165
166
168
167
167
170
160
146
142
140
129
121
115
105
119
121
115
102
102
117
115
93
92
104
80
82
112
115
117
134
127
100
114
124
109
112
131
149
114
114
110
123
148
151
124
123
138
146
142
143
153
141
117
110
135
134
135
122
121
124
136
125
113
113
104
116
104
108
96
107
87
72
98
91
70
70
74
80
35
34
31
38
32
23
26
63
35
43
35
47
18
42
71
58
113
112
131
130
112
117
123
100
106
100
86
100
82
77
77
78
80
102
76
83
85
70
105
78
81
59
84
69
105
80
79
90
108
87
83
92
93
86
91
78
80
68
78
105
78
77
77
55
57
87
116
80
85
116
120
104
104
110
123
130
126
125
129
131
118
122
125
124
122
122
123
124
128
125
114
98
116
123
128
127
113
119
121
119
119
118
118
123
119
114
121
135
129
108
98
105
111
91
66
54
69
46
63
53
27
53
51
39
76
82
69
67
71
79
93
67
59
72
49
81
79
91
118
123
74
24
45
78
98
122
121
45
22
68
96
79
81
91
99
104
122
104
111
135
141
134
133
136
135
130
120
108
104
164
136
94
74
42
61
68
102
98
64
101
91
76
74
85
91
102
110
112
115
123
128
126
137
137
136
141
153
159
160
163
172
174
178
181
185
188
192
194
191
190
181
172
166
154
142
138
131
127
129
135
132
110
77
49
44
74
110
129
133
134
134
135
133
132
131
154
175
180
180
171
177
178
171
170
175
168
157
158
157
167
172
167
167
177
186
188
193
195
197
197
196
194
192
191
192
192
192
190
188
184
179
176
177
174
174
176
172
164
158
158
155
142
138
138
133
131
126
113
111
93
92
105
102
89
89
97
114
115
120
130
129
139
141
105
91
88
96
85
81
113
126
101
110
101
118
115
146
125
132
146
143
153
153
151
147
127
122
140
141
131
121
112
131
132
125
116
108
121
115
114
112
101
99
120
78
76
111
49
51
68
83
61
31
45
46
27
35
23
57
44
38
27
52
37
22
53
84
34
99
97
125
140
107
105
133
106
100
99
90
93
80
78
78
79
89
91
59
83
86
88
98
68
66
60
84
71
96
95
88
101
113
71
77
96
88
77
90
67
92
81
71
106
85
91
71
52
62
105
81
81
84
72
124
102
112
122
131
126
116
119
129
130
120
126
131
130
125
124
124
124
132
128
113
96
113
122
127
125
116
124
128
126
124
120
122
129
122
118
120
123
114
100
100
110
76
63
67
39
72
46
49
54
57
45
60
55
58
49
93
72
49
65
103
82
82
52
60
65
84
71
97
128
124
40
24
58
90
119
127
105
38
42
73
68
74
89
106
90
111
117
108
121
136
130
130
136
145
150
136
113
109
108
116
97
91
66
43
31
25
81
64
63
107
92
90
99
95
101
104
105
111
121
123
120
128
131
131
135
146
151
151
153
161
165
171
177
182
186
189
191
193
189
177
167
164
154
140
133
128
131
136
137
125
97
65
49
48
81
115
129
129
131
134
133
132
164
161
169
173
168
169
164
176
181
178
171
166
162
165
173
176
179
184
189
189
186
186
187
188
193
197
198
197
197
195
193
191
192
192
192
190
187
184
182
175
182
181
171
163
160
151
139
132
126
124
124
123
124
120
111
109
102
97
94
97
107
112
108
105
118
119
100
118
113
69
79
79
91
79
89
129
127
102
109
88
90
94
121
134
137
129
130
157
156
151
149
143
126
122
136
140
130
130
126
136
120
108
116
128
113
111
102
118
100
110
98
85
104
79
39
77
89
79
48
26
41
72
30
28
53
49
37
37
35
51
13
54
75
52
34
81
93
129
148
108
102
126
123
91
86
86
88
80
66
74
91
80
76
57
85
93
100
87
59
71
70
80
71
91
107
93
96
113
61
71
88
83
69
101
86
98
79
81
85
98
79
77
49
83
90
64
95
88
40
83
105
102
115
127
124
118
123
131
128
119
128
134
132
127
126
124
122
131
128
118
104
120
123
123
120
121
127
128
126
124
118
118
125
124
127
120
106
100
104
105
101
33
50
58
29
62
44
52
43
46
85
59
53
46
46
68
91
79
68
67
108
94
104
70
75
75
95
111
116
140
70
24
59
75
122
138
126
90
54
70
63
87
75
98
90
93
110
109
115
117
119
125
132
143
158
158
144
109
108
127
114
99
64
85
35
29
38
79
47
77
99
84
83
90
92
94
97
106
118
124
124
130
143
151
155
160
162
164
170
173
176
181
186
189
191
193
193
173
182
175
160
156
159
153
145
137
136
132
127
111
78
47
35
59
89
119
130
129
129
129
127
128
125
128
132
130
131
149
158
149
146
145
148
156
169
175
171
164
168
175
183
188
189
188
186
187
192
197
197
198
199
198
196
190
190
190
189
188
186
186
185
183
187
183
172
166
166
159
148
157
148
134
131
140
140
122
105
105
85
77
82
83
81
87
95
115
111
93
121
122
79
87
117
128
101
101
129
125
93
83
89
89
111
114
151
126
136
141
152
165
159
151
146
142
136
132
131
140
131
145
135
129
121
123
130
120
108
109
109
110
94
104
86
78
115
68
70
88
76
58
66
35
41
63
48
45
61
25
42
33
55
26
19
78
69
24
46
70
93
129
137
112
107
94
129
94
83
86
78
80
63
73
91
68
72
71
83
93
86
80
62
79
78
77
67
86
104
92
90
103
68
89
97
100
61
87
83
91
83
80
97
80
78
76
61
85
68
82
101
81
43
41
103
90
98
109
115
118
125
130
128
119
126
131
130
129
130
128
123
128
130
127
117
130
124
121
121
124
125
124
125
128
123
119
122
129
124
112
101
102
105
92
72
34
53
61
36
41
39
42
23
37
48
75
55
32
32
75
54
89
91
44
79
103
103
112
74
71
88
99
105
141
121
38
26
72
109
136
131
131
67
57
54
85
70
84
102
98
100
103
120
120
122
126
127
128
138
148
149
158
119
102
95
136
85
53
93
52
43
43
86
43
69
78
76
70
79
92
106
115
120
121
120
134
148
157
159
163
167
170
177
174
176
179
181
182
182
183
184
188
196
188
171
164
164
160
156
146
144
135
130
119
92
68
66
79
102
122
130
128
127
127
125
128
171
170
175
172
163
160
153
148
156
170
171
163
171
183
180
176
186
187
177
179
192
198
193
190
195
198
197
198
200
199
197
192
190
187
183
180
178
177
177
178
172
170
173
173
166
158
155
151
160
153
137
126
112
99
97
91
99
107
101
93
101
117
125
89
95
118
108
83
87
97
100
96
107
110
102
85
82
93
94
100
106
128
133
122
95
146
159
151
155
153
138
123
129
144
150
158
138
146
123
114
133
142
121
101
124
93
109
120
112
80
88
96
112
85
73
91
67
64
71
48
52
24
57
89
20
31
38
39
52
14
49
82
34
44
47
79
104
134
131
125
127
73
133
103
90
90
68
81
70
77
80
71
76
76
73
91
72
81
65
75
76
74
62
83
95
94
95
93
73
92
88
103
55
83
97
101
70
82
105
91
68
83
75
62
67
88
95
71
54
49
105
102
93
93
99
104
114
124
127
120
124
128
129
133
138
136
129
127
132
134
126
135
124
122
125
130
127
125
130
139
136
129
129
132
113
100
105
111
99
69
43
66
62
75
51
26
36
22
11
30
57
70
62
68
51
35
52
71
117
87
63
74
105
131
109
86
64
81
113
121
131
61
45
56
99
121
136
130
114
67
47
64
86
85
105
111
104
97
117
127
117
116
122
128
137
146
149
151
170
124
80
114
126
74
56
91
59
59
80
106
85
93
95
81
82
86
93
100
110
125
137
145
150
150
149
157
163
165
168
175
177
179
181
183
186
189
191
193
178
162
159
164
158
147
144
122
129
126
116
98
72
64
80
98
112
125
128
126
126
128
129
133
158
151
144
138
141
155
170
175
175
169
161
162
170
173
170
169
178
176
170
173
181
185
188
194
198
201
199
195
192
191
191
190
189
181
172
175
186
187
179
180
184
185
180
177
174
168
160
152
135
122
116
109
109
117
121
112
105
105
106
112
126
113
75
90
74
64
59
61
86
105
97
108
120
94
71
78
97
85
100
111
106
117
103
113
127
163
137
148
150
131
128
140
126
153
161
140
138
131
121
118
120
117
110
110
98
94
134
109
80
98
114
97
94
88
87
80
59
83
69
52
49
44
69
51
31
31
36
46
35
15
54
90
43
54
41
53
101
127
141
144
90
114
128
106
88
93
72
72
62
75
73
68
80
83
56
73
69
78
73
87
77
81
63
94
71
102
100
84
67
107
87
79
53
88
91
81
85
91
96
83
86
68
70
56
72
97
85
76
52
80
98
86
100
102
91
92
101
101
112
123
127
126
125
128
110
103
117
123
108
121
106
98
120
119
116
133
129
124
126
126
130
129
107
114
99
93
107
101
79
65
53
58
58
60
78
65
42
35
1
10
28
65
80
65
50
66
47
38
105
116
80
75
101
123
128
116
90
74
99
129
128
101
65
67
82
119
139
137
114
88
82
69
63
96
109
116
128
111
105
123
127
119
128
128
134
128
133
159
156
151
155
74
83
123
84
60
81
60
62
71
74
54
49
74
88
95
99
111
124
130
135
138
138
142
152
161
163
164
165
168
172
178
181
181
183
187
190
183
185
178
157
134
123
124
128
141
131
116
110
108
90
69
59
88
120
128
120
128
135
133
136
130
153
154
153
154
159
165
168
169
169
173
174
167
156
156
162
170
176
178
180
185
184
183
186
198
199
199
195
191
188
186
186
188
184
179
178
182
186
187
186
178
176
171
166
162
158
152
146
136
131
132
135
136
138
138
133
109
111
88
93
121
93
68
101
100
80
81
105
106
85
87
112
99
58
76
82
91
97
115
95
84
113
96
119
128
138
149
143
149
137
131
128
140
141
151
143
140
133
114
111
115
119
126
119
105
98
115
112
104
126
105
101
76
117
90
69
83
69
73
77
59
58
54
41
16
30
48
32
35
41
19
64
92
43
60
43
29
87
132
134
139
99
101
119
124
82
75
91
71
37
82
85
74
73
62
37
66
73
80
74
98
70
75
69
93
66
85
107
72
70
112
83
91
63
71
91
85
64
102
88
94
79
72
56
51
86
95
87
79
47
91
89
91
107
83
85
96
90
96
92
99
110
120
101
95
94
105
91
109
94
91
91
94
96
99
118
108
108
108
112
103
95
104
107
98
116
102
65
40
75
70
36
46
62
42
44
88
85
44
35
35
54
32
53
85
62
74
69
37
63
100
106
66
77
120
137
123
129
83
84
102
130
113
66
71
101
121
139
128
126
104
74
89
75
94
111
107
115
126
122
126
126
133
132
132
139
121
118
137
136
152
141
152
85
26
100
63
3
37
50
37
50
73
73
73
86
97
106
116
121
123
127
128
132
139
144
147
149
158
167
168
169
171
172
175
181
188
194
185
179
172
168
164
159
154
151
153
152
146
135
116
88
69
70
103
130
137
130
134
134
126
125
125
185
182
175
173
175
172
165
163
161
165
173
173
164
157
157
180
181
183
190
195
189
185
190
194
196
199
200
198
193
188
185
180
172
169
175
176
171
170
175
174
168
164
163
163
159
155
152
147
151
154
147
138
134
124
108
105
104
119
119
95
93
109
111
90
97
103
89
84
114
118
77
60
70
100
116
106
100
86
78
118
111
112
132
125
149
128
131
157
117
108
110
126
141
147
147
133
125
109
115
123
121
123
113
100
88
124
121
106
114
84
97
84
129
88
72
86
73
70
94
90
47
50
47
20
17
45
56
31
45
18
72
95
48
62
40
29
96
138
134
140
111
106
127
116
118
75
68
82
41
73
86
64
64
54
37
72
80
79
69
96
66
73
71
89
61
67
98
82
76
114
74
82
66
72
99
68
74
103
77
94
95
69
44
58
101
86
91
66
73
92
84
89
105
92
81
102
83
88
89
88
82
91
84
95
90
101
98
87
93
81
78
81
92
111
113
99
108
105
101
97
98
107
105
110
90
54
32
15
58
61
45
49
44
53
51
72
99
82
65
22
25
48
36
56
81
84
93
79
68
103
129
78
67
102
127
129
136
108
94
78
117
147
81
56
101
118
137
114
131
121
75
65
93
88
98
126
117
105
114
104
111
115
116
133
141
139
128
123
111
132
127
101
145
127
46
71
30
51
52
51
53
59
72
78
82
75
69
81
97
99
95
112
122
136
146
149
150
155
161
167
169
172
175
179
183
186
188
196
192
189
186
181
172
163
158
149
151
143
119
81
51
55
81
120
135
134
127
128
126
121
123
122
124
131
139
150
160
164
163
154
160
163
164
170
177
177
172
172
172
173
182
194
196
198
206
193
193
195
197
197
194
190
188
178
171
170
175
175
169
168
172
179
173
170
171
170
163
157
156
148
154
152
137
124
124
117
100
117
116
108
99
105
121
116
97
97
102
96
99
114
102
77
69
107
125
106
93
92
105
102
144
127
127
128
106
117
122
119
155
87
89
104
120
137
146
146
141
131
121
119
123
125
119
106
103
86
109
118
111
99
88
83
95
110
127
87
85
74
79
89
96
75
50
59
36
20
26
42
43
38
41
17
72
95
56
54
38
49
106
129
132
134
107
108
136
119
130
88
54
101
49
44
89
64
65
52
34
61
75
84
85
81
69
78
64
85
57
61
77
100
82
110
74
66
63
91
101
60
97
94
69
109
90
55
45
67
101
100
79
53
85
85
85
79
97
91
83
83
102
65
93
114
83
87
75
67
78
81
88
99
89
81
99
84
58
71
71
86
94
89
87
86
83
85
79
52
67
63
60
41
54
54
19
38
43
56
48
58
86
90
93
79
39
64
74
33
29
90
104
93
82
98
111
101
80
87
111
131
124
132
104
79
86
146
116
54
88
123
140
109
126
125
93
58
75
90
101
114
130
124
99
103
126
120
96
79
86
135
121
132
113
84
132
111
90
123
148
108
67
29
37
30
38
55
69
85
75
75
92
105
103
107
123
126
129
136
144
153
159
163
165
167
168
171
176
182
186
188
188
196
197
193
183
172
160
146
135
132
114
95
88
83
77
85
107
124
129
125
121
124
123
122
127
122
134
142
154
158
153
150
152
151
164
172
167
163
170
182
189
173
174
171
174
185
192
195
198
200
195
191
190
189
187
188
190
188
187
187
188
189
189
189
189
187
180
173
169
161
149
142
140
140
140
133
121
118
126
120
101
86
89
78
93
126
112
82
87
85
99
117
108
82
89
113
118
95
73
87
99
127
121
124
128
107
102
102
111
103
87
131
94
55
106
123
137
143
139
134
119
137
120
129
120
115
114
97
109
108
132
107
101
118
103
105
121
115
125
88
85
65
95
108
82
61
67
69
25
24
40
40
28
42
33
29
75
93
60
46
52
68
91
128
140
135
114
95
136
122
119
137
58
66
69
60
71
56
55
47
36
55
73
86
87
74
76
80
57
81
53
62
68
94
90
101
75
73
66
99
94
71
93
80
75
130
54
52
54
74
96
123
59
63
62
87
74
78
80
86
55
82
96
63
78
111
103
98
51
16
79
71
57
93
101
105
134
125
63
34
34
47
38
40
59
50
24
22
30
28
54
49
46
54
66
81
23
28
37
48
56
67
80
88
89
89
107
95
85
95
48
35
79
80
79
102
102
117
90
83
102
128
130
136
102
94
69
97
137
93
86
130
140
115
121
120
113
85
72
93
93
95
132
143
136
102
92
122
130
94
62
85
85
111
146
127
83
126
117
90
92
134
140
97
67
59
75
71
62
72
82
87
90
98
107
119
132
132
137
146
154
160
162
160
156
166
164
163
167
175
185
192
196
195
196
188
177
175
172
155
135
140
142
141
130
104
75
74
96
122
124
123
126
130
128
124
126
124
128
134
146
149
144
146
155
167
168
173
175
170
165
173
185
185
188
185
184
190
193
191
191
198
196
196
199
198
193
191
193
195
197
197
194
195
197
195
189
183
176
166
159
151
143
136
133
140
131
120
112
111
113
100
78
70
77
91
90
80
86
95
91
109
117
106
101
112
100
79
81
87
81
111
127
128
128
120
103
99
110
96
107
108
97
104
73
120
129
107
125
133
124
129
125
133
120
131
120
114
114
102
117
128
80
106
118
91
101
122
91
108
116
81
88
81
103
106
81
80
73
58
36
40
36
29
35
34
31
50
81
92
59
48
70
73
65
135
155
135
133
86
127
142
89
142
93
55
56
49
87
42
38
40
43
57
77
85
73
78
75
77
53
73
53
56
76
77
98
88
65
87
74
92
89
66
82
63
96
112
50
68
60
91
108
109
62
74
62
88
54
73
80
85
53
82
78
70
75
83
113
74
36
40
99
53
45
86
99
88
93
113
74
32
58
49
35
41
66
61
41
40
34
30
54
48
28
26
21
72
66
52
45
35
32
36
47
69
82
98
95
119
95
85
92
80
65
73
68
113
122
119
90
86
98
121
124
131
124
103
82
73
120
130
89
121
125
112
121
118
123
104
83
95
93
97
110
116
151
139
127
98
79
137
124
55
84
79
70
114
117
111
116
107
81
74
108
123
68
60
61
52
67
70
78
72
64
77
99
107
105
120
130
142
147
148
149
150
150
159
160
163
169
177
185
189
191
195
202
199
190
187
186
175
159
159
137
104
74
55
51
74
108
130
126
126
126
128
127
127
126
126
140
142
151
156
160
168
177
176
172
172
179
182
178
177
180
183
186
188
195
204
203
201
205
195
195
199
203
201
194
192
194
198
198
197
195
195
193
186
178
175
170
162
158
156
152
142
131
126
118
112
104
94
89
86
80
91
125
137
122
120
124
108
85
113
113
110
100
87
81
85
90
97
127
131
119
94
110
99
103
114
106
113
106
83
103
112
118
125
95
80
116
123
127
134
132
129
128
127
129
126
120
118
118
110
125
129
95
113
120
90
82
104
103
78
96
93
99
103
86
82
73
47
38
34
34
30
22
23
37
65
86
96
58
57
72
71
62
128
159
124
132
104
119
134
101
127
102
48
60
39
79
50
36
40
45
48
74
91
76
74
67
73
48
54
64
40
81
72
92
85
62
89
84
85
79
55
85
57
108
90
69
74
61
106
115
90
71
64
76
78
55
56
76
76
88
69
92
58
87
91
99
32
61
86
69
27
50
94
69
94
133
156
103
32
62
50
40
48
65
60
63
68
43
38
64
64
34
39
43
45
26
31
52
51
39
58
49
24
56
81
89
103
134
121
98
122
80
69
54
96
123
111
103
89
92
115
112
124
140
108
92
82
102
131
97
107
110
100
124
124
125
115
76
95
117
99
90
101
116
125
152
173
133
103
129
116
89
91
94
88
105
98
89
89
99
47
31
94
114
92
68
72
90
87
76
79
104
122
115
110
120
125
126
125
122
124
134
145
150
143
150
161
173
182
186
186
185
192
197
202
199
191
183
177
173
151
132
99
67
52
58
91
129
136
130
128
125
124
127
130
128
128
174
173
172
171
170
168
166
167
176
183
182
183
189
193
192
191
187
188
199
204
195
191
200
201
195
191
189
184
180
184
192
201
199
199
202
203
198
189
181
176
172
166
163
163
157
137
117
116
115
115
102
77
68
83
101
103
102
97
95
90
82
93
119
126
113
98
102
112
96
84
97
115
121
131
113
118
119
119
118
100
96
78
82
101
100
89
81
77
66
91
111
91
119
128
111
136
141
121
132
134
122
134
119
124
121
108
93
116
97
70
70
97
98
86
96
81
97
115
79
89
67
42
56
42
36
34
21
19
44
69
87
102
59
64
62
84
90
123
164
120
127
144
129
136
102
96
117
51
56
30
64
48
38
55
65
55
75
91
71
62
58
72
42
35
76
25
77
72
76
92
75
88
92
85
60
62
89
64
103
103
66
60
61
105
103
102
65
50
68
66
75
49
34
88
73
95
93
56
79
106
53
4
95
76
11
35
69
97
49
107
151
156
131
63
53
49
37
51
68
47
44
63
52
54
61
61
37
49
68
55
63
67
47
77
71
64
85
71
74
61
88
96
101
123
121
125
118
91
73
83
114
111
124
85
80
115
120
115
123
113
82
84
109
121
111
106
110
92
128
134
126
113
100
85
105
120
96
90
112
118
118
114
164
165
156
163
142
93
94
112
107
112
84
89
87
115
105
68
74
86
87
72
70
85
110
118
107
107
118
122
119
122
124
126
131
137
140
132
122
129
137
150
165
177
186
191
193
198
191
192
201
204
195
185
182
167
125
71
45
53
75
102
123
131
130
133
134
131
133
133
127
130
170
171
172
173
174
173
171
175
179
185
191
192
191
195
201
205
204
203
202
198
192
187
184
192
182
177
178
176
174
188
207
208
205
202
199
191
181
170
164
154
159
164
164
155
146
143
145
133
126
118
134
149
148
141
127
112
116
117
110
109
123
137
137
128
120
111
101
93
94
108
123
126
120
119
115
126
120
92
95
84
84
90
88
90
90
87
100
106
106
79
63
80
118
122
138
147
118
132
129
109
118
123
120
111
104
112
118
104
76
66
68
133
100
67
91
91
106
93
87
91
78
46
31
50
55
24
15
32
53
81
94
113
73
64
65
90
86
100
168
126
125
122
121
143
111
109
112
87
62
9
74
28
27
55
60
53
77
92
75
68
76
58
49
30
76
52
82
68
61
79
66
102
89
83
68
70
102
89
93
105
67
70
64
86
111
107
21
69
78
83
49
26
56
58
100
81
50
80
93
88
39
27
103
55
5
18
76
94
27
71
106
139
153
88
19
49
42
36
72
43
45
72
57
52
60
61
59
57
83
81
83
88
88
88
90
92
89
76
62
54
56
92
92
94
105
118
116
119
98
74
88
78
115
85
58
83
119
129
129
106
101
72
83
131
109
97
108
89
123
134
123
127
106
108
103
122
118
101
99
115
126
134
123
133
151
180
177
164
112
86
85
105
99
119
96
97
103
109
102
96
110
119
108
114
104
115
117
115
110
128
135
140
135
136
142
139
126
117
116
137
142
150
157
163
171
183
193
195
196
195
186
177
169
164
160
161
123
104
92
72
90
125
133
131
130
130
131
131
131
130
128
126
171
172
178
184
186
185
182
186
192
195
192
187
187
190
192
197
197
197
198
197
193
189
186
175
180
180
177
181
188
190
187
162
175
190
196
190
182
180
182
180
180
180
179
175
166
154
146
135
149
149
148
147
149
151
140
145
130
125
133
138
132
117
101
104
97
93
98
107
112
111
110
134
115
110
112
101
100
104
90
101
74
63
64
81
104
105
98
57
55
78
95
118
144
147
132
106
136
119
93
117
106
117
123
111
124
122
112
84
62
74
117
137
86
71
95
106
90
107
84
79
62
61
46
48
43
30
27
36
53
88
96
106
72
67
75
88
77
94
167
138
140
122
112
147
132
107
78
89
64
18
81
24
37
55
65
17
98
104
68
77
70
23
67
48
51
73
74
47
73
69
56
105
97
92
26
74
104
112
77
71
62
82
74
107
109
77
16
80
77
50
41
42
52
67
108
56
56
41
90
63
29
47
112
39
9
1
94
53
24
50
79
122
142
104
19
41
42
55
55
79
67
52
68
64
79
75
72
74
70
46
59
76
71
64
67
82
90
75
53
66
75
72
69
87
113
111
127
129
115
94
87
75
93
80
47
72
115
104
115
106
92
83
71
120
106
77
89
97
114
117
128
128
114
114
119
125
132
126
89
77
109
132
148
149
138
142
163
180
180
169
113
76
75
76
113
101
84
94
120
124
117
122
131
128
118
123
120
123
126
143
144
150
146
140
137
141
151
162
168
159
158
160
167
177
185
190
192
189
195
193
185
181
176
155
129
104
109
104
94
95
103
118
132
129
130
129
130
131
131
129
128
128
154
161
167
168
167
170
176
181
189
190
182
179
186
193
193
185
185
186
189
192
192
188
185
185
188
180
163
158
161
158
147
158
171
184
185
177
171
174
180
183
179
171
163
159
157
150
141
152
145
136
141
139
125
116
107
92
102
122
134
126
112
104
100
109
104
96
89
92
103
115
123
119
128
107
109
114
94
90
90
70
45
62
89
98
99
70
31
63
86
114
105
117
119
114
103
105
125
106
107
102
128
128
100
114
134
112
91
73
82
98
142
118
74
77
98
103
84
118
80
71
62
68
40
42
32
23
40
44
50
89
93
98
77
71
80
83
70
98
165
140
148
129
129
145
128
110
78
64
60
33
54
51
37
61
68
44
72
84
96
91
38
23
89
36
28
80
51
48
79
67
38
123
107
64
52
53
115
92
88
70
50
83
103
96
86
74
28
53
61
40
29
46
43
105
80
65
46
35
101
44
33
91
88
3
10
48
86
23
33
27
66
101
129
117
41
19
41
23
56
55
56
44
67
60
47
49
56
56
70
59
44
50
55
57
58
67
79
79
71
58
65
65
78
70
104
105
115
115
121
123
92
66
65
78
60
64
93
106
106
110
107
83
80
106
109
75
70
89
109
117
111
124
125
110
118
124
138
142
113
95
89
90
125
131
124
122
151
143
149
183
199
146
97
83
70
90
94
102
105
106
115
120
115
118
116
127
127
132
128
130
120
123
137
146
145
145
148
143
133
151
151
154
163
175
185
189
189
189
191
189
185
183
176
153
128
128
109
90
70
68
102
135
136
128
129
129
129
130
130
129
128
128
152
156
162
165
165
171
180
167
173
176
175
178
186
191
190
193
191
188
185
183
179
170
162
162
161
157
151
151
157
166
172
183
186
187
183
176
171
169
167
147
160
172
175
174
170
159
147
145
137
131
141
135
119
125
136
145
144
137
120
106
104
101
92
86
94
98
97
102
119
140
154
136
111
91
84
76
87
87
42
56
73
89
103
107
72
56
98
116
101
114
107
98
96
89
64
114
93
76
101
119
139
102
110
139
137
104
98
92
115
123
149
98
88
94
103
88
103
111
76
71
75
66
33
51
34
6
43
53
51
89
90
96
90
77
79
81
67
101
162
142
151
131
138
125
145
107
76
62
67
25
55
72
34
78
57
49
62
94
82
85
68
41
73
52
26
49
49
56
69
53
26
112
91
50
99
50
136
67
23
102
101
92
85
79
59
64
30
43
55
36
14
27
73
109
32
60
22
70
48
18
63
115
79
6
16
82
39
16
41
17
67
82
109
109
72
27
33
16
33
42
29
43
53
50
20
32
43
29
47
62
53
51
44
37
43
60
73
71
61
73
66
62
77
64
92
107
122
119
109
117
90
75
79
78
62
45
65
99
98
108
105
74
82
90
94
76
65
72
98
122
97
108
126
104
110
126
134
132
147
121
109
101
105
112
126
102
72
114
129
138
150
179
151
141
105
108
93
87
94
96
93
100
112
103
104
119
124
132
127
131
128
125
142
154
155
156
160
157
149
151
157
164
170
176
183
189
193
191
185
182
182
175
164
158
160
121
62
51
91
118
132
133
118
129
129
129
130
131
131
130
128
129
153
152
159
168
174
178
182
188
187
189
194
199
199
197
195
193
192
189
185
183
179
169
160
148
145
143
142
144
147
150
152
156
166
179
190
197
200
195
189
191
194
190
178
169
164
157
148
144
142
129
123
120
120
127
127
118
111
100
88
87
96
97
86
107
106
110
122
137
136
113
86
63
70
92
99
98
99
92
94
103
113
133
106
73
93
112
100
80
88
74
75
85
60
26
58
102
52
87
126
151
114
108
125
144
120
98
107
84
99
115
141
106
109
112
101
90
124
93
73
79
71
66
59
69
36
4
42
51
57
95
93
94
96
82
81
83
65
97
161
154
159
128
124
129
140
107
72
63
73
45
72
66
67
59
37
52
79
67
73
82
81
25
47
54
26
43
35
64
61
38
42
92
85
87
101
62
76
101
83
75
92
74
78
60
55
60
32
53
35
20
38
66
104
68
76
52
15
81
15
19
85
93
86
33
12
40
26
11
32
25
56
69
87
92
86
48
35
23
13
32
31
9
43
81
48
41
44
39
27
23
33
43
33
31
43
60
69
70
69
75
69
47
57
84
87
92
119
127
107
123
105
82
92
69
66
42
65
77
97
112
93
79
77
79
77
69
68
67
80
110
112
96
115
113
114
127
137
120
140
139
119
102
84
103
116
119
130
78
89
124
113
139
137
128
131
122
112
95
85
90
102
106
106
103
94
94
91
96
92
112
133
138
143
147
147
151
161
172
178
170
176
180
180
180
183
186
187
194
188
183
179
169
160
163
172
140
135
105
85
101
125
135
140
130
129
130
130
131
132
131
130
130
160
163
163
163
166
174
180
185
174
167
167
170
172
174
178
186
188
188
187
187
187
181
173
159
153
147
147
157
167
165
157
160
173
187
193
194
193
187
181
182
182
180
178
177
171
157
143
141
137
128
136
144
141
136
126
111
110
115
114
103
98
105
112
95
112
127
126
112
99
93
92
95
100
101
83
95
113
96
94
119
165
124
70
104
102
51
56
73
90
85
71
50
45
42
77
89
102
118
129
133
102
128
145
143
127
114
108
81
107
136
146
116
106
110
84
101
125
81
76
90
52
68
83
68
21
23
47
33
63
100
94
88
90
83
83
84
69
95
159
159
162
138
133
133
105
109
65
60
64
67
68
88
66
54
64
44
61
64
76
93
45
12
28
34
48
49
30
68
46
34
57
96
105
82
92
75
60
91
86
91
88
60
50
42
52
64
40
43
25
38
61
78
55
55
104
23
29
47
27
36
53
80
88
54
7
12
32
13
21
43
37
68
73
84
84
57
45
23
29
7
20
11
50
40
23
35
36
35
44
58
59
42
46
53
60
61
62
67
75
62
53
47
58
88
75
90
110
124
117
139
131
89
93
69
80
68
70
77
92
111
108
77
78
77
93
87
73
68
79
96
126
108
108
124
121
118
141
130
120
145
137
119
89
104
77
66
114
131
97
88
103
114
130
131
124
139
127
113
105
95
80
84
104
106
97
96
93
96
84
99
122
128
133
140
147
150
152
157
162
169
171
172
172
177
183
184
180
184
185
178
166
159
157
147
134
144
100
65
77
105
118
125
138
130
130
130
131
132
132
131
131
130
160
168
168
166
169
173
174
168
164
158
155
159
166
173
177
186
190
191
188
186
185
179
171
169
156
145
146
150
151
151
152
160
170
179
183
188
194
197
195
193
185
176
169
167
164
158
153
148
153
156
160
142
115
111
115
126
116
110
105
97
95
102
108
113
103
93
90
91
93
93
92
102
95
81
100
118
71
58
131
158
98
99
105
66
54
69
74
76
85
59
30
42
54
59
95
114
124
114
107
74
116
159
142
131
121
107
95
91
120
143
142
113
99
103
76
98
112
84
89
91
51
77
75
60
8
44
37
17
69
99
90
85
89
86
83
85
73
90
155
161
161
149
144
107
95
111
52
71
65
63
87
88
80
59
53
44
57
77
78
75
55
28
11
39
72
34
56
55
28
31
61
85
100
48
91
104
46
63
59
104
59
75
39
47
45
37
39
42
44
56
51
50
48
93
72
24
64
43
33
30
13
80
96
74
23
13
12
32
22
38
30
59
70
77
81
70
53
42
37
26
8
41
57
20
12
45
39
14
19
52
54
77
79
79
78
79
79
70
60
54
44
49
58
74
69
104
116
128
125
129
136
109
110
90
77
77
69
83
82
96
118
65
74
79
101
112
93
64
79
85
118
116
110
124
122
121
136
147
133
134
145
139
92
77
71
44
46
87
126
96
76
83
87
106
118
111
129
122
97
82
79
81
87
88
87
92
96
107
91
90
98
115
122
135
147
156
164
171
176
160
165
168
169
175
185
190
190
177
179
173
163
161
157
135
107
104
85
89
105
114
127
131
121
129
129
129
130
131
132
131
130
131
128
130
140
159
171
160
141
150
162
172
175
179
185
185
179
170
177
182
182
185
188
186
180
163
145
143
156
151
133
137
158
181
184
184
185
190
196
194
187
181
182
183
182
176
167
162
163
157
167
160
145
130
122
124
118
106
114
120
114
106
107
105
96
90
89
91
93
90
86
88
94
82
77
95
107
80
101
165
170
122
102
90
76
74
89
90
84
76
47
42
38
45
38
63
105
106
110
96
84
128
159
138
138
137
112
98
108
122
121
131
151
111
110
109
85
86
103
95
103
79
65
90
58
65
12
51
16
15
75
96
88
89
96
93
83
90
73
79
151
170
166
146
125
100
80
121
74
58
75
94
117
95
60
29
49
32
69
97
69
41
69
38
21
26
51
42
52
42
34
35
78
59
74
64
93
50
79
80
68
52
103
59
17
44
51
18
43
55
36
30
58
41
78
69
45
62
44
25
9
30
20
52
90
72
37
2
9
51
27
17
30
44
67
62
78
74
62
39
33
44
47
8
49
47
9
14
34
46
15
6
24
11
34
47
40
34
38
38
31
20
37
32
44
84
77
84
94
119
133
131
141
115
106
106
80
67
85
80
89
95
110
76
69
81
75
113
119
61
67
72
106
106
114
117
126
140
130
152
160
153
128
147
145
97
89
68
58
61
73
106
85
83
67
75
87
95
82
75
91
103
90
87
107
116
111
105
99
109
95
86
85
80
92
110
125
140
153
160
163
159
169
175
171
169
176
187
192
201
196
190
190
189
178
154
132
87
119
128
121
124
124
122
130
128
128
128
129
131
131
130
130
131
127
128
140
144
139
140
148
157
163
171
177
178
176
173
171
167
175
183
184
179
177
184
193
181
182
170
160
158
149
147
162
173
170
170
180
194
199
192
182
186
182
181
182
178
170
164
164
158
142
125
120
125
129
128
126
137
126
106
97
102
95
83
83
120
109
89
96
78
84
99
95
90
98
93
118
131
141
149
106
77
71
80
88
83
91
68
62
58
49
52
47
37
75
91
101
88
95
108
74
157
142
134
144
128
118
142
96
135
119
140
150
119
120
92
65
102
105
88
97
78
82
81
63
56
30
40
9
17
90
78
84
90
99
68
91
96
75
75
140
166
159
135
120
81
97
106
64
69
68
90
123
74
22
53
48
45
75
99
41
42
83
38
2
40
46
46
32
39
44
57
65
42
65
59
65
42
72
86
62
39
115
51
21
55
49
19
59
44
29
61
41
63
56
36
69
67
35
12
15
40
0
33
67
69
52
1
23
25
14
21
19
44
57
58
66
65
61
47
35
36
40
27
8
57
10
9
3
36
42
9
8
17
7
22
24
35
45
57
44
35
42
59
55
66
78
96
92
103
145
132
136
136
106
96
89
82
71
92
97
77
106
99
58
83
107
112
120
86
65
96
93
101
110
115
125
134
125
131
160
146
149
136
133
127
130
97
63
70
65
79
92
84
79
88
96
92
88
80
79
95
113
106
85
80
76
66
64
70
72
83
106
99
108
117
118
120
129
143
154
165
163
167
175
179
178
179
183
181
185
190
191
189
187
169
142
132
111
110
133
137
119
115
130
126
127
128
129
130
131
132
132
130
